filters/luts/DARK_SHADES_PRESETSSTORE.COM.cube
# Created by Adobe Lightroom plugin Export LUT (1.33.0)
# www.johnrellis.com/lightroom/exportlut.htm
# Preset: SHADES
# Color profile: /Users/ksune4ka/Documents/Плагин для лутов/exportlut.lrplugin/color profiles/Rec709gamma2.4.icc
LUT_3D_SIZE 4
DOMAIN_MIN 0.0 0.0 0.0
DOMAIN_MAX 1.0 1.0 1.0
0.000000 0.000000 0.106783
0.599573 0.000000 0.088716
0.874327 0.010376 0.121889
1.000000 0.311833 0.227665
0.181338 0.237430 0.171695
0.309941 0.260044 0.189700
0.742977 0.341131 0.132540
0.995636 0.405768 0.230869
0.340154 0.468269 0.306004
0.410712 0.485725 0.327489
0.597345 0.533684 0.403571
0.860929 0.587457 0.313787
0.502983 0.652033 0.492897
0.530449 0.652216 0.500542
0.643946 0.696620 0.544823
0.833860 0.763119 0.642329
0.019593 0.112398 0.182773
0.205753 0.210910 0.204257
0.814115 0.193149 0.313573
1.000000 0.397681 0.386145
0.160006 0.226352 0.221836
0.330327 0.306523 0.272740
0.738674 0.377203 0.302892
0.985565 0.451575 0.365240
0.343236 0.488350 0.352361
0.419409 0.499184 0.377874
0.592798 0.552209 0.459510
0.859892 0.601953 0.366155
0.506584 0.673030 0.519249
0.535363 0.672267 0.525536
0.650599 0.709255 0.567254
0.845151 0.779049 0.666865
0.153017 0.224399 0.385229
0.302953 0.282902 0.394354
0.387549 0.403815 0.384131
0.820706 0.565637 0.626673
0.174105 0.285740 0.381903
0.316991 0.336645 0.415381
0.454139 0.477729 0.456641
0.860502 0.557305 0.615808
0.220829 0.384619 0.378485
0.295232 0.433722 0.417304
0.577600 0.576471 0.535607
0.915892 0.645655 0.574701
0.404150 0.669825 0.545586
0.447059 0.677241 0.551385
0.612024 0.709346 0.596918
0.859495 0.809537 0.723507
0.387793 0.526696 0.715999
0.465614 0.538140 0.708461
0.629206 0.625269 0.678096
0.625635 0.663691 0.643488
0.404761 0.532219 0.715633
0.473945 0.547295 0.710872
0.621668 0.620874 0.675471
0.604608 0.641657 0.621302
0.000000 0.523186 0.676173
0.000000 0.528130 0.676539
0.563256 0.612024 0.698329
0.682765 0.721736 0.701503
0.000000 0.536919 0.572412
0.000000 0.536858 0.568566
0.253483 0.582300 0.591333
0.860410 0.881346 0.856718
