filters/luts/Depression 03_S.cube
# Created by: Adobe Photoshop Export Color Lookup Plugin
# LUT by SparkleStock. Enhanced with VOXCOLOR algorithms.
LUT_3D_SIZE 5
DOMAIN_MIN 0.000000 0.000000 0.000000
DOMAIN_MAX 0.903226 0.903226 0.903226
0.023443 0.101587 0.093773
0.105227 0.124329 0.115278
0.206373 0.149774 0.136784
0.311686 0.185892 0.159809
0.407665 0.235149 0.189239
0.056749 0.136665 0.111340
0.186304 0.193677 0.117063
0.322674 0.231938 0.130497
0.445551 0.267535 0.166183
0.520459 0.320816 0.231706
0.110142 0.183079 0.134153
0.235651 0.248501 0.151333
0.388043 0.328809 0.172823
0.526069 0.381681 0.218006
0.613928 0.445232 0.309478
0.171050 0.240033 0.163977
0.294280 0.306961 0.202397
0.451514 0.397143 0.251003
0.583550 0.493927 0.316768
0.683281 0.571156 0.417636
0.217582 0.281153 0.188515
0.354918 0.382678 0.277588
0.526962 0.492613 0.362651
0.662828 0.590070 0.448000
0.750671 0.686827 0.562378
0.047926 0.131506 0.140392
0.156204 0.142757 0.160047
0.289756 0.162715 0.189415
0.401439 0.199618 0.216619
0.468946 0.248941 0.244603
0.092187 0.180561 0.194555
0.213357 0.239512 0.231642
0.381338 0.269049 0.248587
0.535130 0.305032 0.269945
0.619521 0.372728 0.312198
0.154388 0.246196 0.244642
0.275517 0.336367 0.279507
0.436072 0.407021 0.289611
0.604823 0.447586 0.311733
0.715236 0.502863 0.369809
0.233888 0.332671 0.304951
0.358294 0.425971 0.347308
0.503476 0.511746 0.374100
0.642981 0.590245 0.398792
0.770987 0.645705 0.458652
0.330296 0.441052 0.400606
0.449049 0.514560 0.436900
0.591042 0.603388 0.492204
0.714739 0.685790 0.545330
0.804840 0.755424 0.603389
0.087865 0.174721 0.201552
0.183195 0.195653 0.225119
0.331923 0.213084 0.247388
0.455250 0.252293 0.286014
0.518327 0.307425 0.313304
0.137886 0.236223 0.274867
0.244729 0.302056 0.340739
0.402946 0.329848 0.379532
0.570449 0.364844 0.400781
0.673749 0.440562 0.427833
0.214802 0.327030 0.366474
0.315667 0.407093 0.424439
0.460245 0.464745 0.452507
0.642074 0.493132 0.461302
0.777846 0.543304 0.490108
0.300637 0.433532 0.458629
0.407796 0.518634 0.507058
0.537764 0.595064 0.528093
0.676360 0.653552 0.520922
0.827384 0.687806 0.544875
0.407982 0.559116 0.568665
0.513545 0.627427 0.608785
0.640048 0.696568 0.632236
0.749713 0.758586 0.646832
0.846152 0.810227 0.661474
0.128103 0.219260 0.264532
0.215204 0.263819 0.308048
0.356698 0.313664 0.346729
0.499347 0.353286 0.372806
0.572963 0.424070 0.422970
0.190076 0.300831 0.356274
0.291342 0.387287 0.441059
0.427264 0.445469 0.500816
0.578098 0.484240 0.540934
0.699940 0.557128 0.564192
0.280952 0.418196 0.473658
0.377465 0.497333 0.544534
0.496128 0.560731 0.600258
0.642254 0.588751 0.637119
0.793649 0.630445 0.647522
0.385792 0.532705 0.577017
0.472092 0.602428 0.635728
0.575106 0.664673 0.679090
0.693142 0.700310 0.684773
0.849433 0.720477 0.687833
0.482194 0.646344 0.677679
0.575710 0.710374 0.728521
0.670645 0.766745 0.761130
0.773705 0.814447 0.765768
0.868675 0.847047 0.756704
0.146063 0.242711 0.298484
0.255257 0.323622 0.374168
0.405323 0.422604 0.456110
0.542430 0.501483 0.514137
0.618602 0.552540 0.547081
0.249913 0.379659 0.443527
0.352162 0.475075 0.531840
0.480155 0.566930 0.614830
0.614525 0.639741 0.677892
0.714998 0.697618 0.718123
0.366982 0.528005 0.585905
0.458303 0.599378 0.650266
0.559111 0.666152 0.710843
0.677773 0.724875 0.766524
0.789997 0.770510 0.804704
0.465825 0.636079 0.679403
0.559336 0.700712 0.737708
0.644162 0.752984 0.784577
0.732656 0.792245 0.816361
0.840197 0.820810 0.842499
0.566813 0.715251 0.743959
0.650418 0.775501 0.799537
0.720846 0.822459 0.839484
0.792632 0.859521 0.862631
0.875291 0.881326 0.863981
