filters/luts/Depression 02_S.cube
# LUT by SparkleStock. Enhanced with VOXCOLOR algorithms.
LUT_3D_SIZE 8
DOMAIN_MIN 0.000000 0.000000 0.000000
DOMAIN_MAX 0.903226 0.903226 0.903226
0.082051 0.085958 0.089866
0.118729 0.104108 0.107070
0.160495 0.121588 0.123337
0.206877 0.140053 0.139454
0.257025 0.160991 0.156044
0.308827 0.186892 0.173626
0.360314 0.217834 0.191839
0.411430 0.251424 0.211407
0.096798 0.108835 0.103667
0.150454 0.142206 0.110479
0.206814 0.165681 0.119153
0.266565 0.185305 0.130782
0.328806 0.205804 0.146493
0.386170 0.230241 0.169345
0.433217 0.260452 0.198804
0.471075 0.295200 0.232794
0.114892 0.134255 0.118406
0.172464 0.171963 0.124779
0.239167 0.208759 0.130672
0.309979 0.239184 0.139385
0.380426 0.261537 0.154089
0.444907 0.286170 0.181173
0.494081 0.316703 0.220322
0.528551 0.353206 0.267133
0.136492 0.162771 0.134869
0.193027 0.199906 0.145451
0.264776 0.246091 0.153772
0.342193 0.289273 0.163962
0.418055 0.322172 0.179998
0.488891 0.349024 0.209546
0.543525 0.381096 0.255743
0.581097 0.419775 0.312416
0.161377 0.194391 0.153468
0.217637 0.230666 0.169154
0.289760 0.276639 0.184667
0.368991 0.328582 0.202014
0.448295 0.380550 0.223386
0.522461 0.413312 0.254252
0.583002 0.448549 0.304282
0.626956 0.489735 0.366846
0.188412 0.227666 0.173886
0.245551 0.265258 0.195573
0.320107 0.311926 0.219990
0.401985 0.364369 0.247559
0.482570 0.419172 0.278829
0.552637 0.470523 0.316135
0.616032 0.512639 0.367116
0.665578 0.556936 0.430327
0.212454 0.256528 0.192414
0.273520 0.300683 0.224615
0.352868 0.352600 0.260807
0.439466 0.408440 0.299675
0.523741 0.465058 0.340584
0.594467 0.519994 0.385671
0.654800 0.571165 0.440166
0.704664 0.621408 0.503459
0.229651 0.274473 0.206775
0.299218 0.333215 0.256893
0.386164 0.397034 0.310252
0.478968 0.460860 0.363138
0.567583 0.520971 0.413406
0.639602 0.575463 0.463055
0.697223 0.629741 0.519606
0.747822 0.685400 0.584940
0.096231 0.108456 0.118981
0.139348 0.116507 0.130330
0.192427 0.129590 0.148104
0.250421 0.146615 0.167599
0.308784 0.167169 0.185726
0.361757 0.194094 0.203309
0.405877 0.226549 0.221765
0.442765 0.259767 0.242418
0.113758 0.134113 0.145223
0.162409 0.161692 0.160799
0.228109 0.180581 0.173878
0.301917 0.197009 0.186439
0.376113 0.215976 0.200317
0.442353 0.241778 0.218409
0.492666 0.276296 0.242125
0.526655 0.317212 0.271153
0.134530 0.163663 0.167116
0.185845 0.203094 0.184268
0.256918 0.237417 0.192938
0.338715 0.263845 0.200271
0.423000 0.282828 0.211816
0.499327 0.306436 0.231709
0.556259 0.338867 0.261858
0.592189 0.379770 0.300337
0.159374 0.197290 0.188861
0.212882 0.243334 0.207615
0.284585 0.290392 0.216153
0.367610 0.330121 0.222455
0.455384 0.358261 0.233051
0.538850 0.381190 0.254407
0.603089 0.411183 0.289784
0.645309 0.449613 0.336014
0.188833 0.235149 0.213643
0.245551 0.284483 0.235661
0.315724 0.334526 0.250151
0.395326 0.384723 0.261026
0.480529 0.431865 0.272623
0.566815 0.458975 0.294333
0.638339 0.489166 0.332131
0.689933 0.526382 0.382391
0.223772 0.278376 0.243576
0.283862 0.328121 0.269554
0.354626 0.378194 0.291792
0.432919 0.429457 0.312236
0.514629 0.481375 0.332669
0.589564 0.527528 0.355494
0.663206 0.563068 0.392600
0.722678 0.600854 0.441863
0.262427 0.325120 0.280399
0.324404 0.372683 0.308148
0.396863 0.423314 0.338714
0.476093 0.476125 0.370239
0.557357 0.529779 0.401467
0.628815 0.580349 0.432602
0.691701 0.624264 0.469407
0.748692 0.666656 0.515378
0.303426 0.371649 0.325832
0.363838 0.414343 0.350181
0.438777 0.468146 0.389689
0.520867 0.525915 0.434394
0.602846 0.582045 0.477135
0.672575 0.632646 0.516373
0.727481 0.679496 0.556099
0.777794 0.724733 0.601771
0.113088 0.134034 0.151310
0.154559 0.141835 0.161677
0.213435 0.150309 0.176577
0.279533 0.163355 0.195883
0.344374 0.183421 0.218203
0.399866 0.210542 0.236719
0.440558 0.243420 0.254279
0.469193 0.276192 0.273339
0.132464 0.162991 0.183773
0.177816 0.190532 0.207927
0.244225 0.204396 0.226664
0.323031 0.216218 0.242677
0.405598 0.234283 0.258079
0.477969 0.260861 0.274031
0.531126 0.298237 0.293886
0.564806 0.343199 0.319086
0.157844 0.198069 0.217540
0.204508 0.237247 0.244950
0.272047 0.265958 0.262038
0.356088 0.286714 0.273590
0.449961 0.303253 0.283948
0.535162 0.326000 0.298567
0.599598 0.360121 0.321332
0.640548 0.404707 0.352343
0.187272 0.238137 0.251246
0.236054 0.284392 0.277919
0.302344 0.327077 0.293271
0.385065 0.361290 0.301577
0.480450 0.385094 0.307640
0.574102 0.404657 0.321369
0.648359 0.433220 0.346511
0.698617 0.472049 0.382078
0.219996 0.282623 0.284869
0.273396 0.333610 0.311519
0.339108 0.382811 0.328511
0.416128 0.429529 0.336869
0.503111 0.470966 0.340030
0.598701 0.492552 0.352458
0.680465 0.517771 0.378394
0.741323 0.551040 0.416280
0.260350 0.333834 0.323797
0.317608 0.385127 0.352047
0.384897 0.435347 0.373035
0.459626 0.484568 0.387882
0.538885 0.532010 0.398125
0.617397 0.572449 0.406984
0.699994 0.601114 0.430357
0.769487 0.632221 0.465854
0.308019 0.391651 0.372177
0.366328 0.438774 0.399554
0.435267 0.487352 0.424132
0.509597 0.536456 0.446499
0.584757 0.585036 0.466898
0.655776 0.630683 0.483901
0.721929 0.668217 0.504323
0.786546 0.703053 0.534257
0.362276 0.453766 0.434017
0.416888 0.492073 0.453886
0.486087 0.537713 0.479416
0.560687 0.586906 0.509046
0.633484 0.636352 0.540512
0.699592 0.682327 0.567500
0.753454 0.723522 0.591662
0.805960 0.760833 0.620441
0.132467 0.162771 0.186931
0.169510 0.174682 0.199238
0.228615 0.183258 0.212189
0.298679 0.194241 0.229247
0.369619 0.211940 0.251717
0.428306 0.239585 0.274416
0.469094 0.273110 0.292714
0.495017 0.306507 0.310568
0.153306 0.194692 0.222444
0.196846 0.225956 0.254600
0.259491 0.240397 0.279016
0.336746 0.250764 0.299074
0.422219 0.266696 0.317274
0.499145 0.293628 0.333944
0.555875 0.332535 0.351693
0.592707 0.379877 0.373836
0.183053 0.235800 0.266786
0.227752 0.275653 0.303056
0.289493 0.302688 0.330038
0.369083 0.320417 0.349371
0.463419 0.333745 0.363099
0.554822 0.355774 0.375064
0.625960 0.390694 0.392355
0.674104 0.437514 0.417117
0.218261 0.283030 0.313387
0.263446 0.326876 0.347042
0.323366 0.365837 0.372282
0.400451 0.395127 0.388195
0.494079 0.413491 0.395981
0.594735 0.430447 0.404314
0.677413 0.457668 0.421083
0.736790 0.496686 0.447360
0.256677 0.334373 0.358416
0.304683 0.381618 0.389365
0.364418 0.427054 0.412234
0.435584 0.468091 0.423956
0.518632 0.501599 0.425247
0.620152 0.518210 0.430148
0.710100 0.539019 0.445827
0.780050 0.568950 0.472497
0.299959 0.391597 0.405943
0.352191 0.439659 0.436000
0.414252 0.487132 0.458411
0.483449 0.532254 0.471922
0.557738 0.573415 0.476413
0.637411 0.607529 0.474128
0.726657 0.629496 0.485689
0.804942 0.654337 0.509012
0.351906 0.455153 0.460839
0.405519 0.500121 0.489692
0.469478 0.545436 0.511823
0.538372 0.589848 0.528272
0.608039 0.632374 0.539674
0.676504 0.671967 0.544309
0.745194 0.703391 0.550995
0.816507 0.731174 0.567324
0.411400 0.522946 0.527886
0.462803 0.561617 0.551822
0.526407 0.601667 0.570526
0.594643 0.643026 0.588390
0.661420 0.685094 0.607438
0.721834 0.724862 0.621890
0.774730 0.760817 0.632427
0.830039 0.791736 0.647377
0.153712 0.193871 0.225027
0.187444 0.210539 0.240828
0.242498 0.226347 0.256392
0.312455 0.240604 0.271675
0.388990 0.255135 0.288393
0.451593 0.283311 0.316947
0.495305 0.318449 0.339316
0.523231 0.354299 0.358882
0.176271 0.228353 0.263082
0.219389 0.265465 0.302359
0.277372 0.288861 0.331981
0.349277 0.304083 0.355813
0.431738 0.317607 0.376909
0.511631 0.344008 0.396629
0.572968 0.383170 0.414145
0.615885 0.431589 0.434157
0.209215 0.275535 0.313544
0.254967 0.318764 0.356739
0.312613 0.351679 0.392110
0.383852 0.372146 0.420578
0.468518 0.382647 0.442615
0.561949 0.403764 0.455708
0.638275 0.438056 0.469763
0.694554 0.485081 0.489717
0.250874 0.330186 0.370101
0.295502 0.373400 0.409282
0.351165 0.412909 0.444285
0.419065 0.440428 0.471632
0.500610 0.453571 0.489256
0.602264 0.468630 0.496987
0.690105 0.494062 0.508189
0.757989 0.532179 0.527367
0.298422 0.388381 0.427677
0.341441 0.431447 0.463100
0.395104 0.472387 0.493989
0.457905 0.506708 0.514879
0.531329 0.531251 0.523475
0.632506 0.543638 0.525706
0.727231 0.560754 0.533827
0.804828 0.587938 0.551238
0.343680 0.449447 0.482724
0.391279 0.493712 0.514988
0.445786 0.536400 0.541979
0.506805 0.575331 0.559696
0.574282 0.608942 0.565530
0.651021 0.635772 0.557798
0.743644 0.651577 0.560914
0.828361 0.670990 0.574622
0.396307 0.514726 0.540550
0.446468 0.557318 0.571068
0.501815 0.598213 0.595945
0.562915 0.637032 0.612698
0.628744 0.673324 0.619804
0.692237 0.705418 0.616227
0.761551 0.730562 0.613012
0.837381 0.751954 0.619036
0.455360 0.581201 0.604971
0.505323 0.620101 0.632544
0.560322 0.657172 0.654474
0.621467 0.693300 0.669990
0.686668 0.728688 0.679037
0.740360 0.760744 0.682876
0.791204 0.790852 0.682520
0.848259 0.816055 0.686956
0.174131 0.222986 0.261137
0.206984 0.245948 0.282354
0.260331 0.271886 0.305718
0.328055 0.297730 0.328320
0.403383 0.321500 0.348331
0.473743 0.343675 0.366346
0.521554 0.380619 0.395497
0.554273 0.420946 0.422613
0.200202 0.262591 0.304169
0.244935 0.306790 0.349315
0.300974 0.341109 0.385665
0.368580 0.368806 0.415729
0.445711 0.392589 0.441478
0.521803 0.414009 0.463125
0.586162 0.451653 0.483929
0.636119 0.499802 0.505296
0.238318 0.316866 0.361370
0.286412 0.365326 0.409522
0.342159 0.405774 0.451062
0.408087 0.436660 0.485793
0.484435 0.458280 0.514023
0.564834 0.476399 0.536772
0.642624 0.507948 0.551103
0.706670 0.552287 0.567830
0.284795 0.379054 0.425087
0.332237 0.424648 0.467752
0.386165 0.467105 0.508139
0.448422 0.500793 0.542571
0.520067 0.522732 0.569195
0.601975 0.535709 0.590331
0.689508 0.557952 0.599679
0.764697 0.592215 0.612786
0.336496 0.443397 0.488774
0.382485 0.486052 0.526307
0.434138 0.526197 0.561367
0.491120 0.561164 0.590378
0.554480 0.587750 0.611581
0.633121 0.596283 0.627414
0.725940 0.609527 0.632628
0.809321 0.632221 0.642872
0.391414 0.504463 0.545576
0.435297 0.545031 0.579271
0.484400 0.583878 0.610476
0.538126 0.618667 0.635615
0.596121 0.647097 0.651577
0.659729 0.663842 0.652689
0.750218 0.674263 0.652672
0.837278 0.689418 0.659830
0.443334 0.568156 0.603452
0.490364 0.608109 0.635287
0.539568 0.645257 0.663113
0.591595 0.679089 0.684670
0.646680 0.708961 0.697784
0.704277 0.732291 0.697064
0.770869 0.750856 0.690128
0.847083 0.766729 0.690338
0.498258 0.629002 0.660999
0.547314 0.667680 0.691363
0.596494 0.702305 0.716277
0.647425 0.734004 0.735114
0.700914 0.763488 0.747156
0.755631 0.789798 0.749215
0.802806 0.812889 0.743156
0.858247 0.832146 0.741434
0.188404 0.243751 0.287321
0.225137 0.275202 0.316394
0.281274 0.313379 0.350516
0.350089 0.353240 0.384979
0.424805 0.390626 0.415953
0.494872 0.421314 0.439530
0.546252 0.452013 0.462086
0.582957 0.490199 0.489769
0.222868 0.295309 0.342648
0.270951 0.345674 0.391948
0.328328 0.390980 0.436036
0.394996 0.431937 0.475248
0.469081 0.468785 0.509660
0.541537 0.499077 0.537246
0.601732 0.530819 0.560348
0.653099 0.573239 0.583240
0.270256 0.361175 0.410969
0.320476 0.412702 0.460750
0.375944 0.459151 0.506130
0.439200 0.499909 0.546822
0.510607 0.534611 0.582525
0.583948 0.562189 0.611470
0.651131 0.590881 0.633838
0.713720 0.629245 0.652203
0.324012 0.431999 0.482324
0.373170 0.478398 0.525522
0.425852 0.522233 0.567169
0.484272 0.561078 0.605338
0.549643 0.593139 0.638737
0.621650 0.616248 0.666569
0.693344 0.639096 0.686908
0.764041 0.668571 0.701213
0.379255 0.500446 0.548965
0.428073 0.543288 0.587275
0.478533 0.582904 0.623388
0.531169 0.618271 0.655553
0.587471 0.647919 0.682924
0.654719 0.666159 0.706573
0.727759 0.681928 0.723463
0.803625 0.700935 0.734238
0.434686 0.561389 0.605329
0.482361 0.601692 0.640159
0.530444 0.638527 0.672361
0.579494 0.671029 0.700214
0.630160 0.698214 0.722027
0.684320 0.716638 0.733560
0.753482 0.727538 0.744567
0.830564 0.738954 0.752017
0.489863 0.618496 0.656382
0.536328 0.656644 0.688310
0.581775 0.690849 0.716870
0.627384 0.721152 0.740946
0.674044 0.747353 0.759171
0.722359 0.767169 0.766788
0.776861 0.780482 0.767450
0.846509 0.791266 0.768015
0.543347 0.670842 0.703809
0.590591 0.708291 0.734878
0.634752 0.740340 0.761009
0.677859 0.768379 0.782138
0.721487 0.793349 0.797849
0.766653 0.814361 0.804723
0.810212 0.830579 0.802061
0.862711 0.844285 0.799815
0.196534 0.256497 0.302816
0.241743 0.298462 0.341421
0.305273 0.349650 0.387352
0.379142 0.403591 0.434678
0.455742 0.454703 0.478297
0.524065 0.496254 0.511845
0.574245 0.526272 0.534117
0.607599 0.555801 0.556227
0.245439 0.327796 0.378879
0.297428 0.382231 0.430108
0.358762 0.437473 0.482180
0.427701 0.490718 0.531633
0.501305 0.539494 0.575651
0.570747 0.579830 0.610678
0.626169 0.611488 0.637571
0.671398 0.645283 0.660693
0.306759 0.411001 0.464544
0.357355 0.461273 0.511557
0.412948 0.510648 0.558074
0.475367 0.558925 0.603826
0.544383 0.604955 0.647525
0.612834 0.642406 0.682358
0.671536 0.673150 0.711205
0.725075 0.705921 0.733595
0.370491 0.492967 0.546294
0.418663 0.535384 0.585070
0.469008 0.576632 0.623219
0.524170 0.617503 0.661812
0.585401 0.657566 0.700590
0.650666 0.690977 0.733784
0.710309 0.718519 0.762144
0.768926 0.746567 0.782568
0.429374 0.564078 0.614367
0.478539 0.603445 0.649381
0.526589 0.639557 0.682367
0.574902 0.672678 0.712976
0.625471 0.703186 0.741548
0.684767 0.731557 0.770972
0.742682 0.754068 0.796516
0.803431 0.775343 0.814148
0.480792 0.619405 0.663827
0.531982 0.658432 0.697831
0.579262 0.692418 0.728472
0.624390 0.722051 0.755686
0.669069 0.747804 0.779266
0.715915 0.768710 0.797400
0.768426 0.785499 0.817010
0.827966 0.800552 0.831117
0.532830 0.666362 0.703763
0.582744 0.704388 0.736410
0.627326 0.736400 0.764914
0.668751 0.763642 0.789506
0.708837 0.786934 0.810022
0.748980 0.805058 0.823623
0.792685 0.818033 0.832451
0.846720 0.829882 0.839477
0.585870 0.709798 0.741471
0.634207 0.746980 0.772986
0.675609 0.776920 0.799251
0.712908 0.801754 0.821038
0.748445 0.823049 0.838655
0.783893 0.840403 0.849785
0.821186 0.852993 0.852991
0.864416 0.864213 0.854809
