filters/luts/Depression 04.cube
# Created by: Adobe Photoshop Export Color Lookup Plugin
# LUT by SparkleStock. Enhanced with VOXCOLOR algorithms.
LUT_3D_SIZE 32
0.019536 0.054701 0.019536
0.027902 0.058766 0.023695
0.036268 0.062830 0.027855
0.044634 0.066895 0.032014
0.052999 0.070960 0.036173
0.061365 0.075025 0.040332
0.072212 0.079877 0.044531
0.083556 0.084887 0.048738
0.094899 0.089897 0.052944
0.106243 0.094907 0.057151
0.117586 0.099917 0.061357
0.131136 0.105684 0.065721
0.145788 0.111828 0.070164
0.160440 0.117972 0.074607
0.175092 0.124117 0.079050
0.189744 0.130261 0.083493
0.205672 0.137138 0.087912
0.222876 0.144748 0.092308
0.240080 0.152357 0.096703
0.257285 0.159967 0.101099
0.274489 0.167577 0.105495
0.292040 0.175517 0.109922
0.310284 0.184119 0.114412
0.328528 0.192721 0.118902
0.346772 0.201323 0.123392
0.365016 0.209926 0.127882
0.383087 0.218543 0.132546
0.400291 0.227240 0.138076
0.417496 0.235937 0.143605
0.434700 0.244634 0.149135
0.451904 0.253330 0.154665
0.469109 0.262027 0.160195
0.022514 0.060373 0.022703
0.032224 0.065471 0.026743
0.041935 0.070570 0.030783
0.051645 0.075668 0.034824
0.061356 0.080766 0.038864
0.071067 0.085865 0.042905
0.082603 0.091050 0.047243
0.094504 0.096252 0.051642
0.106406 0.101454 0.056041
0.118308 0.106656 0.060439
0.130209 0.111858 0.064838
0.144225 0.117792 0.069480
0.159298 0.124092 0.074243
0.174370 0.130392 0.079006
0.189443 0.136692 0.083769
0.204516 0.142992 0.088532
0.220714 0.149956 0.093322
0.238037 0.157584 0.098138
0.255361 0.165212 0.102954
0.272684 0.172840 0.107771
0.290007 0.180468 0.112587
0.307549 0.188402 0.117453
0.325528 0.196949 0.122419
0.343506 0.205496 0.127385
0.361485 0.214044 0.132351
0.379464 0.222591 0.137317
0.397210 0.231165 0.142438
0.413792 0.239870 0.148333
0.430375 0.248576 0.154229
0.446957 0.257282 0.160125
0.463539 0.265988 0.166021
0.480121 0.274694 0.171917
0.025491 0.066044 0.025869
0.036547 0.072177 0.029791
0.047602 0.078309 0.033712
0.058657 0.084441 0.037634
0.069713 0.090573 0.041555
0.080768 0.096705 0.045477
0.092994 0.102223 0.049956
0.105453 0.107617 0.054547
0.117913 0.113011 0.059137
0.130372 0.118405 0.063728
0.142832 0.123800 0.068319
0.157314 0.129901 0.073238
0.172808 0.136357 0.078321
0.188301 0.142812 0.083404
0.203795 0.149268 0.088488
0.219289 0.155723 0.093571
0.235756 0.162774 0.098731
0.253199 0.170420 0.103968
0.270641 0.178066 0.109206
0.288083 0.185712 0.114443
0.305525 0.193359 0.119680
0.323058 0.201287 0.124985
0.340771 0.209779 0.130427
0.358485 0.218272 0.135868
0.376198 0.226764 0.141310
0.393912 0.235256 0.146751
0.411333 0.243786 0.152330
0.427293 0.252501 0.158591
0.443253 0.261216 0.164853
0.459214 0.269931 0.171115
0.475174 0.278646 0.177377
0.491134 0.287361 0.183639
0.028469 0.071716 0.029036
0.040869 0.078882 0.032839
0.053269 0.086048 0.036641
0.065669 0.093214 0.040444
0.078069 0.100380 0.044246
0.090469 0.107546 0.048049
0.103384 0.113395 0.052668
0.116402 0.118982 0.057451
0.129419 0.124568 0.062234
0.142437 0.130154 0.067017
0.155454 0.135741 0.071800
0.170403 0.142010 0.076996
0.186318 0.148621 0.082400
0.202232 0.155232 0.087803
0.218147 0.161843 0.093206
0.234061 0.168454 0.098610
0.250799 0.175592 0.104141
0.268360 0.183256 0.109799
0.285921 0.190921 0.115457
0.303482 0.198585 0.121115
0.321043 0.206250 0.126773
0.338566 0.214172 0.132517
0.356015 0.222609 0.138434
0.373463 0.231047 0.144352
0.390911 0.239484 0.150269
0.408359 0.247922 0.156186
0.425456 0.256407 0.162222
0.440794 0.265131 0.168849
0.456132 0.273855 0.175477
0.471470 0.282579 0.182105
0.486808 0.291303 0.188732
0.502147 0.300028 0.195360
0.031447 0.077388 0.032203
0.045192 0.085587 0.035887
0.058936 0.093787 0.039570
0.072681 0.101987 0.043254
0.086426 0.110186 0.046937
0.100171 0.118386 0.050621
0.113775 0.124568 0.055381
0.127350 0.130347 0.060356
0.140926 0.136125 0.065331
0.154502 0.141903 0.070306
0.168077 0.147682 0.075281
0.183492 0.154119 0.080755
0.199828 0.160886 0.086478
0.216163 0.167652 0.092202
0.232498 0.174418 0.097925
0.248833 0.181185 0.103649
0.265841 0.188410 0.109550
0.283521 0.196092 0.115629
0.301201 0.203775 0.121708
0.318881 0.211458 0.127787
0.336561 0.219141 0.133865
0.354075 0.227057 0.140049
0.371258 0.235439 0.146442
0.388441 0.243822 0.152835
0.405624 0.252204 0.159228
0.422807 0.260587 0.165621
0.439579 0.269028 0.172114
0.454295 0.277761 0.179107
0.469011 0.286495 0.186101
0.483727 0.295228 0.193095
0.498443 0.303961 0.200088
0.513159 0.312694 0.207082
0.034424 0.083060 0.035370
0.049514 0.092293 0.038934
0.064604 0.101526 0.042499
0.079693 0.110760 0.046064
0.094783 0.119993 0.049628
0.109872 0.129226 0.053193
0.124165 0.135741 0.058093
0.138299 0.141711 0.063260
0.152433 0.147682 0.068427
0.166566 0.153653 0.073594
0.180700 0.159623 0.078761
0.196582 0.166228 0.084513
0.213338 0.173150 0.090557
0.230094 0.180072 0.096600
0.246850 0.186994 0.102644
0.263606 0.193916 0.108688
0.280883 0.201227 0.114960
0.298682 0.208928 0.121459
0.316481 0.216630 0.127959
0.334280 0.224331 0.134459
0.352079 0.232032 0.140958
0.369584 0.239942 0.147581
0.386502 0.248269 0.154449
0.403420 0.256597 0.161318
0.420337 0.264925 0.168187
0.437255 0.273252 0.175055
0.453702 0.281649 0.182006
0.467796 0.290392 0.189365
0.481890 0.299134 0.196725
0.495984 0.307877 0.204084
0.510078 0.316619 0.211444
0.524172 0.325361 0.218803
0.038426 0.090189 0.038930
0.053839 0.099571 0.042605
0.069252 0.108954 0.046279
0.084665 0.118337 0.049954
0.100077 0.127720 0.053628
0.115490 0.137103 0.057302
0.130944 0.144316 0.062419
0.146405 0.151097 0.067824
0.161867 0.157877 0.073229
0.177329 0.164657 0.078634
0.192790 0.171437 0.084039
0.209243 0.178426 0.090063
0.226191 0.185518 0.096396
0.243139 0.192611 0.102730
0.260087 0.199704 0.109063
0.277035 0.206797 0.115396
0.294449 0.214298 0.122084
0.312329 0.222208 0.129127
0.330209 0.230118 0.136169
0.348089 0.238028 0.143212
0.365968 0.245938 0.150254
0.383492 0.254068 0.157453
0.400305 0.262638 0.164965
0.417117 0.271208 0.172477
0.433930 0.279778 0.179989
0.450742 0.288348 0.187501
0.467060 0.297000 0.195094
0.480905 0.306056 0.203094
0.494751 0.315113 0.211094
0.508596 0.324169 0.219094
0.522442 0.333226 0.227094
0.536287 0.342282 0.235094
0.042633 0.097609 0.042570
0.058164 0.106965 0.046400
0.073696 0.116320 0.050230
0.089228 0.125675 0.054059
0.104760 0.135031 0.057889
0.120291 0.144386 0.061719
0.137000 0.152373 0.067068
0.153943 0.160086 0.072720
0.170887 0.167799 0.078372
0.187830 0.175513 0.084023
0.204774 0.183226 0.089675
0.221818 0.190641 0.095971
0.238913 0.197908 0.102588
0.256007 0.205174 0.109205
0.273102 0.212441 0.115822
0.290196 0.219708 0.122439
0.307720 0.227419 0.129552
0.325673 0.235576 0.137162
0.343626 0.243733 0.144771
0.361579 0.251890 0.152381
0.379532 0.260047 0.159991
0.397080 0.268442 0.167793
0.413819 0.277314 0.175982
0.430559 0.286186 0.184171
0.447298 0.295058 0.192360
0.464037 0.303930 0.200549
0.480265 0.312896 0.208822
0.493937 0.322327 0.217518
0.507608 0.331759 0.226213
0.521280 0.341190 0.234908
0.534952 0.350622 0.243603
0.548623 0.360054 0.252298
0.046839 0.105030 0.046209
0.062490 0.114358 0.050194
0.078141 0.123686 0.054180
0.093791 0.133013 0.058165
0.109442 0.142341 0.062151
0.125093 0.151669 0.066136
0.143056 0.160429 0.071716
0.161481 0.169076 0.077615
0.179907 0.177722 0.083514
0.198332 0.186368 0.089413
0.216758 0.195015 0.095312
0.234394 0.202857 0.101879
0.251635 0.210297 0.108779
0.268875 0.217738 0.115680
0.286116 0.225178 0.122581
0.303357 0.232618 0.129481
0.320991 0.240541 0.137020
0.339017 0.248944 0.145197
0.357043 0.257348 0.153374
0.375069 0.265752 0.161550
0.393095 0.274156 0.169727
0.410668 0.282817 0.178134
0.427334 0.291991 0.186999
0.444000 0.301165 0.195865
0.460666 0.310339 0.204731
0.477332 0.319513 0.213597
0.493470 0.328792 0.222551
0.506968 0.338599 0.231941
0.520466 0.348405 0.241331
0.533964 0.358212 0.250722
0.547462 0.368018 0.260112
0.560959 0.377825 0.269503
0.051046 0.112450 0.049848
0.066815 0.121751 0.053989
0.082585 0.131051 0.058130
0.098355 0.140352 0.062271
0.114124 0.149652 0.066412
0.129894 0.158953 0.070553
0.149112 0.168485 0.076365
0.169019 0.178065 0.082511
0.188927 0.187644 0.088657
0.208834 0.197224 0.094803
0.228742 0.206803 0.100949
0.246969 0.215073 0.107787
0.264356 0.222687 0.114971
0.281744 0.230301 0.122155
0.299131 0.237915 0.129339
0.316518 0.245529 0.136524
0.334261 0.253662 0.144488
0.352361 0.262313 0.153232
0.370460 0.270964 0.161976
0.388559 0.279615 0.170720
0.406658 0.288266 0.179464
0.424256 0.297191 0.188474
0.440849 0.306667 0.198017
0.457441 0.316143 0.207560
0.474034 0.325619 0.217102
0.490627 0.335095 0.226645
0.506675 0.344688 0.236279
0.519999 0.354870 0.246364
0.533323 0.365051 0.256450
0.546647 0.375233 0.266536
0.559971 0.385415 0.276621
0.573296 0.395597 0.286707
0.055252 0.119871 0.053488
0.071141 0.129144 0.057784
0.087029 0.138417 0.062081
0.102918 0.147690 0.066377
0.118806 0.156963 0.070674
0.134695 0.166236 0.074970
0.155168 0.176542 0.081014
0.176557 0.187054 0.087407
0.197947 0.197567 0.093800
0.219336 0.208079 0.100192
0.240726 0.218592 0.106585
0.259544 0.227288 0.113695
0.277078 0.235076 0.121163
0.294612 0.242864 0.128631
0.312145 0.250652 0.136098
0.329679 0.258440 0.143566
0.347532 0.266783 0.151956
0.365704 0.275681 0.161267
0.383877 0.284579 0.170578
0.402049 0.293477 0.179889
0.420222 0.302375 0.189200
0.437843 0.311566 0.198814
0.454363 0.321344 0.209034
0.470883 0.331121 0.219254
0.487403 0.340899 0.229474
0.503922 0.350677 0.239693
0.519880 0.360584 0.250007
0.533031 0.371141 0.260788
0.546181 0.381698 0.271568
0.559331 0.392254 0.282349
0.572481 0.402811 0.293130
0.585632 0.413368 0.303911
0.060373 0.128142 0.057978
0.076368 0.137430 0.062466
0.092363 0.146719 0.066955
0.108358 0.156007 0.071444
0.124354 0.165295 0.075932
0.140349 0.174583 0.080421
0.161475 0.185182 0.086697
0.183626 0.196042 0.093331
0.205778 0.206902 0.099965
0.227930 0.217762 0.106599
0.250082 0.228622 0.113232
0.269566 0.237859 0.120733
0.287715 0.246284 0.128668
0.305865 0.254710 0.136602
0.324014 0.263135 0.144536
0.342164 0.271560 0.152471
0.360322 0.280333 0.161322
0.378488 0.289454 0.171091
0.396655 0.298574 0.180859
0.414821 0.307695 0.190628
0.432987 0.316815 0.200396
0.450589 0.326260 0.210535
0.467060 0.336351 0.221413
0.483530 0.346443 0.232292
0.500001 0.356535 0.243170
0.516472 0.366627 0.254049
0.532375 0.376857 0.265024
0.545437 0.387783 0.276481
0.558499 0.398709 0.287939
0.571560 0.409635 0.299397
0.584622 0.420560 0.310855
0.597684 0.431486 0.322313
0.065950 0.136839 0.062893
0.082046 0.146164 0.067592
0.098142 0.155488 0.072291
0.114237 0.164813 0.076990
0.130333 0.174138 0.081689
0.146429 0.183463 0.086388
0.167907 0.194113 0.092898
0.190461 0.205028 0.099770
0.213016 0.215943 0.106641
0.235570 0.226858 0.113513
0.258124 0.237773 0.120385
0.278310 0.247608 0.128337
0.297310 0.256902 0.136829
0.316310 0.266197 0.145322
0.335311 0.275491 0.153814
0.354311 0.284785 0.162306
0.372871 0.294098 0.171638
0.390992 0.303429 0.181809
0.409113 0.312760 0.191980
0.427233 0.322091 0.202151
0.445354 0.331422 0.212322
0.462912 0.341113 0.222945
0.479347 0.351525 0.234473
0.495781 0.361937 0.246001
0.512215 0.372349 0.257529
0.528650 0.382761 0.269057
0.544514 0.393319 0.280685
0.557531 0.404611 0.292811
0.570547 0.415902 0.304936
0.583563 0.427194 0.317062
0.596579 0.438486 0.329188
0.609595 0.449777 0.341313
0.071527 0.145535 0.067809
0.087724 0.154897 0.072718
0.103920 0.164258 0.077628
0.120117 0.173620 0.082537
0.136313 0.182981 0.087447
0.152510 0.192343 0.092356
0.174340 0.203044 0.099099
0.197297 0.214014 0.106208
0.220253 0.224984 0.113318
0.243210 0.235954 0.120427
0.266167 0.246924 0.127537
0.287053 0.257357 0.135940
0.306905 0.267520 0.144991
0.326756 0.277683 0.154041
0.346607 0.287847 0.163091
0.366458 0.298010 0.172142
0.385421 0.307863 0.181954
0.403496 0.317404 0.192527
0.421571 0.326945 0.203101
0.439646 0.336487 0.213674
0.457720 0.346028 0.224248
0.475236 0.355966 0.235356
0.491634 0.366698 0.247534
0.508032 0.377430 0.259711
0.524430 0.388163 0.271889
0.540827 0.398895 0.284066
0.556654 0.409781 0.296346
0.569624 0.421439 0.309140
0.582594 0.433096 0.321933
0.595565 0.444754 0.334727
0.608535 0.456411 0.347520
0.621505 0.468069 0.360314
0.077104 0.154232 0.072724
0.093401 0.163630 0.077844
0.109699 0.173028 0.082964
0.125996 0.182426 0.088084
0.142293 0.191824 0.093204
0.158590 0.201222 0.098324
0.180772 0.211976 0.105300
0.204132 0.223001 0.112647
0.227491 0.234026 0.119994
0.250850 0.245050 0.127342
0.274210 0.256075 0.134689
0.295797 0.267105 0.143544
0.316499 0.278138 0.153152
0.337201 0.289170 0.162761
0.357903 0.300203 0.172369
0.378605 0.311235 0.181977
0.397970 0.321627 0.192270
0.416000 0.331379 0.203246
0.434029 0.341131 0.214222
0.452058 0.350882 0.225198
0.470087 0.360634 0.236174
0.487560 0.370819 0.247767
0.503921 0.381872 0.260594
0.520282 0.392924 0.273421
0.536644 0.403976 0.286248
0.553005 0.415029 0.299075
0.568793 0.426243 0.312008
0.581718 0.438266 0.325469
0.594642 0.450290 0.338930
0.607567 0.462313 0.352391
0.620491 0.474337 0.365853
0.633416 0.486360 0.379314
0.082681 0.162929 0.077640
0.099079 0.172363 0.082970
0.115477 0.181798 0.088300
0.131875 0.191233 0.093631
0.148272 0.200667 0.098961
0.164670 0.210102 0.104291
0.187205 0.220907 0.111500
0.210967 0.231987 0.119086
0.234729 0.243067 0.126671
0.258490 0.254147 0.134256
0.282252 0.265226 0.141841
0.304541 0.276854 0.151147
0.326094 0.288755 0.161314
0.347647 0.300657 0.171480
0.369199 0.312559 0.181647
0.390752 0.324460 0.191813
0.410520 0.335392 0.202586
0.428503 0.345354 0.213964
0.446487 0.355316 0.225343
0.464470 0.365278 0.236721
0.482454 0.375240 0.248100
0.499884 0.385673 0.260178
0.516209 0.397045 0.273654
0.532533 0.408418 0.287131
0.548858 0.419790 0.300607
0.565182 0.431163 0.314084
0.580933 0.442705 0.327669
0.593811 0.455094 0.341798
0.606690 0.467483 0.355927
0.619569 0.479873 0.370056
0.632448 0.492262 0.384185
0.645327 0.504652 0.398314
0.088590 0.171815 0.083004
0.105111 0.181332 0.088659
0.121632 0.190848 0.094314
0.138153 0.200365 0.099969
0.154675 0.209882 0.105624
0.171196 0.219399 0.111279
0.194067 0.230360 0.118825
0.218209 0.241609 0.126749
0.242350 0.252858 0.134672
0.266492 0.264107 0.142596
0.290633 0.275355 0.150520
0.313509 0.287369 0.160231
0.335753 0.299764 0.170837
0.357996 0.312160 0.181442
0.380239 0.324555 0.192048
0.402483 0.336951 0.202653
0.422605 0.348326 0.213844
0.440607 0.358682 0.225621
0.458609 0.369037 0.237397
0.476610 0.379393 0.249174
0.494612 0.389748 0.260950
0.512030 0.400521 0.273467
0.528282 0.412126 0.287465
0.544533 0.423732 0.301463
0.560784 0.435338 0.315461
0.577036 0.446944 0.329459
0.592714 0.458723 0.343569
0.605529 0.471374 0.358238
0.618344 0.484024 0.372906
0.631159 0.496674 0.387575
0.643974 0.509324 0.402244
0.656788 0.521974 0.416913
0.094828 0.180889 0.088818
0.111496 0.190534 0.094912
0.128164 0.200179 0.101006
0.144831 0.209824 0.107100
0.161499 0.219469 0.113194
0.178167 0.229114 0.119288
0.201360 0.240332 0.127273
0.225858 0.251865 0.135636
0.250356 0.263398 0.143999
0.274855 0.274930 0.152361
0.299353 0.286463 0.160724
0.322702 0.298650 0.170796
0.345475 0.311164 0.181721
0.368249 0.323679 0.192647
0.391023 0.336193 0.203573
0.413797 0.348708 0.214499
0.434226 0.360431 0.226046
0.452310 0.371363 0.238216
0.470394 0.382294 0.250386
0.488478 0.393226 0.262556
0.506562 0.404158 0.274726
0.523999 0.415363 0.287636
0.540140 0.427115 0.302027
0.556282 0.438867 0.316419
0.572424 0.450620 0.330810
0.588565 0.462372 0.345201
0.604139 0.474299 0.359707
0.616871 0.487105 0.374788
0.629604 0.499911 0.389868
0.642336 0.512716 0.404949
0.655069 0.525522 0.420029
0.667801 0.538328 0.435110
0.101067 0.189964 0.094632
0.117881 0.199737 0.101165
0.134695 0.209510 0.107698
0.151509 0.219283 0.114231
0.168323 0.229057 0.120764
0.185137 0.238830 0.127297
0.208652 0.250305 0.135721
0.233507 0.262121 0.144523
0.258362 0.273938 0.153325
0.283217 0.285754 0.162127
0.308072 0.297570 0.170929
0.331894 0.309931 0.181360
0.355198 0.322564 0.192606
0.378503 0.335197 0.203852
0.401807 0.347831 0.215098
0.425112 0.360464 0.226344
0.445847 0.372535 0.238248
0.464013 0.384043 0.250811
0.482180 0.395551 0.263375
0.500346 0.407059 0.275938
0.518513 0.418568 0.288501
0.535967 0.430206 0.301805
0.551999 0.442104 0.316589
0.568031 0.454003 0.331374
0.584063 0.465901 0.346159
0.600095 0.477800 0.360943
0.615563 0.489875 0.375846
0.628213 0.502837 0.391338
0.640863 0.515798 0.406830
0.653513 0.528759 0.422322
0.666164 0.541720 0.437814
0.678814 0.554681 0.453307
0.107306 0.199039 0.100445
0.124267 0.208940 0.107417
0.141227 0.218841 0.114390
0.158187 0.228742 0.121362
0.175148 0.238644 0.128334
0.192108 0.248545 0.135307
0.215945 0.260278 0.144169
0.241157 0.272378 0.153410
0.266368 0.284478 0.162651
0.291580 0.296577 0.171892
0.316792 0.308677 0.181133
0.341086 0.321212 0.191924
0.364921 0.333964 0.203490
0.388756 0.346716 0.215057
0.412591 0.359469 0.226623
0.436426 0.372221 0.238189
0.457468 0.384639 0.250450
0.475717 0.396724 0.263407
0.493966 0.408808 0.276363
0.512214 0.420893 0.289320
0.530463 0.432977 0.302276
0.547936 0.445048 0.315974
0.563858 0.457093 0.331152
0.579780 0.469138 0.346330
0.595702 0.481183 0.361508
0.611624 0.493228 0.376686
0.626987 0.505451 0.391985
0.639555 0.518568 0.407888
0.652123 0.531685 0.423792
0.664691 0.544801 0.439696
0.677259 0.557918 0.455600
0.689826 0.571035 0.471503
0.113545 0.208114 0.106259
0.130652 0.218143 0.113670
0.147759 0.228172 0.121081
0.164865 0.238201 0.128493
0.181972 0.248231 0.135904
0.199079 0.258260 0.143316
0.223237 0.270251 0.152618
0.248806 0.282634 0.162298
0.274374 0.295018 0.171978
0.299943 0.307401 0.181658
0.325512 0.319784 0.191338
0.350278 0.332493 0.202489
0.374644 0.345364 0.214375
0.399009 0.358235 0.226261
0.423375 0.371106 0.238148
0.447741 0.383978 0.250034
0.469089 0.396744 0.262652
0.487420 0.409404 0.276002
0.505751 0.422065 0.289352
0.524082 0.434726 0.302702
0.542413 0.447387 0.316052
0.559905 0.459891 0.330142
0.575717 0.472082 0.345714
0.591529 0.484273 0.361285
0.607342 0.496465 0.376856
0.623154 0.508656 0.392428
0.638412 0.521027 0.408123
0.650897 0.534299 0.424439
0.663383 0.547572 0.440754
0.675868 0.560844 0.457069
0.688353 0.574116 0.473385
0.700839 0.587388 0.489700
0.119532 0.216653 0.111867
0.136831 0.226938 0.119910
0.154130 0.237224 0.127953
0.171429 0.247509 0.135995
0.188727 0.257794 0.144038
0.206026 0.268080 0.152080
0.230529 0.280423 0.161975
0.256473 0.293179 0.172241
0.282416 0.305934 0.182507
0.308360 0.318689 0.192772
0.334304 0.331445 0.203038
0.359527 0.344391 0.214607
0.384389 0.357433 0.226829
0.409252 0.370475 0.239051
0.434115 0.383517 0.251272
0.458978 0.396559 0.263494
0.480672 0.409604 0.276432
0.499198 0.422652 0.290087
0.517724 0.435700 0.303742
0.536251 0.448748 0.317397
0.554777 0.461796 0.331052
0.572353 0.474613 0.345418
0.588028 0.486966 0.361206
0.603703 0.499318 0.376994
0.619378 0.511671 0.392781
0.635053 0.524024 0.408569
0.650179 0.536543 0.424497
0.662561 0.549895 0.441123
0.674943 0.563246 0.457750
0.687324 0.576598 0.474376
0.699706 0.589949 0.491003
0.712088 0.603301 0.507629
0.125015 0.224121 0.117066
0.142597 0.234918 0.126124
0.160180 0.245716 0.135182
0.177762 0.256514 0.144241
0.195344 0.267311 0.153299
0.212927 0.278109 0.162357
0.237820 0.290995 0.173153
0.264175 0.304300 0.184296
0.290531 0.317604 0.195440
0.316886 0.330908 0.206584
0.343241 0.344212 0.217728
0.368888 0.357525 0.229834
0.394181 0.370841 0.242422
0.419474 0.384157 0.255009
0.444766 0.397474 0.267597
0.470059 0.410790 0.280185
0.492179 0.423977 0.293370
0.511126 0.437034 0.307153
0.530073 0.450092 0.320936
0.549020 0.463149 0.334719
0.567967 0.476206 0.348502
0.585759 0.489092 0.362907
0.601242 0.501637 0.378558
0.616725 0.514182 0.394209
0.632208 0.526727 0.409859
0.647691 0.539272 0.425510
0.662632 0.551939 0.441342
0.674868 0.565218 0.458078
0.687103 0.578496 0.474814
0.699339 0.591774 0.491550
0.711574 0.605052 0.508286
0.723810 0.618331 0.525023
0.130497 0.231588 0.122266
0.148363 0.242898 0.132339
0.166229 0.254208 0.142412
0.184095 0.265518 0.152486
0.201961 0.276828 0.162559
0.219827 0.288138 0.172633
0.245111 0.301567 0.184330
0.271878 0.315421 0.196352
0.298645 0.329274 0.208374
0.325412 0.343127 0.220396
0.352179 0.356980 0.232418
0.378250 0.370658 0.245061
0.403972 0.384249 0.258014
0.429695 0.397840 0.270968
0.455417 0.411431 0.283922
0.481140 0.425022 0.296875
0.503685 0.438350 0.310307
0.523053 0.451416 0.324218
0.542421 0.464483 0.338129
0.561789 0.477549 0.352040
0.581156 0.490616 0.365951
0.599165 0.503572 0.380397
0.614456 0.516309 0.395910
0.629747 0.529046 0.411424
0.645038 0.541783 0.426937
0.660329 0.554520 0.442450
0.675086 0.567335 0.458186
0.687175 0.580540 0.475032
0.699264 0.593746 0.491878
0.711353 0.606951 0.508724
0.723442 0.620156 0.525570
0.735531 0.633361 0.542416
0.135980 0.239056 0.127465
0.154130 0.250879 0.138554
0.172279 0.262701 0.149642
0.190429 0.274523 0.160731
0.208579 0.286345 0.171820
0.226728 0.298167 0.182909
0.252402 0.312139 0.195507
0.279581 0.326541 0.208408
0.306759 0.340943 0.221308
0.333938 0.355345 0.234208
0.361117 0.369747 0.247108
0.387611 0.383792 0.260288
0.413764 0.397657 0.273607
0.439916 0.411522 0.286927
0.466069 0.425387 0.300246
0.492221 0.439253 0.313566
0.515192 0.452723 0.327245
0.534980 0.465799 0.341284
0.554769 0.478874 0.355323
0.574558 0.491950 0.369362
0.594346 0.505025 0.383401
0.612572 0.518052 0.397886
0.627670 0.530981 0.413262
0.642769 0.543910 0.428639
0.657868 0.556839 0.444015
0.672967 0.569768 0.459391
0.687539 0.582731 0.475030
0.699482 0.595863 0.491986
0.711425 0.608995 0.508942
0.723367 0.622127 0.525898
0.735310 0.635259 0.542854
0.747253 0.648391 0.559809
0.141463 0.246524 0.132664
0.159896 0.258859 0.144768
0.178329 0.271193 0.156872
0.196762 0.283528 0.168977
0.215196 0.295862 0.181081
0.233629 0.308197 0.193185
0.259693 0.322712 0.206685
0.287283 0.337662 0.220463
0.314873 0.352613 0.234241
0.342464 0.367564 0.248020
0.370054 0.382515 0.261798
0.396973 0.396925 0.275515
0.423555 0.411065 0.289200
0.450138 0.425204 0.302885
0.476720 0.439344 0.316571
0.503303 0.453484 0.330256
0.526699 0.467096 0.344182
0.546908 0.480181 0.358350
0.567117 0.493265 0.372517
0.587327 0.506350 0.386684
0.607536 0.519435 0.400851
0.625978 0.532532 0.415375
0.640885 0.545653 0.430614
0.655791 0.558774 0.445853
0.670698 0.571895 0.461092
0.685605 0.585017 0.476332
0.699993 0.598127 0.491875
0.711789 0.611186 0.508940
0.723585 0.624245 0.526006
0.735382 0.637304 0.543072
0.747178 0.650362 0.560137
0.758974 0.663421 0.577203
0.146489 0.253299 0.137367
0.165251 0.266274 0.150671
0.184014 0.279248 0.163975
0.202776 0.292223 0.177279
0.221539 0.305198 0.190583
0.240301 0.318173 0.203888
0.266780 0.333322 0.218428
0.294802 0.348905 0.233216
0.322823 0.364489 0.248004
0.350845 0.380073 0.262791
0.378867 0.395656 0.277579
0.406213 0.410479 0.291899
0.433221 0.424920 0.305985
0.460229 0.439362 0.320072
0.487236 0.453803 0.334158
0.514244 0.468245 0.348245
0.538048 0.481999 0.362394
0.558648 0.495065 0.376607
0.579248 0.508132 0.390820
0.599847 0.521198 0.405033
0.620447 0.534264 0.419246
0.639103 0.547383 0.433733
0.653873 0.560607 0.448769
0.668642 0.573830 0.463806
0.683412 0.587053 0.478842
0.698181 0.600277 0.493878
0.712451 0.613472 0.509260
0.724224 0.626524 0.526370
0.735998 0.639577 0.543479
0.747771 0.652630 0.560589
0.759545 0.665682 0.577699
0.771318 0.678735 0.594809
0.149230 0.256607 0.139588
0.168551 0.270863 0.155015
0.187871 0.285118 0.170441
0.207192 0.299374 0.185868
0.226512 0.313630 0.201294
0.245833 0.327885 0.216721
0.272846 0.344124 0.233002
0.301399 0.360760 0.249455
0.329951 0.377395 0.265908
0.358503 0.394031 0.282360
0.387056 0.410667 0.298813
0.414847 0.426132 0.314072
0.442257 0.441013 0.328735
0.469668 0.455894 0.343398
0.497078 0.470774 0.358060
0.524489 0.485655 0.372723
0.548612 0.499551 0.386978
0.569450 0.512462 0.400825
0.590288 0.525373 0.414672
0.611125 0.538283 0.428519
