filters/luts/Depression 05.cube
# LUT by SparkleStock. Enhanced with VOXCOLOR algorithms.
LUT_3D_SIZE 8
DOMAIN_MIN 0.000000 0.000000 0.000000
DOMAIN_MAX 0.903226 0.903226 0.903226
0.015629 0.007814 0.007814
0.039450 0.025460 0.021931
0.076663 0.045469 0.038016
0.130734 0.069920 0.054858
0.201985 0.099697 0.071393
0.287219 0.135114 0.087211
0.379440 0.176037 0.102958
0.468077 0.221726 0.120871
0.023569 0.028548 0.017961
0.074485 0.067709 0.031678
0.125985 0.093937 0.049322
0.193119 0.122928 0.069679
0.273734 0.156610 0.091685
0.361415 0.194475 0.114931
0.448542 0.236159 0.139786
0.526250 0.281151 0.167518
0.035842 0.055780 0.032242
0.092685 0.097425 0.047341
0.174151 0.142919 0.067845
0.251388 0.178953 0.091844
0.335617 0.216688 0.120471
0.424805 0.259109 0.153432
0.509912 0.305405 0.190393
0.582307 0.354692 0.231450
0.052275 0.090378 0.052219
0.112660 0.133317 0.069068
0.207821 0.183690 0.091488
0.304466 0.234523 0.122688
0.394062 0.279895 0.158573
0.481582 0.326366 0.200763
0.564479 0.377796 0.249887
0.633577 0.432516 0.304166
0.072244 0.131262 0.077356
0.136621 0.175930 0.097485
0.240208 0.228654 0.123369
0.351161 0.286029 0.159850
0.448249 0.340941 0.204165
0.534616 0.393533 0.255185
0.613263 0.448285 0.313667
0.678821 0.506680 0.378348
0.094301 0.175029 0.105652
0.163431 0.222856 0.132953
0.275353 0.280366 0.166263
0.396145 0.340909 0.208032
0.501936 0.401027 0.258704
0.587027 0.458087 0.315614
0.658834 0.514944 0.379815
0.719621 0.573976 0.450469
0.115995 0.215574 0.133042
0.191323 0.271377 0.175825
0.311901 0.337485 0.223309
0.441386 0.403734 0.273689
0.554903 0.465643 0.328040
0.641182 0.523311 0.386606
0.706765 0.579438 0.451040
0.759913 0.635804 0.521191
0.132884 0.243791 0.152751
0.217433 0.317852 0.225958
0.347436 0.399409 0.298746
0.484659 0.474811 0.363462
0.603439 0.538946 0.420654
0.692941 0.593752 0.475230
0.755669 0.644469 0.532150
0.802827 0.695961 0.595266
0.021805 0.026563 0.034724
0.063158 0.039825 0.043859
0.118792 0.064701 0.062791
0.188729 0.094659 0.083575
0.269308 0.128463 0.104229
0.354741 0.165218 0.124800
0.437755 0.203444 0.146559
0.509643 0.240638 0.171730
0.033530 0.058652 0.072363
0.081104 0.094510 0.094956
0.159232 0.126523 0.110985
0.246436 0.162486 0.129192
0.335485 0.203037 0.150356
0.422055 0.247097 0.174062
0.501439 0.293360 0.200372
0.568234 0.339638 0.229488
0.048877 0.093326 0.097772
0.102712 0.141905 0.123230
0.197902 0.188344 0.140208
0.297334 0.228924 0.161943
0.393603 0.271077 0.188905
0.482205 0.316566 0.220259
0.558936 0.364139 0.255502
0.620423 0.412054 0.293997
0.068767 0.135210 0.125505
0.131004 0.192037 0.155117
0.230093 0.242905 0.175691
0.342559 0.291950 0.199737
0.445775 0.338332 0.232139
0.535433 0.385621 0.272074
0.610652 0.435305 0.317518
0.669027 0.485792 0.366590
0.094080 0.184547 0.159230
0.166195 0.245931 0.194570
0.266812 0.298684 0.220139
0.384316 0.351626 0.247544
0.492944 0.402409 0.282607
0.583859 0.452536 0.328211
0.657132 0.504282 0.382265
0.713193 0.557195 0.440251
0.125728 0.240352 0.200674
0.207994 0.302530 0.241130
0.310801 0.357429 0.272872
0.429259 0.412261 0.305478
0.540300 0.465447 0.343353
0.630005 0.516091 0.389542
0.699489 0.567582 0.446215
0.752797 0.620960 0.509608
0.164662 0.300976 0.251416
0.254893 0.359395 0.293029
0.360107 0.417452 0.333135
0.479124 0.475591 0.373281
0.590088 0.530112 0.415218
0.677625 0.579534 0.460349
0.741736 0.627308 0.512683
0.789373 0.676489 0.572941
0.211207 0.363787 0.313189
0.302690 0.411505 0.346192
0.411127 0.476205 0.399272
0.530640 0.540432 0.451273
0.639912 0.596817 0.498112
0.725262 0.644548 0.541910
0.784427 0.686477 0.585904
0.825770 0.727850 0.634995
0.032510 0.055158 0.075025
0.072540 0.069907 0.087184
0.153309 0.087096 0.090920
0.237157 0.119119 0.113346
0.323233 0.156715 0.139880
0.407392 0.195036 0.164822
0.482425 0.231760 0.189258
0.541490 0.263749 0.215524
0.047132 0.093800 0.122724
0.091467 0.134795 0.155770
0.176566 0.159886 0.167666
0.278726 0.196751 0.185564
0.379001 0.240284 0.207859
0.469343 0.286638 0.233090
0.545959 0.334336 0.262094
0.605984 0.381196 0.295910
0.066886 0.140485 0.172323
0.115401 0.187213 0.207739
0.206096 0.230242 0.229801
0.322621 0.273843 0.245749
0.433134 0.320318 0.265339
0.526510 0.369509 0.291491
0.601288 0.419850 0.323757
0.657213 0.468693 0.360908
0.090018 0.190315 0.215028
0.147570 0.243500 0.248739
0.242971 0.296653 0.275468
0.363363 0.345444 0.292512
0.479428 0.392441 0.314778
0.575705 0.440556 0.345904
0.649157 0.489877 0.384285
0.701895 0.538311 0.427710
0.120084 0.246427 0.258224
0.188185 0.303938 0.292606
0.288723 0.361534 0.322475
0.406246 0.412365 0.343549
0.522016 0.458985 0.366939
0.619301 0.505941 0.401409
0.691976 0.554480 0.446138
0.742760 0.602877 0.495931
0.159265 0.309596 0.306947
0.237315 0.367350 0.343631
0.343214 0.425894 0.376084
0.456521 0.477130 0.402183
0.567452 0.523676 0.428031
0.661116 0.568083 0.461382
0.731105 0.613979 0.506793
0.780135 0.661730 0.560633
0.209512 0.379505 0.365241
0.294815 0.432828 0.402202
0.404753 0.489384 0.435509
0.514062 0.540635 0.466308
0.618222 0.587360 0.496540
0.705467 0.629333 0.528823
0.769623 0.669914 0.568866
0.814316 0.712592 0.618593
0.272829 0.456110 0.438891
0.358978 0.498453 0.468361
0.469207 0.549853 0.498273
0.574389 0.601561 0.533695
0.671409 0.648640 0.568466
0.751493 0.689362 0.601630
0.808633 0.724570 0.634990
0.847246 0.758827 0.673321
0.047745 0.095159 0.130797
0.082936 0.113040 0.147254
0.165615 0.130640 0.151273
0.272529 0.153189 0.154816
0.368982 0.190870 0.180614
0.451689 0.233803 0.213863
0.520699 0.273037 0.243220
0.570957 0.305371 0.270781
0.063590 0.136491 0.181456
0.105851 0.183728 0.222630
0.185293 0.212535 0.240612
0.299323 0.241306 0.251092
0.411084 0.282572 0.271291
0.506349 0.330478 0.297853
0.582484 0.379304 0.327284
0.639003 0.427364 0.361422
0.087186 0.190350 0.239784
0.134542 0.239728 0.281534
0.217411 0.286336 0.313081
0.332561 0.322199 0.329044
0.453606 0.365928 0.344531
0.556901 0.415872 0.366124
0.634872 0.467128 0.394942
0.690444 0.518049 0.431005
0.120042 0.249950 0.297443
0.171958 0.298724 0.336121
0.258117 0.350390 0.370226
0.371742 0.394477 0.389953
0.497439 0.440823 0.403592
0.604547 0.490037 0.422992
0.681167 0.539726 0.452512
0.732789 0.587921 0.490121
0.156019 0.312357 0.352324
0.217595 0.363066 0.387650
0.308031 0.416642 0.420661
0.419634 0.465797 0.443047
0.539653 0.510554 0.457288
0.644710 0.555576 0.477534
0.720974 0.601904 0.509612
0.770257 0.647167 0.550029
0.200383 0.379242 0.406905
0.272550 0.430647 0.441063
0.367444 0.484143 0.473144
0.477056 0.534458 0.497198
0.586907 0.577211 0.514301
0.683447 0.616375 0.534371
0.756505 0.657322 0.566121
0.804628 0.700121 0.608654
0.258034 0.451496 0.465975
0.337520 0.499776 0.500183
0.435250 0.549967 0.530847
0.542206 0.598814 0.555227
0.641868 0.640253 0.575401
0.726869 0.675415 0.595721
0.792052 0.709779 0.623350
0.836430 0.746880 0.661771
0.329858 0.528945 0.536150
0.411287 0.569580 0.566886
0.508031 0.613185 0.592741
0.610427 0.658956 0.615299
0.699827 0.698192 0.636773
0.773304 0.731348 0.658697
0.828975 0.760605 0.682181
0.866964 0.789658 0.711311
0.065414 0.142140 0.196038
0.095966 0.164354 0.216878
0.172487 0.189191 0.229732
0.285216 0.212749 0.232606
0.399951 0.241889 0.241757
0.490689 0.283982 0.272405
0.555663 0.330266 0.311770
0.600851 0.368657 0.344232
0.081921 0.184724 0.245858
0.124427 0.238074 0.293130
0.197001 0.274625 0.319960
0.308298 0.305465 0.334657
0.430567 0.339064 0.348001
0.534653 0.383008 0.370842
0.612350 0.433507 0.401005
0.668393 0.483671 0.433588
0.109749 0.243870 0.306439
0.158992 0.297360 0.352716
0.235611 0.348394 0.391879
0.341155 0.385562 0.415123
0.464564 0.422087 0.430746
0.576701 0.466858 0.448052
0.661218 0.517558 0.471610
0.719927 0.569473 0.502927
0.150423 0.310548 0.370257
0.203597 0.359302 0.412117
0.282453 0.410598 0.451445
0.383944 0.455027 0.479111
0.504251 0.494767 0.495707
0.618098 0.538853 0.508773
0.704257 0.587380 0.527951
0.760484 0.635685 0.557844
0.199798 0.377730 0.431207
0.256812 0.423544 0.468618
0.336671 0.472622 0.505010
0.435780 0.519333 0.533184
0.547877 0.559556 0.548846
0.657746 0.601312 0.559268
0.742800 0.645983 0.576715
0.795124 0.689340 0.606333
0.252578 0.445983 0.490043
0.317852 0.491138 0.524457
0.399440 0.538282 0.557799
0.496120 0.584171 0.584316
0.598941 0.624129 0.599651
0.697650 0.660498 0.609474
0.776257 0.698004 0.626366
0.826621 0.736943 0.655989
0.313786 0.516293 0.548355
0.387874 0.560240 0.581860
0.470738 0.604170 0.612462
0.563975 0.647802 0.636589
0.658034 0.686858 0.651950
0.742406 0.718378 0.662850
0.809349 0.747575 0.678369
0.855815 0.780035 0.704796
0.388682 0.587662 0.609529
0.466147 0.627360 0.641976
0.547392 0.666299 0.669436
0.635525 0.706165 0.690167
0.720264 0.742854 0.704244
0.791235 0.771832 0.715882
0.845270 0.795345 0.729525
0.884031 0.820097 0.750057
0.081957 0.187703 0.259309
0.110403 0.216064 0.285101
0.181921 0.252410 0.310150
0.289589 0.287831 0.327541
0.411917 0.318556 0.335943
0.516608 0.353502 0.353479
0.587490 0.398657 0.389541
0.629783 0.446413 0.431574
0.100769 0.234015 0.309072
0.146130 0.293127 0.360731
0.215036 0.338116 0.396114
0.318255 0.378597 0.422530
0.440469 0.413624 0.439948
0.552043 0.450471 0.458087
0.635745 0.496124 0.484075
0.693433 0.548470 0.515717
0.135120 0.299761 0.371757
0.188255 0.356424 0.420730
0.261486 0.410355 0.464582
0.357979 0.454460 0.497046
0.474776 0.491732 0.519847
0.588798 0.529783 0.538129
0.679820 0.574432 0.556988
0.744089 0.625425 0.580770
0.182936 0.371595 0.436909
0.241597 0.421941 0.480346
0.316425 0.473192 0.522424
0.407037 0.519681 0.557044
0.514830 0.558014 0.582157
0.625778 0.595645 0.599317
0.718773 0.638075 0.613140
0.783611 0.684584 0.631686
0.243249 0.441957 0.498854
0.303685 0.486489 0.537789
0.377694 0.532837 0.576177
0.463852 0.577124 0.609214
0.561141 0.615076 0.631841
0.664433 0.651655 0.645724
0.754468 0.690912 0.656090
0.815997 0.731848 0.671755
0.309677 0.508718 0.556705
0.371708 0.549778 0.592123
0.443810 0.592419 0.627041
0.525393 0.633536 0.657142
0.614021 0.670547 0.676968
0.705490 0.703506 0.687053
0.787089 0.737160 0.694342
0.844964 0.772970 0.708763
0.378491 0.573767 0.611513
0.445633 0.613702 0.645507
0.516154 0.652993 0.677280
0.592277 0.691097 0.704213
0.673200 0.726614 0.721873
0.751779 0.756060 0.729751
0.820370 0.782657 0.735290
0.871607 0.811489 0.748754
0.452077 0.636530 0.664039
0.524606 0.675439 0.698444
0.593180 0.711109 0.727691
0.663089 0.745698 0.751203
0.735447 0.779246 0.766130
0.802367 0.807251 0.773158
0.856918 0.828581 0.778594
0.897516 0.849427 0.790480
0.094104 0.222931 0.308126
0.125111 0.260221 0.340592
0.196815 0.311049 0.379328
0.300812 0.362725 0.414596
0.419033 0.407550 0.440882
0.529410 0.443021 0.457473
0.609589 0.479423 0.480851
0.654801 0.524428 0.518632
0.119462 0.280201 0.364093
0.170128 0.343949 0.418454
0.239680 0.397950 0.462056
0.338257 0.449510 0.500796
0.453315 0.494965 0.532097
0.564486 0.532145 0.554688
0.652012 0.569367 0.576758
0.712082 0.615150 0.603709
0.165219 0.357043 0.432575
0.222920 0.414170 0.481387
0.295383 0.468994 0.527384
0.386446 0.519647 0.567817
0.493753 0.564439 0.601450
0.602082 0.602271 0.627557
0.693064 0.639518 0.648444
0.760664 0.683385 0.667386
0.223235 0.434680 0.499406
0.287234 0.484372 0.542491
0.359818 0.533537 0.584740
0.442510 0.580061 0.623144
0.538966 0.622293 0.656087
0.640170 0.659148 0.682745
0.730251 0.695193 0.701761
0.799740 0.735443 0.715043
0.290097 0.505776 0.559540
0.358291 0.550206 0.599012
0.429532 0.593686 0.637284
0.505641 0.634995 0.672239
0.588820 0.672597 0.700980
0.678474 0.706556 0.724536
0.763515 0.740295 0.740694
0.830785 0.776224 0.750386
0.365745 0.568615 0.612465
0.432512 0.608868 0.649396
0.499980 0.648211 0.684856
0.570047 0.685441 0.716788
0.642721 0.718965 0.741806
0.719294 0.748592 0.758840
0.794878 0.778428 0.769101
0.857294 0.810243 0.776565
0.444828 0.626164 0.661219
0.508861 0.664066 0.696597
0.570972 0.699897 0.729381
0.634002 0.733857 0.758383
0.698400 0.764803 0.780679
0.763726 0.791621 0.792387
0.827288 0.816398 0.797001
0.881552 0.842276 0.802140
0.521072 0.678853 0.705858
0.585893 0.716767 0.741765
0.643278 0.749750 0.772346
0.698746 0.780656 0.798169
0.754508 0.809786 0.817411
0.810881 0.836264 0.827152
0.863049 0.857388 0.829669
0.906252 0.876294 0.833033
0.100264 0.241932 0.334216
0.139881 0.292100 0.376558
0.220422 0.359199 0.429197
0.327895 0.427597 0.481222
0.443208 0.487544 0.524970
0.547779 0.533991 0.556651
0.626958 0.565908 0.576135
0.673665 0.594007 0.595363
0.138856 0.321614 0.407345
0.196474 0.387842 0.462019
0.271898 0.451273 0.514115
0.371666 0.513526 0.564168
0.482369 0.568954 0.607906
0.586709 0.614047 0.642491
0.669666 0.647946 0.667720
0.726866 0.679395 0.688431
0.203882 0.417133 0.488961
0.264513 0.469876 0.533389
0.337794 0.522853 0.578813
0.427277 0.578951 0.625841
0.528213 0.630201 0.668608
0.627524 0.673284 0.704378
0.710868 0.708178 0.733142
0.773849 0.741183 0.754403
0.277811 0.503215 0.560292
0.343675 0.547245 0.599010
0.413607 0.590673 0.638024
0.490638 0.634853 0.677375
0.578286 0.679409 0.716042
0.668375 0.719668 0.750695
0.748321 0.753973 0.780109
0.812629 0.786631 0.800718
0.352278 0.572315 0.616918
0.424303 0.613427 0.654667
0.491977 0.651576 0.690511
0.559759 0.687794 0.724614
0.631660 0.723155 0.756583
0.708311 0.757696 0.786460
0.781428 0.790048 0.813611
0.843253 0.820862 0.832243
0.427204 0.627249 0.662157
0.501644 0.667481 0.700662
0.566525 0.703131 0.735421
0.627310 0.735624 0.766960
0.686924 0.764919 0.794145
0.748816 0.792338 0.816927
0.811096 0.819922 0.837601
0.867820 0.848270 0.852834
0.507036 0.673880 0.702045
0.575869 0.713024 0.740543
0.634190 0.746559 0.774066
0.687340 0.776735 0.803628
0.738288 0.803799 0.828325
0.788588 0.827129 0.845987
0.839730 0.849042 0.858026
0.889588 0.872767 0.866156
0.587889 0.716049 0.739443
0.647556 0.754657 0.777812
0.696837 0.785957 0.809584
0.741285 0.813869 0.836740
0.784070 0.839554 0.858816
0.826620 0.862602 0.874108
0.869740 0.881920 0.880161
0.911782 0.900127 0.881164
