filters/luts/Depression 01.cube
# Created by: Adobe Photoshop Export Color Lookup Plugin
# LUT by SparkleStock. Enhanced with VOXCOLOR algorithms.
LUT_3D_SIZE 32
0.101587 0.101587 0.101587
0.107637 0.103667 0.103667
0.113687 0.105747 0.105747
0.119737 0.107826 0.107826
0.125787 0.109906 0.109906
0.131837 0.111986 0.111986
0.139738 0.114498 0.114380
0.148009 0.117098 0.116838
0.156280 0.119698 0.119296
0.164552 0.122297 0.121754
0.172823 0.124897 0.124211
0.182197 0.128315 0.127016
0.192123 0.132144 0.129993
0.202048 0.135972 0.132971
0.211974 0.139801 0.135949
0.221899 0.143629 0.138926
0.232534 0.148167 0.142140
0.243877 0.153413 0.145591
0.255221 0.158659 0.149041
0.266564 0.163906 0.152491
0.277908 0.169152 0.155942
0.289677 0.174824 0.159565
0.302296 0.181346 0.163535
0.314916 0.187869 0.167506
0.327536 0.194391 0.171476
0.340155 0.200914 0.175446
0.352854 0.207641 0.179550
0.365946 0.215392 0.184324
0.379038 0.223144 0.189098
0.392130 0.230895 0.193871
0.405223 0.238647 0.198645
0.418315 0.246398 0.203419
0.103856 0.104943 0.103053
0.110967 0.107837 0.105187
0.118078 0.110731 0.107322
0.125189 0.113625 0.109456
0.132300 0.116518 0.111591
0.139411 0.119412 0.113725
0.147764 0.122305 0.116320
0.156364 0.125197 0.119006
0.164965 0.128089 0.121693
0.173565 0.130982 0.124379
0.182166 0.133874 0.127065
0.191912 0.137549 0.130129
0.202231 0.141615 0.133381
0.212550 0.145681 0.136633
0.222869 0.149748 0.139885
0.233188 0.153814 0.143137
0.244170 0.158543 0.146635
0.255815 0.163936 0.150378
0.267461 0.169329 0.154121
0.279106 0.174722 0.157864
0.290752 0.180114 0.161607
0.302749 0.185917 0.165514
0.315451 0.192540 0.169750
0.328153 0.199163 0.173985
0.340855 0.205787 0.178221
0.353557 0.212410 0.182456
0.366298 0.219230 0.186815
0.379235 0.227036 0.191790
0.392172 0.234843 0.196765
0.405108 0.242649 0.201740
0.418045 0.250455 0.206715
0.430982 0.258261 0.211690
0.106125 0.108299 0.104518
0.114297 0.112007 0.106707
0.122469 0.115715 0.108897
0.130641 0.119423 0.111086
0.138813 0.123131 0.113275
0.146986 0.126839 0.115465
0.155789 0.130111 0.118259
0.164719 0.133296 0.121174
0.173649 0.136481 0.124089
0.182579 0.139666 0.127004
0.191509 0.142851 0.129920
0.201627 0.146782 0.133242
0.212340 0.151086 0.136769
0.223052 0.155390 0.140295
0.233764 0.159695 0.143822
0.244476 0.163999 0.147349
0.255806 0.168920 0.151130
0.267753 0.174459 0.155165
0.279701 0.179998 0.159201
0.291648 0.185538 0.163237
0.303595 0.191077 0.167273
0.315822 0.197011 0.171464
0.328606 0.203734 0.175964
0.341390 0.210458 0.180465
0.354174 0.217182 0.184966
0.366959 0.223906 0.189467
0.379743 0.230819 0.194080
0.392524 0.238680 0.199256
0.405305 0.246541 0.204433
0.418086 0.254403 0.209609
0.430868 0.262264 0.214785
0.443649 0.270125 0.219961
0.108393 0.111655 0.105983
0.117627 0.116177 0.108227
0.126860 0.120699 0.110472
0.136093 0.125221 0.112716
0.145327 0.129743 0.114960
0.154560 0.134265 0.117204
0.163815 0.137917 0.120198
0.173074 0.141395 0.123342
0.182334 0.144873 0.126486
0.191593 0.148351 0.129630
0.200852 0.151828 0.132774
0.211342 0.156015 0.136356
0.222448 0.160557 0.140157
0.233554 0.165099 0.143958
0.244659 0.169641 0.147759
0.255765 0.174183 0.151560
0.267442 0.179297 0.155624
0.279692 0.184983 0.159953
0.291941 0.190668 0.164281
0.304190 0.196354 0.168610
0.316439 0.202039 0.172938
0.328894 0.208104 0.177413
0.341761 0.214928 0.182179
0.354627 0.221753 0.186945
0.367494 0.228577 0.191711
0.380361 0.235402 0.196477
0.393187 0.242408 0.201345
0.405813 0.250324 0.206723
0.418439 0.258240 0.212100
0.431064 0.266156 0.217478
0.443690 0.274072 0.222855
0.456316 0.281988 0.228233
0.110662 0.115010 0.107448
0.120957 0.120347 0.109747
0.131251 0.125683 0.112046
0.141546 0.131019 0.114346
0.151840 0.136356 0.116645
0.162135 0.141692 0.118944
0.171841 0.145724 0.122138
0.181430 0.149494 0.125510
0.191018 0.153264 0.128883
0.200607 0.157035 0.132255
0.210195 0.160805 0.135628
0.221058 0.165249 0.139469
0.232557 0.170029 0.143545
0.244056 0.174808 0.147620
0.255555 0.179588 0.151695
0.267054 0.184368 0.155771
0.279079 0.189674 0.160119
0.291630 0.195506 0.164740
0.304181 0.201338 0.169362
0.316732 0.207169 0.173983
0.329283 0.213001 0.178604
0.341966 0.219198 0.183362
0.354915 0.226123 0.188394
0.367864 0.233048 0.193425
0.380813 0.239973 0.198456
0.393762 0.246898 0.203488
0.406632 0.253997 0.208610
0.419102 0.261968 0.214189
0.431572 0.269939 0.219768
0.444042 0.277910 0.225347
0.456512 0.285881 0.230925
0.468983 0.293852 0.236504
0.112931 0.118366 0.108913
0.124286 0.124517 0.111267
0.135642 0.130667 0.113621
0.146998 0.136818 0.115976
0.158354 0.142968 0.118330
0.169709 0.149119 0.120684
0.179867 0.153530 0.124077
0.189785 0.157593 0.127678
0.199703 0.161656 0.131280
0.209621 0.165719 0.134881
0.219539 0.169783 0.138482
0.230773 0.174482 0.142582
0.242665 0.179500 0.146932
0.254558 0.184518 0.151282
0.266450 0.189535 0.155632
0.278342 0.194553 0.159982
0.290715 0.200051 0.164614
0.303568 0.206029 0.169528
0.316421 0.212007 0.174442
0.329274 0.217985 0.179356
0.342127 0.223964 0.184270
0.355039 0.230291 0.189311
0.368070 0.237317 0.194608
0.381102 0.244342 0.199905
0.394133 0.251368 0.205201
0.407164 0.258394 0.210498
0.420076 0.265586 0.215875
0.432391 0.273612 0.221655
0.444705 0.281638 0.227435
0.457020 0.289663 0.233215
0.469335 0.297689 0.238995
0.481650 0.305715 0.244775
0.116539 0.122785 0.111127
0.128140 0.129148 0.113597
0.139741 0.135510 0.116067
0.151342 0.141873 0.118537
0.162943 0.148235 0.121007
0.174544 0.154598 0.123477
0.185576 0.159758 0.127118
0.196495 0.164678 0.130994
0.207413 0.169598 0.134869
0.218331 0.174518 0.138745
0.229249 0.179438 0.142621
0.240992 0.184643 0.147011
0.253148 0.189990 0.151658
0.265305 0.195337 0.156305
0.277461 0.200684 0.160952
0.289617 0.206031 0.165600
0.302280 0.211881 0.170584
0.315450 0.218234 0.175905
0.328620 0.224588 0.181226
0.341790 0.230941 0.186547
0.354960 0.237294 0.191868
0.368167 0.244012 0.197356
0.381449 0.251458 0.203177
0.394730 0.258905 0.208998
0.408011 0.266351 0.214819
0.421293 0.273798 0.220640
0.434435 0.281419 0.226553
0.446884 0.289911 0.232923
0.459333 0.298403 0.239293
0.471782 0.306896 0.245663
0.484231 0.315388 0.252033
0.496680 0.323880 0.258403
0.120414 0.127417 0.113490
0.132098 0.133871 0.116088
0.143781 0.140325 0.118686
0.155465 0.146779 0.121284
0.167148 0.153233 0.123882
0.178832 0.159687 0.126480
0.190823 0.165671 0.130379
0.202875 0.171560 0.134539
0.214928 0.177450 0.138698
0.226980 0.183340 0.142857
0.239033 0.189230 0.147016
0.251313 0.194989 0.151702
0.263707 0.200684 0.156651
0.276101 0.206379 0.161600
0.288495 0.212073 0.166549
0.300889 0.217768 0.171498
0.313831 0.224002 0.176848
0.327321 0.230776 0.182600
0.340811 0.237550 0.188351
0.354302 0.244325 0.194102
0.367792 0.251099 0.199853
0.381307 0.258258 0.205819
0.394872 0.266190 0.212217
0.408437 0.274121 0.218614
0.422002 0.282052 0.225012
0.435567 0.289984 0.231409
0.448978 0.298100 0.237913
0.461619 0.307141 0.244951
0.474259 0.316182 0.251989
0.486900 0.325224 0.259027
0.499541 0.334265 0.266065
0.512182 0.343306 0.273103
0.124290 0.132049 0.115853
0.136056 0.138595 0.118579
0.147822 0.145140 0.121306
0.159588 0.151685 0.124032
0.171353 0.158231 0.126758
0.183119 0.164776 0.129484
0.196069 0.171583 0.133641
0.209256 0.178443 0.138083
0.222443 0.185302 0.142526
0.235630 0.192162 0.146969
0.248816 0.199021 0.151412
0.261633 0.205336 0.156394
0.274265 0.211378 0.161645
0.286897 0.217420 0.166895
0.299529 0.223463 0.172146
0.312161 0.229505 0.177397
0.325382 0.236123 0.183113
0.339192 0.243318 0.189294
0.353003 0.250513 0.195475
0.366813 0.257708 0.201656
0.380623 0.264903 0.207837
0.394446 0.272505 0.214283
0.408295 0.280921 0.221256
0.422143 0.289337 0.228230
0.435992 0.297753 0.235204
0.449840 0.306169 0.242178
0.463520 0.314781 0.249274
0.476353 0.324371 0.256979
0.489186 0.333961 0.264685
0.502019 0.343552 0.272391
0.514852 0.353142 0.280096
0.527685 0.362732 0.287802
0.128166 0.136681 0.118217
0.140014 0.143318 0.121071
0.151862 0.149955 0.123925
0.163710 0.156592 0.126779
0.175558 0.163229 0.129633
0.187407 0.169866 0.132487
0.201316 0.177496 0.136902
0.215637 0.185325 0.141628
0.229958 0.193154 0.146355
0.244279 0.200983 0.151081
0.258600 0.208813 0.155808
0.271954 0.215682 0.161085
0.284823 0.222072 0.166638
0.297693 0.228462 0.172191
0.310563 0.234852 0.177743
0.323432 0.241242 0.183296
0.336933 0.248244 0.189378
0.351063 0.255860 0.195989
0.365194 0.263476 0.202600
0.379324 0.271091 0.209211
0.393455 0.278707 0.215822
0.407586 0.286751 0.222746
0.421718 0.295652 0.230296
0.435850 0.304553 0.237846
0.449982 0.313454 0.245396
0.464114 0.322355 0.252946
0.478062 0.331463 0.260634
0.491087 0.341602 0.269007
0.504112 0.351741 0.277381
0.517138 0.361880 0.285754
0.530163 0.372019 0.294128
0.543188 0.382158 0.302501
0.132041 0.141313 0.120580
0.143972 0.148042 0.123562
0.155902 0.154770 0.126544
0.167833 0.161498 0.129527
0.179763 0.168227 0.132509
0.191694 0.174955 0.135491
0.206562 0.183409 0.140163
0.222017 0.192207 0.145173
0.237473 0.201006 0.150183
0.252928 0.209805 0.155193
0.268384 0.218604 0.160203
0.282274 0.226029 0.165776
0.295382 0.232766 0.171631
0.308489 0.239504 0.177486
0.321597 0.246241 0.183341
0.334704 0.252978 0.189195
0.348483 0.260365 0.195643
0.362934 0.268402 0.202684
0.377385 0.276438 0.209725
0.391836 0.284475 0.216766
0.406286 0.292511 0.223807
0.420726 0.300998 0.231209
0.435141 0.310384 0.239336
0.449557 0.319769 0.247462
0.463973 0.329155 0.255589
0.478388 0.338541 0.263715
0.492604 0.348144 0.271994
0.505822 0.358832 0.281035
0.519039 0.369520 0.290077
0.532256 0.380208 0.299118
0.545473 0.390895 0.308159
0.558691 0.401583 0.317200
0.136988 0.146985 0.123731
0.149001 0.153841 0.126890
0.161014 0.160698 0.130049
0.173027 0.167554 0.133208
0.185040 0.174411 0.136367
0.197053 0.181267 0.139526
0.212443 0.190108 0.144403
0.228508 0.199346 0.149624
0.244573 0.208584 0.154844
0.260639 0.217822 0.160064
0.276704 0.227060 0.165285
0.291220 0.235180 0.171243
0.304962 0.242740 0.177571
0.318704 0.250301 0.183898
0.332446 0.257862 0.190225
0.346188 0.265423 0.196553
0.360386 0.273435 0.203464
0.375041 0.281898 0.210959
0.389696 0.290362 0.218455
0.404351 0.298825 0.225950
0.419006 0.307289 0.233445
0.433664 0.316229 0.241353
0.448326 0.326124 0.250086
0.462989 0.336019 0.258819
0.477652 0.345914 0.267553
0.492315 0.355809 0.276286
0.506765 0.365931 0.285188
0.520156 0.377186 0.294934
0.533548 0.388441 0.304679
0.546939 0.399696 0.314425
0.560330 0.410951 0.324171
0.573721 0.422206 0.333916
0.142471 0.153177 0.127276
0.154566 0.160179 0.130636
0.166661 0.167182 0.133996
0.178757 0.174185 0.137357
0.190852 0.181188 0.140717
0.202947 0.188190 0.144077
0.218640 0.197201 0.149133
0.235053 0.206612 0.154527
0.251466 0.216024 0.159921
0.267879 0.225436 0.165315
0.284292 0.234848 0.170710
0.299479 0.243733 0.177098
0.314054 0.252355 0.183983
0.328628 0.260977 0.190869
0.343202 0.269599 0.197754
0.357776 0.278221 0.204640
0.372464 0.286978 0.212063
0.387266 0.295872 0.220025
0.402067 0.304765 0.227987
0.416869 0.313659 0.235949
0.431670 0.322552 0.243910
0.446501 0.331953 0.252337
0.461393 0.342370 0.261692
0.476284 0.352786 0.271047
0.491176 0.363203 0.280403
0.506067 0.373619 0.289758
0.520736 0.384271 0.299299
0.534292 0.396103 0.309767
0.547847 0.407934 0.320235
0.561403 0.419765 0.330704
0.574959 0.431597 0.341172
0.588515 0.443428 0.351640
0.147954 0.159368 0.130820
0.160131 0.166517 0.134382
0.172309 0.173667 0.137944
0.184486 0.180816 0.141505
0.196664 0.187965 0.145067
0.208841 0.195114 0.148629
0.224838 0.204293 0.153862
0.241599 0.213879 0.159430
0.258359 0.223465 0.164998
0.275120 0.233050 0.170566
0.291881 0.242636 0.176134
0.307739 0.252286 0.182953
0.323145 0.261969 0.190396
0.338552 0.271653 0.197840
0.353959 0.281336 0.205283
0.369365 0.291019 0.212726
0.384543 0.300522 0.220662
0.399491 0.309845 0.229091
0.414438 0.319169 0.237519
0.429386 0.328492 0.245947
0.444334 0.337815 0.254376
0.459339 0.347677 0.263320
0.474459 0.358615 0.273298
0.489579 0.369553 0.283275
0.504699 0.380491 0.293252
0.519819 0.391429 0.303230
0.534706 0.402611 0.313410
0.548427 0.415019 0.324601
0.562147 0.427427 0.335792
0.575868 0.439835 0.346983
0.589588 0.452242 0.358174
0.603309 0.464650 0.369365
0.153437 0.165560 0.134365
0.165696 0.172855 0.138128
0.177956 0.180151 0.141891
0.190216 0.187446 0.145654
0.202476 0.194742 0.149417
0.214736 0.202037 0.153180
0.231036 0.211386 0.158592
0.248144 0.221146 0.164334
0.265252 0.230905 0.170075
0.282361 0.240664 0.175817
0.299469 0.250424 0.181559
0.315998 0.260840 0.188807
0.332237 0.271584 0.196809
0.348476 0.282328 0.204810
0.364715 0.293073 0.212812
0.380954 0.303817 0.220813
0.396621 0.314066 0.229261
0.411715 0.323819 0.238156
0.426809 0.333572 0.247051
0.441904 0.343325 0.255946
0.456998 0.353079 0.264841
0.472177 0.363401 0.274304
0.487526 0.374860 0.284903
0.502874 0.386319 0.295503
0.518223 0.397779 0.306102
0.533572 0.409238 0.316702
0.548677 0.420952 0.327520
0.562562 0.433936 0.339434
0.576447 0.446920 0.351348
0.590332 0.459904 0.363261
0.604217 0.472888 0.375175
0.618102 0.485872 0.387089
0.158919 0.171752 0.137910
0.171261 0.179193 0.141874
0.183604 0.186635 0.145838
0.195946 0.194077 0.149802
0.208288 0.201519 0.153767
0.220630 0.208961 0.157731
0.237234 0.218479 0.163321
0.254689 0.228412 0.169237
0.272145 0.238345 0.175153
0.289601 0.248278 0.181068
0.307057 0.258212 0.186984
0.324257 0.269393 0.194662
0.341328 0.281198 0.203222
0.358400 0.293004 0.211781
0.375472 0.304809 0.220341
0.392543 0.316615 0.228900
0.408699 0.327609 0.237860
0.423940 0.337792 0.247222
0.439181 0.347976 0.256583
0.454421 0.358159 0.265945
0.469662 0.368342 0.275306
0.485014 0.379125 0.285288
0.500592 0.391105 0.296509
0.516169 0.403086 0.307731
0.531747 0.415067 0.318952
0.547324 0.427048 0.330174
0.562647 0.439292 0.341631
0.576697 0.452852 0.354267
0.590747 0.466413 0.366904
0.604797 0.479973 0.379540
0.618846 0.493533 0.392177
0.632896 0.507094 0.404813
0.164733 0.178439 0.141928
0.177208 0.186105 0.146162
0.189682 0.193771 0.150396
0.202157 0.201438 0.154630
0.214632 0.209104 0.158864
0.227107 0.216770 0.163098
0.244053 0.226554 0.168965
0.261893 0.236761 0.175160
0.279733 0.246969 0.181355
0.297573 0.257176 0.187550
0.315413 0.267384 0.193744
0.333174 0.279090 0.201811
0.350895 0.291545 0.210814
0.368616 0.304000 0.219818
0.386337 0.316455 0.228821
0.404058 0.328910 0.237824
0.420626 0.340524 0.247283
0.436041 0.351297 0.257198
0.451455 0.362070 0.267113
0.466869 0.372844 0.277028
0.482284 0.383617 0.286942
0.497787 0.394942 0.297488
0.513470 0.407371 0.309295
0.529153 0.419800 0.321102
0.544835 0.432229 0.332909
0.560518 0.444658 0.344716
0.575939 0.457350 0.356768
0.590053 0.471354 0.370045
0.604167 0.485358 0.383321
0.618281 0.499362 0.396598
0.632395 0.513366 0.409875
0.646508 0.527370 0.423152
0.170877 0.185624 0.146418
0.183535 0.193592 0.150990
0.196193 0.201559 0.155563
0.208850 0.209527 0.160135
0.221508 0.217495 0.164708
0.234166 0.225463 0.169280
0.251493 0.235610 0.175525
0.269754 0.246193 0.182104
0.288015 0.256775 0.188682
0.306276 0.267358 0.195261
0.324537 0.277941 0.201840
0.342749 0.289930 0.210255
0.360936 0.302623 0.219587
0.379124 0.315316 0.228920
0.397312 0.328009 0.238252
0.415499 0.340702 0.247585
0.432401 0.352810 0.257529
0.448017 0.364333 0.268084
0.463632 0.375856 0.278639
0.479248 0.387380 0.289194
0.494864 0.398903 0.299750
0.510495 0.410854 0.310905
0.526160 0.423658 0.323261
0.541824 0.436462 0.335617
0.557489 0.449266 0.347973
0.573153 0.462070 0.360329
0.588553 0.475126 0.372931
0.602630 0.489441 0.386766
0.616707 0.503756 0.400600
0.630784 0.518071 0.414435
0.644862 0.532386 0.428270
0.658939 0.546701 0.442105
0.177022 0.192808 0.150908
0.189862 0.201078 0.155819
0.202703 0.209347 0.160730
0.215544 0.217617 0.165641
0.228384 0.225887 0.170552
0.241225 0.234157 0.175463
0.258933 0.244667 0.182084
0.277615 0.255624 0.189047
0.296297 0.266582 0.196010
0.314978 0.277540 0.202973
0.333660 0.288498 0.209936
0.352324 0.300771 0.218698
0.370978 0.313701 0.228360
0.389632 0.326632 0.238022
0.408286 0.339563 0.247684
0.426941 0.352493 0.257346
0.444176 0.365095 0.267774
0.459993 0.377369 0.278970
0.475810 0.389642 0.290166
0.491627 0.401916 0.301361
0.507444 0.414190 0.312557
0.523203 0.426765 0.324322
0.538850 0.439944 0.337227
0.554496 0.453123 0.350132
0.570142 0.466303 0.363036
0.585788 0.479482 0.375941
0.601166 0.492902 0.389094
0.615207 0.507528 0.403487
0.629248 0.522154 0.417879
0.643288 0.536780 0.432272
0.657329 0.551406 0.446665
0.671369 0.566033 0.461058
0.183166 0.199992 0.155398
0.196190 0.208564 0.160647
0.209213 0.217135 0.165897
0.222237 0.225707 0.171146
0.235261 0.234279 0.176396
0.248284 0.242850 0.181645
0.266374 0.253723 0.188643
0.285476 0.265056 0.195990
0.304579 0.276389 0.203337
0.323681 0.287722 0.210685
0.342784 0.299054 0.218032
0.361898 0.311611 0.227142
0.381019 0.324779 0.237133
0.400140 0.337948 0.247124
0.419261 0.351116 0.257115
0.438382 0.364285 0.267107
0.455951 0.377381 0.278020
0.471969 0.390405 0.289856
0.487987 0.403428 0.301692
0.504005 0.416452 0.313528
0.520024 0.429476 0.325364
0.535912 0.442676 0.337739
0.551539 0.456231 0.351193
0.567167 0.469785 0.364646
0.582795 0.483339 0.378100
0.598423 0.496893 0.391554
0.613780 0.510678 0.405257
0.627784 0.525615 0.420208
0.641788 0.540552 0.435158
0.655792 0.555489 0.450109
0.669796 0.570427 0.465060
0.683800 0.585364 0.480011
0.189310 0.207176 0.159888
0.202517 0.216050 0.165476
0.215724 0.224923 0.171064
0.228930 0.233797 0.176652
0.242137 0.242670 0.182240
0.255344 0.251544 0.187828
0.273814 0.262780 0.195202
0.293337 0.274487 0.202933
0.312861 0.286195 0.210665
0.332384 0.297903 0.218397
0.351907 0.309611 0.226128
0.371473 0.322451 0.235586
0.391061 0.335858 0.245906
0.410648 0.349264 0.256227
0.430235 0.362670 0.266547
0.449823 0.376077 0.276867
0.467726 0.389667 0.288266
0.483945 0.403441 0.300742
0.500165 0.417214 0.313218
0.516384 0.430988 0.325695
0.532604 0.444762 0.338171
0.548620 0.458588 0.351156
0.564229 0.472517 0.365159
0.579839 0.486446 0.379161
0.595448 0.500376 0.393164
0.611058 0.514305 0.407166
0.626393 0.528454 0.421420
0.640361 0.543702 0.436929
0.654328 0.558950 0.452437
0.668296 0.574199 0.467946
0.682263 0.589447 0.483455
0.696231 0.604695 0.498964
0.195124 0.214140 0.164299
0.208605 0.223456 0.170378
0.222086 0.232771 0.176457
0.235567 0.242087 0.182536
0.249048 0.251403 0.188615
0.262529 0.260718 0.194694
0.281437 0.272432 0.202574
0.301430 0.284624 0.210815
0.321423 0.296817 0.219056
0.341416 0.309010 0.227297
0.361408 0.321203 0.235537
0.381442 0.334389 0.245402
0.401496 0.348073 0.256080
0.421550 0.361757 0.266757
0.441604 0.375441 0.277434
0.461658 0.389125 0.288111
0.479913 0.403119 0.299949
0.496370 0.417423 0.312947
0.512828 0.431728 0.325944
0.529285 0.446032 0.338942
0.545742 0.460337 0.351940
0.561867 0.474610 0.365439
0.577327 0.488823 0.379942
0.592787 0.503036 0.394444
0.608247 0.517249 0.408947
0.623707 0.531462 0.423450
0.638900 0.545887 0.438205
0.652758 0.561373 0.454226
0.666616 0.576859 0.470248
0.680473 0.592345 0.486269
0.694331 0.607831 0.502290
0.708189 0.623317 0.518311
0.200276 0.220662 0.168553
0.214214 0.230701 0.175428
0.228153 0.240739 0.182303
0.242091 0.250778 0.189177
0.256030 0.260816 0.196052
0.269968 0.270854 0.202927
0.289425 0.283275 0.211573
0.309985 0.296172 0.220573
0.330545 0.309069 0.229573
0.351105 0.321966 0.238573
0.371665 0.334864 0.247573
0.392199 0.348523 0.257966
0.412719 0.362564 0.269055
0.433239 0.376604 0.280143
0.453760 0.390645 0.291232
0.474280 0.404686 0.302321
0.492925 0.418904 0.314506
0.509693 0.433300 0.327788
0.526461 0.447696 0.341069
0.543229 0.462091 0.354350
0.559998 0.476487 0.367632
0.576193 0.490856 0.381454
0.591241 0.505169 0.396359
0.606289 0.519483 0.411264
0.621338 0.533796 0.426170
0.636386 0.548110 0.441075
0.651194 0.562634 0.456236
0.664795 0.578212 0.472678
0.678397 0.593789 0.489120
0.691998 0.609367 0.505562
0.705600 0.624944 0.522004
0.719201 0.640521 0.538446
0.205428 0.227185 0.172807
0.219823 0.237946 0.180478
0.234219 0.248707 0.188148
0.248615 0.259468 0.195819
0.263011 0.270229 0.203489
0.277407 0.280990 0.211160
0.297412 0.294118 0.220571
0.318540 0.307720 0.230331
0.339667 0.321322 0.240090
0.360794 0.334923 0.249849
0.381921 0.348525 0.259609
0.402955 0.362657 0.270529
0.423942 0.377054 0.282029
0.444929 0.391451 0.293530
0.465916 0.405849 0.305030
0.486903 0.420246 0.316531
0.505936 0.434689 0.329064
0.523015 0.449176 0.342629
0.540095 0.463663 0.356194
0.557174 0.478151 0.369759
0.574253 0.492638 0.383323
0.590518 0.507101 0.397469
0.605155 0.521515 0.412777
0.619792 0.535929 0.428085
0.634429 0.550343 0.443392
0.649065 0.564758 0.458700
0.663487 0.579381 0.474267
0.676832 0.595050 0.491129
0.690178 0.610719 0.507992
0.703523 0.626388 0.524855
0.716868 0.642057 0.541718
0.730214 0.657726 0.558580
0.210579 0.233708 0.177061
0.225433 0.245191 0.185527
0.240286 0.256675 0.193994
0.255139 0.268159 0.202460
0.269992 0.279643 0.210927
0.284846 0.291126 0.219393
0.305400 0.304962 0.229570
0.327094 0.319268 0.240088
0.348789 0.333574 0.250607
0.370483 0.347880 0.261126
0.392178 0.362186 0.271644
0.413712 0.376790 0.283092
0.435165 0.391544 0.295004
0.456619 0.406299 0.306917
0.478072 0.421053 0.318829
0.499526 0.435807 0.330741
0.518948 0.450473 0.343621
0.536338 0.465052 0.357470
0.553728 0.479631 0.371318
0.571119 0.494210 0.385167
0.588509 0.508789 0.399015
0.604844 0.523346 0.413484
0.619069 0.537861 0.429195
0.633294 0.552376 0.444905
0.647519 0.566891 0.460615
0.661745 0.581405 0.476325
0.675780 0.596128 0.492297
0.688870 0.611888 0.509581
0.701959 0.627649 0.526864
0.715048 0.643409 0.544148
0.728137 0.659170 0.561432
0.741227 0.674930 0.578715
0.215731 0.240230 0.181315
0.231042 0.252436 0.190577
0.246353 0.264643 0.199839
0.261663 0.276849 0.209102
0.276974 0.289056 0.218364
0.292285 0.301262 0.227626
0.313388 0.315805 0.238568
0.335649 0.330816 0.249846
0.357911 0.345826 0.261124
0.380173 0.360836 0.272402
0.402434 0.375847 0.283680
0.424468 0.390924 0.295655
0.446388 0.406035 0.307979
0.468308 0.421146 0.320303
0.490228 0.436257 0.332627
0.512148 0.451368 0.344951
0.531959 0.466258 0.358179
0.549660 0.480929 0.372311
0.567362 0.495599 0.386443
0.585063 0.510269 0.400575
0.602764 0.524940 0.414707
0.619170 0.539592 0.429499
0.632983 0.554207 0.445612
0.646797 0.568822 0.461725
0.660610 0.583438 0.477837
0.674424 0.598053 0.493950
0.688074 0.612875 0.510328
0.700907 0.628727 0.528032
0.713740 0.644579 0.545737
0.726573 0.660431 0.563441
0.739406 0.676282 0.581146
0.752239 0.692134 0.598850
0.220371 0.246193 0.185206
0.236217 0.259263 0.195417
0.252063 0.272332 0.205628
0.267909 0.285401 0.215838
0.283754 0.298471 0.226049
0.299600 0.311540 0.236260
0.321298 0.326895 0.248097
0.344167 0.342708 0.260259
0.367035 0.358520 0.272421
0.389903 0.374332 0.284583
0.412772 0.390145 0.296745
0.435319 0.405747 0.309320
0.457706 0.421246 0.322102
0.480092 0.436744 0.334883
0.502479 0.452242 0.347664
0.524866 0.467740 0.360445
0.545047 0.482852 0.374015
0.563023 0.497577 0.388373
0.580998 0.512302 0.402730
0.598974 0.527028 0.417088
0.616950 0.541753 0.431446
0.633418 0.556450 0.446490
0.646872 0.571089 0.462906
0.660326 0.585729 0.479322
0.673779 0.600369 0.495738
0.687233 0.615009 0.512154
0.700542 0.629856 0.528847
0.713126 0.645742 0.546923
0.725711 0.661627 0.565000
0.738295 0.677513 0.583076
0.750880 0.693398 0.601152
0.763464 0.709284 0.619229
0.222451 0.249360 0.187286
0.239220 0.263994 0.199207
0.255990 0.278627 0.211129
0.272760 0.293261 0.223050
0.289530 0.307895 0.234971
0.306300 0.322529 0.246893
0.328822 0.339219 0.260272
0.352496 0.356321 0.273944
0.376169 0.373424 0.287616
0.399843 0.390526 0.301287
0.423516 0.407628 0.314959
0.446643 0.424021 0.328495
0.469496 0.440058 0.341962
0.492349 0.456096 0.355429
0.515202 0.472134 0.368897
0.538055 0.488172 0.382364
0.558516 0.503490 0.396245
0.576583 0.518087 0.410538
0.594650 0.532684 0.424832
0.612717 0.547281 0.439126
