filters/luts/Depression 04_S.cube
# LUT by SparkleStock. Enhanced with VOXCOLOR algorithms.
LUT_3D_SIZE 32
0.019536 0.054701 0.019536
0.027697 0.058616 0.023561
0.035858 0.062531 0.027587
0.044019 0.066446 0.031612
0.052180 0.070361 0.035637
0.062043 0.074591 0.039694
0.073181 0.079058 0.043775
0.084320 0.083524 0.047855
0.095459 0.087991 0.051936
0.107054 0.092568 0.056024
0.121391 0.097806 0.060160
0.135728 0.103045 0.064296
0.150065 0.108283 0.068431
0.164402 0.113522 0.072567
0.180393 0.119824 0.076821
0.197046 0.126551 0.081122
0.213699 0.133278 0.085423
0.230352 0.140006 0.089724
0.247257 0.147158 0.094056
0.264792 0.155374 0.098468
0.282327 0.163591 0.102879
0.299862 0.171807 0.107291
0.317397 0.180023 0.111702
0.334791 0.189184 0.116539
0.352160 0.198503 0.121446
0.369530 0.207822 0.126354
0.386900 0.217141 0.131262
0.403821 0.226295 0.136595
0.420143 0.235228 0.142495
0.436465 0.244161 0.148395
0.452787 0.253094 0.154295
0.469109 0.262027 0.160195
0.022348 0.060215 0.022679
0.032153 0.065674 0.026219
0.041957 0.071133 0.029759
0.051762 0.076592 0.033298
0.061567 0.082051 0.036838
0.072902 0.087043 0.040523
0.085385 0.091684 0.044317
0.097869 0.096324 0.048112
0.110352 0.100965 0.051906
0.123275 0.105697 0.055736
0.138832 0.110973 0.059785
0.154389 0.116248 0.063833
0.169946 0.121524 0.067882
0.185504 0.126800 0.071930
0.202306 0.132988 0.076301
0.219606 0.139541 0.080802
0.236907 0.146094 0.085302
0.254207 0.152647 0.089802
0.271539 0.159611 0.094437
0.288949 0.167603 0.099409
0.306360 0.175595 0.104380
0.323771 0.183588 0.109352
0.341181 0.191580 0.114324
0.357671 0.200602 0.119956
0.374007 0.209797 0.125698
0.390344 0.218991 0.131439
0.406680 0.228186 0.137181
0.422236 0.237348 0.143402
0.436753 0.246468 0.150261
0.451269 0.255588 0.157120
0.465786 0.264707 0.163979
0.480302 0.273827 0.170838
0.025161 0.065729 0.025822
0.036609 0.072732 0.028876
0.048057 0.079735 0.031931
0.059505 0.086738 0.034985
0.070953 0.093741 0.038039
0.083761 0.099494 0.041352
0.097590 0.104309 0.044860
0.111418 0.109124 0.048368
0.125246 0.113940 0.051875
0.139496 0.118826 0.055448
0.156273 0.124139 0.059409
0.173050 0.129452 0.063371
0.189828 0.134766 0.067332
0.206605 0.140079 0.071293
0.224219 0.146153 0.075782
0.242166 0.152532 0.080481
0.260114 0.158910 0.085181
0.278062 0.165289 0.089880
0.295821 0.172065 0.094818
0.313107 0.179833 0.100350
0.330393 0.187600 0.105882
0.347679 0.195368 0.111414
0.364965 0.203136 0.116946
0.380551 0.212020 0.123373
0.395854 0.221090 0.129949
0.411157 0.230160 0.136525
0.426460 0.239230 0.143101
0.440652 0.248401 0.150209
0.453363 0.257708 0.158027
0.466074 0.267015 0.165845
0.478785 0.276321 0.173662
0.491496 0.285628 0.181480
0.027973 0.071243 0.028965
0.041065 0.079790 0.031534
0.054156 0.088337 0.034102
0.067248 0.096884 0.036671
0.080340 0.105431 0.039239
0.094621 0.111946 0.042181
0.109794 0.116935 0.045402
0.124967 0.121925 0.048624
0.140140 0.126914 0.051845
0.155716 0.131955 0.055160
0.173714 0.137306 0.059034
0.191711 0.142656 0.062908
0.209709 0.148007 0.066782
0.227707 0.153357 0.070656
0.246131 0.159318 0.075262
0.264727 0.165522 0.080161
0.283322 0.171726 0.085060
0.301917 0.177931 0.089959
0.320103 0.184518 0.095198
0.337264 0.192062 0.101291
0.354426 0.199605 0.107383
0.371588 0.207149 0.113475
0.388749 0.214693 0.119568
0.403432 0.223438 0.126790
0.417701 0.232384 0.134200
0.431970 0.241329 0.141610
0.446240 0.250275 0.149021
0.459067 0.259455 0.157017
0.469973 0.268948 0.165793
0.480879 0.278441 0.174570
0.491784 0.287935 0.183346
0.502690 0.297428 0.192123
0.030785 0.076758 0.032108
0.045520 0.086849 0.034191
0.060256 0.096940 0.036274
0.074991 0.107031 0.038357
0.089726 0.117122 0.040440
0.105480 0.124397 0.043010
0.121998 0.129561 0.045945
0.138516 0.134725 0.048880
0.155033 0.139888 0.051815
0.171937 0.145084 0.054872
0.191155 0.150472 0.058659
0.210373 0.155860 0.062446
0.229590 0.161248 0.066233
0.248808 0.166636 0.070020
0.268044 0.172482 0.074743
0.287287 0.178512 0.079841
0.306529 0.184542 0.084939
0.325772 0.190572 0.090037
0.344385 0.196971 0.095579
0.361422 0.204291 0.102232
0.378459 0.211610 0.108884
0.395496 0.218930 0.115537
0.412533 0.226250 0.122190
0.426312 0.234856 0.130207
0.439548 0.243677 0.138451
0.452784 0.252498 0.146696
0.466020 0.261319 0.154941
0.477483 0.270508 0.163824
0.486583 0.280188 0.173559
0.495684 0.289868 0.183295
0.504784 0.299548 0.193030
0.513884 0.309228 0.202765
0.034196 0.083154 0.035378
0.049629 0.093907 0.037359
0.065061 0.104659 0.039341
0.080494 0.115412 0.041322
0.095926 0.126165 0.043304
0.112784 0.134393 0.045707
0.130711 0.140727 0.048427
0.148637 0.147061 0.051147
0.166564 0.153395 0.053866
0.184796 0.159610 0.056729
0.204864 0.165106 0.060450
0.224932 0.170603 0.064172
0.245000 0.176099 0.067893
0.265069 0.181596 0.071614
0.284974 0.187430 0.076481
0.304815 0.193399 0.081807
0.324655 0.199369 0.087132
0.344495 0.205339 0.092458
0.363560 0.211658 0.098331
0.380686 0.218853 0.105573
0.397812 0.226049 0.112814
0.414938 0.233244 0.120055
0.432064 0.240439 0.127297
0.445391 0.248988 0.136162
0.458084 0.257763 0.145298
0.470778 0.266537 0.154433
0.483471 0.275312 0.163569
0.494146 0.284567 0.173400
0.502131 0.294462 0.184158
0.510116 0.304358 0.194916
0.518101 0.314253 0.205674
0.526086 0.324148 0.216432
0.038056 0.090212 0.038741
0.053476 0.100965 0.040910
0.068896 0.111718 0.043078
0.084316 0.122470 0.045246
0.099737 0.133223 0.047414
0.117421 0.142547 0.049805
0.136805 0.150798 0.052363
0.156188 0.159050 0.054921
0.175571 0.167302 0.057479
0.195134 0.175183 0.060196
0.215775 0.180841 0.063867
0.236416 0.186500 0.067539
0.257057 0.192158 0.071210
0.277698 0.197816 0.074882
0.298167 0.203715 0.079912
0.318568 0.209709 0.085487
0.338969 0.215704 0.091062
0.359370 0.221698 0.096636
0.378906 0.228021 0.102862
0.396281 0.235167 0.110713
0.413656 0.242312 0.118565
0.431031 0.249457 0.126416
0.448406 0.256603 0.134268
0.461619 0.265155 0.144020
0.474138 0.273942 0.154090
0.486657 0.282730 0.164160
0.499176 0.291517 0.174229
0.509495 0.300880 0.185053
0.516883 0.311012 0.196882
0.524270 0.321144 0.208711
0.531657 0.331276 0.220540
0.539044 0.341408 0.232368
0.041916 0.097270 0.042105
0.057324 0.108023 0.044460
0.072731 0.118776 0.046815
0.088139 0.129529 0.049170
0.103547 0.140281 0.051525
0.122059 0.150701 0.053904
0.142899 0.160870 0.056300
0.163739 0.171039 0.058696
0.184579 0.181208 0.061092
0.205473 0.190756 0.063663
0.226686 0.196576 0.067284
0.247900 0.202397 0.070906
0.269113 0.208217 0.074528
0.290327 0.214037 0.078149
0.311360 0.219999 0.083344
0.332321 0.226019 0.089167
0.353283 0.232038 0.094991
0.374244 0.238057 0.100815
0.394251 0.244384 0.107392
0.411875 0.251480 0.115854
0.429499 0.258575 0.124315
0.447124 0.265671 0.132777
0.464748 0.272766 0.141239
0.477847 0.281322 0.151879
0.490191 0.290122 0.162883
0.502536 0.298922 0.173886
0.514881 0.307721 0.184890
0.524845 0.317193 0.196706
0.531634 0.327562 0.209605
0.538424 0.337930 0.222505
0.545213 0.348299 0.235405
0.552003 0.358667 0.248304
0.045776 0.104329 0.045469
0.061171 0.115081 0.048010
0.076566 0.125834 0.050552
0.091962 0.136587 0.053094
0.107357 0.147339 0.055636
0.126696 0.158854 0.058002
0.148993 0.170941 0.060236
0.171290 0.183028 0.062470
0.193587 0.195115 0.064704
0.215811 0.206329 0.067130
0.237597 0.212311 0.070701
0.259384 0.218293 0.074273
0.281170 0.224275 0.077845
0.302956 0.230257 0.081417
0.324554 0.236284 0.086775
0.346075 0.242328 0.092848
0.367596 0.248372 0.098920
0.389118 0.254417 0.104993
0.409597 0.260747 0.111923
0.427470 0.267793 0.120994
0.445343 0.274839 0.130066
0.463216 0.281884 0.139138
0.481089 0.288930 0.148210
0.494074 0.297490 0.159738
0.506245 0.306302 0.171675
0.518415 0.315114 0.183612
0.530585 0.323926 0.195550
0.540194 0.333506 0.208358
0.546385 0.344111 0.222329
0.552577 0.354716 0.236299
0.558769 0.365322 0.250270
0.564961 0.375927 0.264240
0.049809 0.111607 0.048974
0.065194 0.122342 0.051711
0.080578 0.133077 0.054449
0.095963 0.143812 0.057187
0.111347 0.154547 0.059924
0.131407 0.166986 0.062327
0.154972 0.180704 0.064480
0.178537 0.194422 0.066632
0.202102 0.208140 0.068784
0.225496 0.220813 0.071141
0.247860 0.227213 0.074723
0.270225 0.233613 0.078306
0.292590 0.240013 0.081888
0.314954 0.246413 0.085471
0.337085 0.252596 0.091000
0.359122 0.258691 0.097307
0.381159 0.264787 0.103615
0.403196 0.270883 0.109922
0.424118 0.277242 0.117188
0.442249 0.284260 0.126850
0.460380 0.291277 0.136513
0.478511 0.298294 0.146175
0.496642 0.305311 0.155837
0.509568 0.313884 0.168226
0.521626 0.322715 0.181069
0.533684 0.331547 0.193911
0.545743 0.340379 0.206754
0.555075 0.350070 0.220525
0.560772 0.360908 0.235535
0.566470 0.371746 0.250544
0.572167 0.382584 0.265553
0.577864 0.393422 0.280562
0.054882 0.120210 0.053330
0.070267 0.130820 0.056317
0.085651 0.141430 0.059303
0.101036 0.152041 0.062290
0.116420 0.162651 0.065276
0.136558 0.174987 0.068014
0.160260 0.188618 0.070565
0.183962 0.202249 0.073115
0.207664 0.215880 0.075666
0.231263 0.228757 0.078418
0.254237 0.237112 0.082374
0.277212 0.245466 0.086330
0.300187 0.253821 0.090286
0.323161 0.262176 0.094242
0.345644 0.269069 0.099984
0.367930 0.275376 0.106441
0.390217 0.281684 0.112898
0.412503 0.287991 0.119355
0.433691 0.294530 0.126863
0.452133 0.301647 0.136998
0.470576 0.308764 0.147134
0.489018 0.315881 0.157269
0.507460 0.322998 0.167405
0.520655 0.331638 0.180490
0.532975 0.340532 0.194068
0.545294 0.349425 0.207645
0.557614 0.358319 0.221223
0.567149 0.368137 0.235776
0.572971 0.379187 0.251632
0.578793 0.390237 0.267488
0.584615 0.401286 0.283344
0.590437 0.412336 0.299200
0.059955 0.128812 0.057686
0.075340 0.139298 0.060922
0.090724 0.149783 0.064158
0.106109 0.160269 0.067393
0.121494 0.170755 0.070629
0.141709 0.182988 0.073701
0.165548 0.196532 0.076650
0.189388 0.210075 0.079599
0.213227 0.223619 0.082548
0.237029 0.236701 0.085695
0.260614 0.247010 0.090024
0.284199 0.257320 0.094354
0.307784 0.267630 0.098683
0.331369 0.277940 0.103013
0.354204 0.285542 0.108969
0.376739 0.292061 0.115575
0.399274 0.298580 0.122181
0.421810 0.305100 0.128788
0.443264 0.311818 0.136538
0.462018 0.319035 0.147146
0.480772 0.326251 0.157755
0.499525 0.333468 0.168363
0.518279 0.340684 0.178972
0.531742 0.349392 0.192755
0.544323 0.358348 0.207067
0.556904 0.367304 0.221379
0.569486 0.376260 0.235691
0.579223 0.386204 0.251028
0.585170 0.397466 0.267730
0.591116 0.408727 0.284433
0.597063 0.419988 0.301136
0.603009 0.431250 0.317838
0.065028 0.137414 0.062043
0.080413 0.147775 0.065527
0.095797 0.158137 0.069012
0.111182 0.168498 0.072496
0.126567 0.178859 0.075981
0.146861 0.190989 0.079387
0.170837 0.204446 0.082735
0.194813 0.217902 0.086083
0.218789 0.231359 0.089430
0.242796 0.244645 0.092972
0.266991 0.256909 0.097675
0.291186 0.269174 0.102378
0.315381 0.281439 0.107081
0.339576 0.293703 0.111784
0.362763 0.302015 0.117953
0.385547 0.308746 0.124709
0.408332 0.315477 0.131465
0.431116 0.322208 0.138221
0.452838 0.329106 0.146212
0.471903 0.336422 0.157294
0.490968 0.343738 0.168376
0.510032 0.351054 0.179458
0.529097 0.358370 0.190539
0.542829 0.367146 0.205020
0.555672 0.376164 0.220066
0.568514 0.385182 0.235113
0.581357 0.394201 0.250160
0.591298 0.404271 0.266279
0.597369 0.415744 0.283828
0.603440 0.427217 0.301378
0.609511 0.438690 0.318927
0.615582 0.450163 0.336476
0.070101 0.146016 0.066399
0.085486 0.156253 0.070132
0.100870 0.166490 0.073866
0.116255 0.176727 0.077600
0.131640 0.186963 0.081333
0.152012 0.198990 0.085074
0.176125 0.212359 0.088820
0.200238 0.225729 0.092566
0.224351 0.239098 0.096312
0.248563 0.252589 0.100249
0.273368 0.266808 0.105325
0.298173 0.281028 0.110402
0.322978 0.295247 0.115479
0.347783 0.309467 0.120555
0.371323 0.318488 0.126938
0.394356 0.325431 0.133843
0.417389 0.332374 0.140748
0.440423 0.339316 0.147653
0.462411 0.346394 0.155887
0.481787 0.353810 0.167442
0.501163 0.361225 0.178997
0.520540 0.368641 0.190552
0.539916 0.376057 0.202107
0.553916 0.384899 0.217284
0.567020 0.393980 0.233066
0.580124 0.403061 0.248847
0.593229 0.412141 0.264628
0.603372 0.422338 0.281530
0.609568 0.434023 0.299926
0.615763 0.445708 0.318322
0.621958 0.457392 0.336718
0.628154 0.469077 0.355114
0.075844 0.155327 0.071503
0.091264 0.165448 0.075548
0.106684 0.175570 0.079593
0.122104 0.185691 0.083638
0.137525 0.195812 0.087683
0.158006 0.207739 0.091846
0.182282 0.221022 0.096097
0.206559 0.234304 0.100349
0.230836 0.247586 0.104600
0.255240 0.261074 0.109049
0.280406 0.275799 0.114686
0.305572 0.290523 0.120323
0.330738 0.305248 0.125960
0.355904 0.319973 0.131597
0.379464 0.330033 0.138456
0.402382 0.338228 0.145804
0.425300 0.346423 0.153152
0.448217 0.354618 0.160500
0.470187 0.362644 0.169122
0.489785 0.370248 0.180928
0.509384 0.377852 0.192733
0.528982 0.385456 0.204539
0.548581 0.393061 0.216345
0.562883 0.402022 0.231974
0.576302 0.411209 0.248241
0.589721 0.420397 0.264508
0.603140 0.429584 0.280775
0.613612 0.439887 0.298173
0.620154 0.451676 0.317077
0.626696 0.463466 0.335982
0.633239 0.475256 0.354887
0.639781 0.487046 0.373792
0.081854 0.164922 0.076907
0.097324 0.174931 0.081288
0.112794 0.184940 0.085670
0.128264 0.194949 0.090051
0.143734 0.204958 0.094432
0.164336 0.216788 0.099052
0.188787 0.229983 0.103851
0.213238 0.243178 0.108650
0.237689 0.256373 0.113449
0.262280 0.269776 0.118459
0.287708 0.284426 0.124731
0.313135 0.299076 0.131003
0.338563 0.313726 0.137275
0.363990 0.328376 0.143547
0.387438 0.339607 0.150987
0.410095 0.349470 0.158896
0.432751 0.359333 0.166804
0.455407 0.369196 0.174713
0.477243 0.378478 0.183781
0.497028 0.386307 0.195748
0.516814 0.394135 0.207716
0.536599 0.401964 0.219684
0.556384 0.409792 0.231651
0.571001 0.418892 0.247635
0.584756 0.428204 0.264288
0.598511 0.437516 0.280941
0.612267 0.446827 0.297593
0.623117 0.457228 0.315372
0.630096 0.469080 0.334650
0.637074 0.480932 0.353928
0.644052 0.492784 0.373207
0.651030 0.504636 0.392485
0.087865 0.174517 0.082311
0.103385 0.184414 0.087029
0.118904 0.194311 0.091746
0.134424 0.204208 0.096463
0.149944 0.214105 0.101180
0.170667 0.225837 0.106258
0.195292 0.238944 0.111605
0.219918 0.252052 0.116952
0.244543 0.265160 0.122299
0.269320 0.278477 0.127868
0.295009 0.293053 0.134775
0.320698 0.307628 0.141682
0.346388 0.322203 0.148589
0.372077 0.336779 0.155496
0.395413 0.349180 0.163519
0.417807 0.360712 0.171988
0.440202 0.372244 0.180456
0.462597 0.383775 0.188925
0.484299 0.394313 0.198440
0.504271 0.402366 0.210569
0.524244 0.410418 0.222699
0.544216 0.418471 0.234828
0.564188 0.426523 0.246958
0.579119 0.435762 0.263295
0.593211 0.445198 0.280334
0.607302 0.454635 0.297373
0.621394 0.464071 0.314412
0.632623 0.474569 0.332570
0.640037 0.486483 0.352222
0.647451 0.498398 0.371874
0.654865 0.510312 0.391526
0.662279 0.522226 0.411178
0.093875 0.184111 0.087715
0.109445 0.193896 0.092769
0.125015 0.203681 0.097822
0.140584 0.213466 0.102876
0.156154 0.223251 0.107929
0.176998 0.234885 0.113463
0.201797 0.247906 0.119358
0.226597 0.260927 0.125253
0.251397 0.273947 0.131148
0.276361 0.287179 0.137278
0.302311 0.301680 0.144820
0.328262 0.316180 0.152362
0.354212 0.330681 0.159904
0.380163 0.345181 0.167446
0.403387 0.358753 0.176050
0.425520 0.371954 0.185079
0.447653 0.385154 0.194108
0.469787 0.398354 0.203138
0.491356 0.410148 0.213099
0.511515 0.418424 0.225390
0.531673 0.426701 0.237681
0.551832 0.434978 0.249973
0.571991 0.443254 0.262264
0.587238 0.452632 0.278955
0.601665 0.462193 0.296380
0.616093 0.471753 0.313805
0.630520 0.481314 0.331230
0.642129 0.491911 0.349769
0.649979 0.503887 0.369795
0.657828 0.515863 0.389820
0.665678 0.527840 0.409846
0.673528 0.539816 0.429871
0.099933 0.193659 0.093245
0.115581 0.203389 0.098706
0.131229 0.213118 0.104167
0.146877 0.222848 0.109628
0.162525 0.232578 0.115088
0.183516 0.244173 0.121149
0.208515 0.257167 0.127659
0.233514 0.270161 0.134170
0.258513 0.283155 0.140680
0.283686 0.296355 0.147429
0.309909 0.310792 0.155613
0.336132 0.325228 0.163798
0.362354 0.339665 0.171982
0.388577 0.354101 0.180166
0.411804 0.368488 0.189369
0.433832 0.382855 0.198980
0.455860 0.397223 0.208590
0.477889 0.411590 0.218201
0.499367 0.424357 0.228623
0.519471 0.433125 0.241073
0.539575 0.441892 0.253522
0.559678 0.450660 0.265972
0.579782 0.459427 0.278422
0.595281 0.469000 0.295363
0.610013 0.478707 0.313053
0.624745 0.488413 0.330743
0.639477 0.498120 0.348433
0.651441 0.508813 0.367226
0.659716 0.520819 0.387489
0.667991 0.532826 0.407753
0.676266 0.544833 0.428017
0.684541 0.556840 0.448281
0.106109 0.203088 0.099090
0.121906 0.212905 0.105136
0.137704 0.222722 0.111182
0.153501 0.232539 0.117228
0.169298 0.242356 0.123274
0.190503 0.254060 0.130034
0.215763 0.267178 0.137329
0.241024 0.280297 0.144623
0.266284 0.293415 0.151918
0.291725 0.306717 0.159434
0.318246 0.321116 0.168278
0.344768 0.335515 0.177122
0.371289 0.349914 0.185966
0.397811 0.364313 0.194811
0.421327 0.378627 0.204656
0.443642 0.392907 0.214902
0.465957 0.407187 0.225147
0.488271 0.421467 0.235393
0.509766 0.434503 0.246311
0.529210 0.444429 0.258910
0.548653 0.454354 0.271509
0.568097 0.464280 0.284108
0.587541 0.474205 0.296707
0.603138 0.484114 0.313638
0.618094 0.494020 0.331291
0.633050 0.503926 0.348943
0.648006 0.513832 0.366596
0.660269 0.524617 0.385325
0.668942 0.536574 0.405489
0.677616 0.548531 0.425653
0.686289 0.560488 0.445817
0.694962 0.572445 0.465981
0.112285 0.212517 0.104935
0.128232 0.222421 0.111566
0.144178 0.232326 0.118198
0.160125 0.242230 0.124829
0.176072 0.252134 0.131460
0.197490 0.263946 0.138919
0.223012 0.277189 0.146998
0.248534 0.290432 0.155077
0.274055 0.303675 0.163157
0.299763 0.317078 0.171439
0.326583 0.331440 0.180943
0.353403 0.345802 0.190447
0.380224 0.360163 0.199951
0.407044 0.374525 0.209455
0.430851 0.388766 0.219943
0.453452 0.402959 0.230823
0.476053 0.417152 0.241704
0.498654 0.431345 0.252585
0.520165 0.444649 0.263999
0.538948 0.455733 0.276748
0.557732 0.466816 0.289496
0.576516 0.477900 0.302245
0.595300 0.488983 0.314993
0.610995 0.499228 0.331913
0.626175 0.509334 0.349528
0.641355 0.519439 0.367144
0.656535 0.529544 0.384759
0.669097 0.540421 0.403424
0.678169 0.552329 0.423488
0.687241 0.564236 0.443553
0.696312 0.576143 0.463617
0.705384 0.588050 0.483682
0.118461 0.221947 0.110780
0.134557 0.231938 0.117997
0.150653 0.241929 0.125213
0.166749 0.251921 0.132430
0.182845 0.261912 0.139646
0.204477 0.273833 0.147804
0.230260 0.287200 0.156668
0.256044 0.300568 0.165531
0.281827 0.313935 0.174395
0.307801 0.327439 0.183444
0.334920 0.341764 0.193608
0.362039 0.356088 0.203772
0.389159 0.370413 0.213936
0.416278 0.384737 0.224100
0.440374 0.398905 0.235229
0.463262 0.413011 0.246745
0.486149 0.427117 0.258261
0.509037 0.441222 0.269777
0.530563 0.454795 0.281687
0.548687 0.467037 0.294585
0.566811 0.479278 0.307483
0.584935 0.491520 0.320381
0.603059 0.503761 0.333279
0.618852 0.514343 0.350188
0.634256 0.524647 0.367766
0.649660 0.534952 0.385344
0.665064 0.545256 0.402922
0.677925 0.556226 0.421523
0.687395 0.568083 0.441488
0.696866 0.579941 0.461453
0.706336 0.591798 0.481418
0.715806 0.603655 0.501382
0.124637 0.231376 0.116625
0.140882 0.241454 0.124427
0.157128 0.251533 0.132229
0.173373 0.261611 0.140030
0.189619 0.271690 0.147832
0.211464 0.283719 0.156689
0.237509 0.297211 0.166337
0.263554 0.310703 0.175985
0.289598 0.324195 0.185633
0.315839 0.337801 0.195449
0.343257 0.352088 0.206273
0.370675 0.366375 0.217097
0.398093 0.380662 0.227921
0.425511 0.394949 0.238744
0.449898 0.409044 0.250516
0.473072 0.423063 0.262667
0.496246 0.437081 0.274818
0.519420 0.451100 0.286969
0.540962 0.464942 0.299376
0.558426 0.478341 0.312423
0.575890 0.491741 0.325470
0.593354 0.505140 0.338517
0.610818 0.518540 0.351565
0.626709 0.529457 0.368463
0.642337 0.539961 0.386004
0.657965 0.550464 0.403544
0.673593 0.560968 0.421085
0.686753 0.572030 0.439622
0.696622 0.583838 0.459487
0.706491 0.595645 0.479352
0.716359 0.607453 0.499218
0.726228 0.619260 0.519083
0.130009 0.238725 0.121667
0.146511 0.249307 0.130609
0.163012 0.259889 0.139551
0.179514 0.270471 0.148493
0.196016 0.281053 0.157434
0.218199 0.293589 0.167454
0.244644 0.307589 0.178281
0.271089 0.321590 0.189109
0.297534 0.335591 0.199936
0.324172 0.349664 0.210871
0.351963 0.364170 0.222451
0.379755 0.378676 0.234030
0.407547 0.393181 0.245610
0.435338 0.407687 0.257190
0.460044 0.421798 0.269426
0.483514 0.435751 0.281923
0.506985 0.449704 0.294421
0.530456 0.463656 0.306919
0.552230 0.477455 0.319643
0.569760 0.490871 0.332936
0.587289 0.504286 0.346229
0.604819 0.517702 0.359522
0.622349 0.531117 0.372814
0.638011 0.542546 0.389378
0.653362 0.553644 0.406486
0.668713 0.564742 0.423594
0.684064 0.575840 0.440702
0.697176 0.587234 0.458835
0.707305 0.599024 0.478334
0.717433 0.610813 0.497833
0.727561 0.622603 0.517332
0.737690 0.634393 0.536831
0.135248 0.245728 0.126575
0.152023 0.256883 0.136749
0.168799 0.268038 0.146924
0.185574 0.279193 0.157098
0.202350 0.290347 0.167273
0.224893 0.303456 0.178532
0.251761 0.318029 0.190605
0.278630 0.332603 0.202677
0.305498 0.347176 0.214750
0.332553 0.361777 0.226862
0.360731 0.376545 0.239214
0.388909 0.391312 0.251566
0.417086 0.406079 0.263917
0.445264 0.420847 0.276269
0.470293 0.434988 0.288939
0.494063 0.448878 0.301735
0.517832 0.462769 0.314532
0.541602 0.476659 0.327328
0.563642 0.490364 0.340341
0.581359 0.503605 0.353895
0.599076 0.516846 0.367450
0.616792 0.530088 0.381004
0.634509 0.543329 0.394558
0.649888 0.555298 0.410732
0.664878 0.567056 0.427342
0.679867 0.578814 0.443952
0.694857 0.590571 0.460562
0.707865 0.602338 0.478235
0.718230 0.614115 0.497323
0.728595 0.625892 0.516411
0.738960 0.637669 0.535499
0.749325 0.649447 0.554587
0.140486 0.252731 0.131482
0.157536 0.264459 0.142889
0.174585 0.276186 0.154297
0.191635 0.287914 0.165704
0.208684 0.299641 0.177111
0.231586 0.313322 0.189610
0.258878 0.328469 0.202928
0.286170 0.343615 0.216246
0.313462 0.358761 0.229563
0.340935 0.373891 0.242853
0.369499 0.388920 0.255977
0.398062 0.403948 0.269101
0.426626 0.418977 0.282225
0.455189 0.434006 0.295348
0.480542 0.448177 0.308452
0.504611 0.462006 0.321547
0.528679 0.475834 0.334643
0.552748 0.489662 0.347738
0.575055 0.503273 0.361039
0.592958 0.516339 0.374855
0.610862 0.529406 0.388670
0.628765 0.542473 0.402486
0.646668 0.555540 0.416302
0.661765 0.568050 0.432086
0.676394 0.580468 0.448198
0.691022 0.592886 0.464310
0.705651 0.605303 0.480422
0.718554 0.617441 0.497634
0.729155 0.629206 0.516311
0.739756 0.640971 0.534988
0.750358 0.652736 0.553665
0.760959 0.664500 0.572342
0.145725 0.259735 0.136390
0.163048 0.272035 0.149030
0.180371 0.284335 0.161670
0.197695 0.296635 0.174310
0.215018 0.308935 0.186950
0.238280 0.323189 0.200688
0.265995 0.338908 0.215251
0.293710 0.354627 0.229814
0.321425 0.370346 0.244377
0.349317 0.386004 0.258844
0.378266 0.401294 0.272740
0.407216 0.416585 0.286636
0.436165 0.431875 0.300532
0.465115 0.447165 0.314428
0.490791 0.461367 0.327965
0.515159 0.475133 0.341359
0.539526 0.488899 0.354753
0.563894 0.502665 0.368147
0.586468 0.516181 0.381737
0.604558 0.529074 0.395814
0.622648 0.541966 0.409891
0.640738 0.554859 0.423968
0.658828 0.567751 0.438046
0.673642 0.580802 0.453440
0.687909 0.593880 0.469054
0.702177 0.606958 0.484668
0.716444 0.620035 0.500282
0.729242 0.632545 0.517033
0.740080 0.644297 0.535299
0.750918 0.656049 0.553566
0.761756 0.667802 0.571832
0.772594 0.679554 0.590098
0.149829 0.264327 0.140092
0.167565 0.277574 0.154450
0.185301 0.290820 0.168809
0.203037 0.304067 0.183167
0.220773 0.317313 0.197525
0.244487 0.332474 0.212925
0.272684 0.349070 0.229107
0.300881 0.365666 0.245288
0.329079 0.382262 0.261470
0.357444 0.398736 0.277457
0.386823 0.414480 0.292280
0.416201 0.430224 0.307102
0.445579 0.445968 0.321925
0.474957 0.461712 0.336747
0.500966 0.476032 0.350683
0.525627 0.489784 0.364264
0.550288 0.503536 0.377845
0.574949 0.517288 0.391426
0.597775 0.530718 0.405112
0.616015 0.543346 0.419061
0.634254 0.555973 0.433010
0.652494 0.568601 0.446959
