filters/luts/Depression 01.cube
# Created by: Adobe Photoshop Export Color Lookup Plugin
# LUT by SparkleStock. Enhanced with VOXCOLOR algorithms.
LUT_3D_SIZE 8
DOMAIN_MIN 0.000000 0.000000 0.000000
DOMAIN_MAX 0.903226 0.903226 0.903226
0.101587 0.101587 0.101587
0.125787 0.109906 0.109906
0.156280 0.119698 0.119296
0.192123 0.132144 0.129993
0.232534 0.148167 0.142140
0.277908 0.169152 0.155942
0.327536 0.194391 0.171476
0.379038 0.223144 0.189098
0.110662 0.115010 0.107448
0.151840 0.136356 0.116645
0.191018 0.153264 0.128883
0.232557 0.170029 0.143545
0.279079 0.189674 0.160119
0.329283 0.213001 0.178604
0.380813 0.239973 0.198456
0.431572 0.269939 0.219768
0.124290 0.132049 0.115853
0.171353 0.158231 0.126758
0.222443 0.185302 0.142526
0.274265 0.211378 0.161645
0.325382 0.236123 0.183113
0.380623 0.264903 0.207837
0.435992 0.297753 0.235204
0.489186 0.333961 0.264685
0.142471 0.153177 0.127276
0.190852 0.181188 0.140717
0.251466 0.216024 0.159921
0.314054 0.252355 0.183983
0.372464 0.286978 0.212063
0.431670 0.322552 0.243910
0.491176 0.363203 0.280403
0.547847 0.407934 0.320235
0.164733 0.178439 0.141928
0.214632 0.209104 0.158864
0.279733 0.246969 0.181355
0.350895 0.291545 0.210814
0.420626 0.340524 0.247283
0.482284 0.383617 0.286942
0.544835 0.432229 0.332909
0.604167 0.485358 0.383321
0.189310 0.207176 0.159888
0.242137 0.242670 0.182240
0.312861 0.286195 0.210665
0.391061 0.335858 0.245906
0.467726 0.389667 0.288266
0.532604 0.444762 0.338171
0.595448 0.500376 0.393164
0.654328 0.558950 0.452437
0.210579 0.233708 0.177061
0.269992 0.279643 0.210927
0.348789 0.333574 0.250607
0.435165 0.391544 0.295004
0.518948 0.450473 0.343621
0.588509 0.508789 0.399015
0.647519 0.566891 0.460615
0.701959 0.627649 0.526864
0.224530 0.252527 0.189365
0.295305 0.317319 0.243894
0.385304 0.388327 0.302811
0.481286 0.458871 0.361822
0.571985 0.524128 0.418474
0.644620 0.582004 0.475393
0.700900 0.638071 0.538319
0.751551 0.696911 0.607431
0.109717 0.112364 0.118981
0.141966 0.119511 0.124665
0.180614 0.131864 0.136293
0.223677 0.147799 0.150869
0.269467 0.166109 0.166199
0.316890 0.186948 0.181904
0.363810 0.209601 0.198243
0.407848 0.232664 0.216529
0.122451 0.131934 0.141527
0.165900 0.157434 0.157835
0.215881 0.179180 0.172103
0.269626 0.201397 0.186999
0.324686 0.226941 0.204235
0.378412 0.256015 0.223490
0.428991 0.287332 0.244430
0.475203 0.319115 0.267035
0.139220 0.155328 0.160087
0.189678 0.192756 0.181025
0.250148 0.224613 0.198218
0.313418 0.254125 0.216139
0.374445 0.284158 0.237745
0.432755 0.318315 0.262908
0.486334 0.355111 0.290777
0.534561 0.393012 0.320453
0.161243 0.183871 0.179340
0.216654 0.229106 0.202975
0.283790 0.268652 0.223684
0.354168 0.305171 0.245912
0.421533 0.341095 0.272733
0.483364 0.379572 0.305019
0.539699 0.421301 0.341226
0.590107 0.464922 0.379839
0.189231 0.218538 0.202865
0.249008 0.269103 0.229938
0.317999 0.312509 0.254942
0.392484 0.354782 0.281833
0.467825 0.399437 0.313629
0.532518 0.442969 0.352892
0.591413 0.490514 0.397844
0.644054 0.540473 0.446168
0.223762 0.261034 0.233414
0.287032 0.314049 0.263863
0.358280 0.361136 0.293964
0.434864 0.407344 0.326392
0.512692 0.455752 0.363144
0.579132 0.504261 0.405967
0.638924 0.556313 0.458076
0.691888 0.610316 0.514354
0.262912 0.310227 0.272932
0.327670 0.362145 0.304357
0.401838 0.413650 0.340793
0.481628 0.465597 0.380810
0.562125 0.518120 0.423498
0.630453 0.568678 0.470035
0.685615 0.618632 0.522269
0.734570 0.671524 0.580914
0.304575 0.363479 0.322377
0.367465 0.410018 0.349459
0.445241 0.467729 0.393933
0.529676 0.528595 0.445171
0.612794 0.586408 0.495605
0.681506 0.637017 0.544284
0.733127 0.683237 0.594513
0.777106 0.730912 0.649988
0.120257 0.127961 0.142534
0.153403 0.136737 0.149420
0.200027 0.147988 0.158089
0.251754 0.164197 0.171991
0.302599 0.186038 0.191995
0.351657 0.208701 0.210639
0.396491 0.230997 0.228129
0.435185 0.251662 0.246501
0.136132 0.152435 0.173784
0.179434 0.183445 0.198389
0.234428 0.206000 0.213608
0.295796 0.229031 0.228010
0.358628 0.258066 0.246938
0.416425 0.290360 0.267678
0.468040 0.324626 0.290333
0.513227 0.359284 0.315357
0.158460 0.184831 0.207439
0.207353 0.226764 0.238370
0.270125 0.261020 0.258910
0.340106 0.293004 0.276098
0.411081 0.326847 0.295268
0.474370 0.364991 0.319218
0.529007 0.405440 0.347065
0.575801 0.446157 0.377722
0.186010 0.223184 0.241979
0.239659 0.271610 0.274022
0.307816 0.315276 0.298222
0.383335 0.354911 0.318832
0.459458 0.392216 0.340001
0.526212 0.433517 0.368599
0.582385 0.477219 0.402438
0.629550 0.521039 0.439354
0.218533 0.266750 0.277346
0.278050 0.321297 0.309820
0.348486 0.370432 0.336094
0.425546 0.414396 0.359807
0.504185 0.454583 0.384782
0.573018 0.497169 0.418659
0.630656 0.543245 0.459348
0.679134 0.590425 0.503811
0.260736 0.320412 0.319549
0.323671 0.376234 0.352797
0.395709 0.427309 0.381350
0.472317 0.473728 0.408923
0.548855 0.516270 0.438461
0.616838 0.558172 0.472422
0.674854 0.605822 0.518265
0.723610 0.655101 0.569017
0.311426 0.384147 0.372963
0.374054 0.435558 0.403846
0.446727 0.485929 0.433573
0.523251 0.533993 0.464943
0.598179 0.579089 0.499610
0.664734 0.621829 0.536580
0.717470 0.664348 0.579144
0.762474 0.710159 0.629400
0.368818 0.456259 0.441228
0.426398 0.496731 0.462729
0.498058 0.544216 0.491164
0.574544 0.594057 0.526324
0.648286 0.642368 0.566763
0.712348 0.685200 0.606224
0.760627 0.723128 0.645605
0.800207 0.762122 0.689966
0.133365 0.148222 0.172327
0.164828 0.160571 0.182969
0.215791 0.172856 0.190971
0.275149 0.189023 0.202563
0.333957 0.211370 0.221482
0.385332 0.238680 0.245870
0.429598 0.264058 0.266727
0.465659 0.286632 0.286563
0.152106 0.177087 0.208382
0.195009 0.214531 0.241853
0.251118 0.239791 0.260811
0.316462 0.263114 0.275659
0.386110 0.291678 0.293798
0.448680 0.326750 0.316714
0.502715 0.364022 0.341275
0.549180 0.402679 0.368601
0.180455 0.218626 0.255276
0.227664 0.263969 0.295164
0.289004 0.301693 0.321960
0.360532 0.335300 0.341031
0.437207 0.368575 0.357594
0.507096 0.409145 0.379468
0.565189 0.452509 0.406471
0.613921 0.497018 0.437889
0.215272 0.267702 0.305545
0.265026 0.315069 0.344182
0.330244 0.361735 0.374432
0.405609 0.403518 0.396496
0.485421 0.439827 0.412795
0.559322 0.482812 0.435115
0.618365 0.528218 0.464856
0.666002 0.573519 0.499621
0.254697 0.321186 0.354806
0.308606 0.371955 0.390982
0.375725 0.422486 0.420303
0.451307 0.467445 0.443105
0.530478 0.505294 0.461563
0.605136 0.547000 0.485844
0.663966 0.591925 0.519382
0.710611 0.636849 0.558388
0.301742 0.382812 0.407669
0.359580 0.434791 0.441834
0.428343 0.486132 0.469913
0.502594 0.532521 0.493642
0.577448 0.571822 0.515148
0.646828 0.607461 0.539156
0.704707 0.650561 0.575890
0.751208 0.695210 0.618996
0.358708 0.454136 0.468552
0.416613 0.502275 0.499902
0.485061 0.550156 0.525535
0.557571 0.594910 0.549174
0.628685 0.634745 0.573657
0.692758 0.669751 0.600510
0.744200 0.705412 0.632961
0.786770 0.744785 0.674045
0.422735 0.532976 0.542003
0.477073 0.572522 0.566727
0.542656 0.613189 0.586548
0.612381 0.654136 0.607991
0.680099 0.694050 0.634826
0.738562 0.728509 0.663736
0.784181 0.758972 0.693103
0.821012 0.790897 0.727786
0.148702 0.172208 0.207279
0.179287 0.189553 0.223391
0.229890 0.208634 0.237681
0.294202 0.227574 0.249035
0.364157 0.247216 0.260105
0.420051 0.280160 0.290604
0.465878 0.312333 0.317922
0.502274 0.341596 0.342218
0.170499 0.205903 0.247725
0.214309 0.250340 0.290009
0.269685 0.283581 0.317504
0.336367 0.310208 0.335618
0.411211 0.335714 0.350505
0.479079 0.373007 0.375055
0.536387 0.413978 0.401390
0.585492 0.457643 0.430256
0.204352 0.255513 0.302509
0.252778 0.306604 0.349707
0.311780 0.350651 0.385541
0.380444 0.386050 0.410356
0.456586 0.415037 0.426776
0.533053 0.455468 0.446550
0.596197 0.500507 0.471665
0.649621 0.549221 0.502645
0.247734 0.315106 0.364358
0.296187 0.363832 0.407834
0.356458 0.412317 0.446096
0.425929 0.453754 0.473965
0.502141 0.486738 0.490253
0.583058 0.528638 0.506273
0.647465 0.574395 0.530502
0.699381 0.621970 0.562181
0.297553 0.379727 0.427577
0.345319 0.425795 0.467389
0.404484 0.472050 0.502469
0.473231 0.514970 0.528252
0.549391 0.553402 0.543496
0.629527 0.593873 0.556964
0.691937 0.637914 0.581098
0.739493 0.681256 0.613096
0.347708 0.445928 0.489002
0.400026 0.493205 0.524423
0.459923 0.539438 0.555340
0.527182 0.583107 0.578546
0.599954 0.622482 0.593440
0.669740 0.652707 0.607512
0.729375 0.691723 0.632853
0.775842 0.732080 0.666480
0.406839 0.519158 0.552745
0.460687 0.563799 0.584838
0.519601 0.606609 0.612034
0.584676 0.647431 0.632530
0.654249 0.685162 0.646782
0.715357 0.713349 0.663234
0.766491 0.742839 0.685086
0.808166 0.776352 0.716213
0.471008 0.595871 0.622208
0.523569 0.634599 0.649749
0.580006 0.671533 0.672195
0.642091 0.707404 0.689016
0.708007 0.741712 0.701570
0.761011 0.768249 0.718796
0.804327 0.791746 0.738297
0.839557 0.817528 0.763836
0.164205 0.196030 0.242065
0.195961 0.220546 0.266082
0.248253 0.251050 0.291904
0.314712 0.282614 0.315187
0.388290 0.311733 0.333520
0.455747 0.337506 0.349383
0.505696 0.377753 0.384507
0.545203 0.418219 0.418403
0.190978 0.237629 0.289976
0.237545 0.289351 0.339938
0.294111 0.332683 0.377856
0.360918 0.370102 0.406851
0.435900 0.403555 0.429681
0.508079 0.433337 0.448207
0.569057 0.476660 0.476039
0.621994 0.525650 0.506808
0.231985 0.297112 0.353366
0.283070 0.353836 0.406329
0.341415 0.404081 0.449904
0.407850 0.446888 0.483729
0.481568 0.482503 0.508531
0.556298 0.514521 0.527843
0.623662 0.558571 0.549713
0.682255 0.609353 0.577172
0.282746 0.366475 0.423497
0.333490 0.418501 0.470084
0.391331 0.469153 0.513012
0.455922 0.514070 0.547942
0.526438 0.551075 0.572840
0.600915 0.583333 0.591145
0.670568 0.626236 0.608480
0.729202 0.674343 0.633074
0.339390 0.438744 0.492972
0.388780 0.485435 0.533516
0.444298 0.530979 0.570903
0.505422 0.573551 0.602234
0.571571 0.611553 0.625726
0.642674 0.642071 0.640969
0.711067 0.682355 0.655162
0.766114 0.725286 0.677793
0.399059 0.506701 0.554252
0.446089 0.549049 0.590405
0.498878 0.590784 0.623788
0.556664 0.630054 0.651541
0.618518 0.665118 0.671298
0.683124 0.692415 0.679100
0.746834 0.728657 0.691270
0.796566 0.765553 0.713140
0.457580 0.577418 0.617483
0.507254 0.617904 0.650023
0.558877 0.656081 0.678762
0.613320 0.691633 0.702055
0.670867 0.724028 0.718506
0.730366 0.750741 0.725080
0.782755 0.776095 0.736071
0.825602 0.804670 0.756255
0.517212 0.646087 0.678431
0.568380 0.683559 0.707923
0.618450 0.717357 0.732435
0.669625 0.748540 0.751650
0.723175 0.777665 0.765323
0.778081 0.803192 0.772039
0.820212 0.821406 0.781990
0.854857 0.841753 0.798253
0.175454 0.213234 0.268029
0.212406 0.247850 0.302267
0.270240 0.292791 0.342458
0.341457 0.340790 0.381989
0.418536 0.385790 0.415743
0.489750 0.421467 0.439534
0.542927 0.455559 0.465185
0.585041 0.497242 0.498363
0.212448 0.270299 0.330846
0.263248 0.328268 0.386363
0.323309 0.382411 0.434975
0.392312 0.432474 0.476904
0.468077 0.477848 0.512140
0.540915 0.514927 0.538141
0.600324 0.551031 0.563239
0.653565 0.596492 0.591760
0.264731 0.344886 0.407170
0.318202 0.404177 0.461948
0.376885 0.458665 0.510499
0.442533 0.508439 0.552552
0.514931 0.553243 0.587842
0.587357 0.590059 0.614337
0.650350 0.626646 0.637853
0.708639 0.671690 0.661786
0.324701 0.425289 0.485786
0.376873 0.477583 0.532038
0.432694 0.527456 0.575705
0.493591 0.573869 0.614703
0.559967 0.615844 0.647561
0.629687 0.650902 0.672759
0.693544 0.686434 0.693847
0.752246 0.728208 0.713675
0.386583 0.502370 0.558013
0.438141 0.548835 0.597860
0.491082 0.592455 0.635067
0.546162 0.632741 0.668071
0.604326 0.669311 0.695839
0.668707 0.701090 0.717477
0.730699 0.734058 0.735396
0.786507 0.770882 0.751911
0.448204 0.569888 0.617560
0.497760 0.611367 0.653299
0.547702 0.650095 0.686077
0.598592 0.685492 0.714503
0.650942 0.716989 0.737145
0.705785 0.742752 0.750001
0.762791 0.771495 0.763706
0.813438 0.802664 0.778000
0.509428 0.631628 0.671069
0.556715 0.669376 0.702961
0.603059 0.703795 0.731575
0.649556 0.735064 0.755950
0.697048 0.763169 0.774950
0.746214 0.786592 0.784638
0.794226 0.807479 0.791741
0.838388 0.831709 0.802196
0.565982 0.688965 0.719906
0.613817 0.724386 0.749892
0.658043 0.755104 0.775311
0.700824 0.782431 0.796061
0.743911 0.807266 0.811817
0.788715 0.828894 0.819937
0.829637 0.845094 0.823753
0.865738 0.862521 0.831159
0.181756 0.223175 0.283422
0.228356 0.271093 0.329772
0.295812 0.332004 0.385258
0.374888 0.396911 0.441294
0.456850 0.458072 0.490891
0.529308 0.506275 0.526885
0.582006 0.539690 0.550403
0.619277 0.572489 0.575637
0.235570 0.305147 0.370163
0.291231 0.367168 0.428496
0.356808 0.431637 0.486862
0.430122 0.494169 0.541314
0.507754 0.551003 0.588586
0.579816 0.596812 0.624093
0.636343 0.631115 0.650453
0.682874 0.666718 0.675244
0.304604 0.401453 0.465293
0.358556 0.458065 0.516687
0.417516 0.513677 0.566842
0.483237 0.568741 0.615162
0.555200 0.622097 0.660093
0.624835 0.664828 0.694289
0.682977 0.698721 0.721433
0.734280 0.734292 0.744712
0.376778 0.495404 0.554286
0.427326 0.541981 0.594664
0.479792 0.586506 0.634379
0.536998 0.631419 0.674013
0.600042 0.677124 0.712910
0.665236 0.716277 0.744759
0.722725 0.748520 0.770814
0.775083 0.782025 0.791757
0.443295 0.574946 0.626787
0.494364 0.616643 0.661893
0.543498 0.654577 0.694967
0.592554 0.689342 0.725664
0.643646 0.722072 0.754097
0.701950 0.756428 0.781767
0.756493 0.785752 0.804963
0.806965 0.815892 0.823000
0.500836 0.634530 0.677863
0.553066 0.674036 0.711472
0.600703 0.708598 0.741585
0.645782 0.738975 0.768273
0.690137 0.765814 0.791379
0.735957 0.788966 0.808855
0.784808 0.813424 0.826846
0.831112 0.839557 0.841763
0.557604 0.683237 0.718211
0.607144 0.720246 0.750170
0.651318 0.751707 0.778067
0.692218 0.778817 0.802016
0.731602 0.802421 0.821850
0.770797 0.821734 0.835187
0.811918 0.839007 0.843793
0.852361 0.859339 0.852880
0.612764 0.728657 0.755772
0.659784 0.763429 0.786360
0.700144 0.791694 0.811871
0.736444 0.815446 0.832807
0.770898 0.836166 0.849421
0.805320 0.853630 0.860107
0.840961 0.867442 0.863635
0.874970 0.882105 0.867961
