filters/luts/Depression 04.cube
# Created by: Adobe Photoshop Export Color Lookup Plugin
# LUT by SparkleStock. Enhanced with VOXCOLOR algorithms.
LUT_3D_SIZE 5
DOMAIN_MIN 0.000000 0.000000 0.000000
DOMAIN_MAX 0.903226 0.903226 0.903226
0.019536 0.054701 0.019536
0.083556 0.084887 0.048738
0.175092 0.124117 0.079050
0.292040 0.175517 0.109922
0.417496 0.235937 0.143605
0.042633 0.097609 0.042570
0.153943 0.160086 0.072720
0.273102 0.212441 0.115822
0.397080 0.268442 0.167793
0.507608 0.331759 0.226213
0.077104 0.154232 0.072724
0.204132 0.223001 0.112647
0.357903 0.300203 0.172369
0.487560 0.370819 0.247767
0.594642 0.450290 0.338930
0.119532 0.216653 0.111867
0.256473 0.293179 0.172241
0.434115 0.383517 0.251272
0.572353 0.474613 0.345418
0.674943 0.563246 0.457750
0.151971 0.259916 0.141809
0.307996 0.372614 0.265694
0.506920 0.487745 0.381962
0.662543 0.580804 0.479132
0.763341 0.671064 0.582520
0.038678 0.092796 0.076285
0.131724 0.118661 0.097066
0.253410 0.164761 0.134824
0.372360 0.218134 0.176104
0.467095 0.263961 0.215075
0.070496 0.152517 0.139667
0.181896 0.220900 0.190873
0.339639 0.283017 0.228624
0.478961 0.350954 0.274620
0.577021 0.419672 0.329886
0.113818 0.225282 0.199679
0.242607 0.313308 0.258320
0.418038 0.390338 0.305018
0.566752 0.461783 0.365195
0.662902 0.535977 0.441053
0.176285 0.312442 0.271968
0.320420 0.406333 0.339740
0.493604 0.489333 0.399030
0.644436 0.563145 0.461512
0.741067 0.641750 0.553327
0.265366 0.417836 0.381537
0.411689 0.497749 0.439031
0.582214 0.588519 0.516136
0.725317 0.664285 0.584814
0.813457 0.730882 0.656022
0.068092 0.150144 0.152791
0.154114 0.182238 0.180600
0.308589 0.218609 0.202925
0.435097 0.277240 0.256153
0.514342 0.328202 0.302044
0.104487 0.218821 0.234578
0.205849 0.293952 0.305591
0.371251 0.354253 0.349220
0.533174 0.423732 0.387869
0.636951 0.499562 0.439603
0.166221 0.310308 0.332082
0.276778 0.391473 0.402210
0.447690 0.469462 0.454470
0.621070 0.542521 0.487373
0.722348 0.616734 0.542693
0.240850 0.411309 0.430730
0.369551 0.496536 0.495138
0.536581 0.580502 0.546447
0.693481 0.643015 0.579939
0.793404 0.710439 0.640197
0.348893 0.528029 0.545887
0.483673 0.602524 0.601766
0.645403 0.680615 0.647674
0.774627 0.739237 0.685105
0.857775 0.790632 0.730664
0.097066 0.209721 0.233794
0.174959 0.261153 0.284440
0.327971 0.322058 0.334650
0.491132 0.370224 0.362836
0.568872 0.442817 0.433052
0.142919 0.290902 0.327637
0.243018 0.379155 0.415609
0.393470 0.455153 0.483000
0.568547 0.516790 0.529629
0.689180 0.596256 0.570547
0.224120 0.399931 0.444249
0.332502 0.481294 0.521441
0.474788 0.560218 0.589060
0.643543 0.626249 0.637990
0.773207 0.699348 0.663781
0.331101 0.507006 0.550220
0.437927 0.579886 0.617652
0.569047 0.651793 0.676803
0.720379 0.713403 0.707652
0.835569 0.775001 0.730357
0.439197 0.611475 0.651185
0.558863 0.682320 0.713856
0.680536 0.747843 0.761580
0.811394 0.809316 0.787757
0.892695 0.847695 0.808527
0.111040 0.241152 0.275182
0.207924 0.324650 0.361309
0.368212 0.430340 0.460835
0.525847 0.512203 0.530270
0.613176 0.560018 0.567817
0.190467 0.367747 0.416238
0.299465 0.461410 0.508751
0.444565 0.556908 0.599791
0.606493 0.639439 0.674720
0.725595 0.701741 0.723542
0.302619 0.501437 0.552286
0.416374 0.576778 0.624739
0.539390 0.650078 0.694458
0.682747 0.723963 0.762063
0.807419 0.788376 0.812065
0.418132 0.600600 0.647067
0.538791 0.673726 0.717103
0.645752 0.734799 0.775724
0.753371 0.787718 0.819542
0.863054 0.844831 0.859516
0.545969 0.682875 0.722079
0.653345 0.751158 0.788943
0.742075 0.806140 0.840499
0.828192 0.854905 0.876528
0.911294 0.896569 0.892408
