filters/luts/Depression 04_S.cube
# LUT by SparkleStock. Enhanced with VOXCOLOR algorithms.
LUT_3D_SIZE 8
DOMAIN_MIN 0.000000 0.000000 0.000000
DOMAIN_MAX 0.903226 0.903226 0.903226
0.019536 0.054701 0.019536
0.052180 0.070361 0.035637
0.095459 0.087991 0.051936
0.150065 0.108283 0.068431
0.213699 0.133278 0.085423
0.282327 0.163591 0.102879
0.352160 0.198503 0.121446
0.420143 0.235228 0.142495
0.030785 0.076758 0.032108
0.089726 0.117122 0.040440
0.155033 0.139888 0.051815
0.229590 0.161248 0.066233
0.306529 0.184542 0.084939
0.378459 0.211610 0.108884
0.439548 0.243677 0.138451
0.486583 0.280188 0.173559
0.045776 0.104329 0.045469
0.107357 0.147339 0.055636
0.193587 0.195115 0.064704
0.281170 0.224275 0.077845
0.367596 0.248372 0.098920
0.445343 0.274839 0.130066
0.506245 0.306302 0.171675
0.546385 0.344111 0.222329
0.065028 0.137414 0.062043
0.126567 0.178859 0.075981
0.218789 0.231359 0.089430
0.315381 0.281439 0.107081
0.408332 0.315477 0.131465
0.490968 0.343738 0.168376
0.555672 0.376164 0.220066
0.597369 0.415744 0.283828
0.087865 0.174517 0.082311
0.149944 0.214105 0.101180
0.244543 0.265160 0.122299
0.346388 0.322203 0.148589
0.440202 0.372244 0.180456
0.524244 0.410418 0.222699
0.593211 0.445198 0.280334
0.640037 0.486483 0.352222
0.112285 0.212517 0.104935
0.176072 0.252134 0.131460
0.274055 0.303675 0.163157
0.380224 0.360163 0.199951
0.476053 0.417152 0.241704
0.557732 0.466816 0.289496
0.626175 0.509334 0.349528
0.678169 0.552329 0.423488
0.135248 0.245728 0.126575
0.202350 0.290347 0.167273
0.305498 0.347176 0.214750
0.417086 0.406079 0.263917
0.517832 0.462769 0.314532
0.599076 0.516846 0.367450
0.664878 0.567056 0.427342
0.718230 0.614115 0.497323
0.152420 0.265706 0.142188
0.225756 0.324469 0.209084
0.336318 0.394617 0.281602
0.454825 0.461653 0.347432
0.560936 0.520269 0.404911
0.645620 0.571909 0.458660
0.710966 0.622038 0.514278
0.764233 0.673506 0.576996
0.028359 0.072567 0.048872
0.075347 0.080657 0.061586
0.137239 0.097475 0.084281
0.208309 0.117768 0.106469
0.281598 0.142763 0.126477
0.350397 0.173416 0.145015
0.409807 0.208557 0.163980
0.457582 0.243802 0.185854
0.043393 0.101198 0.078378
0.100304 0.134891 0.104556
0.182630 0.155176 0.123156
0.273124 0.174556 0.139950
0.362418 0.197337 0.156918
0.442127 0.226365 0.175801
0.505208 0.263448 0.198427
0.546445 0.308119 0.226764
0.060212 0.133565 0.100490
0.119454 0.181890 0.126923
0.213650 0.226844 0.140023
0.315829 0.252459 0.153865
0.415914 0.273829 0.171234
0.503955 0.299033 0.194250
0.570876 0.331411 0.225165
0.610492 0.372882 0.265296
0.081528 0.170919 0.124207
0.144468 0.227036 0.152920
0.237965 0.281285 0.167660
0.344885 0.326768 0.180575
0.450698 0.356112 0.198419
0.544823 0.380518 0.225288
0.618057 0.410030 0.263548
0.663427 0.448188 0.313679
0.108449 0.213557 0.152530
0.176736 0.272309 0.186309
0.267840 0.328069 0.207194
0.373963 0.382729 0.224744
0.477812 0.427430 0.244620
0.572949 0.460046 0.273502
0.651871 0.489678 0.315635
0.706128 0.526119 0.371078
0.141037 0.260921 0.187819
0.215248 0.318699 0.227017
0.305736 0.373644 0.256290
0.410145 0.429240 0.282704
0.511098 0.482245 0.309004
0.600557 0.526115 0.339289
0.678051 0.562295 0.380828
0.739804 0.598904 0.436171
0.179368 0.311714 0.232782
0.257904 0.365201 0.273731
0.349487 0.419893 0.313539
0.453713 0.476066 0.351443
0.553785 0.529813 0.387116
0.637819 0.579136 0.421440
0.707871 0.622552 0.460402
0.768445 0.662261 0.509420
0.223507 0.363182 0.290573
0.300705 0.407448 0.323158
0.395517 0.466058 0.377236
0.501329 0.526194 0.430136
0.601129 0.580944 0.475659
0.683753 0.629055 0.515190
0.747241 0.672994 0.552345
0.799630 0.715255 0.593443
0.041711 0.098507 0.083721
0.084010 0.109344 0.098030
0.162158 0.116927 0.114790
0.244865 0.135212 0.142238
0.325020 0.160201 0.167677
0.395184 0.190510 0.187830
0.449094 0.224976 0.205174
0.484921 0.258664 0.223502
0.057862 0.130689 0.121979
0.109294 0.164333 0.158453
0.196476 0.176472 0.185954
0.297093 0.193254 0.208628
0.395475 0.215881 0.227573
0.480647 0.246070 0.244980
0.544855 0.286124 0.264378
0.583422 0.335470 0.289745
0.078448 0.168798 0.162607
0.131276 0.213171 0.201002
0.224462 0.250708 0.228847
0.335151 0.272779 0.246189
0.445267 0.292361 0.260804
0.542424 0.317170 0.277511
0.617183 0.351391 0.299672
0.662336 0.397202 0.330391
0.101802 0.211425 0.199795
0.159750 0.264305 0.235915
0.252346 0.317397 0.262555
0.362722 0.358783 0.274002
0.476802 0.383776 0.285321
0.581097 0.404732 0.302532
0.664355 0.432244 0.328195
0.718321 0.470257 0.364958
0.131491 0.259643 0.238561
0.196364 0.316656 0.274907
0.289346 0.376278 0.303090
0.394219 0.428733 0.315602
0.502172 0.468159 0.324167
0.606117 0.495064 0.339703
0.695364 0.519541 0.366862
0.759587 0.551704 0.406601
0.169529 0.313982 0.283389
0.240937 0.370418 0.321771
0.336867 0.430698 0.353486
0.436619 0.485307 0.372487
0.536421 0.533945 0.384476
0.630877 0.572175 0.397870
0.717110 0.601917 0.421743
0.789405 0.631836 0.459722
0.217193 0.374478 0.338995
0.292788 0.426236 0.377337
0.392645 0.483481 0.411923
0.489240 0.536748 0.439264
0.583110 0.586415 0.460178
0.667332 0.631424 0.476768
0.741802 0.669262 0.496593
0.810522 0.702040 0.527018
0.276038 0.440477 0.411737
0.350183 0.482609 0.442258
0.452425 0.534639 0.475444
0.547341 0.586433 0.511476
0.636712 0.635331 0.542630
0.715217 0.679873 0.567424
0.778026 0.720181 0.588161
0.832702 0.756799 0.611682
0.058900 0.131829 0.127898
0.094383 0.146493 0.144398
0.169513 0.157091 0.160174
0.265971 0.168443 0.178384
0.354352 0.191161 0.207251
0.426472 0.222541 0.234450
0.479262 0.257862 0.254117
0.510662 0.292211 0.271361
0.074595 0.165006 0.169229
0.121138 0.201926 0.212689
0.200897 0.218788 0.245744
0.306907 0.231767 0.272826
0.412040 0.252515 0.296073
0.502056 0.283125 0.315055
0.569607 0.324266 0.332448
0.610611 0.375631 0.354044
0.097648 0.208037 0.219677
0.147447 0.251426 0.264711
0.232278 0.289301 0.303965
0.341551 0.306970 0.333277
0.456861 0.323989 0.351878
0.560818 0.348356 0.366176
0.641996 0.383425 0.382856
0.694131 0.431916 0.407129
0.128728 0.257243 0.271186
0.180569 0.304677 0.313505
0.265501 0.353402 0.351413
0.373339 0.388743 0.374621
0.491323 0.409729 0.386878
0.602434 0.428210 0.397686
0.693610 0.454246 0.414149
0.756650 0.492505 0.440389
0.162432 0.310644 0.322487
0.221251 0.361914 0.361736
0.306719 0.416374 0.396651
0.410129 0.464962 0.416732
0.519410 0.499639 0.422102
0.628102 0.521550 0.427837
0.725270 0.541629 0.442983
0.798932 0.570410 0.469513
0.203490 0.369457 0.375763
0.270459 0.421605 0.413668
0.358325 0.477324 0.447246
0.458675 0.530766 0.468642
0.557058 0.575366 0.474014
0.652451 0.607845 0.474814
0.744893 0.631482 0.484361
0.826198 0.655206 0.507886
0.256242 0.434151 0.435465
0.328479 0.483170 0.472630
0.419402 0.535781 0.505646
0.519308 0.588536 0.529942
0.609706 0.634648 0.541491
0.690365 0.674445 0.544145
0.767421 0.706769 0.548593
0.843144 0.733046 0.564059
0.321836 0.503665 0.508071
0.394337 0.545774 0.540898
0.486615 0.592413 0.570224
0.586710 0.641838 0.596187
0.670913 0.685491 0.614595
0.741920 0.724696 0.625965
0.803071 0.761251 0.632955
0.860611 0.793440 0.642836
0.077285 0.168396 0.177281
0.107617 0.186980 0.196784
0.175328 0.206397 0.217640
0.272291 0.222912 0.235370
0.372020 0.241577 0.255676
0.451547 0.271309 0.284973
0.505696 0.309869 0.314227
0.538282 0.348023 0.336212
0.092725 0.201972 0.219189
0.136643 0.244213 0.268325
0.207605 0.271047 0.306086
0.308523 0.290996 0.337661
0.417962 0.310421 0.363725
0.513751 0.339038 0.385910
0.585949 0.380300 0.405012
0.633417 0.432132 0.424820
0.118730 0.249791 0.275308
0.167930 0.295668 0.324859
0.244098 0.337627 0.371206
0.344704 0.361386 0.409247
0.458658 0.379060 0.437179
0.566378 0.401890 0.454822
0.653602 0.435976 0.468394
0.714472 0.484064 0.487178
0.155679 0.305502 0.336381
0.207333 0.351290 0.382083
0.284421 0.398111 0.426653
0.382617 0.434104 0.461418
0.495275 0.454097 0.486056
0.608189 0.470551 0.499356
0.705886 0.494666 0.509449
0.778237 0.531539 0.527372
0.199825 0.363711 0.395766
0.254527 0.409925 0.437469
0.330987 0.458780 0.477933
0.425498 0.503145 0.508573
0.530128 0.533587 0.524497
0.639737 0.551624 0.530443
0.741786 0.568229 0.537190
0.822984 0.593963 0.553634
0.246846 0.425024 0.455249
0.308702 0.472051 0.494097
0.385911 0.521345 0.530641
0.477366 0.569156 0.558348
0.573193 0.609273 0.569817
0.668841 0.636998 0.568294
0.763604 0.655321 0.568361
0.850561 0.674051 0.581029
0.301310 0.490121 0.516662
0.370807 0.536237 0.554044
0.449787 0.583214 0.587629
0.540020 0.630819 0.613654
0.629922 0.674274 0.626645
0.710013 0.709975 0.624542
0.786301 0.736475 0.618976
0.865886 0.757034 0.623740
0.368650 0.556849 0.582627
0.440840 0.599063 0.618048
0.520463 0.641637 0.648749
0.610444 0.686150 0.673354
0.696562 0.728351 0.689101
0.766390 0.764232 0.693422
0.823311 0.795619 0.690409
0.881915 0.823302 0.690774
0.093670 0.202521 0.223979
0.122010 0.225773 0.248007
0.185264 0.256337 0.278546
0.276669 0.286610 0.306512
0.379581 0.311983 0.327611
0.469204 0.338910 0.350813
0.530916 0.375920 0.381946
0.566944 0.419904 0.414893
0.110932 0.238772 0.268277
0.155453 0.287454 0.322478
0.220768 0.325075 0.365666
0.313554 0.358246 0.403875
0.420680 0.385731 0.435439
0.520126 0.413339 0.461055
0.598145 0.451008 0.483072
0.653237 0.501972 0.504754
0.142239 0.293104 0.330548
0.192941 0.342766 0.383316
0.263154 0.389594 0.433589
0.354355 0.424855 0.477155
0.461504 0.451660 0.513494
0.567543 0.476322 0.539864
0.658371 0.507718 0.556395
0.728144 0.552374 0.571132
0.184752 0.355027 0.397709
0.239834 0.402140 0.445202
0.311457 0.449397 0.492622
0.398758 0.489879 0.534152
0.501347 0.516591 0.569697
0.608619 0.536365 0.594433
0.707548 0.558922 0.607119
0.788345 0.591742 0.617708
0.237625 0.417889 0.462096
0.294703 0.462626 0.505106
0.365555 0.508371 0.548074
0.448810 0.550495 0.585317
0.542876 0.581742 0.613069
0.644742 0.600941 0.631267
0.745502 0.615925 0.640096
0.833094 0.637401 0.647822
0.295331 0.479783 0.522685
0.355076 0.523243 0.562227
0.424605 0.567689 0.600972
0.503770 0.609864 0.634100
0.590162 0.646142 0.655790
0.679943 0.671204 0.664665
0.773019 0.686267 0.665888
0.862979 0.700695 0.670198
0.355260 0.542161 0.581759
0.420900 0.585198 0.619610
0.490240 0.627610 0.654672
0.565861 0.668905 0.684236
0.647064 0.707516 0.703814
0.724794 0.739331 0.708144
0.800507 0.761566 0.702573
0.880156 0.777474 0.700676
0.420999 0.603157 0.639942
0.492421 0.645307 0.677659
0.562196 0.684830 0.710048
0.635445 0.723683 0.736749
0.713080 0.762300 0.755535
0.783254 0.796443 0.762317
0.840441 0.824549 0.757869
0.897027 0.847219 0.752943
0.105479 0.228445 0.259049
0.136486 0.258172 0.290306
0.200674 0.301735 0.333969
0.289585 0.348077 0.377249
0.388883 0.389384 0.412583
0.482169 0.421611 0.437214
0.551757 0.453389 0.462215
0.593590 0.494108 0.495688
0.128425 0.273427 0.312804
0.176964 0.328365 0.371270
0.241080 0.376621 0.421269
0.329138 0.423380 0.468445
0.430451 0.465220 0.509441
0.528751 0.499327 0.541620
0.609354 0.533086 0.567274
0.669571 0.576998 0.590769
0.169222 0.338547 0.385312
0.223043 0.390718 0.438959
0.290686 0.441278 0.490734
0.375496 0.487369 0.539375
0.474523 0.527592 0.582378
0.574796 0.560727 0.618172
0.663396 0.592068 0.643952
0.736685 0.630678 0.660992
0.220039 0.407509 0.458287
0.279139 0.455575 0.505826
0.347641 0.502910 0.553121
0.426832 0.547104 0.597450
0.519516 0.584290 0.638349
0.617312 0.613861 0.674053
0.709709 0.639808 0.698571
0.791560 0.669042 0.711387
0.278305 0.473364 0.524735
0.341817 0.518771 0.568163
0.410028 0.562655 0.610741
0.484427 0.603780 0.649969
0.566589 0.638948 0.683933
0.656260 0.665227 0.714529
0.747570 0.685126 0.735930
0.833503 0.704930 0.745623
0.343941 0.534043 0.582830
0.408352 0.577279 0.623367
0.474461 0.618655 0.662442
0.544300 0.657295 0.697879
0.617642 0.691255 0.726222
0.695705 0.717328 0.747473
0.779178 0.735001 0.760921
0.864345 0.748673 0.767454
0.412963 0.591826 0.636369
0.477781 0.633512 0.675035
0.540826 0.672436 0.710944
0.605524 0.709086 0.742878
0.672502 0.742416 0.767985
0.740790 0.770898 0.782547
0.810700 0.791926 0.787210
0.885737 0.806086 0.787609
0.481596 0.645594 0.685919
0.549617 0.687051 0.724857
0.610733 0.723788 0.758355
0.670806 0.758397 0.786980
0.732235 0.791435 0.809544
0.794827 0.822387 0.823341
0.851811 0.848387 0.825426
0.907232 0.867794 0.821660
0.111655 0.242593 0.277262
0.150987 0.281854 0.319305
0.223576 0.339983 0.377999
0.316726 0.402635 0.437600
0.415215 0.459345 0.488494
0.504653 0.504116 0.526061
0.573440 0.534645 0.549504
0.616323 0.561115 0.570133
0.145800 0.305875 0.352105
0.201121 0.365373 0.412837
0.269158 0.423771 0.471100
0.357875 0.482674 0.528234
0.456309 0.536713 0.579204
0.550369 0.581982 0.620433
0.627750 0.616773 0.651098
0.685629 0.649230 0.674691
0.202078 0.388685 0.442323
0.259291 0.439294 0.492445
0.327181 0.490522 0.543193
0.409392 0.545033 0.596711
0.502888 0.595823 0.646169
0.596761 0.639459 0.688447
0.678785 0.675435 0.723341
0.746536 0.709012 0.748759
0.265233 0.467270 0.523165
0.327346 0.512100 0.566443
0.394000 0.556301 0.609972
0.467954 0.601164 0.653962
0.552655 0.645768 0.698220
0.641576 0.685921 0.739009
0.723802 0.720024 0.774789
0.796579 0.750720 0.800432
0.329337 0.533460 0.587704
0.398186 0.577160 0.629289
0.464524 0.617628 0.668956
0.532376 0.656009 0.706682
0.605021 0.692940 0.742623
0.683917 0.727334 0.777762
0.762022 0.757588 0.811233
0.835415 0.783274 0.835187
0.395300 0.588725 0.639086
0.468595 0.632974 0.680930
0.534233 0.671804 0.718830
0.597305 0.707085 0.753523
0.660138 0.739063 0.783853
0.726057 0.767988 0.810658
0.794589 0.793405 0.836858
0.864981 0.814306 0.857254
0.467447 0.638185 0.683542
0.538933 0.681820 0.724942
0.600512 0.718898 0.761154
0.657840 0.752151 0.793476
0.713566 0.782178 0.821197
0.768788 0.808545 0.842161
0.825940 0.831068 0.858587
0.888964 0.849582 0.870778
0.543533 0.684559 0.724574
0.610045 0.726575 0.765429
0.665344 0.761370 0.799705
0.715879 0.792700 0.829474
0.764795 0.821680 0.854678
0.813398 0.848278 0.873659
0.862348 0.871698 0.883992
0.913732 0.891282 0.887922
