filters/luts/Depression 03.cube
# Created by: Adobe Photoshop Export Color Lookup Plugin
# LUT by SparkleStock. Enhanced with VOXCOLOR algorithms.
LUT_3D_SIZE 32
0.023443 0.101587 0.093773
0.034220 0.104849 0.096892
0.044996 0.108110 0.100012
0.055772 0.111371 0.103131
0.066549 0.114632 0.106251
0.077325 0.117894 0.109370
0.090031 0.121391 0.112687
0.103123 0.124936 0.116042
0.116216 0.128481 0.119398
0.129308 0.132026 0.122754
0.142400 0.135571 0.126110
0.156406 0.139588 0.129434
0.170869 0.143842 0.132743
0.185332 0.148096 0.136051
0.199795 0.152349 0.139360
0.214258 0.156603 0.142668
0.229028 0.161401 0.145953
0.244106 0.166742 0.149214
0.259183 0.172082 0.152475
0.274261 0.177423 0.155737
0.289338 0.182764 0.158998
0.304352 0.188499 0.162401
0.319241 0.195021 0.166088
0.334129 0.201544 0.169774
0.349017 0.208066 0.173461
0.363906 0.214589 0.177148
0.378550 0.221253 0.180968
0.391973 0.228627 0.185458
0.405396 0.236000 0.189948
0.418819 0.243373 0.194439
0.432242 0.250746 0.198929
0.445665 0.258120 0.203419
0.027508 0.106314 0.096183
0.039656 0.110298 0.099193
0.051805 0.114282 0.102203
0.063954 0.118266 0.105212
0.076102 0.122250 0.108222
0.088251 0.126233 0.111232
0.101353 0.130004 0.114667
0.114647 0.133732 0.118188
0.127940 0.137460 0.121708
0.141234 0.141187 0.125228
0.154527 0.144915 0.128749
0.168759 0.149122 0.132287
0.183460 0.153568 0.135833
0.198161 0.158014 0.139379
0.212862 0.162459 0.142926
0.227562 0.166905 0.146472
0.242506 0.171854 0.150027
0.257694 0.177304 0.153590
0.272881 0.182755 0.157153
0.288068 0.188206 0.160716
0.303255 0.193656 0.164279
0.318327 0.199470 0.167975
0.333170 0.206011 0.171936
0.348013 0.212552 0.175897
0.362855 0.219093 0.179858
0.377698 0.225634 0.183820
0.392278 0.232319 0.187904
0.405545 0.239729 0.192604
0.418813 0.247139 0.197305
0.432081 0.254549 0.202005
0.445348 0.261959 0.206706
0.458616 0.269369 0.211407
0.031573 0.111040 0.098594
0.045093 0.115747 0.101494
0.058614 0.120453 0.104394
0.072135 0.125160 0.107294
0.085656 0.129867 0.110194
0.099176 0.134573 0.113093
0.112675 0.138617 0.116648
0.126170 0.142528 0.120333
0.139665 0.146438 0.124018
0.153160 0.150349 0.127703
0.166655 0.154260 0.131388
0.181112 0.158655 0.135139
0.196051 0.163293 0.138924
0.210989 0.167932 0.142708
0.225928 0.172570 0.146492
0.240867 0.177208 0.150276
0.255984 0.182307 0.154101
0.271281 0.187867 0.157966
0.286578 0.193428 0.161831
0.301875 0.198988 0.165696
0.317172 0.204549 0.169561
0.332302 0.210442 0.173549
0.347099 0.217001 0.177785
0.361896 0.223560 0.182020
0.376693 0.230119 0.186256
0.391490 0.236678 0.190491
0.406006 0.243385 0.194840
0.419118 0.250832 0.199750
0.432230 0.258278 0.204661
0.445342 0.265725 0.209572
0.458454 0.273171 0.214483
0.471566 0.280618 0.219394
0.035637 0.115767 0.101004
0.050530 0.121196 0.103795
0.065423 0.126625 0.106585
0.080316 0.132055 0.109375
0.095209 0.137484 0.112165
0.110102 0.142913 0.114955
0.123998 0.147230 0.118628
0.137694 0.151323 0.122478
0.151390 0.155417 0.126328
0.165086 0.159511 0.130178
0.178782 0.163605 0.134027
0.193465 0.168189 0.137992
0.208641 0.173019 0.142014
0.223818 0.177849 0.146036
0.238994 0.182680 0.150058
0.254171 0.187510 0.154080
0.269462 0.192760 0.158175
0.284869 0.198430 0.162342
0.300276 0.204100 0.166508
0.315683 0.209771 0.170675
0.331089 0.215441 0.174842
0.346277 0.221413 0.179124
0.361029 0.227991 0.183634
0.375780 0.234568 0.188143
0.390531 0.241146 0.192653
0.405282 0.247723 0.197163
0.419734 0.254451 0.201775
0.432691 0.261934 0.206897
0.445647 0.269417 0.212018
0.458604 0.276900 0.217139
0.471560 0.284384 0.222261
0.484517 0.291867 0.227382
0.039702 0.120493 0.103415
0.055967 0.126645 0.106095
0.072232 0.132797 0.108776
0.088498 0.138949 0.111456
0.104763 0.145101 0.114136
0.121028 0.151253 0.116817
0.135320 0.155842 0.120609
0.149217 0.160119 0.124623
0.163114 0.164396 0.128638
0.177012 0.168672 0.132652
0.190909 0.172949 0.136667
0.205818 0.177723 0.140845
0.221232 0.182745 0.145104
0.236646 0.187767 0.149364
0.252061 0.192790 0.153624
0.267475 0.197812 0.157884
0.282940 0.203213 0.162249
0.298457 0.208993 0.166717
0.313973 0.214773 0.171186
0.329490 0.220553 0.175655
0.345006 0.226333 0.180124
0.360253 0.232385 0.184698
0.374958 0.238981 0.189482
0.389663 0.245576 0.194267
0.404369 0.252172 0.199051
0.419074 0.258768 0.203835
0.433462 0.265517 0.208711
0.446263 0.273037 0.214043
0.459064 0.280557 0.219374
0.471865 0.288076 0.224706
0.484666 0.295596 0.230038
0.497467 0.303116 0.235370
0.043767 0.125220 0.105825
0.061404 0.132094 0.108396
0.079042 0.138969 0.110967
0.096679 0.145844 0.113537
0.114316 0.152718 0.116108
0.131954 0.159593 0.118678
0.146642 0.164455 0.122589
0.160740 0.168915 0.126768
0.174839 0.173375 0.130947
0.188938 0.177834 0.135127
0.203036 0.182294 0.139306
0.218170 0.187257 0.143697
0.233823 0.192471 0.148195
0.249475 0.197685 0.152693
0.265127 0.202900 0.157191
0.280779 0.208114 0.161688
0.296418 0.213666 0.166322
0.312045 0.219556 0.171093
0.327671 0.225446 0.175864
0.343297 0.231335 0.180634
0.358924 0.237225 0.185405
0.374228 0.243356 0.190272
0.388887 0.249970 0.195331
0.403547 0.256584 0.200390
0.418207 0.263198 0.205448
0.432866 0.269812 0.210507
0.447190 0.276583 0.215647
0.459836 0.284140 0.221189
0.472481 0.291696 0.226731
0.485127 0.299252 0.232273
0.497772 0.306808 0.237815
0.510418 0.314364 0.243357
0.050077 0.130813 0.108590
0.067767 0.137808 0.111234
0.085458 0.144803 0.113878
0.103149 0.151798 0.116522
0.120839 0.158793 0.119165
0.138530 0.165788 0.121809
0.154113 0.171312 0.125819
0.169274 0.176542 0.130102
0.184435 0.181771 0.134384
0.199597 0.187001 0.138667
0.214758 0.192231 0.142950
0.230298 0.197578 0.147540
0.246028 0.202985 0.152283
0.261758 0.208391 0.157026
0.277488 0.213797 0.161769
0.293218 0.219204 0.166513
0.308959 0.224998 0.171451
0.324710 0.231181 0.176584
0.340461 0.237363 0.181718
0.356213 0.243546 0.186852
0.371964 0.249728 0.191985
0.387384 0.256170 0.197246
0.402143 0.263130 0.202762
0.416902 0.270090 0.208279
0.431661 0.277050 0.213795
0.446419 0.284010 0.219311
0.460836 0.291134 0.224906
0.473539 0.299078 0.230895
0.486243 0.307021 0.236884
0.498946 0.314965 0.242873
0.511650 0.322908 0.248862
0.524353 0.330852 0.254851
0.056836 0.136579 0.111426
0.074316 0.143574 0.114180
0.091796 0.150569 0.116933
0.109276 0.157564 0.119687
0.126757 0.164559 0.122440
0.144237 0.171555 0.125194
0.160814 0.177818 0.129298
0.177210 0.183935 0.133672
0.193606 0.190052 0.138047
0.210003 0.196169 0.142421
0.226399 0.202286 0.146795
0.242381 0.208057 0.151580
0.258157 0.213656 0.156570
0.273933 0.219254 0.161560
0.289708 0.224853 0.166551
0.305484 0.230451 0.171541
0.321312 0.236507 0.176790
0.337191 0.243018 0.182299
0.353070 0.249530 0.187808
0.368950 0.256042 0.193316
0.384829 0.262554 0.198825
0.400378 0.269352 0.204501
0.415264 0.276724 0.210511
0.430151 0.284096 0.216521
0.445038 0.291468 0.222531
0.459925 0.298839 0.228541
0.474465 0.306383 0.234630
0.487269 0.314784 0.241113
0.500073 0.323184 0.247596
0.512877 0.331585 0.254079
0.525681 0.339986 0.260562
0.538485 0.348387 0.267045
0.063594 0.142345 0.114262
0.080864 0.149340 0.117125
0.098134 0.156335 0.119989
0.115404 0.163331 0.122852
0.132674 0.170326 0.125715
0.149944 0.177321 0.128579
0.167515 0.184324 0.132777
0.185146 0.191328 0.137243
0.202777 0.198332 0.141709
0.220408 0.205337 0.146175
0.238040 0.212341 0.150640
0.254464 0.218536 0.155620
0.270286 0.224327 0.160858
0.286107 0.230117 0.166095
0.301929 0.235908 0.171332
0.317750 0.241699 0.176569
0.333664 0.248015 0.182130
0.349672 0.254856 0.188013
0.365679 0.261697 0.193897
0.381687 0.268538 0.199781
0.397694 0.275379 0.205664
0.413371 0.282535 0.211755
0.428386 0.290318 0.218259
0.443401 0.298101 0.224763
0.458415 0.305885 0.231268
0.473430 0.313668 0.237772
0.488094 0.321631 0.244355
0.500998 0.330489 0.251332
0.513903 0.339347 0.258308
0.526808 0.348206 0.265285
0.539713 0.357064 0.272262
0.552617 0.365922 0.279239
0.070353 0.148111 0.117098
0.087413 0.155107 0.120071
0.104472 0.162102 0.123044
0.121532 0.169097 0.126017
0.138591 0.176092 0.128990
0.155651 0.183087 0.131963
0.174216 0.190829 0.136257
0.193082 0.198721 0.140814
0.211948 0.206613 0.145371
0.230814 0.214504 0.149928
0.249680 0.222396 0.154485
0.266547 0.229015 0.159661
0.282414 0.234998 0.165145
0.298282 0.240981 0.170629
0.314149 0.246963 0.176113
0.330016 0.252946 0.181598
0.346017 0.259523 0.187469
0.362153 0.266693 0.193728
0.378288 0.273864 0.199987
0.394424 0.281034 0.206245
0.410559 0.288205 0.212504
0.426364 0.295717 0.219009
0.441507 0.303912 0.226007
0.456650 0.312107 0.233006
0.471793 0.320302 0.240004
0.486936 0.328497 0.247002
0.501722 0.336879 0.254079
0.514728 0.346195 0.261550
0.527733 0.355510 0.269021
0.540739 0.364826 0.276492
0.553744 0.374142 0.283962
0.566749 0.383457 0.291433
0.077112 0.153878 0.119934
0.093961 0.160873 0.123017
0.110810 0.167868 0.126100
0.127659 0.174863 0.129182
0.144508 0.181858 0.132265
0.161357 0.188853 0.135348
0.180917 0.197335 0.139736
0.201018 0.206114 0.144385
0.221119 0.214893 0.149033
0.241220 0.223672 0.153682
0.261321 0.232451 0.158331
0.278630 0.239494 0.163701
0.294543 0.245669 0.169432
0.310456 0.251844 0.175163
0.326369 0.258019 0.180895
0.342282 0.264194 0.186626
0.358370 0.271031 0.192808
0.374634 0.278531 0.199442
0.390897 0.286031 0.206076
0.407161 0.293530 0.212710
0.423424 0.301030 0.219344
0.439357 0.308899 0.226264
0.454628 0.317506 0.233756
0.469899 0.326113 0.241248
0.485170 0.334719 0.248740
0.500441 0.343326 0.256232
0.515351 0.352127 0.263803
0.528457 0.361900 0.271768
0.541563 0.371673 0.279733
0.554669 0.381446 0.287698
0.567775 0.391219 0.295663
0.580881 0.400993 0.303628
0.085100 0.160526 0.123400
0.101763 0.167564 0.126623
0.118426 0.174602 0.129846
0.135089 0.181640 0.133069
0.151752 0.188678 0.136292
0.168415 0.195715 0.139516
0.188362 0.204486 0.144033
0.208967 0.213604 0.148810
0.229571 0.222721 0.153587
0.250175 0.231839 0.158364
0.270780 0.240956 0.163141
0.288604 0.248602 0.168775
0.305038 0.255512 0.174839
0.321473 0.262421 0.180902
0.337907 0.269331 0.186966
0.354341 0.276241 0.193029
0.370709 0.283595 0.199563
0.387009 0.291394 0.206565
0.403309 0.299193 0.213568
0.419609 0.306991 0.220571
0.435909 0.314790 0.227574
0.451893 0.323007 0.234904
0.467243 0.332062 0.242891
0.482594 0.341117 0.250877
0.497944 0.350172 0.258863
0.513294 0.359227 0.266849
0.528281 0.368486 0.274921
0.541451 0.378766 0.283423
0.554621 0.389045 0.291924
0.567791 0.399324 0.300426
0.580961 0.409603 0.308927
0.594131 0.419883 0.317429
0.093702 0.167616 0.127181
0.110191 0.174718 0.130560
0.126680 0.181820 0.133938
0.143170 0.188922 0.137317
0.159659 0.196023 0.140696
0.176148 0.203125 0.144074
0.196181 0.211960 0.148740
0.216922 0.221142 0.153663
0.237664 0.230323 0.158586
0.258406 0.239505 0.163509
0.279147 0.248686 0.168433
0.297523 0.257024 0.174366
0.314717 0.264940 0.180805
0.331911 0.272856 0.187243
0.349104 0.280772 0.193682
0.366298 0.288688 0.200121
0.383040 0.296688 0.207024
0.399331 0.304770 0.214393
0.415622 0.312852 0.221762
0.431913 0.320934 0.229130
0.448204 0.329017 0.236499
0.464200 0.337579 0.244238
0.479605 0.347100 0.252719
0.495010 0.356622 0.261199
0.510416 0.366143 0.269679
0.525821 0.375665 0.278159
0.540861 0.385401 0.286736
0.554077 0.396211 0.295795
0.567293 0.407021 0.304855
0.580508 0.417830 0.313914
0.593724 0.428640 0.322974
0.606940 0.439450 0.332034
0.102304 0.174706 0.130962
0.118620 0.181871 0.134496
0.134935 0.189037 0.138031
0.151250 0.196203 0.141565
0.167566 0.203369 0.145099
0.183881 0.210535 0.148633
0.203999 0.219434 0.153447
0.224878 0.228680 0.158516
0.245757 0.237925 0.163586
0.266636 0.247171 0.168655
0.287514 0.256416 0.173725
0.306443 0.265446 0.179957
0.324396 0.274369 0.186771
0.342348 0.283291 0.193584
0.360301 0.292213 0.200398
0.378254 0.301136 0.207212
0.395372 0.309780 0.214486
0.411654 0.318146 0.222221
0.427935 0.326511 0.229955
0.444217 0.334877 0.237690
0.460499 0.343243 0.245425
0.476507 0.352150 0.253572
0.491967 0.362138 0.262547
0.507427 0.372126 0.271521
0.522887 0.382114 0.280495
0.538347 0.392102 0.289469
0.553441 0.402315 0.298550
0.566703 0.413656 0.308168
0.579964 0.424996 0.317786
0.593226 0.436337 0.327403
0.606487 0.447677 0.337021
0.619749 0.459018 0.346638
0.110906 0.181795 0.134743
0.127048 0.189025 0.138433
0.143190 0.196255 0.142123
0.159331 0.203485 0.145812
0.175473 0.210715 0.149502
0.191614 0.217945 0.153192
0.211818 0.226908 0.158153
0.232834 0.236218 0.163369
0.253850 0.245527 0.168585
0.274866 0.254837 0.173801
0.295882 0.264146 0.179017
0.315362 0.273869 0.185548
0.334074 0.283797 0.192737
0.352786 0.293726 0.199926
0.371498 0.303654 0.207114
0.390211 0.313583 0.214303
0.407703 0.322872 0.221948
0.423976 0.331522 0.230048
0.440249 0.340171 0.238149
0.456521 0.348820 0.246249
0.472794 0.357470 0.254350
0.488814 0.366721 0.262906
0.504329 0.377176 0.272374
0.519844 0.387630 0.281843
0.535359 0.398085 0.291311
0.550874 0.408539 0.300779
0.566021 0.419230 0.310365
0.579328 0.431101 0.320541
0.592636 0.442972 0.330716
0.605943 0.454843 0.340892
0.619250 0.466714 0.351067
0.632557 0.478585 0.361243
0.119508 0.188885 0.138525
0.135476 0.196179 0.142370
0.151444 0.203473 0.146215
0.167412 0.210767 0.150060
0.183380 0.218061 0.153905
0.199347 0.225355 0.157751
0.219636 0.234382 0.162860
0.240790 0.243756 0.168222
0.261943 0.253129 0.173584
0.283096 0.262503 0.178947
0.304249 0.271876 0.184309
0.324281 0.282291 0.191139
0.343753 0.293226 0.198703
0.363224 0.304161 0.206267
0.382696 0.315096 0.213830
0.402167 0.326030 0.221394
0.420035 0.335964 0.229409
0.436298 0.344897 0.237876
0.452562 0.353830 0.246342
0.468825 0.362763 0.254809
0.485089 0.371696 0.263275
0.501121 0.381292 0.272240
0.516691 0.392213 0.282202
0.532261 0.403134 0.292165
0.547831 0.414056 0.302127
0.563401 0.424977 0.312089
0.578601 0.436145 0.322180
0.591954 0.448546 0.332913
0.605307 0.460948 0.343647
0.618660 0.473350 0.354381
0.632013 0.485751 0.365114
0.645366 0.498153 0.375848
0.128347 0.196400 0.142684
0.144196 0.203813 0.146753
0.160045 0.211226 0.150822
0.175894 0.218639 0.154892
0.191742 0.226052 0.158961
0.207591 0.233465 0.163030
0.227998 0.242649 0.168368
0.249315 0.252187 0.173959
0.270633 0.261725 0.179550
0.291951 0.271264 0.185141
0.313269 0.280802 0.190732
0.333725 0.291661 0.197848
0.353750 0.303182 0.205728
0.373775 0.314702 0.213607
0.393800 0.326223 0.221487
0.413825 0.337743 0.229366
0.431989 0.348246 0.237763
0.448294 0.357733 0.246678
0.464599 0.367219 0.255593
0.480904 0.376706 0.264507
0.497208 0.386192 0.273422
0.513259 0.396280 0.282841
0.528802 0.407572 0.293270
0.544344 0.418864 0.303699
0.559886 0.430155 0.314127
0.575429 0.441447 0.324556
0.590597 0.452995 0.335121
0.603895 0.465827 0.346367
0.617193 0.478658 0.357613
0.630491 0.491490 0.368859
0.643790 0.504322 0.380105
0.657088 0.517153 0.391351
0.137422 0.204340 0.147221
0.153207 0.211927 0.151583
0.168991 0.219514 0.155945
0.184776 0.227101 0.160307
0.200561 0.234687 0.164669
0.216346 0.242274 0.169032
0.236902 0.251708 0.174677
0.258412 0.261512 0.180579
0.279922 0.271315 0.186481
0.301432 0.281119 0.192383
0.322941 0.290923 0.198285
0.343693 0.301980 0.205676
0.364066 0.313665 0.213811
0.384438 0.325350 0.221947
0.404811 0.337035 0.230083
0.425183 0.348720 0.238218
0.443568 0.359718 0.247009
0.459964 0.370028 0.256454
0.476360 0.380337 0.265899
0.492756 0.390647 0.275345
0.509153 0.400957 0.284790
0.525228 0.411686 0.294709
0.540660 0.423252 0.305577
0.556093 0.434818 0.316445
0.571526 0.446384 0.327313
0.586958 0.457950 0.338180
0.602009 0.469782 0.349189
0.615152 0.482943 0.360902
0.628294 0.496104 0.372614
0.641437 0.509264 0.384326
0.654580 0.522425 0.396039
0.667722 0.535586 0.407751
0.146497 0.212281 0.151759
0.162217 0.220041 0.156413
0.177938 0.227802 0.161068
0.193659 0.235563 0.165723
0.209380 0.243323 0.170378
0.225101 0.251084 0.175033
0.245806 0.260768 0.180986
0.267508 0.270837 0.187199
0.289210 0.280905 0.193412
0.310912 0.290974 0.199625
0.332614 0.301043 0.205838
0.353661 0.312299 0.213503
0.374382 0.324149 0.221895
0.395102 0.335999 0.230287
0.415822 0.347848 0.238679
0.436542 0.359698 0.247070
0.455146 0.371189 0.256254
0.471634 0.382323 0.266230
0.488121 0.393456 0.276206
0.504609 0.404589 0.286182
0.521097 0.415722 0.296158
0.537196 0.427091 0.306577
0.552519 0.438931 0.317884
0.567842 0.450772 0.329191
0.583165 0.462612 0.340498
0.598488 0.474453 0.351805
0.613421 0.486568 0.363257
0.626408 0.500059 0.375436
0.639396 0.513549 0.387615
0.652383 0.527039 0.399794
0.665370 0.540529 0.411973
0.678357 0.554019 0.424152
0.155571 0.220221 0.156296
0.171228 0.228156 0.161244
0.186885 0.236090 0.166191
0.202542 0.244024 0.171139
0.218198 0.251959 0.176086
0.233855 0.259893 0.181034
0.254710 0.269827 0.187295
0.276604 0.280161 0.193819
0.298498 0.290496 0.200343
0.320392 0.300830 0.206867
0.342286 0.311164 0.213391
0.363630 0.322618 0.221331
0.384697 0.334633 0.229979
0.405765 0.346647 0.238627
0.426833 0.358661 0.247275
0.447901 0.370676 0.255923
0.466724 0.382661 0.265500
0.483304 0.394617 0.276006
0.499883 0.406574 0.286513
0.516462 0.418530 0.297019
0.533041 0.430487 0.307526
0.549165 0.442496 0.318445
0.564378 0.454611 0.330191
0.579591 0.466726 0.341937
0.594804 0.478841 0.353683
0.610017 0.490956 0.365429
0.624833 0.503355 0.377325
0.637665 0.517174 0.389971
0.650497 0.530994 0.402616
0.663328 0.544814 0.415262
0.676160 0.558633 0.427907
0.688991 0.572453 0.440553
0.164646 0.228162 0.160833
0.180239 0.236270 0.166074
0.195832 0.244378 0.171314
0.211424 0.252486 0.176554
0.227017 0.260594 0.181795
0.242610 0.268703 0.187035
0.263614 0.278887 0.193604
0.285700 0.289486 0.200439
0.307786 0.300086 0.207274
0.329873 0.310685 0.214109
0.351959 0.321285 0.220944
0.373598 0.332937 0.229159
0.395013 0.345116 0.238063
0.416429 0.357295 0.246967
0.437844 0.369474 0.255871
0.459260 0.381653 0.264775
0.478303 0.394133 0.274745
0.494973 0.406912 0.285782
0.511644 0.419692 0.296819
0.528315 0.432472 0.307856
0.544985 0.445251 0.318894
0.561134 0.457901 0.330313
0.576237 0.470291 0.342498
0.591340 0.482680 0.354683
0.606443 0.495069 0.366869
0.621547 0.507459 0.379054
0.636246 0.520141 0.391393
0.648922 0.534290 0.404505
0.661598 0.548439 0.417617
0.674274 0.562588 0.430730
0.686950 0.576737 0.443842
0.699626 0.590886 0.456954
0.173280 0.235850 0.165229
0.188879 0.244245 0.170915
0.204477 0.252640 0.176600
0.220076 0.261035 0.182285
0.235675 0.269429 0.187971
0.251274 0.277824 0.193656
0.272480 0.288366 0.200645
0.294807 0.299338 0.207895
0.317134 0.310309 0.215145
0.339461 0.321281 0.222395
0.361788 0.332252 0.229645
0.383731 0.344171 0.238180
0.405482 0.356563 0.247359
0.427233 0.368956 0.256537
0.448984 0.381348 0.265716
0.470735 0.393741 0.274894
0.490023 0.406615 0.285218
0.506849 0.419971 0.296688
0.523676 0.433327 0.308158
0.540502 0.446683 0.319628
0.557328 0.460039 0.331098
0.573515 0.473178 0.342973
0.588423 0.485881 0.355655
0.603331 0.498585 0.368337
0.618239 0.511288 0.381019
0.633147 0.523992 0.393701
0.647650 0.536975 0.406531
0.660125 0.551355 0.420101
0.672600 0.565736 0.433670
0.685074 0.580117 0.447240
0.697549 0.594497 0.460809
0.710024 0.608878 0.474379
0.181031 0.243034 0.169341
0.196776 0.251941 0.175777
0.212522 0.260849 0.182212
0.228267 0.269756 0.188648
0.244012 0.278663 0.195083
0.259757 0.287570 0.201519
0.281269 0.298685 0.209152
0.303935 0.310242 0.217023
0.326601 0.321799 0.224895
0.349266 0.333356 0.232767
0.371932 0.344913 0.240639
0.394195 0.357234 0.249589
0.416257 0.369938 0.259079
0.438319 0.382641 0.268568
0.460381 0.395345 0.278058
0.482443 0.408048 0.287547
0.502028 0.421119 0.298146
0.519138 0.434558 0.309854
0.536248 0.447996 0.321562
0.553358 0.461434 0.333270
0.570468 0.474873 0.344977
0.586721 0.488197 0.357214
0.601264 0.501294 0.370509
0.615806 0.514391 0.383805
0.630348 0.527488 0.397100
0.644890 0.540585 0.410395
0.659039 0.553902 0.423809
0.671221 0.568319 0.437817
0.683403 0.582736 0.451826
0.695585 0.597153 0.465834
0.707768 0.611570 0.479843
0.719950 0.625988 0.493852
0.188783 0.250219 0.173453
0.204674 0.259638 0.180639
0.220566 0.269057 0.187825
0.236457 0.278477 0.195010
0.252349 0.287896 0.202196
0.268240 0.297315 0.209382
0.290059 0.309004 0.217658
0.313063 0.321146 0.226152
0.336067 0.333289 0.234645
0.359071 0.345431 0.243139
0.382076 0.357574 0.251633
0.404659 0.370298 0.260998
0.427032 0.383312 0.270799
0.449405 0.396327 0.280599
0.471778 0.409341 0.290400
0.494151 0.422356 0.300200
0.514034 0.435623 0.311074
0.531427 0.449144 0.323019
0.548820 0.462665 0.334965
0.566214 0.476185 0.346911
0.583607 0.489706 0.358856
0.599928 0.503217 0.371456
0.614104 0.516707 0.385364
0.628281 0.530197 0.399272
0.642457 0.543687 0.413180
0.656633 0.557178 0.427088
0.670429 0.570828 0.441086
0.682318 0.585282 0.455534
0.694207 0.599736 0.469982
0.706096 0.614190 0.484429
0.717986 0.628644 0.498877
0.729875 0.643097 0.513325
0.196534 0.257403 0.177565
0.212572 0.267334 0.185501
0.228610 0.277266 0.193437
0.244648 0.287198 0.201373
0.260686 0.297129 0.209309
0.276724 0.307061 0.217244
0.298849 0.319323 0.226164
0.322191 0.332051 0.235280
0.345534 0.344779 0.244396
0.368877 0.357507 0.253512
0.392219 0.370235 0.262628
0.415123 0.383361 0.272407
0.437807 0.396686 0.282519
0.460491 0.410012 0.292630
0.483174 0.423338 0.302742
0.505858 0.436663 0.312854
0.526039 0.450127 0.324001
0.543716 0.463730 0.336185
0.561393 0.477333 0.348368
0.579070 0.490937 0.360552
0.596747 0.504540 0.372735
0.613135 0.518236 0.385698
0.626945 0.532120 0.400219
0.640756 0.546003 0.414740
0.654566 0.559887 0.429261
0.668376 0.573770 0.443782
0.681818 0.587755 0.458364
0.693414 0.602246 0.473250
0.705011 0.616736 0.488137
0.716608 0.631226 0.503024
0.728204 0.645717 0.517911
0.739801 0.660207 0.532798
0.204285 0.264587 0.181677
0.220470 0.275031 0.190363
0.236654 0.285475 0.199049
0.252838 0.295919 0.207735
0.269023 0.306363 0.216421
0.285207 0.316807 0.225107
0.307638 0.329642 0.234670
0.331320 0.342955 0.244408
0.355001 0.356269 0.254146
0.378682 0.369582 0.263884
0.402363 0.382895 0.273622
0.425586 0.396424 0.283816
0.448581 0.410061 0.294239
0.471576 0.423697 0.304662
0.494571 0.437334 0.315084
0.517566 0.450971 0.325507
0.538044 0.464631 0.336929
0.556005 0.478317 0.349350
0.573965 0.492002 0.361772
0.591926 0.505688 0.374193
0.609886 0.519373 0.386614
0.626341 0.533256 0.399940
0.639786 0.547533 0.415074
0.653230 0.561809 0.430208
0.666675 0.576086 0.445341
0.680119 0.590363 0.460475
0.693207 0.604682 0.475641
0.704511 0.619209 0.490967
0.715815 0.633736 0.506293
0.727119 0.648263 0.521619
0.738422 0.662790 0.536945
0.749726 0.677317 0.552271
0.211391 0.271180 0.185443
0.227793 0.282274 0.195023
0.244195 0.293367 0.204604
0.260598 0.304461 0.214185
0.277000 0.315554 0.223766
0.293402 0.326648 0.233347
0.316177 0.340158 0.243663
0.340225 0.354151 0.254125
0.364274 0.368144 0.264587
0.388322 0.382138 0.275050
0.412371 0.396131 0.285512
0.435926 0.410116 0.296178
0.459235 0.424098 0.306947
0.482544 0.438079 0.317716
0.505853 0.452060 0.328484
0.529162 0.466041 0.339253
0.549921 0.479898 0.350943
0.568130 0.493631 0.363553
0.586340 0.507363 0.376164
0.604549 0.521096 0.388774
0.622758 0.534829 0.401385
0.639274 0.548833 0.415005
0.652406 0.563381 0.430645
0.665538 0.577930 0.446285
0.678670 0.592478 0.461925
0.691802 0.607026 0.477565
0.704593 0.621584 0.493244
0.715681 0.636191 0.509117
0.726768 0.650797 0.524990
0.737855 0.665403 0.540864
0.748943 0.680010 0.556737
0.760030 0.694616 0.572610
0.215266 0.274820 0.187475
0.232245 0.287249 0.198675
0.249224 0.299678 0.209875
0.266202 0.312107 0.221075
0.283181 0.324536 0.232276
0.300160 0.336965 0.243476
0.323457 0.351658 0.255090
0.348018 0.366804 0.266787
0.372578 0.381950 0.278485
0.397139 0.397096 0.290182
0.421700 0.412242 0.301879
0.445646 0.426953 0.313305
0.469284 0.441447 0.324595
0.492923 0.455940 0.335885
0.516561 0.470434 0.347175
0.540199 0.484927 0.358465
0.561160 0.498976 0.370388
0.579442 0.512581 0.382944
0.597724 0.526185 0.395499
0.616006 0.539790 0.408055
