filters/luts/Depression 02_S.cube
# LUT by SparkleStock. Enhanced with VOXCOLOR algorithms.
LUT_3D_SIZE 5
DOMAIN_MIN 0.000000 0.000000 0.000000
DOMAIN_MAX 0.903226 0.903226 0.903226
0.082051 0.085958 0.089866
0.149529 0.117287 0.119367
0.231833 0.150167 0.147678
0.321746 0.193871 0.178085
0.411430 0.251424 0.211407
0.110024 0.127638 0.114624
0.215696 0.190435 0.124587
0.335645 0.235456 0.142143
0.446316 0.277589 0.184166
0.514405 0.337240 0.257216
0.148781 0.178463 0.144039
0.257345 0.248549 0.166086
0.394354 0.332025 0.190823
0.522654 0.389347 0.239980
0.604543 0.454952 0.338985
0.194872 0.235543 0.178802
0.307259 0.308551 0.222299
0.452086 0.401914 0.276081
0.578126 0.496632 0.343376
0.675280 0.573463 0.447163
0.229651 0.274473 0.206775
0.362639 0.380556 0.296579
0.524461 0.491317 0.388316
0.656167 0.589064 0.476158
0.747822 0.685400 0.584940
0.108598 0.127323 0.142897
0.193236 0.141120 0.164446
0.306061 0.167724 0.199498
0.404187 0.212840 0.232500
0.463091 0.271254 0.265618
0.145113 0.180001 0.197307
0.242332 0.237503 0.235036
0.391255 0.269836 0.254431
0.534308 0.310201 0.280792
0.613951 0.383330 0.330532
0.195287 0.248195 0.249956
0.296768 0.333771 0.286915
0.440635 0.406311 0.298855
0.601482 0.448954 0.322705
0.709047 0.506609 0.386014
0.261568 0.332468 0.312786
0.371204 0.422038 0.358365
0.504236 0.509878 0.389103
0.637246 0.589665 0.413695
0.765108 0.644525 0.473497
0.349100 0.434787 0.408090
0.455839 0.507652 0.447612
0.589209 0.598073 0.507685
0.708918 0.682002 0.562272
0.799105 0.752141 0.615584
0.143149 0.178463 0.206121
0.218813 0.201857 0.230456
0.343538 0.223329 0.258359
0.453303 0.267948 0.301225
0.508922 0.329056 0.333624
0.187131 0.243398 0.277143
0.275927 0.305727 0.342155
0.412031 0.332340 0.382562
0.567267 0.369703 0.408352
0.666381 0.448135 0.442612
0.256115 0.333567 0.367753
0.341922 0.408838 0.424819
0.466445 0.463101 0.454465
0.638541 0.491744 0.465305
0.772704 0.543091 0.498569
0.333330 0.436103 0.458740
0.427213 0.516163 0.508333
0.541972 0.589663 0.532344
0.671179 0.649335 0.526822
0.822263 0.683368 0.549974
0.433456 0.552820 0.567933
0.527557 0.620560 0.609562
0.642203 0.688390 0.637256
0.745003 0.751968 0.653750
0.839737 0.804483 0.666102
0.178621 0.229430 0.269172
0.249672 0.275291 0.310907
0.370398 0.325423 0.353612
0.494781 0.367472 0.386574
0.561798 0.437868 0.438888
0.234648 0.311835 0.357199
0.324535 0.394136 0.440455
0.442196 0.449305 0.500841
0.576140 0.487391 0.545199
0.693210 0.559654 0.574054
0.319877 0.424847 0.472070
0.406195 0.500471 0.541592
0.509763 0.559793 0.597525
0.640259 0.585423 0.636393
0.788622 0.626258 0.651185
0.416578 0.533845 0.575253
0.495460 0.601781 0.631971
0.586355 0.659231 0.674585
0.689416 0.692845 0.682833
0.843276 0.712272 0.686938
0.509202 0.640356 0.673685
0.593891 0.704844 0.724203
0.679509 0.757851 0.756770
0.771738 0.802485 0.764401
0.860192 0.835773 0.755444
0.196534 0.256497 0.302816
0.287505 0.335903 0.375115
0.418033 0.429830 0.457207
0.539332 0.505488 0.519105
0.607599 0.555801 0.556227
0.290151 0.388974 0.442139
0.384404 0.481016 0.528843
0.498807 0.567801 0.610882
0.618931 0.637799 0.675354
0.712698 0.693731 0.718619
0.400466 0.529650 0.581660
0.485826 0.599427 0.645020
0.576891 0.663254 0.704753
0.683243 0.718679 0.760641
0.786891 0.761210 0.799402
0.493708 0.632400 0.675240
0.580706 0.696935 0.731888
0.657848 0.746390 0.777204
0.735621 0.782399 0.808149
0.833521 0.807266 0.834498
0.585870 0.709798 0.741471
0.665973 0.770180 0.793225
0.730683 0.812683 0.830310
0.792939 0.844266 0.851775
0.864416 0.864213 0.854809
