filters/luts/Depression 03.cube
# Created by: Adobe Photoshop Export Color Lookup Plugin
# LUT by SparkleStock. Enhanced with VOXCOLOR algorithms.
LUT_3D_SIZE 5
DOMAIN_MIN 0.000000 0.000000 0.000000
DOMAIN_MAX 0.903226 0.903226 0.903226
0.023443 0.101587 0.093773
0.103123 0.124936 0.116042
0.199795 0.152349 0.139360
0.304352 0.188499 0.162401
0.405396 0.236000 0.189948
0.056836 0.136579 0.111426
0.177210 0.183935 0.133672
0.289708 0.224853 0.166551
0.400378 0.269352 0.204501
0.500073 0.323184 0.247596
0.110906 0.181795 0.134743
0.232834 0.236218 0.163369
0.371498 0.303654 0.207114
0.488814 0.366721 0.262906
0.592636 0.442972 0.330716
0.173280 0.235850 0.165229
0.294807 0.299338 0.207895
0.448984 0.381348 0.265716
0.573515 0.473178 0.342973
0.672600 0.565736 0.433670
0.219142 0.278459 0.189507
0.355810 0.379457 0.279450
0.527269 0.488807 0.365866
0.662403 0.585568 0.453366
0.750168 0.685529 0.567803
0.047926 0.131506 0.140392
0.150932 0.149883 0.154744
0.270883 0.182430 0.183111
0.377056 0.220901 0.214411
0.459944 0.255975 0.244566
0.092472 0.180418 0.194381
0.209288 0.241490 0.231885
0.355758 0.291452 0.258163
0.480983 0.350392 0.292396
0.570521 0.414544 0.335199
0.155285 0.245320 0.244642
0.279381 0.328024 0.286291
0.433582 0.394226 0.319708
0.565624 0.461522 0.367454
0.655038 0.536220 0.431351
0.236139 0.330014 0.305613
0.363245 0.418760 0.353134
0.510379 0.493587 0.397843
0.639362 0.566050 0.453800
0.727977 0.649487 0.538367
0.331915 0.439026 0.401122
0.450994 0.511910 0.438899
0.593822 0.597266 0.500684
0.715321 0.674223 0.568171
0.790415 0.744407 0.646994
0.087865 0.174721 0.201552
0.181586 0.198639 0.221619
0.323466 0.225599 0.236072
0.437497 0.272031 0.276557
0.510496 0.314744 0.311164
0.138917 0.236029 0.274082
0.243543 0.308395 0.334803
0.390749 0.357881 0.363695
0.534520 0.419987 0.391986
0.630440 0.495497 0.433693
0.216040 0.326339 0.365762
0.319371 0.406329 0.424707
0.464667 0.474534 0.458888
0.616472 0.543237 0.482100
0.708458 0.620604 0.531270
0.303729 0.431551 0.458809
0.413030 0.515111 0.509948
0.549560 0.590060 0.541620
0.682684 0.647125 0.568479
0.771390 0.718293 0.628292
0.410269 0.557474 0.569091
0.515772 0.625807 0.610148
0.644451 0.693809 0.637642
0.753883 0.748491 0.671828
0.826061 0.798935 0.721434
0.128103 0.219260 0.264532
0.214961 0.264458 0.307490
0.355353 0.316521 0.343614
0.495340 0.359733 0.364962
0.569866 0.427706 0.420491
0.191181 0.300787 0.355341
0.291634 0.391001 0.438233
0.424444 0.459509 0.491666
0.569013 0.513115 0.524674
0.679106 0.595015 0.558906
0.284201 0.417679 0.471892
0.380361 0.499322 0.542786
0.499697 0.572241 0.597788
0.636868 0.627514 0.630007
0.752172 0.703488 0.652249
0.389411 0.531683 0.576023
0.475813 0.601744 0.635646
0.581689 0.667422 0.682189
0.703113 0.715912 0.695323
0.805614 0.778780 0.716647
0.485057 0.645104 0.677624
0.578123 0.709463 0.729004
0.673856 0.766184 0.763026
0.779772 0.814266 0.772740
0.854380 0.847979 0.792366
0.146063 0.242711 0.298484
0.255257 0.323672 0.374118
0.405223 0.422847 0.455868
0.542119 0.502068 0.513249
0.618191 0.553034 0.546258
0.251552 0.380891 0.441685
0.353050 0.476920 0.530236
0.480197 0.570861 0.612530
0.613160 0.646990 0.674515
0.711025 0.707947 0.715343
0.370965 0.529486 0.583134
0.461124 0.601537 0.647883
0.560987 0.670639 0.708487
0.677296 0.736619 0.763457
0.780602 0.794141 0.801865
0.470829 0.636144 0.676952
0.563208 0.701505 0.735844
0.647173 0.755159 0.783434
0.735658 0.798501 0.815998
0.829352 0.844955 0.843871
0.569539 0.714780 0.742989
0.652584 0.775251 0.799021
0.722568 0.822746 0.839446
0.794589 0.860900 0.863451
0.870576 0.887409 0.868470
