filters/luts/Depression 01_S.cube
# Created by: Adobe Photoshop Export Color Lookup Plugin
# LUT by SparkleStock. Enhanced with VOXCOLOR algorithms.
LUT_3D_SIZE 5
DOMAIN_MIN 0.000000 0.000000 0.000000
DOMAIN_MAX 0.903226 0.903226 0.903226
0.101587 0.101587 0.101587
0.149939 0.116090 0.115743
0.217716 0.136634 0.132711
0.296278 0.171303 0.156257
0.380881 0.222293 0.188105
0.120328 0.127591 0.113317
0.213049 0.182280 0.117745
0.324328 0.221082 0.130485
0.429541 0.258615 0.167080
0.495931 0.314069 0.235611
0.152672 0.167261 0.133704
0.251699 0.234029 0.151991
0.383763 0.318812 0.177788
0.513238 0.379387 0.228502
0.599171 0.448925 0.329274
0.193139 0.218843 0.163063
0.300984 0.292802 0.205312
0.444849 0.391462 0.262080
0.573994 0.494735 0.338918
0.679001 0.582308 0.453045
0.223112 0.255788 0.188515
0.359933 0.373297 0.285859
0.527619 0.496075 0.386712
0.662112 0.601058 0.484593
0.754185 0.699395 0.601768
0.117374 0.123565 0.136012
0.188669 0.133242 0.154281
0.289859 0.151228 0.182414
0.380952 0.188039 0.209917
0.437797 0.239094 0.238834
0.147209 0.168789 0.188133
0.243265 0.231445 0.229907
0.385940 0.262574 0.247556
0.525086 0.300292 0.271688
0.603003 0.370853 0.318939
0.193442 0.233320 0.240674
0.297723 0.328449 0.282173
0.439247 0.402694 0.295161
0.598559 0.446227 0.319839
0.707018 0.505379 0.384162
0.259809 0.321664 0.307038
0.374392 0.420774 0.356662
0.507146 0.511977 0.389324
0.639746 0.593870 0.417282
0.769780 0.652427 0.481405
0.352623 0.437235 0.412406
0.463877 0.514791 0.454621
0.599473 0.609825 0.518558
0.718846 0.695281 0.576099
0.808431 0.764810 0.630977
0.141022 0.160227 0.189814
0.209452 0.183354 0.214776
0.326755 0.203986 0.241062
0.434180 0.247001 0.283271
0.492014 0.305633 0.315106
0.182330 0.223998 0.265271
0.273301 0.295655 0.337676
0.408987 0.327513 0.379452
0.562596 0.365201 0.405384
0.662380 0.443827 0.440296
0.252482 0.320802 0.363771
0.342932 0.404597 0.427206
0.469990 0.464415 0.457714
0.639717 0.493579 0.467740
0.773500 0.545442 0.501338
0.334029 0.433155 0.464220
0.434336 0.520750 0.516690
0.550689 0.598691 0.541152
0.677001 0.655940 0.533791
0.827494 0.689867 0.557322
0.444389 0.566870 0.583352
0.542613 0.635189 0.624800
0.656787 0.703179 0.652203
0.757286 0.764894 0.668211
0.849604 0.814124 0.678061
0.167655 0.201323 0.249880
0.237968 0.251887 0.298282
0.359489 0.310584 0.345984
0.484062 0.355824 0.380289
0.558988 0.434235 0.440164
0.225819 0.290555 0.349076
0.320719 0.384850 0.441297
0.442394 0.448691 0.505815
0.578362 0.491061 0.549714
0.697844 0.566665 0.582534
0.317972 0.417963 0.476220
0.409306 0.500837 0.550312
0.516412 0.565734 0.607094
0.647723 0.593881 0.644059
0.795193 0.634836 0.659927
0.423750 0.539887 0.586713
0.505922 0.610092 0.644846
0.598418 0.669448 0.686955
0.699910 0.703793 0.693135
0.850340 0.720188 0.694575
0.526183 0.658882 0.690916
0.613610 0.720935 0.739365
0.698016 0.772584 0.770509
0.786505 0.815647 0.777613
0.871567 0.845572 0.765552
0.181756 0.223175 0.283422
0.276801 0.315388 0.370496
0.416648 0.428175 0.467307
0.545757 0.516385 0.535249
0.619688 0.571912 0.576378
0.283429 0.374913 0.442460
0.385109 0.478233 0.537320
0.506664 0.576048 0.624863
0.631470 0.652464 0.690386
0.726543 0.709171 0.732395
0.405969 0.535464 0.594912
0.495978 0.609227 0.659181
0.589862 0.675544 0.718981
0.698094 0.732917 0.773224
0.800534 0.774504 0.809213
0.509624 0.648507 0.692045
0.598580 0.712107 0.746987
0.675928 0.760979 0.790408
0.751313 0.795391 0.818567
0.846876 0.818826 0.841977
0.610047 0.729188 0.756518
0.688465 0.785376 0.806466
0.751529 0.825485 0.841360
0.811339 0.855746 0.860830
0.879102 0.875285 0.862268
