filters/luts/Depression 03.cube
# Created by: Adobe Photoshop Export Color Lookup Plugin
# LUT by SparkleStock. Enhanced with VOXCOLOR algorithms.
LUT_3D_SIZE 8
DOMAIN_MIN 0.000000 0.000000 0.000000
DOMAIN_MAX 0.903226 0.903226 0.903226
0.023443 0.101587 0.093773
0.066549 0.114632 0.106251
0.116216 0.128481 0.119398
0.170869 0.143842 0.132743
0.229028 0.161401 0.145953
0.289338 0.182764 0.158998
0.349017 0.208066 0.173461
0.405396 0.236000 0.189948
0.039702 0.120493 0.103415
0.104763 0.145101 0.114136
0.163114 0.164396 0.128638
0.221232 0.182745 0.145104
0.282940 0.203213 0.162249
0.345006 0.226333 0.180124
0.404369 0.252172 0.199051
0.459064 0.280557 0.219374
0.063594 0.142345 0.114262
0.132674 0.170326 0.125715
0.202777 0.198332 0.141709
0.270286 0.224327 0.160858
0.333664 0.248015 0.182130
0.397694 0.275379 0.205664
0.458415 0.305885 0.231268
0.513903 0.339347 0.258308
0.093702 0.167616 0.127181
0.159659 0.196023 0.140696
0.237664 0.230323 0.158586
0.314717 0.264940 0.180805
0.383040 0.296688 0.207024
0.448204 0.329017 0.236499
0.510416 0.366143 0.269679
0.567293 0.407021 0.304855
0.128347 0.196400 0.142684
0.191742 0.226052 0.158961
0.270633 0.261725 0.179550
0.353750 0.303182 0.205728
0.431989 0.348246 0.237763
0.497208 0.386192 0.273422
0.559886 0.430155 0.314127
0.617193 0.478658 0.357613
0.164646 0.228162 0.160833
0.227017 0.260594 0.181795
0.307786 0.300086 0.207274
0.395013 0.345116 0.238063
0.478303 0.394133 0.274745
0.544985 0.445251 0.318894
0.606443 0.495069 0.366869
0.661598 0.548439 0.417617
0.196534 0.257403 0.177565
0.260686 0.297129 0.209309
0.345534 0.344779 0.244396
0.437807 0.396686 0.282519
0.526039 0.450127 0.324001
0.596747 0.504540 0.372735
0.654566 0.559887 0.429261
0.705011 0.616736 0.488137
0.219142 0.278459 0.189507
0.289362 0.333518 0.240785
0.380883 0.395756 0.292382
0.479333 0.458796 0.342243
0.572398 0.518054 0.389834
0.645820 0.571960 0.439837
0.701525 0.627182 0.500121
0.750168 0.685529 0.567803
0.035354 0.116901 0.118729
0.089290 0.126140 0.125791
0.148959 0.141264 0.139847
0.211322 0.159625 0.156521
0.273780 0.179343 0.172714
0.333651 0.200560 0.188101
0.388866 0.222545 0.203930
0.438310 0.244306 0.221826
0.056150 0.140344 0.143886
0.117764 0.166359 0.159050
0.187491 0.189091 0.173723
0.259626 0.212056 0.189035
0.329600 0.237614 0.205676
0.393606 0.265801 0.223401
0.450412 0.295612 0.242428
0.499925 0.325408 0.262957
0.082921 0.167045 0.163612
0.148001 0.203812 0.181742
0.226159 0.235094 0.197449
0.306260 0.263780 0.214187
0.380455 0.292501 0.234151
0.447040 0.324767 0.256808
0.504811 0.359150 0.281808
0.554503 0.394255 0.308301
0.115773 0.198085 0.182801
0.182594 0.241663 0.202604
0.264533 0.279307 0.220383
0.349381 0.313664 0.239999
0.428077 0.347131 0.264046
0.496201 0.382642 0.292925
0.554798 0.421173 0.325392
0.605027 0.461354 0.359832
0.154425 0.234279 0.205201
0.222920 0.282189 0.227895
0.303187 0.322579 0.249111
0.389040 0.361649 0.272197
0.473694 0.402950 0.299805
0.542738 0.442449 0.334784
0.602158 0.486258 0.375046
0.653141 0.532514 0.418134
0.198189 0.277164 0.233450
0.267812 0.326382 0.259468
0.347215 0.369438 0.285178
0.432135 0.411535 0.312922
0.516953 0.455952 0.344597
0.586440 0.501145 0.382626
0.645509 0.549185 0.429534
0.695709 0.599792 0.480226
0.244006 0.325092 0.269673
0.313408 0.372670 0.296898
0.392734 0.419152 0.328219
0.477807 0.466146 0.362589
0.563082 0.514388 0.399533
0.633497 0.561911 0.441148
0.688191 0.609669 0.489719
0.734562 0.660495 0.544362
0.289210 0.375623 0.314481
0.355709 0.418165 0.338052
0.435914 0.470060 0.376763
0.522711 0.525189 0.421208
0.608597 0.578672 0.465018
0.678827 0.626705 0.509260
0.730553 0.672099 0.558146
0.773636 0.719783 0.613609
0.052889 0.137036 0.148237
0.106045 0.146306 0.155586
0.174238 0.158388 0.164430
0.245709 0.175534 0.178671
0.312130 0.198149 0.199272
0.371769 0.220775 0.217519
0.423159 0.241948 0.234282
0.466508 0.261019 0.251898
0.076564 0.163669 0.181030
0.133955 0.193402 0.203209
0.207247 0.215208 0.217161
0.286978 0.237729 0.230510
0.365001 0.266178 0.247905
0.432119 0.297133 0.266317
0.488639 0.329502 0.286138
0.536182 0.361910 0.308118
0.106978 0.196734 0.214315
0.166293 0.236820 0.241291
0.243850 0.269251 0.259102
0.329904 0.299555 0.273927
0.415318 0.331836 0.290413
0.486590 0.367912 0.310793
0.544651 0.406042 0.334827
0.592354 0.444200 0.361590
0.142868 0.235072 0.247160
0.204500 0.281409 0.274473
0.284116 0.322526 0.294751
0.372874 0.359635 0.311838
0.461848 0.394666 0.329472
0.535328 0.433353 0.353804
0.593656 0.474429 0.383474
0.640623 0.515523 0.416331
0.183660 0.278352 0.279879
0.249204 0.330333 0.307240
0.328288 0.376443 0.328867
0.415591 0.417371 0.348130
0.504528 0.454733 0.368650
0.578998 0.494224 0.398003
0.637762 0.537390 0.434435
0.685000 0.581763 0.474862
0.232297 0.330496 0.318020
0.299758 0.383275 0.346623
0.378418 0.431179 0.370375
0.462796 0.474318 0.393058
0.547059 0.513599 0.417757
0.619669 0.552911 0.447449
0.678068 0.597813 0.489222
0.725088 0.644833 0.536402
0.286601 0.390923 0.366442
0.353016 0.439511 0.393513
0.430989 0.486832 0.418636
0.513281 0.531601 0.444978
0.593499 0.573354 0.474636
0.663525 0.613898 0.507703
0.716966 0.654894 0.547594
0.760728 0.699773 0.596001
0.344062 0.458151 0.428499
0.405724 0.497015 0.447512
0.482262 0.542029 0.471863
0.563123 0.588816 0.502109
0.639995 0.633995 0.537642
0.706609 0.675365 0.573967
0.756070 0.712887 0.612731
0.795834 0.752389 0.657918
0.075103 0.161204 0.182457
0.122758 0.172998 0.193233
0.193486 0.184245 0.199586
0.272100 0.199491 0.209464
0.346431 0.221298 0.227573
0.406594 0.247620 0.250906
0.455653 0.271268 0.270184
0.494856 0.291858 0.288169
0.100303 0.190410 0.218787
0.153827 0.225303 0.249030
0.225306 0.248312 0.265495
0.307517 0.269807 0.278098
0.392463 0.296914 0.293821
0.463845 0.330205 0.313627
0.521773 0.365202 0.334356
0.569478 0.401433 0.357535
0.134263 0.230144 0.263765
0.189044 0.272834 0.299335
0.261799 0.307847 0.322741
0.347355 0.339051 0.338843
0.438608 0.370356 0.352296
0.516820 0.408707 0.369702
0.578023 0.449803 0.391943
0.627106 0.492034 0.418558
0.174456 0.276696 0.310822
0.229915 0.321883 0.345045
0.303521 0.365880 0.371319
0.390143 0.405039 0.389717
0.482939 0.439054 0.402338
0.564633 0.479664 0.419625
0.626131 0.522987 0.444592
0.673626 0.566349 0.474937
0.219152 0.327828 0.356192
0.277212 0.376584 0.388032
0.350838 0.424773 0.413280
0.435340 0.467212 0.431918
0.525010 0.502519 0.445882
0.607097 0.541956 0.465333
0.667890 0.584933 0.494629
0.713930 0.628197 0.530132
0.269642 0.386692 0.404261
0.330838 0.436699 0.434822
0.404944 0.486093 0.458905
0.486343 0.530270 0.478276
0.569486 0.567089 0.495198
0.645463 0.601040 0.515007
0.705160 0.642453 0.548207
0.751000 0.685828 0.588904
0.327629 0.453982 0.459665
0.388470 0.500520 0.488548
0.462155 0.547146 0.510898
0.540956 0.590365 0.530512
0.618356 0.628166 0.550540
0.687633 0.661789 0.573907
0.741399 0.696724 0.604196
0.784102 0.736014 0.644591
0.389616 0.527639 0.527248
0.447312 0.566527 0.550858
0.519120 0.607174 0.568350
0.595233 0.647692 0.586468
0.667767 0.686313 0.609480
0.730008 0.720036 0.635919
0.778259 0.750719 0.664880
0.816470 0.783704 0.700691
0.100295 0.188050 0.220387
0.143029 0.203943 0.235993
0.209081 0.220571 0.247863
0.290523 0.236794 0.255788
0.376783 0.253952 0.263292
0.440038 0.284573 0.291437
0.488926 0.314000 0.315801
0.526593 0.340585 0.336737
0.126465 0.220184 0.259461
0.177447 0.260988 0.297665
0.244373 0.291001 0.321945
0.325240 0.314663 0.337046
0.414606 0.337402 0.348633
0.491176 0.372386 0.369385
0.551726 0.410744 0.390825
0.600980 0.451849 0.414236
0.163663 0.266409 0.310903
0.216917 0.313873 0.353340
0.284231 0.354705 0.385683
0.364121 0.387245 0.407664
0.453053 0.413653 0.421156
0.538801 0.451632 0.436022
0.605251 0.494348 0.455458
0.658468 0.540984 0.480490
0.209635 0.321590 0.368266
0.261630 0.367596 0.407673
0.328043 0.413598 0.442826
0.406435 0.452630 0.467985
0.493724 0.483199 0.481247
0.584063 0.522836 0.491985
0.651707 0.566870 0.510664
0.703581 0.613186 0.537106
0.261407 0.381575 0.426593
0.311547 0.425779 0.463260
0.375812 0.470748 0.496121
0.452123 0.511991 0.519333
0.537710 0.547997 0.530829
0.627168 0.586950 0.539491
0.692697 0.630120 0.558875
0.740629 0.673174 0.587131
0.312282 0.444281 0.483555
0.366889 0.490204 0.516576
0.430978 0.535681 0.545374
0.504567 0.578371 0.565857
0.585624 0.616217 0.576949
0.664128 0.645661 0.586748
0.727269 0.684036 0.608561
0.774283 0.724326 0.640100
0.370074 0.513508 0.542468
0.426413 0.557514 0.573383
0.489613 0.600195 0.599135
0.560809 0.641031 0.617240
0.637967 0.678616 0.627949
0.706190 0.706176 0.640977
0.761691 0.735832 0.660667
0.805026 0.770134 0.691430
0.431096 0.585836 0.607628
0.486758 0.624723 0.635184
0.548364 0.662594 0.657044
0.617386 0.699913 0.672068
0.691148 0.735692 0.681596
0.749421 0.762029 0.696667
0.797189 0.786390 0.715527
0.835219 0.813817 0.742026
0.123171 0.213573 0.256497
0.164441 0.235613 0.278983
0.228096 0.262121 0.301049
0.307063 0.289151 0.319561
0.393341 0.314066 0.333030
0.471087 0.337076 0.344343
0.522877 0.373285 0.374562
0.561526 0.410006 0.403352
0.153000 0.251708 0.301133
0.204105 0.298886 0.346669
0.268454 0.338042 0.380556
0.345467 0.371519 0.405697
0.431891 0.401294 0.424736
0.513546 0.428440 0.439760
0.577793 0.468915 0.462201
0.630370 0.515217 0.486588
0.195309 0.306319 0.359588
0.248907 0.358698 0.408045
0.312557 0.405398 0.448150
0.387025 0.445009 0.478982
0.470868 0.477570 0.500881
0.554864 0.507324 0.517432
0.626432 0.549337 0.533604
0.685381 0.598393 0.554395
0.246197 0.370257 0.424257
0.298905 0.419072 0.467598
0.360729 0.467272 0.508071
0.431802 0.509980 0.540808
0.511178 0.544761 0.563443
0.594837 0.575390 0.579635
0.669225 0.616923 0.591224
0.728980 0.664198 0.609706
0.302451 0.437286 0.488659
0.353545 0.481892 0.527389
0.412670 0.526259 0.563450
0.479538 0.567863 0.593361
0.553496 0.604703 0.615047
0.633610 0.634293 0.628652
0.707021 0.673912 0.637438
0.763897 0.716935 0.655200
0.362547 0.501017 0.546060
0.410515 0.542356 0.581258
0.466207 0.584171 0.614172
0.529163 0.623776 0.641466
0.598506 0.658730 0.660256
0.672539 0.684703 0.665367
0.741824 0.721170 0.673371
0.794047 0.759522 0.692182
0.418094 0.567975 0.605900
0.469551 0.608454 0.638727
0.524491 0.647581 0.667729
0.584061 0.684420 0.690871
0.648619 0.717854 0.706336
0.716771 0.744437 0.710047
0.775970 0.770744 0.718274
0.822479 0.801093 0.737389
0.473786 0.633729 0.664870
0.527885 0.671846 0.695472
0.582264 0.707396 0.720875
0.639237 0.740955 0.740291
0.699980 0.772579 0.753055
0.762795 0.799813 0.756965
0.811725 0.819237 0.765658
0.850934 0.841495 0.782298
0.138170 0.232164 0.282681
0.183587 0.262791 0.313754
0.249851 0.301877 0.348244
0.329625 0.343434 0.381155
0.415327 0.382510 0.408577
0.494268 0.414132 0.426843
0.551015 0.444681 0.447161
0.592530 0.482878 0.474811
0.177634 0.283618 0.340076
0.231262 0.336115 0.390686
0.296302 0.385025 0.434580
0.372083 0.430212 0.471998
0.455844 0.471241 0.503044
0.536277 0.505167 0.525832
0.599804 0.539299 0.547070
0.653392 0.582940 0.570197
0.229821 0.351427 0.410063
0.284091 0.405979 0.460857
0.345792 0.456741 0.506240
0.416740 0.503264 0.545437
0.496419 0.545025 0.577975
0.576602 0.579700 0.602688
0.644623 0.615441 0.623587
0.704555 0.659864 0.642587
0.288115 0.425313 0.482658
0.340965 0.474352 0.526815
0.399100 0.522081 0.568892
0.464422 0.566823 0.606410
0.537426 0.607222 0.637749
0.615105 0.641201 0.662093
0.684962 0.676683 0.681416
0.746614 0.718660 0.696980
0.347708 0.497129 0.550100
0.400401 0.541617 0.589453
0.455848 0.584277 0.626330
0.515181 0.624331 0.659085
0.579528 0.661065 0.686620
0.652001 0.692730 0.708010
0.720781 0.726255 0.724586
0.780601 0.763909 0.737647
0.407877 0.560909 0.606720
0.458918 0.601770 0.642844
0.511522 0.640838 0.676340
0.566705 0.677138 0.705600
0.625289 0.709654 0.728879
0.688717 0.735568 0.741208
0.752845 0.765616 0.753887
0.808169 0.798596 0.765803
0.468194 0.619947 0.658136
0.517413 0.658158 0.691734
0.566428 0.694093 0.721900
0.616997 0.727461 0.747645
0.670419 0.757756 0.767660
0.727755 0.782522 0.777047
0.784380 0.804090 0.782734
0.834282 0.830218 0.791654
0.522458 0.675645 0.706545
0.573024 0.712158 0.738992
0.620622 0.745302 0.766544
0.667952 0.775817 0.789059
0.717104 0.804059 0.806030
0.769647 0.828574 0.813816
0.819070 0.845674 0.815994
0.861822 0.864826 0.822576
0.146063 0.242711 0.298484
0.201427 0.284871 0.339357
0.275811 0.338129 0.386576
0.360794 0.395037 0.433928
0.448150 0.449129 0.476149
0.524993 0.492527 0.506758
0.580988 0.522843 0.525759
0.618191 0.553034 0.546258
0.201909 0.316560 0.376973
0.259411 0.372512 0.429702
0.328064 0.431106 0.482995
0.405645 0.488272 0.532750
0.488510 0.540544 0.575783
0.565887 0.583234 0.608687
0.626307 0.616285 0.632996
0.673955 0.651418 0.654780
0.269746 0.404232 0.464496
0.323254 0.456207 0.512489
0.383890 0.508401 0.559906
0.452952 0.560584 0.605936
0.529550 0.611265 0.648974
0.605082 0.652431 0.682336
0.668266 0.686503 0.709411
0.722372 0.723129 0.731113
0.338910 0.490873 0.547454
0.389175 0.534614 0.587009
0.443268 0.577762 0.625847
0.503657 0.621902 0.664789
0.571208 0.666910 0.703383
0.642626 0.705861 0.735622
0.706364 0.739272 0.762900
0.763283 0.774730 0.783343
0.401881 0.565598 0.616080
0.453643 0.605764 0.651994
0.504860 0.643381 0.685790
0.557566 0.678923 0.717133
0.613885 0.713186 0.746245
0.678694 0.748525 0.775212
0.740380 0.779614 0.800147
0.796864 0.812035 0.818390
0.456885 0.622809 0.665571
0.511201 0.662003 0.700743
0.561551 0.697259 0.732540
0.610526 0.729155 0.760928
0.660367 0.758112 0.785641
0.713745 0.783532 0.804400
0.770088 0.810253 0.823986
0.823054 0.838720 0.839459
0.513820 0.670339 0.705146
0.566087 0.708041 0.739758
0.613034 0.741353 0.770055
0.657656 0.771101 0.796350
0.702354 0.797760 0.818516
0.748917 0.820020 0.833571
0.798897 0.838728 0.842695
0.846753 0.861044 0.851972
0.569539 0.714780 0.742989
0.619434 0.751244 0.777072
0.662728 0.782545 0.805570
0.702838 0.810102 0.829304
0.742539 0.834890 0.848628
0.783935 0.856170 0.861234
0.828382 0.871556 0.864492
0.870576 0.887409 0.868470
