filters/luts/Depression 05_S.cube
# Created by: Adobe Photoshop Export Color Lookup Plugin
# LUT by SparkleStock. Enhanced with VOXCOLOR algorithms.
LUT_3D_SIZE 5
DOMAIN_MIN 0.000000 0.000000 0.000000
DOMAIN_MAX 0.903226 0.903226 0.903226
0.015629 0.007814 0.007814
0.071708 0.040230 0.033581
0.174225 0.083004 0.061688
0.317846 0.142574 0.089054
0.468833 0.221537 0.120729
0.033030 0.050108 0.029359
0.155960 0.133994 0.049166
0.309911 0.195363 0.077891
0.467749 0.254873 0.126302
0.581416 0.333896 0.203669
0.061846 0.112860 0.064713
0.202922 0.207143 0.095855
0.389607 0.313525 0.139369
0.557152 0.387549 0.207887
0.669479 0.470163 0.322756
0.098696 0.189814 0.111789
0.255709 0.287881 0.168067
0.463127 0.401839 0.238905
0.622644 0.508846 0.327685
0.734726 0.594250 0.452600
0.131017 0.244145 0.150128
0.312894 0.381251 0.279981
0.541655 0.511270 0.392255
0.709123 0.611450 0.486504
0.801452 0.698930 0.591329
0.030312 0.049281 0.066667
0.132537 0.074047 0.092204
0.284595 0.117042 0.132138
0.433359 0.180494 0.170913
0.537894 0.253627 0.209089
0.059147 0.120264 0.145005
0.185717 0.194322 0.191618
0.372382 0.243142 0.218284
0.551877 0.297978 0.249161
0.667201 0.386668 0.301503
0.100914 0.206028 0.212929
0.239904 0.308470 0.257618
0.431887 0.394999 0.275841
0.622712 0.448219 0.307365
0.752719 0.516636 0.376954
0.162354 0.311569 0.291664
0.319699 0.415279 0.347609
0.506102 0.514258 0.380857
0.670255 0.597637 0.408299
0.806372 0.655985 0.475107
0.258083 0.433763 0.405850
0.422648 0.515387 0.457408
0.606176 0.613961 0.520779
0.754347 0.696587 0.569720
0.846370 0.761213 0.617010
0.056796 0.118933 0.163795
0.153390 0.153518 0.193254
0.342101 0.188289 0.213575
0.502078 0.254920 0.269216
0.588996 0.330784 0.312512
0.093847 0.204407 0.259350
0.208645 0.280410 0.329294
0.399869 0.319231 0.369981
0.595274 0.369604 0.399068
0.718454 0.458776 0.437597
0.160082 0.314082 0.363639
0.279567 0.396699 0.422581
0.455924 0.459641 0.452431
0.657255 0.494433 0.461983
0.806203 0.551616 0.495724
0.239184 0.431667 0.462030
0.375202 0.516611 0.514201
0.539045 0.596783 0.540298
0.696411 0.657418 0.528929
0.852545 0.691682 0.550652
0.359422 0.559188 0.572144
0.502265 0.629014 0.620787
0.658757 0.701845 0.651665
0.784932 0.764794 0.660899
0.881274 0.814511 0.666772
0.085376 0.197456 0.272929
0.171002 0.258168 0.322628
0.353500 0.323728 0.362766
0.550408 0.373301 0.384996
0.636155 0.462969 0.456841
0.134345 0.297286 0.371940
0.245024 0.389408 0.454649
0.414604 0.454557 0.515494
0.612048 0.499047 0.554562
0.746034 0.577441 0.585979
0.223008 0.422709 0.484783
0.341222 0.501790 0.553888
0.488829 0.566027 0.609428
0.666119 0.596525 0.647157
0.825662 0.638560 0.657926
0.344683 0.538972 0.584037
0.454678 0.606778 0.642108
0.582554 0.667759 0.686448
0.716967 0.706131 0.694594
0.874323 0.724521 0.691514
0.467433 0.647138 0.674305
0.585734 0.711515 0.730362
0.698072 0.768863 0.768329
0.809486 0.819655 0.776879
0.902016 0.853600 0.762622
0.099602 0.239734 0.331238
0.203636 0.340540 0.413258
0.388405 0.455665 0.500492
0.572747 0.540722 0.559770
0.670064 0.591341 0.593698
0.187514 0.390180 0.467200
0.305382 0.487292 0.549880
0.465691 0.581399 0.630582
0.641273 0.656886 0.695437
0.761447 0.711925 0.735794
0.314214 0.536012 0.590345
0.434281 0.606521 0.655009
0.560505 0.672459 0.716746
0.706218 0.731754 0.775055
0.830740 0.776368 0.814570
0.444097 0.638287 0.673967
0.564799 0.703295 0.736933
0.667313 0.755901 0.788360
0.765308 0.795705 0.823763
0.876094 0.826295 0.851720
0.584466 0.714908 0.739041
0.681225 0.777056 0.800625
0.759510 0.825035 0.845972
0.833500 0.864780 0.873383
0.911669 0.892712 0.876497
