filters/luts/Depression 05_S.cube
# Created by: Adobe Photoshop Export Color Lookup Plugin
# LUT by SparkleStock. Enhanced with VOXCOLOR algorithms.
LUT_3D_SIZE 8
DOMAIN_MIN 0.000000 0.000000 0.000000
DOMAIN_MAX 0.903226 0.903226 0.903226
0.015629 0.007814 0.007814
0.042475 0.025397 0.021994
0.083383 0.045524 0.037646
0.139533 0.069298 0.053748
0.210902 0.097704 0.069581
0.296168 0.133058 0.085084
0.385057 0.175186 0.101532
0.468833 0.221537 0.120729
0.024136 0.029556 0.018591
0.079964 0.072753 0.028965
0.143839 0.103254 0.041641
0.218163 0.129906 0.056937
0.302943 0.159209 0.075277
0.390989 0.193538 0.098538
0.470218 0.234642 0.127622
0.535821 0.281078 0.162731
0.036528 0.057860 0.033518
0.102466 0.108424 0.044856
0.185421 0.157195 0.057783
0.276701 0.198087 0.073959
0.369683 0.229479 0.095208
0.461650 0.264339 0.126536
0.538148 0.305627 0.168482
0.595629 0.353233 0.219316
0.052487 0.092725 0.052991
0.121195 0.143021 0.067805
0.216569 0.203904 0.084113
0.320339 0.260213 0.104308
0.419796 0.303111 0.130757
0.514386 0.339691 0.168940
0.591524 0.381958 0.222091
0.647286 0.430994 0.286249
0.071582 0.133633 0.077002
0.143839 0.183764 0.096554
0.244681 0.243796 0.119169
0.355363 0.309231 0.147025
0.461569 0.373227 0.181696
0.555336 0.414143 0.225075
0.633419 0.458153 0.286258
0.690540 0.508218 0.359442
0.093324 0.179007 0.104982
0.170411 0.230894 0.132731
0.277638 0.291542 0.164476
0.395041 0.356392 0.201541
0.505803 0.421138 0.244737
0.591958 0.479325 0.294850
0.668041 0.527556 0.358985
0.725870 0.577645 0.433888
0.114435 0.219024 0.131073
0.197938 0.278766 0.176044
0.312617 0.345265 0.223093
0.437189 0.412986 0.271877
0.553543 0.477658 0.322441
0.641236 0.536284 0.376847
0.708406 0.588370 0.438851
0.761443 0.639560 0.509335
0.131017 0.244145 0.150128
0.223552 0.321525 0.225623
0.346905 0.401518 0.297619
0.478714 0.477200 0.363085
0.600045 0.543647 0.420685
0.689519 0.598236 0.473109
0.751350 0.648500 0.528425
0.801452 0.698930 0.591329
0.022435 0.028044 0.036740
0.068455 0.040503 0.049163
0.129677 0.059965 0.069280
0.203319 0.084910 0.091431
0.285885 0.114524 0.111693
0.370565 0.151341 0.129830
0.447159 0.193470 0.148913
0.511542 0.236277 0.171854
0.035041 0.061348 0.073277
0.094518 0.097496 0.093793
0.172815 0.125325 0.111434
0.262892 0.150826 0.128068
0.358190 0.178829 0.145213
0.450524 0.213602 0.164195
0.528468 0.257652 0.187963
0.587345 0.309256 0.217921
0.050805 0.097794 0.102043
0.116186 0.148051 0.124585
0.206252 0.193478 0.139191
0.308565 0.230113 0.152548
0.412989 0.257858 0.169566
0.511789 0.290055 0.192434
0.591739 0.331471 0.224242
0.648663 0.382454 0.265067
0.070509 0.139636 0.130139
0.140104 0.197576 0.154127
0.236356 0.256579 0.168673
0.345060 0.306839 0.181726
0.454825 0.343426 0.199474
0.557550 0.374274 0.226609
0.640207 0.412253 0.266327
0.698809 0.459283 0.317289
0.094873 0.188319 0.162804
0.170879 0.249862 0.191133
0.268777 0.311099 0.210526
0.378146 0.371024 0.226834
0.489630 0.426191 0.245553
0.591844 0.459676 0.275306
0.677126 0.496306 0.320089
0.740200 0.540263 0.376985
0.125982 0.244671 0.202640
0.209878 0.305591 0.236787
0.310960 0.366348 0.263973
0.421223 0.426490 0.288348
0.531625 0.484674 0.313411
0.622375 0.534523 0.342758
0.705487 0.573901 0.387508
0.771370 0.615621 0.443603
0.164146 0.304204 0.250954
0.254778 0.361817 0.289178
0.359380 0.422494 0.326123
0.471118 0.483374 0.361413
0.581570 0.541827 0.395179
0.669437 0.593664 0.429330
0.738415 0.637563 0.469453
0.797704 0.679894 0.518737
0.208592 0.361489 0.308022
0.301155 0.412773 0.344777
0.408955 0.476085 0.393628
0.522869 0.541343 0.443753
0.633019 0.600944 0.487769
0.718380 0.650415 0.525354
0.777720 0.693885 0.562170
0.828010 0.735183 0.605010
0.033526 0.057647 0.078388
0.081614 0.071101 0.092269
0.159190 0.086615 0.106845
0.249613 0.108903 0.127720
0.340228 0.140398 0.156115
0.425255 0.178265 0.178235
0.493943 0.220238 0.198449
0.545473 0.260746 0.221264
0.048883 0.097746 0.126793
0.105819 0.133924 0.156411
0.191848 0.156535 0.178005
0.293238 0.177731 0.197011
0.398151 0.205851 0.216807
0.494581 0.241536 0.235107
0.571430 0.287655 0.256577
0.626000 0.341801 0.284359
0.069609 0.143659 0.172542
0.130687 0.191760 0.204973
0.221371 0.229549 0.225729
0.329519 0.259355 0.240821
0.443711 0.284647 0.255094
0.548540 0.314963 0.272046
0.632185 0.356611 0.296254
0.691025 0.409810 0.329390
0.094302 0.194284 0.215836
0.159728 0.249095 0.246607
0.252563 0.300605 0.265385
0.362277 0.343113 0.276966
0.478847 0.374153 0.286443
0.588604 0.399797 0.303336
0.677730 0.434359 0.330620
0.742110 0.480208 0.368760
0.122846 0.249343 0.257971
0.195728 0.308967 0.288694
0.289719 0.366649 0.308891
0.396401 0.420610 0.319654
0.508316 0.467500 0.324876
0.617662 0.493509 0.341288
0.710316 0.523142 0.370598
0.780981 0.561488 0.412154
0.161146 0.312733 0.305309
0.242248 0.371360 0.338987
0.339633 0.429303 0.363852
0.444981 0.485014 0.380416
0.550388 0.536614 0.390473
0.643856 0.578563 0.400784
0.733741 0.609216 0.427453
0.808392 0.642879 0.466325
0.210987 0.382139 0.362765
0.298358 0.435061 0.396861
0.398974 0.490278 0.426204
0.503626 0.544921 0.450272
0.604235 0.596562 0.469210
0.690441 0.642060 0.484740
0.761868 0.678796 0.505185
0.828202 0.713105 0.535706
0.272737 0.454517 0.434092
0.360362 0.496430 0.460768
0.461659 0.547456 0.491806
0.565179 0.601169 0.523601
0.661576 0.652413 0.552994
0.741497 0.696789 0.575755
0.799556 0.735154 0.595806
0.852160 0.769644 0.621379
0.048194 0.096152 0.132128
0.091123 0.113789 0.149338
0.174813 0.129210 0.159987
0.277428 0.148928 0.175135
0.380550 0.177597 0.201039
0.466248 0.217866 0.231660
0.530606 0.261093 0.255284
0.574902 0.301642 0.278237
0.065319 0.139861 0.184180
0.117879 0.179987 0.221320
0.203717 0.202402 0.247239
0.310548 0.221138 0.268119
0.425462 0.246548 0.288503
0.525518 0.283258 0.309534
0.602315 0.330440 0.330580
0.655606 0.385323 0.356828
0.090717 0.193532 0.241688
0.147829 0.241016 0.281855
0.234261 0.275341 0.310646
0.342438 0.300577 0.331141
0.462704 0.321791 0.346404
0.572811 0.350836 0.360432
0.660073 0.392112 0.379241
0.722438 0.445767 0.406378
0.122496 0.252473 0.298274
0.183113 0.301853 0.334358
0.269650 0.347048 0.360846
0.375625 0.382752 0.377506
0.493526 0.407182 0.386030
0.609022 0.428796 0.395196
0.703890 0.460417 0.412499
0.774670 0.504869 0.440027
0.159332 0.313858 0.350520
0.225347 0.365828 0.382807
0.312609 0.416945 0.407284
0.413487 0.463334 0.419730
0.521982 0.500983 0.420450
0.636096 0.520331 0.425460
0.734672 0.543770 0.441579
0.812532 0.577345 0.469574
0.202401 0.380895 0.403444
0.276835 0.432794 0.435391
0.367689 0.485238 0.460571
0.466401 0.535094 0.475314
0.565821 0.579573 0.478243
0.659457 0.613973 0.473470
0.754538 0.636491 0.484886
0.836898 0.662810 0.509048
0.259674 0.453217 0.462300
0.340063 0.500973 0.494555
0.434048 0.550298 0.520520
0.531510 0.598624 0.538675
0.624468 0.643762 0.548217
0.706685 0.682697 0.548609
0.779886 0.712901 0.552921
0.852480 0.739985 0.568027
0.330789 0.528508 0.532786
0.412214 0.568516 0.561456
0.505817 0.611493 0.584456
0.600601 0.655844 0.603999
0.687932 0.699625 0.620869
0.760658 0.737913 0.630026
0.817371 0.771706 0.635934
0.872762 0.800769 0.647573
0.065304 0.141715 0.195463
0.103201 0.164768 0.216936
0.181044 0.187963 0.232431
0.288368 0.209131 0.242198
0.409358 0.230380 0.251686
0.498276 0.272644 0.291218
0.561357 0.319085 0.322409
0.602931 0.362695 0.349036
0.083838 0.187619 0.247679
0.133477 0.233189 0.290470
0.212207 0.264210 0.321932
0.317917 0.286230 0.344280
0.441797 0.306332 0.361488
0.545838 0.342486 0.386303
0.624164 0.389530 0.408136
0.679268 0.444046 0.432497
0.112886 0.246000 0.307672
0.169037 0.296218 0.352972
0.248485 0.335570 0.389463
0.351147 0.362085 0.417707
0.471949 0.378482 0.438571
0.586234 0.406008 0.453050
0.676742 0.445654 0.468474
0.743544 0.497561 0.490703
0.153600 0.311349 0.370426
0.212180 0.358733 0.410824
0.291316 0.402862 0.445857
0.389055 0.435263 0.473001
0.501814 0.453250 0.490628
0.620378 0.472130 0.497299
0.719035 0.500764 0.507999
0.795338 0.542565 0.527802
0.204217 0.379248 0.431979
0.263611 0.424099 0.468056
0.341472 0.467961 0.499016
0.432921 0.505910 0.519766
0.534579 0.534144 0.527907
0.649051 0.548316 0.527173
0.750910 0.566564 0.533560
0.834289 0.595979 0.550281
0.252263 0.447035 0.489422
0.320089 0.492679 0.521973
0.399329 0.537849 0.549997
0.487524 0.580039 0.568888
0.581228 0.616926 0.574962
0.671794 0.643969 0.562546
0.769398 0.659349 0.562875
0.857003 0.679335 0.575376
0.313949 0.517682 0.546286
0.388004 0.561145 0.578556
0.468497 0.604008 0.605787
0.554876 0.645686 0.624706
0.643960 0.685000 0.632552
0.720246 0.716947 0.624029
0.793603 0.740981 0.616976
0.870349 0.761635 0.620614
0.388709 0.588159 0.608375
0.464962 0.627107 0.639420
0.544392 0.665643 0.664999
0.627819 0.704443 0.683231
0.712241 0.742855 0.692819
0.777247 0.774326 0.691845
0.831766 0.803243 0.687135
0.888998 0.827456 0.688517
0.081752 0.187278 0.258797
0.117307 0.217796 0.285686
0.189905 0.252810 0.311262
0.291704 0.287285 0.332117
0.411688 0.317829 0.346801
0.522269 0.344285 0.359254
0.588106 0.393214 0.398740
0.629844 0.443130 0.435582
0.103359 0.237427 0.311307
0.153263 0.289102 0.357927
0.227107 0.330823 0.395716
0.325403 0.365556 0.425780
0.443588 0.395574 0.449204
0.557960 0.420907 0.466205
0.639420 0.465699 0.491139
0.698084 0.519222 0.516857
0.138177 0.301296 0.372732
0.195995 0.355135 0.420756
0.270849 0.400728 0.462179
0.365111 0.436979 0.496995
0.477135 0.464098 0.525136
0.592025 0.485547 0.544643
0.684908 0.521104 0.559445
0.756717 0.568379 0.577225
0.185222 0.371549 0.437024
0.247035 0.420080 0.479476
0.321968 0.465688 0.519017
0.410697 0.503125 0.553160
0.512511 0.529330 0.580313
0.623652 0.545174 0.599709
0.723393 0.569359 0.607434
0.804837 0.605163 0.619550
0.243377 0.442119 0.499253
0.306812 0.486007 0.537073
0.380314 0.528072 0.572129
0.461971 0.565445 0.600912
0.551064 0.594721 0.621714
0.652901 0.605956 0.636962
0.754456 0.619677 0.639218
0.842092 0.642975 0.647071
0.312792 0.507710 0.554940
0.373668 0.548198 0.589119
0.443336 0.588182 0.620886
0.519709 0.625084 0.646696
0.600593 0.656270 0.663235
0.682831 0.675617 0.663516
0.778676 0.685583 0.659449
0.867564 0.700565 0.663422
0.377673 0.573845 0.609193
0.444458 0.613436 0.642601
0.513947 0.651527 0.672308
0.586199 0.687462 0.695859
0.660461 0.720271 0.710617
0.732629 0.746277 0.709238
0.804018 0.764624 0.698328
0.881042 0.780003 0.695143
0.451202 0.635857 0.662080
0.521813 0.673988 0.695538
0.589901 0.709560 0.723723
0.657648 0.743575 0.745590
0.725963 0.776393 0.759808
0.791413 0.805782 0.761138
0.843346 0.829300 0.751775
0.899722 0.848558 0.747285
0.093316 0.220710 0.305116
0.131652 0.261132 0.339494
0.204647 0.310405 0.377311
0.303878 0.361033 0.413228
0.419181 0.406879 0.442957
0.529713 0.441677 0.461875
0.605259 0.476893 0.485870
0.652580 0.520867 0.518357
0.122632 0.282666 0.364871
0.176035 0.339391 0.414089
0.249614 0.391694 0.458465
0.344013 0.439813 0.497993
0.455804 0.483267 0.532182
0.566728 0.517206 0.556969
0.649838 0.551570 0.579397
0.711652 0.596290 0.602982
0.168113 0.356649 0.431918
0.229011 0.411835 0.480069
0.302277 0.462082 0.524259
0.391178 0.507285 0.564605
0.495386 0.547004 0.600683
0.603428 0.577820 0.628563
0.691342 0.608146 0.649574
0.763704 0.647096 0.666705
0.225117 0.433086 0.498661
0.290295 0.481072 0.540829
0.362737 0.526697 0.581458
0.444754 0.568104 0.619263
0.537276 0.603615 0.653173
0.638815 0.629679 0.681280
0.728186 0.653839 0.700376
0.807374 0.683360 0.712740
0.290246 0.504726 0.559539
0.358833 0.548048 0.598169
0.429906 0.588670 0.634603
0.503812 0.625548 0.667094
0.582013 0.657219 0.694879
0.672565 0.678242 0.719500
0.759497 0.695420 0.735481
0.841947 0.714596 0.744054
0.364564 0.567268 0.611762
0.431404 0.607152 0.647960
0.498680 0.644719 0.681604
0.566798 0.678939 0.711023
0.636016 0.708552 0.734380
0.706459 0.729339 0.746413
0.785345 0.741827 0.756358
0.866643 0.753798 0.761327
0.442603 0.624986 0.659970
0.505665 0.662646 0.694260
0.567396 0.697615 0.725415
0.628725 0.729884 0.752155
0.690157 0.759065 0.772819
0.750871 0.782240 0.781573
0.812562 0.797987 0.780951
0.884666 0.809711 0.778641
0.519773 0.677125 0.703770
0.582110 0.714203 0.738602
0.639544 0.747339 0.768550
0.694536 0.777869 0.793305
0.748907 0.806557 0.812119
0.803063 0.831991 0.820541
0.852045 0.851610 0.816725
0.906573 0.867324 0.812498
0.099602 0.239734 0.331238
0.146580 0.293243 0.375819
0.227283 0.357825 0.426586
0.330617 0.424297 0.477144
0.444835 0.484931 0.521916
0.549549 0.530841 0.553214
0.624461 0.560784 0.571828
0.670064 0.591341 0.593698
0.142707 0.323096 0.407953
0.201532 0.382999 0.458139
0.279613 0.444803 0.509313
0.375413 0.504997 0.558610
0.484263 0.560198 0.603246
0.588538 0.603894 0.637656
0.667673 0.635462 0.661982
0.724611 0.668813 0.683573
0.205097 0.413509 0.487312
0.268333 0.465871 0.532092
0.341987 0.517866 0.577079
0.428804 0.569513 0.622001
0.528116 0.619496 0.665563
0.627922 0.659747 0.701101
0.708298 0.690880 0.728908
0.772861 0.723116 0.749981
0.277073 0.498883 0.559742
0.343170 0.541856 0.597981
0.412905 0.583939 0.636176
0.489677 0.626278 0.674966
0.575097 0.668576 0.713984
0.666762 0.704495 0.748600
0.745164 0.733239 0.777412
0.813698 0.761565 0.797395
0.351293 0.570699 0.618864
0.421953 0.610156 0.655613
0.489478 0.646759 0.690339
0.556137 0.680804 0.722915
0.624931 0.712734 0.753677
0.704493 0.743419 0.784642
0.777532 0.768117 0.811714
0.846519 0.790945 0.829731
0.425080 0.625422 0.663396
0.497412 0.664384 0.700721
0.562428 0.699153 0.734558
0.623080 0.730317 0.764989
0.681928 0.758142 0.791740
0.741381 0.780999 0.812034
0.804824 0.800871 0.833406
0.870497 0.818744 0.847963
0.504565 0.671988 0.702307
0.570298 0.710045 0.739324
0.628358 0.743229 0.772064
0.681545 0.772664 0.800688
0.732147 0.798977 0.824908
0.781426 0.820526 0.841389
0.832457 0.837275 0.851366
0.890498 0.852555 0.858186
0.584466 0.714908 0.739041
0.642782 0.752645 0.776340
0.692916 0.784368 0.807937
0.738066 0.812159 0.834531
0.780855 0.837471 0.856357
0.822952 0.859703 0.870799
0.865289 0.877122 0.874978
0.911669 0.892712 0.876497
