filters/luts/Depression 01_S.cube
# Created by: Adobe Photoshop Export Color Lookup Plugin
# LUT by SparkleStock. Enhanced with VOXCOLOR algorithms.
LUT_3D_SIZE 32
0.101587 0.101587 0.101587
0.107826 0.103572 0.103572
0.114065 0.105558 0.105558
0.120304 0.107543 0.107543
0.126543 0.109528 0.109528
0.132782 0.111513 0.111513
0.141148 0.113774 0.113616
0.149939 0.116090 0.115743
0.158730 0.118406 0.117870
0.167521 0.120722 0.119997
0.176313 0.123038 0.122124
0.186238 0.126141 0.124629
0.196731 0.129639 0.127323
0.207224 0.133136 0.130017
0.217716 0.136634 0.132711
0.228209 0.140132 0.135405
0.239151 0.144504 0.138501
0.250542 0.149750 0.141999
0.261932 0.154996 0.145496
0.273323 0.160243 0.148994
0.284714 0.165489 0.152491
0.296278 0.171303 0.156257
0.308189 0.178250 0.160558
0.320099 0.185198 0.164859
0.332010 0.192146 0.169160
0.343921 0.199094 0.173461
0.355926 0.206223 0.177896
0.368404 0.214258 0.183001
0.380881 0.222293 0.188105
0.393359 0.230328 0.193210
0.405837 0.238363 0.198314
0.418315 0.246398 0.203419
0.103856 0.104943 0.103053
0.111312 0.108108 0.104663
0.118767 0.111273 0.106273
0.126223 0.114439 0.107883
0.133678 0.117604 0.109493
0.141134 0.120769 0.111103
0.150518 0.123432 0.112961
0.160288 0.125995 0.114868
0.170058 0.128558 0.116775
0.179828 0.131121 0.118683
0.189598 0.133684 0.120590
0.200478 0.136931 0.123003
0.211913 0.140520 0.125670
0.223348 0.144109 0.128337
0.234783 0.147698 0.131003
0.246218 0.151288 0.133670
0.257855 0.155692 0.136908
0.269694 0.160910 0.140716
0.281533 0.166129 0.144525
0.293372 0.171348 0.148333
0.305211 0.176567 0.152142
0.316961 0.182359 0.156341
0.328534 0.189298 0.161319
0.340106 0.196237 0.166297
0.351678 0.203176 0.171275
0.363250 0.210114 0.176253
0.374781 0.217259 0.181397
0.386107 0.225431 0.187370
0.397432 0.233603 0.193344
0.408757 0.241775 0.199317
0.420082 0.249947 0.205291
0.431407 0.258120 0.211265
0.106125 0.108299 0.104518
0.114797 0.112644 0.105753
0.123469 0.116989 0.106988
0.132142 0.121335 0.108223
0.140814 0.125680 0.109458
0.149486 0.130025 0.110693
0.159889 0.133091 0.112305
0.170638 0.135901 0.113993
0.181387 0.138711 0.115681
0.192136 0.141521 0.117368
0.202884 0.144331 0.119056
0.214719 0.147721 0.121378
0.227096 0.151402 0.124017
0.239473 0.155082 0.126657
0.251850 0.158763 0.129296
0.264228 0.162443 0.131935
0.276560 0.166879 0.135314
0.288847 0.172071 0.139434
0.301134 0.177262 0.143554
0.313422 0.182454 0.147673
0.325709 0.187645 0.151793
0.337645 0.193416 0.156424
0.348879 0.200346 0.162079
0.360113 0.207275 0.167734
0.371346 0.214205 0.173389
0.382580 0.221135 0.179044
0.393637 0.228294 0.184897
0.403809 0.236604 0.191740
0.413982 0.244913 0.198583
0.424154 0.253222 0.205425
0.434327 0.261532 0.212268
0.444500 0.269841 0.219111
0.108393 0.111655 0.105983
0.118282 0.117180 0.106843
0.128171 0.122705 0.107703
0.138060 0.128231 0.108563
0.147949 0.133756 0.109423
0.157838 0.139282 0.110282
0.169259 0.142750 0.111649
0.180987 0.145807 0.113118
0.192715 0.148864 0.114586
0.204443 0.151921 0.116054
0.216170 0.154978 0.117522
0.228959 0.158511 0.119753
0.242279 0.162283 0.122365
0.255598 0.166055 0.124976
0.268918 0.169827 0.127588
0.282237 0.173599 0.130200
0.295265 0.178067 0.133721
0.308000 0.183231 0.138152
0.320736 0.188396 0.142582
0.333471 0.193560 0.147013
0.346207 0.198724 0.151444
0.358329 0.204473 0.156508
0.369224 0.211394 0.162840
0.380119 0.218314 0.169172
0.391014 0.225234 0.175504
0.401910 0.232155 0.181836
0.412492 0.239330 0.188398
0.421512 0.247776 0.196110
0.430532 0.256223 0.203821
0.439552 0.264670 0.211533
0.448572 0.273116 0.219245
0.457592 0.281563 0.226957
0.110662 0.115010 0.107448
0.121768 0.121716 0.107933
0.132873 0.128421 0.108418
0.143979 0.135127 0.108903
0.155085 0.141832 0.109387
0.166190 0.148538 0.109872
0.178630 0.152409 0.110994
0.191337 0.155713 0.112242
0.204043 0.159017 0.113491
0.216750 0.162320 0.114740
0.229456 0.165624 0.115989
0.243200 0.169301 0.118128
0.257461 0.173165 0.120712
0.271723 0.177028 0.123296
0.285985 0.180892 0.125881
0.300246 0.184755 0.128465
0.313969 0.189255 0.132128
0.327153 0.194392 0.136870
0.340337 0.199529 0.141611
0.353520 0.204665 0.146353
0.366704 0.209802 0.151095
0.379012 0.215530 0.156592
0.389569 0.222441 0.163601
0.400126 0.229353 0.170610
0.410683 0.236264 0.177619
0.421239 0.243175 0.184628
0.431348 0.250365 0.191898
0.439215 0.258949 0.200479
0.447082 0.267533 0.209060
0.454950 0.276117 0.217641
0.462817 0.284701 0.226222
0.470684 0.293284 0.234802
0.112931 0.118366 0.108913
0.125253 0.126252 0.109023
0.137575 0.134137 0.109133
0.149898 0.142023 0.109243
0.162220 0.149908 0.109352
0.174542 0.157794 0.109462
0.188001 0.162067 0.110338
0.201686 0.165618 0.111367
0.215371 0.169169 0.112396
0.229057 0.172720 0.113426
0.242742 0.176271 0.114455
0.257440 0.180091 0.116502
0.272644 0.184046 0.119059
0.287848 0.188001 0.121616
0.303052 0.191956 0.124173
0.318256 0.195911 0.126730
0.332674 0.200443 0.130535
0.346306 0.205553 0.135587
0.359938 0.210662 0.140640
0.373570 0.215771 0.145693
0.387202 0.220880 0.150745
0.399696 0.226587 0.156676
0.409914 0.233489 0.164362
0.420132 0.240391 0.172048
0.430351 0.247293 0.179733
0.440569 0.254195 0.187419
0.450203 0.261401 0.195399
0.456918 0.270122 0.204849
0.463633 0.278843 0.214299
0.470347 0.287564 0.223749
0.477062 0.296285 0.233199
0.483776 0.305006 0.242648
0.116499 0.122864 0.111048
0.129017 0.131015 0.111309
0.141534 0.139166 0.111570
0.154052 0.147317 0.111830
0.166569 0.155468 0.112091
0.179087 0.163618 0.112352
0.193272 0.169120 0.113210
0.207792 0.174092 0.114187
0.222311 0.179064 0.115164
0.236831 0.184036 0.116141
0.251350 0.189008 0.117119
0.266751 0.193490 0.119161
0.282592 0.197727 0.121736
0.298433 0.201964 0.124312
0.314274 0.206201 0.126887
0.330116 0.210438 0.129462
0.345160 0.215193 0.133447
0.359408 0.220465 0.138841
0.373656 0.225737 0.144235
0.387904 0.231010 0.149629
0.402152 0.236282 0.155024
0.415142 0.242150 0.161413
0.425617 0.249211 0.169791
0.436091 0.256272 0.178169
0.446566 0.263332 0.186547
0.457040 0.270393 0.194925
0.466849 0.277785 0.203641
0.473334 0.286834 0.214052
0.479818 0.295883 0.224462
0.486303 0.304932 0.234873
0.492787 0.313981 0.245283
0.499271 0.323030 0.255693
0.120328 0.127591 0.113317
0.132836 0.135824 0.113834
0.145344 0.144057 0.114351
0.157853 0.152290 0.114867
0.170361 0.160523 0.115384
0.182869 0.168757 0.115901
0.197724 0.175652 0.116786
0.213049 0.182280 0.117745
0.228373 0.188907 0.118704
0.243698 0.195535 0.119663
0.259022 0.202163 0.120622
0.275075 0.207410 0.122677
0.291493 0.211967 0.125280
0.307910 0.216525 0.127882
0.324328 0.221082 0.130485
0.340745 0.225639 0.133088
0.356403 0.230654 0.137260
0.371300 0.236128 0.143002
0.386198 0.241601 0.148744
0.401095 0.247075 0.154485
0.415993 0.252549 0.160227
0.429541 0.258615 0.167080
0.440391 0.265868 0.176153
0.451240 0.273121 0.185226
0.462090 0.280374 0.194300
0.472939 0.287626 0.203373
0.483053 0.295240 0.212832
0.489492 0.304654 0.224221
0.495931 0.314069 0.235611
0.502369 0.323484 0.247000
0.508808 0.332899 0.258389
0.515247 0.342314 0.269778
0.124156 0.132317 0.115585
0.136655 0.140633 0.116358
0.149155 0.148948 0.117131
0.161654 0.157264 0.117905
0.174153 0.165579 0.118678
0.186652 0.173895 0.119451
0.202176 0.182184 0.120363
0.218306 0.190467 0.121304
0.234435 0.198751 0.122245
0.250565 0.207034 0.123185
0.266694 0.215318 0.124126
0.283400 0.221330 0.126193
0.300394 0.226208 0.128823
0.317388 0.231085 0.131453
0.334382 0.235962 0.134083
0.351375 0.240840 0.136713
0.367646 0.246116 0.141073
0.383193 0.251791 0.147163
0.398740 0.257466 0.153252
0.414287 0.263140 0.159342
0.429834 0.268815 0.165431
0.443940 0.275080 0.172747
0.455165 0.282525 0.182515
0.466389 0.289970 0.192284
0.477614 0.297415 0.202052
0.488838 0.304860 0.211821
0.499258 0.312694 0.222023
0.505651 0.322475 0.234391
0.512043 0.332255 0.246759
0.518436 0.342036 0.259127
0.524829 0.351817 0.271495
0.531222 0.361598 0.283863
0.127985 0.137044 0.117854
0.140475 0.145441 0.118883
0.152965 0.153839 0.119912
0.165455 0.162237 0.120942
0.177945 0.170635 0.121971
0.190435 0.179033 0.123000
0.206628 0.188715 0.123940
0.223563 0.198654 0.124863
0.240497 0.208594 0.125785
0.257432 0.218533 0.126707
0.274366 0.228472 0.127630
0.291725 0.235250 0.129709
0.309295 0.240448 0.132366
0.326865 0.245646 0.135024
0.344435 0.250843 0.137681
0.362005 0.256041 0.140339
0.378889 0.261578 0.144886
0.395085 0.267454 0.151323
0.411282 0.273330 0.157760
0.427478 0.279206 0.164198
0.443675 0.285082 0.170635
0.458339 0.291545 0.178414
0.469939 0.299182 0.188878
0.481538 0.306819 0.199342
0.493138 0.314456 0.209805
0.504738 0.322093 0.220269
0.515462 0.330148 0.231213
0.521809 0.340295 0.244560
0.528156 0.350442 0.257907
0.534503 0.360588 0.271254
0.540850 0.370735 0.284601
0.547198 0.380881 0.297948
0.131813 0.141770 0.120123
0.144294 0.150250 0.121408
0.156775 0.158730 0.122693
0.169256 0.167211 0.123979
0.181737 0.175691 0.125264
0.194217 0.184171 0.126549
0.211080 0.195247 0.127517
0.228820 0.206842 0.128421
0.246559 0.218437 0.129325
0.264299 0.230032 0.130229
0.282038 0.241627 0.131133
0.300049 0.249171 0.133225
0.318196 0.254688 0.135910
0.336342 0.260206 0.138595
0.354489 0.265724 0.141280
0.372635 0.271242 0.143965
0.390132 0.277039 0.148699
0.406978 0.283117 0.155484
0.423824 0.289194 0.162269
0.440670 0.295271 0.169054
0.457516 0.301348 0.175838
0.472738 0.308010 0.184081
0.484713 0.315839 0.195240
0.496687 0.323668 0.206399
0.508662 0.331497 0.217558
0.520637 0.339326 0.228717
0.531666 0.347603 0.240404
0.537967 0.358115 0.254730
0.544269 0.368628 0.269056
0.550570 0.379140 0.283381
0.556872 0.389653 0.297707
0.563173 0.400165 0.312033
0.136650 0.147694 0.123211
0.149158 0.156208 0.124801
0.161666 0.164721 0.126391
0.174175 0.173235 0.127982
0.186683 0.181749 0.129572
0.199191 0.190262 0.131162
0.216339 0.201834 0.132450
0.234413 0.214018 0.133677
0.252488 0.226202 0.134904
0.270563 0.238385 0.136132
0.288638 0.250569 0.137359
0.307007 0.259140 0.139792
0.325522 0.265905 0.142828
0.344038 0.272670 0.145863
0.362553 0.279435 0.148899
0.381069 0.286200 0.151934
0.398992 0.292795 0.156970
0.416323 0.299219 0.164004
0.433654 0.305644 0.171039
0.450984 0.312069 0.178074
0.468315 0.318494 0.185109
0.484029 0.325478 0.193703
0.496506 0.333578 0.205417
0.508984 0.341679 0.217131
0.521462 0.349779 0.228845
0.533940 0.357880 0.240559
0.545439 0.366442 0.252838
0.552042 0.377315 0.267942
0.558645 0.388187 0.283045
0.565249 0.399060 0.298148
0.571852 0.409932 0.313251
0.578455 0.420804 0.328355
0.141991 0.154216 0.126708
0.154545 0.162739 0.128628
0.167099 0.171262 0.130548
0.179653 0.179785 0.132467
0.192207 0.188308 0.134387
0.204761 0.196831 0.136306
0.222000 0.208450 0.138061
0.240175 0.220688 0.139782
0.258351 0.232927 0.141503
0.276526 0.245165 0.143225
0.294702 0.257404 0.144946
0.313281 0.267134 0.147885
0.332062 0.275609 0.151433
0.350842 0.284085 0.154981
0.369623 0.292561 0.158529
0.388404 0.301036 0.162077
0.406661 0.308697 0.167469
0.424394 0.315543 0.174705
0.442128 0.322388 0.181941
0.459861 0.329234 0.189177
0.477594 0.336080 0.196413
0.493765 0.343447 0.205303
0.506810 0.351859 0.217502
0.519855 0.360271 0.229701
0.532900 0.368682 0.241900
0.545945 0.377094 0.254098
0.557996 0.385975 0.266894
0.565075 0.397204 0.282674
0.572154 0.408433 0.298455
0.579233 0.419662 0.314235
0.586312 0.430891 0.330015
0.593391 0.442121 0.345795
0.147332 0.160739 0.130206
0.159931 0.169271 0.132455
0.172531 0.177803 0.134704
0.185131 0.186335 0.136953
0.197731 0.194867 0.139202
0.210331 0.203399 0.141450
0.227661 0.215065 0.143671
0.245937 0.227359 0.145887
0.264213 0.239652 0.148102
0.282489 0.251946 0.150317
0.300765 0.264239 0.152533
0.319555 0.275128 0.155978
0.338601 0.285314 0.160038
0.357647 0.295500 0.164098
0.376693 0.305686 0.168158
0.395739 0.315873 0.172219
0.414330 0.324599 0.177967
0.432466 0.331866 0.185405
0.450602 0.339132 0.192842
0.468738 0.346399 0.200279
0.486874 0.353665 0.207717
0.503502 0.361417 0.216903
0.517114 0.370140 0.229586
0.530726 0.378862 0.242270
0.544338 0.387585 0.254954
0.557950 0.396308 0.267637
0.570553 0.405507 0.280950
0.578108 0.417093 0.297407
0.585662 0.428679 0.313864
0.593217 0.440265 0.330322
0.600772 0.451851 0.346779
0.608326 0.463437 0.363236
0.152672 0.167261 0.133704
0.165318 0.175803 0.136282
0.177964 0.184344 0.138860
0.190609 0.192885 0.141438
0.203255 0.201426 0.144016
0.215900 0.209967 0.146595
0.233322 0.221681 0.149282
0.251699 0.234029 0.151991
0.270075 0.246377 0.154701
0.288452 0.258726 0.157410
0.306829 0.271074 0.160119
0.325829 0.283121 0.164071
0.345140 0.295018 0.168643
0.364451 0.306915 0.173216
0.383763 0.318812 0.177788
0.403074 0.330709 0.182361
0.421999 0.340501 0.188466
0.440537 0.348189 0.196105
0.459076 0.355876 0.203743
0.477614 0.363563 0.211382
0.496153 0.371251 0.219020
0.513238 0.379387 0.228502
0.527417 0.388420 0.241671
0.541597 0.397454 0.254839
0.555776 0.406488 0.268008
0.569955 0.415521 0.281176
0.583110 0.425040 0.295006
0.591140 0.436982 0.312140
0.599171 0.448925 0.329274
0.607201 0.460868 0.346408
0.615232 0.472811 0.363543
0.623262 0.484753 0.380677
0.158013 0.173784 0.137201
0.170705 0.182334 0.140109
0.183396 0.190885 0.143016
0.196087 0.199435 0.145924
0.208779 0.207985 0.148831
0.221470 0.216535 0.151739
0.238983 0.228296 0.154893
0.257460 0.240700 0.158096
0.275938 0.253103 0.161299
0.294415 0.265506 0.164503
0.312892 0.277909 0.167706
0.332103 0.291115 0.172164
0.351679 0.304723 0.177248
0.371256 0.318330 0.182333
0.390833 0.331938 0.187418
0.410409 0.345546 0.192503
0.429668 0.356404 0.198965
0.448609 0.364512 0.206805
0.467550 0.372620 0.214645
0.486491 0.380728 0.222484
0.505432 0.388836 0.230324
0.522975 0.397356 0.240102
0.537721 0.406701 0.253755
0.552468 0.416046 0.267409
0.567214 0.425390 0.281062
0.581961 0.434735 0.294715
0.595667 0.444572 0.309062
0.604173 0.456872 0.326873
0.612679 0.469171 0.344684
0.621185 0.481471 0.362495
0.629692 0.493770 0.380306
0.638198 0.506070 0.398117
0.163661 0.180874 0.141148
0.176453 0.189511 0.144444
0.189245 0.198148 0.147740
0.202037 0.206785 0.151037
0.214829 0.215422 0.154333
0.227621 0.224060 0.157629
0.245322 0.235908 0.161321
0.264006 0.248398 0.165091
0.282689 0.260888 0.168862
0.301372 0.273378 0.172632
0.320055 0.285868 0.176403
0.339484 0.299697 0.181446
0.359284 0.314197 0.187125
0.379085 0.328697 0.192805
0.398886 0.343196 0.198484
0.418687 0.357696 0.204163
0.438097 0.369423 0.211126
0.457115 0.378377 0.219373
0.476134 0.387331 0.227620
0.495152 0.396286 0.235867
0.514171 0.405240 0.244114
0.531917 0.414451 0.254274
0.547116 0.424175 0.268262
0.562315 0.433900 0.282249
0.577515 0.443624 0.296236
0.592714 0.453348 0.310224
0.606880 0.463550 0.324925
0.615875 0.476137 0.343198
0.624871 0.488725 0.361471
0.633866 0.501313 0.379744
0.642862 0.513900 0.398017
0.651857 0.526488 0.416291
0.169617 0.188530 0.145543
0.182564 0.197332 0.149288
0.195512 0.206134 0.153032
0.208459 0.214936 0.156777
0.221407 0.223738 0.160522
0.234354 0.232540 0.164266
0.252340 0.244514 0.168566
0.271335 0.257123 0.172977
0.290329 0.269732 0.177388
0.309323 0.282341 0.181799
0.328317 0.294950 0.186209
0.347971 0.308868 0.191917
0.367955 0.323441 0.198274
0.387939 0.338014 0.204630
0.407923 0.352587 0.210986
0.427906 0.367159 0.217343
0.447284 0.379559 0.224951
0.466056 0.389785 0.233810
0.484827 0.400010 0.242670
0.503599 0.410236 0.251530
0.522371 0.420462 0.260390
0.540064 0.430670 0.271020
0.555602 0.440843 0.285190
0.571140 0.451015 0.299360
0.586678 0.461188 0.313530
0.602216 0.471361 0.327701
0.616747 0.481972 0.342596
0.626246 0.494779 0.361116
0.635744 0.507587 0.379636
0.645243 0.520394 0.398156
0.654742 0.533201 0.416676
0.664240 0.546008 0.435196
0.175572 0.196187 0.149939
0.188675 0.205154 0.154132
0.201778 0.214120 0.158325
0.214881 0.223087 0.162517
0.227984 0.232054 0.166710
0.241087 0.241020 0.170903
0.259358 0.253121 0.175811
0.278664 0.265849 0.180862
0.297969 0.278577 0.185914
0.317274 0.291305 0.190965
0.336580 0.304033 0.196016
0.356459 0.318039 0.202389
0.376626 0.332685 0.209422
0.396793 0.347331 0.216455
0.416959 0.361977 0.223488
0.437126 0.376623 0.230522
0.456472 0.389695 0.238775
0.474996 0.401192 0.248247
0.493521 0.412690 0.257720
0.512046 0.424187 0.267193
0.530570 0.435684 0.276666
0.548212 0.446890 0.287765
0.564089 0.457511 0.302118
0.579965 0.468131 0.316472
0.595841 0.478752 0.330825
0.611718 0.489373 0.345178
0.626615 0.500395 0.360267
0.636617 0.513421 0.379034
0.646618 0.526448 0.397801
0.656620 0.539475 0.416568
0.666622 0.552502 0.435335
0.676624 0.565528 0.454102
0.181527 0.203844 0.154335
0.194786 0.212975 0.158976
0.208044 0.222107 0.163617
0.221303 0.231238 0.168258
0.234561 0.240369 0.172899
0.247820 0.249500 0.177540
0.266376 0.261728 0.183056
0.285993 0.274575 0.188748
0.305609 0.287421 0.194440
0.325225 0.300268 0.200131
0.344842 0.313115 0.205823
0.364947 0.327210 0.212860
0.385297 0.341929 0.220570
0.405646 0.356648 0.228280
0.425996 0.371367 0.235991
0.446346 0.386086 0.243701
0.465659 0.399831 0.252599
0.483937 0.412600 0.262685
0.502215 0.425369 0.272770
0.520492 0.438138 0.282856
0.538770 0.450907 0.292941
0.556360 0.463109 0.304511
0.572575 0.474178 0.319047
0.588790 0.485247 0.333583
0.605004 0.496316 0.348119
0.621219 0.507385 0.362655
0.636482 0.518817 0.377938
0.646987 0.532064 0.396952
0.657492 0.545310 0.415966
0.667997 0.558556 0.434980
0.678502 0.571802 0.453994
0.689007 0.585049 0.473008
0.187483 0.211501 0.158730
0.200897 0.220797 0.163819
0.214311 0.230093 0.168909
0.227725 0.239389 0.173998
0.241139 0.248685 0.179087
0.254553 0.257980 0.184177
0.273394 0.270334 0.190302
0.293322 0.283300 0.196634
0.313249 0.296266 0.202965
0.333177 0.309232 0.209297
0.353104 0.322197 0.215629
0.373435 0.336381 0.223331
0.393967 0.351173 0.231719
0.414500 0.365965 0.240106
0.435033 0.380758 0.248493
0.455565 0.395550 0.256880
0.474847 0.409966 0.266423
0.492878 0.424007 0.277122
0.510908 0.438048 0.287820
0.528939 0.452088 0.298519
0.546970 0.466129 0.309217
0.564508 0.479328 0.321256
0.581061 0.490846 0.335975
0.597614 0.502363 0.350694
0.614168 0.513880 0.365413
0.630721 0.525398 0.380132
0.646350 0.537240 0.395608
0.657358 0.550706 0.414870
0.668366 0.564171 0.434131
0.679374 0.577637 0.453392
0.690382 0.591103 0.472653
0.701390 0.604569 0.491914
0.193139 0.218843 0.163063
0.206806 0.228468 0.168731
0.220473 0.238093 0.174400
0.234140 0.247718 0.180069
0.247807 0.257344 0.185738
0.261474 0.266969 0.191406
0.280676 0.279586 0.198243
0.300984 0.292802 0.205312
0.321293 0.306018 0.212382
0.341601 0.319234 0.219452
0.361910 0.332449 0.226522
0.382528 0.346783 0.234915
0.403302 0.361676 0.243970
0.424075 0.376569 0.253025
0.444849 0.391462 0.262080
0.465623 0.406355 0.271135
0.484956 0.421247 0.281303
0.502849 0.436138 0.292584
0.520743 0.451030 0.303865
0.538636 0.465921 0.315146
0.556530 0.480812 0.326427
0.573994 0.494735 0.338918
0.590599 0.506719 0.353829
0.607204 0.518702 0.368741
0.623809 0.530686 0.383652
0.640414 0.542670 0.398563
0.656156 0.554938 0.414224
0.667578 0.568623 0.433635
0.679001 0.582308 0.453045
0.690424 0.595994 0.472456
0.701847 0.609679 0.491866
0.713270 0.623364 0.511277
0.198196 0.225554 0.167269
0.212311 0.235838 0.173780
0.226427 0.246122 0.180290
0.240542 0.256406 0.186800
0.254657 0.266690 0.193311
0.268773 0.276974 0.199821
0.288484 0.290128 0.207575
0.309314 0.303856 0.215578
0.330143 0.317584 0.223581
0.350973 0.331312 0.231584
0.371803 0.345040 0.239587
0.392834 0.359648 0.248724
0.413964 0.374697 0.258429
0.435094 0.389745 0.268133
0.456225 0.404794 0.277838
0.477355 0.419842 0.287542
0.496908 0.434816 0.298296
0.514884 0.449717 0.310098
0.532859 0.464618 0.321900
0.550835 0.479518 0.333703
0.568811 0.494419 0.345505
0.586156 0.508515 0.358414
0.602240 0.521002 0.373536
0.618323 0.533489 0.388657
0.634407 0.545976 0.403779
0.650491 0.558463 0.418900
0.665837 0.571186 0.434729
0.677498 0.585091 0.454094
0.689159 0.598996 0.473459
0.700819 0.612901 0.492824
0.712480 0.626806 0.512188
0.724140 0.640711 0.531553
0.203253 0.232266 0.171476
0.217817 0.243208 0.178828
0.232381 0.254151 0.186180
0.246944 0.265093 0.193532
0.261508 0.276036 0.200884
0.276071 0.286978 0.208235
0.296291 0.300669 0.216907
0.317643 0.314910 0.225844
0.338994 0.329150 0.234780
0.360346 0.343390 0.243716
0.381697 0.357631 0.252652
0.403139 0.372513 0.262533
0.424626 0.387717 0.272887
0.446113 0.402921 0.283241
0.467600 0.418125 0.293595
0.489087 0.433329 0.303949
0.508860 0.448386 0.315288
0.526918 0.463296 0.327612
0.544976 0.478205 0.339936
0.563034 0.493115 0.352259
0.581092 0.508025 0.364583
0.598318 0.522295 0.377910
0.613881 0.535285 0.393242
0.629443 0.548275 0.408574
0.645005 0.561265 0.423906
0.660567 0.574255 0.439238
0.675519 0.587434 0.455234
0.687417 0.601559 0.474553
0.699316 0.615683 0.493873
0.711214 0.629808 0.513192
0.723113 0.643932 0.532511
0.735011 0.658057 0.551830
0.208311 0.238978 0.175682
0.223323 0.250579 0.183876
0.238334 0.262180 0.192069
0.253346 0.273781 0.200263
0.268358 0.285382 0.208457
0.283370 0.296983 0.216650
0.304099 0.311211 0.226240
0.325972 0.325963 0.236109
0.347845 0.340716 0.245978
0.369718 0.355469 0.255847
0.391590 0.370221 0.265717
0.413444 0.385378 0.276342
0.435288 0.400738 0.287345
0.457132 0.416097 0.298349
0.478976 0.431457 0.309352
0.500819 0.446816 0.320356
0.520812 0.461955 0.332280
0.538952 0.476874 0.345126
0.557092 0.491793 0.357971
0.575233 0.506712 0.370816
0.593373 0.521631 0.383661
0.610481 0.536074 0.397406
0.625521 0.549568 0.412948
0.640562 0.563061 0.428491
0.655603 0.576554 0.444033
0.670644 0.590048 0.459575
0.685200 0.603683 0.475740
0.697337 0.618027 0.495013
0.709473 0.632371 0.514286
0.721609 0.646715 0.533559
0.733746 0.661059 0.552833
0.745882 0.675403 0.572106
0.213368 0.245689 0.179889
0.228828 0.257949 0.188924
0.244288 0.270209 0.197959
0.259748 0.282469 0.206994
0.275208 0.294728 0.216030
0.290668 0.306988 0.225065
0.311907 0.321752 0.235572
0.334301 0.337017 0.246375
0.356695 0.352282 0.257177
0.379090 0.367547 0.267979
0.401484 0.382812 0.278781
0.423749 0.398244 0.290151
0.445950 0.413759 0.301804
0.468150 0.429274 0.313457
0.490351 0.444789 0.325110
0.512552 0.460303 0.336763
0.532763 0.475525 0.349273
0.550986 0.490453 0.362639
0.569209 0.505381 0.376006
0.587432 0.520309 0.389373
0.605654 0.535237 0.402740
0.622643 0.549854 0.416902
0.637162 0.563851 0.432654
0.651682 0.577847 0.448407
0.666201 0.591844 0.464160
0.680720 0.605840 0.479913
0.694882 0.619931 0.496245
0.707256 0.634494 0.515472
0.719630 0.649058 0.534700
0.732005 0.663622 0.553927
0.744379 0.678185 0.573155
0.756753 0.692749 0.592383
0.218008 0.251629 0.183788
0.233991 0.264698 0.193816
0.249974 0.277767 0.203844
0.265957 0.290837 0.213871
0.281940 0.303906 0.223899
0.297923 0.316976 0.233927
0.319720 0.332407 0.245466
0.342680 0.348311 0.257309
0.365640 0.364215 0.269151
0.388600 0.380118 0.280993
0.411560 0.396022 0.292835
0.434259 0.411808 0.304998
0.456829 0.427535 0.317322
0.479399 0.443262 0.329646
0.501968 0.458989 0.341970
0.524538 0.474716 0.354293
0.544971 0.490033 0.367360
0.563267 0.504941 0.381169
0.581563 0.519849 0.394978
0.599858 0.534758 0.408786
0.618154 0.549666 0.422595
0.635034 0.564393 0.437105
0.649083 0.578758 0.453018
0.663131 0.593124 0.468931
0.677179 0.607489 0.484844
0.691227 0.621855 0.500757
0.705024 0.636283 0.517214
0.717563 0.651025 0.536388
0.730102 0.665767 0.555562
0.742641 0.680509 0.574736
0.755179 0.695251 0.593910
0.767718 0.709993 0.613084
0.220560 0.253708 0.186151
0.237440 0.268342 0.197926
0.254319 0.282976 0.209701
0.271199 0.297609 0.221476
0.288078 0.312243 0.233251
0.304958 0.326877 0.245026
0.327560 0.343629 0.258168
0.351307 0.360804 0.271584
0.375053 0.377979 0.284999
0.398800 0.395155 0.298415
0.422546 0.412330 0.311830
0.445795 0.428869 0.325037
0.468795 0.445090 0.338138
0.491794 0.461311 0.351239
0.514794 0.477532 0.364341
0.537793 0.493753 0.377442
0.558455 0.509235 0.390920
0.576778 0.523978 0.404775
0.595102 0.538722 0.418630
0.613425 0.553465 0.432484
