filters/luts/Depression 01_S.cube
# Created by: Adobe Photoshop Export Color Lookup Plugin
# LUT by SparkleStock. Enhanced with VOXCOLOR algorithms.
LUT_3D_SIZE 8
DOMAIN_MIN 0.000000 0.000000 0.000000
DOMAIN_MAX 0.903226 0.903226 0.903226
0.101587 0.101587 0.101587
0.126543 0.109528 0.109528
0.158730 0.118406 0.117870
0.196731 0.129639 0.127323
0.239151 0.144504 0.138501
0.284714 0.165489 0.152491
0.332010 0.192146 0.169160
0.380881 0.222293 0.188105
0.110662 0.115010 0.107448
0.155085 0.141832 0.109387
0.204043 0.159017 0.113491
0.257461 0.173165 0.120712
0.313969 0.189255 0.132128
0.366704 0.209802 0.151095
0.410683 0.236264 0.177619
0.447082 0.267533 0.209060
0.124156 0.132317 0.115585
0.174153 0.165579 0.118678
0.234435 0.198751 0.122245
0.300394 0.226208 0.128823
0.367646 0.246116 0.141073
0.429834 0.268815 0.165431
0.477614 0.297415 0.202052
0.512043 0.332255 0.246759
0.141991 0.154216 0.126708
0.192207 0.188308 0.134387
0.258351 0.232927 0.141503
0.332062 0.275609 0.151433
0.406661 0.308697 0.167469
0.477594 0.336080 0.196413
0.532900 0.368682 0.241900
0.572154 0.408433 0.298455
0.163661 0.180874 0.141148
0.214829 0.215422 0.154333
0.282689 0.260888 0.168862
0.359284 0.314197 0.187125
0.438097 0.369423 0.211126
0.514171 0.405240 0.244114
0.577515 0.443624 0.296236
0.624871 0.488725 0.361471
0.187483 0.211501 0.158730
0.241139 0.248685 0.179087
0.313249 0.296266 0.202965
0.393967 0.351173 0.231719
0.474847 0.409966 0.266423
0.546970 0.466129 0.309217
0.614168 0.513880 0.365413
0.668366 0.564171 0.434131
0.208311 0.238978 0.175682
0.268358 0.285382 0.208457
0.347845 0.340716 0.245978
0.435288 0.400738 0.287345
0.520812 0.461955 0.332280
0.593373 0.521631 0.383661
0.655603 0.576554 0.444033
0.709473 0.632371 0.514286
0.223112 0.255788 0.188515
0.294217 0.320580 0.242604
0.384466 0.391744 0.300848
0.480760 0.462645 0.358954
0.571939 0.528436 0.414481
0.645342 0.586752 0.470082
0.702940 0.642343 0.531782
0.754185 0.699395 0.601768
0.109717 0.112364 0.118981
0.143601 0.116938 0.127214
0.187931 0.123900 0.139685
0.238238 0.134304 0.153626
0.290337 0.149132 0.167256
0.338534 0.170850 0.181393
0.379561 0.198361 0.197232
0.415071 0.227642 0.215866
0.122451 0.131934 0.141527
0.167303 0.159016 0.157471
0.226888 0.175022 0.168017
0.294634 0.187746 0.177158
0.364319 0.203247 0.188079
0.427055 0.225659 0.203453
0.474868 0.256846 0.224653
0.507268 0.294922 0.251321
0.138982 0.155492 0.160026
0.189016 0.197295 0.178553
0.255999 0.230985 0.186555
0.333436 0.255593 0.192512
0.414746 0.272855 0.202806
0.489082 0.294940 0.221035
0.544647 0.325783 0.249376
0.579882 0.365330 0.286236
0.160634 0.184539 0.179151
0.213976 0.235009 0.199346
0.283112 0.282921 0.208220
0.363232 0.322256 0.214679
0.449188 0.350356 0.225719
0.532081 0.373537 0.246825
0.596320 0.403739 0.281763
0.639177 0.442622 0.327944
0.188160 0.220179 0.202464
0.245555 0.274790 0.226126
0.314342 0.326648 0.241276
0.392097 0.377766 0.253102
0.476219 0.426586 0.266575
0.562979 0.455482 0.289798
0.635787 0.487613 0.329079
0.689242 0.527214 0.381336
0.221934 0.264273 0.232634
0.283631 0.319252 0.260635
0.354227 0.371923 0.283907
0.431724 0.424959 0.305561
0.512970 0.479090 0.328207
0.588752 0.527990 0.354552
0.664244 0.566694 0.394904
0.726198 0.608076 0.447763
0.260521 0.314485 0.271931
0.324757 0.366976 0.301962
0.398502 0.421068 0.334443
0.478389 0.476683 0.367972
0.560020 0.533044 0.401703
0.632048 0.586157 0.436465
0.695893 0.632243 0.476872
0.754915 0.677555 0.527022
0.303047 0.366192 0.321746
0.365927 0.412730 0.348304
0.443510 0.471226 0.391151
0.527831 0.533468 0.439461
0.611187 0.593040 0.485507
0.681106 0.645453 0.527893
0.735821 0.692876 0.570267
0.786284 0.738434 0.618262
0.120257 0.127961 0.142534
0.154775 0.134352 0.151993
0.206184 0.139737 0.164312
0.265672 0.148689 0.180288
0.325608 0.164246 0.199273
0.377685 0.187006 0.215007
0.416537 0.215336 0.230000
0.444754 0.244490 0.246945
0.135924 0.152539 0.173991
0.179735 0.182495 0.200698
0.242098 0.196853 0.219295
0.316308 0.207451 0.233755
0.395133 0.222997 0.247205
0.465019 0.247103 0.261400
0.516736 0.281831 0.279492
0.549671 0.324776 0.303194
0.158145 0.184952 0.207634
0.205665 0.228521 0.238900
0.272086 0.259665 0.257191
0.353625 0.280926 0.268413
0.444406 0.296415 0.277834
0.527985 0.318201 0.291551
0.591461 0.351054 0.313162
0.631821 0.394782 0.343144
0.185412 0.223609 0.242034
0.236197 0.275596 0.272565
0.303226 0.321865 0.289605
0.384959 0.357528 0.298313
0.477883 0.381086 0.304240
0.570565 0.400794 0.317900
0.644483 0.429297 0.342700
0.694768 0.468366 0.378148
0.217289 0.267987 0.277188
0.273765 0.325971 0.307131
0.340830 0.379608 0.325721
0.417496 0.428250 0.334812
0.502872 0.469682 0.338509
0.597854 0.492054 0.351737
0.679980 0.518361 0.378501
0.741758 0.553043 0.417780
0.258424 0.322850 0.319013
0.319409 0.380622 0.350060
0.388502 0.435113 0.372528
0.463337 0.486564 0.388265
0.541515 0.534647 0.399405
0.619538 0.575721 0.409710
0.702681 0.605778 0.434783
0.773379 0.638819 0.472510
0.308464 0.387487 0.372120
0.370476 0.439502 0.401699
0.441447 0.491545 0.427672
0.516473 0.542850 0.451236
0.591366 0.592593 0.473011
0.661750 0.638752 0.491337
0.727955 0.676844 0.513277
0.793310 0.712759 0.545234
0.366947 0.458422 0.440661
0.424538 0.498894 0.461674
0.495559 0.546933 0.488538
0.571242 0.598322 0.519837
0.644583 0.649345 0.553223
0.710024 0.695519 0.581349
0.763275 0.736239 0.606066
0.815405 0.772987 0.635288
0.133365 0.148222 0.172327
0.165529 0.159175 0.184554
0.218990 0.167316 0.197024
0.283869 0.177030 0.212780
0.350993 0.192051 0.233153
0.407887 0.217446 0.254621
0.448407 0.248096 0.271534
0.475090 0.279149 0.288251
0.151667 0.177215 0.208760
0.194634 0.212347 0.244449
0.255350 0.229741 0.270614
0.329964 0.241297 0.290827
0.412767 0.256422 0.308031
0.488302 0.282152 0.324068
0.544759 0.319550 0.341151
0.582021 0.366077 0.363077
0.179762 0.218744 0.255803
0.225803 0.263527 0.296980
0.288638 0.295092 0.326485
0.367825 0.315585 0.346451
0.459944 0.329322 0.359595
0.550116 0.350946 0.371350
0.620846 0.385186 0.388227
0.669002 0.431926 0.412874
0.214390 0.267994 0.305975
0.261912 0.316888 0.344412
0.324542 0.361000 0.372103
0.402563 0.393624 0.388656
0.494482 0.412632 0.395949
0.593805 0.429631 0.404222
0.676013 0.456761 0.420780
0.735281 0.496118 0.447114
0.253438 0.322044 0.354916
0.304828 0.375137 0.389666
0.367321 0.425932 0.414550
0.439634 0.469992 0.426830
0.521825 0.503525 0.427695
0.621716 0.520113 0.432389
0.711290 0.541285 0.448227
0.781449 0.571940 0.475652
0.298915 0.384616 0.407401
0.355306 0.438176 0.439951
0.420210 0.490386 0.463755
0.490406 0.538351 0.477791
0.563766 0.579905 0.482167
0.641759 0.612740 0.479387
0.730583 0.634782 0.491312
0.809214 0.660360 0.515740
0.354994 0.456728 0.467855
0.412651 0.505384 0.498133
0.478964 0.553726 0.520960
0.548636 0.600023 0.537833
0.617700 0.642993 0.549601
0.684516 0.681456 0.553925
0.752344 0.711985 0.560372
0.823474 0.739527 0.577096
0.420379 0.534682 0.541481
0.474898 0.574228 0.565766
0.539751 0.615038 0.584418
0.608169 0.656971 0.602454
0.674587 0.699253 0.622126
0.733764 0.738086 0.636554
0.785446 0.772504 0.646167
0.839826 0.802092 0.660218
0.148702 0.172208 0.207279
0.179458 0.188852 0.224263
0.231225 0.206104 0.240700
0.297852 0.221361 0.255965
0.371574 0.235552 0.271842
0.434122 0.264295 0.301268
0.479472 0.299527 0.324463
0.509661 0.335361 0.344757
0.169932 0.205885 0.248103
0.213501 0.248081 0.291963
0.271294 0.275649 0.324375
0.342520 0.293954 0.349404
0.424086 0.309336 0.370567
0.503773 0.336006 0.390824
0.565872 0.375356 0.409068
0.610301 0.424615 0.430364
0.202937 0.255636 0.303399
0.250639 0.304974 0.351796
0.310159 0.343098 0.390125
0.382567 0.367709 0.419910
0.467338 0.381010 0.442262
0.560040 0.402300 0.455661
0.636485 0.436884 0.470194
0.693590 0.484861 0.491307
0.246074 0.315365 0.365381
0.293161 0.363727 0.409228
0.351515 0.408160 0.446703
0.421507 0.439824 0.474998
0.503838 0.455757 0.492656
0.603961 0.470847 0.500087
0.691319 0.496447 0.511371
0.759355 0.535193 0.531224
0.296333 0.380123 0.428134
0.342140 0.427120 0.467513
0.398232 0.471921 0.500427
0.463127 0.509545 0.521863
0.537855 0.536272 0.529921
0.636649 0.548174 0.530746
0.730279 0.564983 0.538448
0.807421 0.592314 0.556003
0.344664 0.447160 0.489163
0.396039 0.495332 0.523565
0.453233 0.541502 0.551731
0.515735 0.583280 0.569735
0.583292 0.618522 0.574980
0.657709 0.642987 0.565328
0.749066 0.657869 0.567601
0.833326 0.677050 0.581347
0.402500 0.521174 0.552337
0.456427 0.566119 0.583569
0.514022 0.608978 0.608788
0.575893 0.649257 0.625441
0.641065 0.686161 0.631971
0.702251 0.716290 0.627328
0.769802 0.739468 0.622582
0.844678 0.759605 0.627818
0.468173 0.597248 0.621810
0.521052 0.635965 0.648933
0.577145 0.672888 0.670509
0.637910 0.708757 0.685547
0.701690 0.743577 0.693925
0.753745 0.774149 0.697389
0.802724 0.801973 0.695375
0.858314 0.825218 0.698145
0.164205 0.196030 0.242065
0.195985 0.220284 0.266369
0.248673 0.250020 0.293233
0.316057 0.280073 0.318317
0.391206 0.306833 0.339079
0.461072 0.329575 0.357381
0.512276 0.370394 0.390188
0.549296 0.414290 0.420831
0.190411 0.237464 0.290355
0.236818 0.287951 0.341079
0.294455 0.327881 0.381701
0.363416 0.360386 0.414452
0.441536 0.387912 0.441223
0.518116 0.410734 0.462481
0.584238 0.450741 0.485464
0.636857 0.501594 0.509758
0.230466 0.297150 0.354256
0.281374 0.352489 0.407861
0.339810 0.398687 0.452852
0.407934 0.434356 0.489675
0.485740 0.459737 0.518959
0.566757 0.479412 0.540748
0.645098 0.512212 0.556365
0.710509 0.558327 0.575358
0.280288 0.366856 0.424824
0.330731 0.417801 0.471632
0.387542 0.465037 0.514271
0.452129 0.502786 0.549846
0.525221 0.527845 0.576899
0.607350 0.542077 0.596696
0.694491 0.564696 0.606571
0.769988 0.599779 0.621091
0.336346 0.439408 0.494456
0.385085 0.485532 0.534714
0.439230 0.528927 0.571222
0.498146 0.566655 0.600484
0.562594 0.595255 0.620897
0.640816 0.604499 0.635249
0.732441 0.617331 0.640059
0.815231 0.639873 0.650621
0.396241 0.507323 0.555193
0.442388 0.549976 0.590474
0.493570 0.590817 0.622394
0.548610 0.627277 0.647506
0.606779 0.656844 0.662796
0.669350 0.673778 0.662479
0.757890 0.682927 0.660972
0.843605 0.696861 0.667316
0.453442 0.578800 0.617586
0.503049 0.619340 0.649508
0.553946 0.657168 0.677049
0.606574 0.691597 0.698117
0.661030 0.721803 0.710648
0.716546 0.744816 0.709164
0.780751 0.761308 0.700208
0.855377 0.775235 0.698882
0.514376 0.647135 0.678253
0.565778 0.684511 0.707496
0.615721 0.718214 0.731430
0.666138 0.749213 0.749483
0.718123 0.778040 0.760998
0.770541 0.803338 0.762951
0.815611 0.824510 0.755323
0.869324 0.841770 0.751762
0.175454 0.213234 0.268029
0.212406 0.247783 0.302334
0.270335 0.292427 0.342916
0.341849 0.339897 0.383084
0.419477 0.384121 0.417696
0.491417 0.418670 0.442804
0.545467 0.452390 0.468288
0.586756 0.495343 0.500042
0.211759 0.270110 0.331468
0.262602 0.327322 0.387114
0.323124 0.379794 0.436746
0.393028 0.427549 0.480211
0.470101 0.470154 0.517222
0.544467 0.503820 0.545230
0.606331 0.537496 0.569253
0.660349 0.582873 0.594628
0.262951 0.344650 0.408462
0.316647 0.402984 0.463246
0.375443 0.455305 0.512250
0.441853 0.501366 0.555590
0.516080 0.540814 0.593068
0.590970 0.571052 0.621696
0.658859 0.600767 0.643732
0.722641 0.640659 0.663579
0.321794 0.425218 0.487536
0.374249 0.476558 0.533692
0.429822 0.524382 0.577095
0.490785 0.566808 0.616359
0.558280 0.602198 0.650411
0.631248 0.627055 0.677427
0.702774 0.650189 0.696648
0.773569 0.680090 0.711675
0.382783 0.502668 0.559854
0.434443 0.548244 0.599573
0.487167 0.590299 0.636283
0.541399 0.627670 0.668279
0.598593 0.658780 0.694823
0.666033 0.677747 0.717273
0.738153 0.693189 0.732516
0.813287 0.711761 0.743245
0.443873 0.570485 0.619200
0.493470 0.611533 0.654321
0.543170 0.649294 0.686378
0.593217 0.682723 0.713664
0.643999 0.710625 0.734477
0.696958 0.729012 0.744391
0.764551 0.738840 0.753484
0.840298 0.748972 0.760044
0.504709 0.632757 0.671990
0.552172 0.670178 0.703389
0.598527 0.704034 0.731312
0.644470 0.734228 0.754537
0.690533 0.760412 0.771663
0.737026 0.780004 0.778122
0.789094 0.792521 0.777163
0.856969 0.801608 0.776356
0.563146 0.689774 0.720222
0.611130 0.725015 0.749988
0.655444 0.755502 0.775027
0.697984 0.782453 0.795101
0.740292 0.806644 0.809752
0.783556 0.826999 0.816026
0.824708 0.842637 0.812676
0.875234 0.854961 0.809235
0.181756 0.223175 0.283422
0.228356 0.271093 0.329772
0.295812 0.331926 0.385336
0.374933 0.396724 0.441482
0.457005 0.457774 0.491202
0.529573 0.505868 0.527416
0.582564 0.538899 0.551427
0.619688 0.571912 0.576378
0.234418 0.304562 0.371157
0.290409 0.366181 0.429282
0.356246 0.430095 0.487743
0.429924 0.491936 0.542509
0.508090 0.547948 0.590237
0.580577 0.592713 0.626243
0.637714 0.625979 0.652950
0.684841 0.661310 0.676824
0.301784 0.400338 0.467394
0.356501 0.456432 0.518459
0.415830 0.511232 0.568401
0.482020 0.564978 0.616879
0.554843 0.616400 0.662421
0.625472 0.656660 0.697240
0.684855 0.688054 0.724710
0.738925 0.721055 0.746727
0.372502 0.494118 0.557091
0.423981 0.540116 0.597188
0.476913 0.583784 0.636467
0.534514 0.627173 0.675883
0.598238 0.670346 0.715012
0.664948 0.705343 0.747484
0.724465 0.732916 0.773861
0.782687 0.760474 0.793370
0.438209 0.574032 0.629633
0.489960 0.615025 0.664620
0.539710 0.652213 0.697326
0.589000 0.685839 0.727411
0.640055 0.716437 0.755180
0.699914 0.745382 0.783224
0.757177 0.767512 0.806624
0.816967 0.788055 0.823065
0.495329 0.634500 0.680471
0.548143 0.673326 0.713645
0.596383 0.707183 0.743401
0.641866 0.736651 0.769639
0.686277 0.762068 0.792067
0.731745 0.782095 0.808520
0.783088 0.798028 0.826148
0.841345 0.812290 0.838819
0.552606 0.683869 0.719951
0.602623 0.720342 0.751595
0.647300 0.751283 0.779102
0.688480 0.777711 0.802519
0.727741 0.800273 0.821615
0.766285 0.817672 0.833869
0.807778 0.830311 0.841203
0.860090 0.841295 0.846766
0.610047 0.729188 0.756518
0.657315 0.763694 0.786978
0.697935 0.791713 0.812251
0.734349 0.815129 0.832844
0.768670 0.835334 0.849005
0.802720 0.851998 0.859072
0.837835 0.864479 0.861554
0.879102 0.875285 0.862268
