filters/luts/Depression 05_S.cube
# Created by: Adobe Photoshop Export Color Lookup Plugin
# LUT by SparkleStock. Enhanced with VOXCOLOR algorithms.
LUT_3D_SIZE 32
0.015629 0.007814 0.007814
0.022340 0.012210 0.011359
0.029052 0.016606 0.014904
0.035764 0.021001 0.018449
0.042475 0.025397 0.021994
0.049187 0.029792 0.025539
0.060034 0.034936 0.029517
0.071708 0.040230 0.033581
0.083383 0.045524 0.037646
0.095057 0.050817 0.041711
0.106731 0.056111 0.045776
0.122187 0.062444 0.049777
0.139533 0.069298 0.053748
0.156879 0.076151 0.057718
0.174225 0.083004 0.061688
0.191571 0.089858 0.065658
0.210902 0.097704 0.069581
0.232219 0.106542 0.073457
0.253535 0.115381 0.077333
0.274851 0.124219 0.081208
0.296168 0.133058 0.085084
0.317846 0.142574 0.089054
0.340250 0.153444 0.093214
0.362653 0.164315 0.097373
0.385057 0.175186 0.101532
0.407460 0.186057 0.105691
0.429414 0.197148 0.110048
0.449124 0.209343 0.115389
0.468833 0.221537 0.120729
0.488542 0.233731 0.126070
0.508252 0.245925 0.131411
0.527961 0.258120 0.136752
0.017756 0.013250 0.010508
0.026279 0.019246 0.013815
0.034801 0.025243 0.017122
0.043324 0.031239 0.020429
0.051847 0.037236 0.023736
0.060370 0.043232 0.027043
0.072586 0.048857 0.030845
0.085541 0.054406 0.034745
0.098497 0.059956 0.038645
0.111452 0.065506 0.042545
0.124407 0.071056 0.046445
0.140911 0.077523 0.050465
0.159190 0.084450 0.054545
0.177470 0.091376 0.058625
0.195749 0.098303 0.062705
0.214028 0.105229 0.066785
0.233913 0.113080 0.071005
0.255403 0.121854 0.075366
0.276893 0.130629 0.079726
0.298383 0.139403 0.084087
0.319873 0.148178 0.088447
0.341415 0.157630 0.093025
0.363059 0.168436 0.098035
0.384703 0.179243 0.103045
0.406347 0.190050 0.108055
0.427991 0.200857 0.113065
0.449070 0.211906 0.118316
0.467325 0.224164 0.124773
0.485580 0.236422 0.131230
0.503835 0.248680 0.137687
0.522089 0.260939 0.144144
0.540344 0.273197 0.150601
0.019883 0.018685 0.013203
0.030217 0.026283 0.016272
0.040551 0.033880 0.019341
0.050885 0.041477 0.022410
0.061219 0.049075 0.025479
0.071553 0.056672 0.028548
0.085139 0.062777 0.032173
0.099375 0.068583 0.035908
0.113611 0.074389 0.039644
0.127846 0.080194 0.043379
0.142082 0.086000 0.047114
0.159636 0.092602 0.051153
0.178848 0.099602 0.055342
0.198060 0.106602 0.059532
0.217272 0.113601 0.063722
0.236485 0.120601 0.067912
0.256923 0.128456 0.072429
0.278587 0.137167 0.077275
0.300251 0.145877 0.082120
0.321915 0.154587 0.086966
0.343579 0.163298 0.091811
0.364983 0.172686 0.096995
0.385868 0.183428 0.102856
0.406752 0.194171 0.108716
0.427637 0.204914 0.114577
0.448522 0.215657 0.120438
0.468726 0.226663 0.126584
0.485526 0.238985 0.134157
0.502327 0.251307 0.141730
0.519127 0.263630 0.149303
0.535927 0.275952 0.156876
0.552728 0.288274 0.164449
0.022010 0.024121 0.015897
0.034155 0.033319 0.018728
0.046300 0.042517 0.021559
0.058446 0.051716 0.024391
0.070591 0.060914 0.027222
0.082737 0.070112 0.030053
0.097692 0.076697 0.033501
0.113208 0.082759 0.037071
0.128725 0.088821 0.040642
0.144241 0.094883 0.044213
0.159758 0.100945 0.047784
0.178360 0.107681 0.051840
0.198505 0.114754 0.056140
0.218651 0.121827 0.060439
0.238796 0.128900 0.064739
0.258941 0.135973 0.069039
0.279933 0.143832 0.073853
0.301771 0.152479 0.079184
0.323609 0.161125 0.084514
0.345446 0.169772 0.089844
0.367284 0.178418 0.095174
0.388551 0.187742 0.100965
0.408677 0.198420 0.107677
0.428802 0.209099 0.114388
0.448928 0.219778 0.121100
0.469053 0.230457 0.127811
0.488382 0.241420 0.134852
0.503728 0.253806 0.143541
0.519074 0.266193 0.152231
0.534419 0.278579 0.160920
0.549765 0.290965 0.169609
0.565111 0.303352 0.178298
0.024136 0.029556 0.018591
0.038093 0.040355 0.021184
0.052050 0.051154 0.023778
0.066007 0.061954 0.026371
0.079964 0.072753 0.028965
0.093920 0.083552 0.031558
0.110244 0.090617 0.034829
0.127041 0.096935 0.038235
0.143839 0.103254 0.041641
0.160636 0.109572 0.045047
0.177433 0.115890 0.048453
0.197084 0.122760 0.052528
0.218163 0.129906 0.056937
0.239241 0.137052 0.061347
0.260320 0.144198 0.065756
0.281398 0.151344 0.070165
0.302943 0.159209 0.075277
0.324955 0.167791 0.081093
0.346966 0.176373 0.086908
0.368978 0.184956 0.092723
0.390989 0.193538 0.098538
0.412119 0.202798 0.104935
0.431486 0.213412 0.112498
0.450852 0.224027 0.120060
0.470218 0.234642 0.127622
0.489584 0.245257 0.135185
0.508038 0.256177 0.143121
0.521929 0.268628 0.152926
0.535821 0.281078 0.162731
0.549712 0.293528 0.172536
0.563603 0.305979 0.182341
0.577494 0.318429 0.192146
0.026263 0.034992 0.021285
0.042031 0.047392 0.023640
0.057799 0.059792 0.025996
0.073568 0.072192 0.028352
0.089336 0.084592 0.030707
0.105104 0.096992 0.033063
0.122797 0.104537 0.036157
0.140875 0.111112 0.039398
0.158953 0.117686 0.042639
0.177030 0.124260 0.045881
0.195108 0.130835 0.049122
0.215809 0.137839 0.053216
0.237820 0.145058 0.057735
0.259832 0.152278 0.062254
0.281843 0.159497 0.066773
0.303855 0.166716 0.071292
0.325953 0.174585 0.076701
0.348139 0.183103 0.083001
0.370324 0.191621 0.089301
0.392510 0.200140 0.095601
0.414695 0.208658 0.101901
0.435688 0.217854 0.108905
0.454295 0.228404 0.117319
0.472902 0.238955 0.125732
0.491509 0.249506 0.134145
0.510116 0.260056 0.142558
0.527694 0.270934 0.151389
0.540131 0.283449 0.162310
0.552567 0.295963 0.173231
0.565004 0.308478 0.184152
0.577441 0.320992 0.195074
0.589878 0.333507 0.205995
0.029532 0.042357 0.025200
0.045724 0.055016 0.027668
0.061916 0.067675 0.030137
0.078108 0.080335 0.032605
0.094300 0.092994 0.035074
0.110492 0.105653 0.037542
0.129463 0.114599 0.040676
0.148989 0.122801 0.043944
0.168515 0.131004 0.047211
0.188042 0.139207 0.050478
0.207568 0.147410 0.053746
0.229074 0.155061 0.057941
0.251568 0.162438 0.062600
0.274063 0.169814 0.067260
0.296558 0.177190 0.071919
0.319053 0.184567 0.076579
0.341522 0.192539 0.082312
0.363965 0.201108 0.089120
0.386408 0.209676 0.095927
0.408851 0.218245 0.102735
0.431294 0.226813 0.109542
0.452404 0.236049 0.117174
0.470846 0.246620 0.126453
0.489288 0.257190 0.135732
0.507731 0.267761 0.145011
0.526173 0.278331 0.154290
0.543516 0.289249 0.164023
0.555359 0.301904 0.176022
0.567203 0.314559 0.188021
0.579046 0.327213 0.200020
0.590890 0.339868 0.212019
0.602733 0.352523 0.224018
0.033030 0.050108 0.029359
0.049368 0.062758 0.032011
0.065707 0.075409 0.034662
0.082045 0.088059 0.037313
0.098383 0.100709 0.039965
0.114722 0.113359 0.042616
0.134952 0.123889 0.045834
0.155960 0.133994 0.049166
0.176968 0.144099 0.052497
0.197977 0.154205 0.055828
0.218985 0.164310 0.059160
0.241246 0.172712 0.063474
0.264135 0.180262 0.068280
0.287023 0.187813 0.073085
0.309911 0.195363 0.077891
0.332799 0.202913 0.082697
0.355602 0.211009 0.088760
0.378320 0.219651 0.096080
0.401037 0.228292 0.103400
0.423755 0.236934 0.110720
0.446472 0.245576 0.118039
0.467749 0.254873 0.126302
0.486146 0.265480 0.136450
0.504543 0.276087 0.146598
0.522939 0.286694 0.156747
0.541336 0.297301 0.166895
0.558570 0.308275 0.177530
0.569993 0.321086 0.190599
0.581416 0.333896 0.203669
0.592838 0.346706 0.216738
0.604261 0.359516 0.229807
0.615684 0.372327 0.242877
0.036528 0.057860 0.033518
0.053012 0.070501 0.036353
0.069497 0.083142 0.039187
0.085982 0.095783 0.042022
0.102466 0.108424 0.044856
0.118951 0.121065 0.047690
0.140440 0.133178 0.050992
0.162931 0.145187 0.054388
0.185421 0.157195 0.057783
0.207911 0.169203 0.061178
0.230402 0.181211 0.064574
0.253419 0.190363 0.069007
0.276701 0.198087 0.073959
0.299983 0.205811 0.078911
0.323264 0.213535 0.083863
0.346546 0.221259 0.088815
0.369683 0.229479 0.095208
0.392675 0.238194 0.103040
0.415666 0.246909 0.110872
0.438658 0.255624 0.118704
0.461650 0.264339 0.126536
0.483095 0.273696 0.135430
0.501446 0.284340 0.146447
0.519797 0.294984 0.157465
0.538148 0.305627 0.168482
0.556499 0.316271 0.179499
0.573625 0.327302 0.191037
0.584627 0.340268 0.205176
0.595629 0.353233 0.219316
0.606631 0.366199 0.233456
0.617632 0.379165 0.247596
0.628634 0.392130 0.261735
0.040025 0.065611 0.037678
0.056656 0.078243 0.040695
0.073287 0.090875 0.043712
0.089918 0.103507 0.046730
0.106549 0.116138 0.049747
0.123180 0.128770 0.052764
0.145929 0.142468 0.056150
0.169901 0.156379 0.059610
0.193874 0.170290 0.063069
0.217846 0.184201 0.066528
0.241818 0.198112 0.069988
0.265592 0.208014 0.074540
0.289267 0.215912 0.079639
0.312942 0.223810 0.084737
0.336617 0.231708 0.089835
0.360292 0.239605 0.094934
0.383763 0.247948 0.101655
0.407029 0.256737 0.110000
0.430296 0.265525 0.118344
0.453562 0.274313 0.126689
0.476828 0.283101 0.135033
0.498441 0.292520 0.144558
0.516746 0.303200 0.156445
0.535051 0.313880 0.168331
0.553356 0.324561 0.180217
0.571661 0.335241 0.192104
0.588679 0.346328 0.204544
0.599260 0.359449 0.219754
0.609841 0.372571 0.234964
0.620423 0.385692 0.250174
0.631004 0.398813 0.265384
0.641585 0.411934 0.280594
0.043523 0.073362 0.041837
0.060300 0.085985 0.045037
0.077078 0.098608 0.048238
0.093855 0.111231 0.051438
0.110632 0.123853 0.054638
0.127410 0.136476 0.057838
0.151418 0.151758 0.061308
0.176872 0.167572 0.064831
0.202326 0.183385 0.068355
0.227781 0.199199 0.071878
0.253235 0.215013 0.075402
0.277765 0.225665 0.080073
0.301834 0.233737 0.085318
0.325902 0.241809 0.090563
0.349970 0.249880 0.095808
0.374039 0.257952 0.101052
0.397843 0.266418 0.108103
0.421384 0.275279 0.116960
0.444925 0.284141 0.125817
0.468466 0.293002 0.134674
0.492006 0.301864 0.143530
0.513787 0.311343 0.153687
0.532046 0.322060 0.166442
0.550305 0.332777 0.179197
0.568565 0.343494 0.191953
0.586824 0.354211 0.204708
0.603734 0.365354 0.218051
0.613894 0.378631 0.234331
0.624054 0.391908 0.250611
0.634215 0.405185 0.266892
0.644375 0.418461 0.283172
0.654535 0.431738 0.299453
0.047808 0.082658 0.047131
0.064775 0.095259 0.050569
0.081741 0.107861 0.054007
0.098707 0.120462 0.057445
0.115674 0.133063 0.060883
0.132640 0.145665 0.064321
0.157305 0.161426 0.068077
0.183509 0.177819 0.071896
0.209714 0.194212 0.075716
0.235918 0.210605 0.079535
0.262123 0.226998 0.083354
0.287214 0.238635 0.088396
0.311749 0.247892 0.094050
0.336284 0.257150 0.099703
0.360819 0.266408 0.105357
0.385354 0.275666 0.111010
0.409440 0.284789 0.118454
0.433079 0.293779 0.127689
0.456717 0.302768 0.136924
0.480355 0.311758 0.146159
0.503994 0.320747 0.155394
0.525856 0.330333 0.166031
0.544168 0.341110 0.179472
0.562479 0.351888 0.192914
0.580790 0.362666 0.206355
0.599101 0.373444 0.219796
0.616040 0.384655 0.233844
0.626115 0.398032 0.250920
0.636190 0.411410 0.267996
0.646265 0.424787 0.285072
0.656340 0.438165 0.302149
0.666415 0.451542 0.319225
0.052487 0.092725 0.052991
0.069664 0.105299 0.056695
0.086841 0.117873 0.060398
0.104018 0.130447 0.064102
0.121195 0.143021 0.067805
0.138372 0.155595 0.071508
0.163392 0.171283 0.075652
0.189980 0.187594 0.079882
0.216569 0.203904 0.084113
0.243157 0.220215 0.088344
0.269746 0.236526 0.092575
0.295301 0.249263 0.098114
0.320339 0.260213 0.104308
0.345377 0.271163 0.110501
0.370415 0.282114 0.116694
0.395453 0.293064 0.122887
0.419796 0.303111 0.130757
0.443443 0.312256 0.140303
0.467091 0.321401 0.149848
0.490738 0.330546 0.159394
0.514386 0.339691 0.168940
0.536288 0.349405 0.179983
0.554700 0.360256 0.194019
0.573112 0.371107 0.208055
0.591524 0.381958 0.222091
0.609935 0.392809 0.236127
0.626972 0.404093 0.250780
0.637129 0.417544 0.268515
0.647286 0.430994 0.286249
0.657443 0.444445 0.303984
0.667601 0.457895 0.321719
0.677758 0.471346 0.339454
0.057166 0.102793 0.058852
0.074554 0.115339 0.062821
0.091941 0.127885 0.066790
0.109328 0.140432 0.070758
0.126716 0.152978 0.074727
0.144103 0.165525 0.078696
0.169478 0.181140 0.083226
0.196451 0.197368 0.087869
0.223424 0.213597 0.092511
0.250396 0.229825 0.097154
0.277369 0.246054 0.101796
0.303388 0.259892 0.107833
0.328929 0.272534 0.114565
0.354470 0.285177 0.121298
0.380011 0.297819 0.128031
0.405552 0.310462 0.134764
0.430151 0.321433 0.143059
0.453808 0.330734 0.152916
0.477465 0.340034 0.162773
0.501121 0.349334 0.172630
0.524778 0.358635 0.182487
0.546720 0.368477 0.193935
0.565232 0.379401 0.208566
0.583745 0.390325 0.223196
0.602257 0.401249 0.237827
0.620770 0.412173 0.252458
0.637903 0.423531 0.267716
0.648143 0.437055 0.286109
0.658383 0.450578 0.304503
0.668622 0.464102 0.322896
0.678862 0.477626 0.341290
0.689102 0.491150 0.359683
0.061846 0.112860 0.064713
0.079443 0.125379 0.068947
0.097041 0.137898 0.073181
0.114639 0.150417 0.077415
0.132236 0.162936 0.081649
0.149834 0.175455 0.085883
0.175564 0.190997 0.090801
0.202922 0.207143 0.095855
0.230279 0.223289 0.100909
0.257636 0.239435 0.105963
0.284993 0.255581 0.111018
0.311474 0.270520 0.117551
0.337519 0.284855 0.124823
0.363563 0.299190 0.132096
0.389607 0.313525 0.139369
0.415652 0.327860 0.146641
0.440507 0.339755 0.155362
0.464173 0.349211 0.165530
0.487838 0.358667 0.175698
0.511504 0.368123 0.185866
0.535170 0.377579 0.196034
0.557152 0.387549 0.207887
0.575765 0.398546 0.223113
0.594378 0.409543 0.238338
0.612991 0.420541 0.253563
0.631604 0.431538 0.268788
0.648835 0.442969 0.284652
0.659157 0.456566 0.303704
0.669479 0.470163 0.322756
0.679801 0.483760 0.341808
0.690123 0.497357 0.360860
0.700445 0.510954 0.379913
0.066525 0.122927 0.070574
0.084333 0.135419 0.075073
0.102141 0.147910 0.079572
0.119949 0.160402 0.084072
0.137757 0.172894 0.088571
0.155565 0.185385 0.093070
0.181651 0.200854 0.098375
0.209392 0.216917 0.103841
0.237133 0.232981 0.109307
0.264875 0.249045 0.114773
0.292616 0.265109 0.120239
0.319561 0.281148 0.127269
0.346109 0.297176 0.135081
0.372656 0.313203 0.142894
0.399204 0.329230 0.150706
0.425751 0.345257 0.158518
0.450862 0.358077 0.167664
0.474537 0.367688 0.178143
0.498212 0.377300 0.188622
0.521887 0.386911 0.199101
0.545562 0.396523 0.209580
0.567583 0.406621 0.221840
0.586297 0.417691 0.237659
0.605011 0.428762 0.253479
0.623725 0.439832 0.269299
0.642438 0.450903 0.285119
0.659767 0.462407 0.301588
0.670171 0.476077 0.321298
0.680576 0.489747 0.341009
0.690980 0.503417 0.360720
0.701384 0.517087 0.380431
0.711789 0.530757 0.400142
0.071582 0.133633 0.077002
0.089646 0.146165 0.081890
0.107711 0.158698 0.086778
0.125775 0.171231 0.091666
0.143839 0.183764 0.096554
0.161903 0.196296 0.101442
0.188375 0.211741 0.107231
0.216528 0.227768 0.113200
0.244681 0.243796 0.119169
0.272833 0.259823 0.125138
0.300986 0.275850 0.131107
0.328368 0.292408 0.138668
0.355363 0.309231 0.147025
0.382359 0.326054 0.155381
0.409355 0.342877 0.163738
0.436351 0.359701 0.172095
0.461569 0.373227 0.181696
0.485011 0.383456 0.192541
0.508453 0.393685 0.203386
0.531894 0.403914 0.214230
0.555336 0.414143 0.225075
0.577209 0.424681 0.237701
0.595946 0.435838 0.253886
0.614683 0.446996 0.270072
0.633419 0.458153 0.286258
0.652156 0.469311 0.302444
0.669521 0.480886 0.319279
0.680031 0.494552 0.339360
0.690540 0.508218 0.359442
0.701050 0.521883 0.379523
0.711559 0.535549 0.399604
0.722069 0.549214 0.419686
0.077018 0.144976 0.083997
0.095384 0.157619 0.089397
0.113750 0.170261 0.094798
0.132116 0.182904 0.100198
0.150482 0.195546 0.105598
0.168848 0.208189 0.110999
0.195736 0.223659 0.117369
0.224328 0.239696 0.123932
0.252920 0.255732 0.130496
0.281512 0.271769 0.137060
0.310104 0.287805 0.143623
0.337894 0.304299 0.151748
0.365283 0.321021 0.160654
0.392672 0.337744 0.169559
0.420061 0.354466 0.178465
0.447450 0.371189 0.187370
0.472628 0.385204 0.197456
0.495594 0.396513 0.208722
0.518560 0.407821 0.219988
0.541526 0.419130 0.231253
0.564492 0.430438 0.242519
0.586030 0.441730 0.255471
0.604711 0.452988 0.271794
0.623393 0.464246 0.288117
0.642075 0.475504 0.304440
0.660756 0.486762 0.320763
0.678097 0.498408 0.337726
0.688735 0.511991 0.357890
0.699372 0.525574 0.378053
0.710010 0.539158 0.398217
0.720648 0.552741 0.418381
0.731285 0.566324 0.438544
0.082453 0.156320 0.090992
0.101121 0.169072 0.096905
0.119789 0.181824 0.102817
0.138457 0.194577 0.108730
0.157125 0.207329 0.114643
0.175793 0.220081 0.120555
0.203097 0.235578 0.127506
0.232128 0.251623 0.134664
0.261159 0.267669 0.141823
0.290190 0.283714 0.148981
0.319221 0.299760 0.156139
0.347420 0.316190 0.164828
0.375202 0.332812 0.174283
0.402985 0.349434 0.183737
0.430767 0.366055 0.193192
0.458550 0.382677 0.202646
0.483686 0.397182 0.213217
0.506176 0.409570 0.224903
0.528667 0.421958 0.236590
0.551157 0.434346 0.248276
0.573647 0.446734 0.259963
0.594850 0.458779 0.273241
0.613476 0.470137 0.289701
0.632103 0.481496 0.306161
0.650730 0.492855 0.322621
0.669357 0.504214 0.339082
0.686674 0.515929 0.356173
0.697439 0.529430 0.376419
0.708205 0.542931 0.396665
0.718970 0.556432 0.416911
0.729736 0.569933 0.437157
0.740502 0.583434 0.457403
0.087888 0.167663 0.097987
0.106858 0.180525 0.104412
0.125828 0.193387 0.110837
0.144798 0.206249 0.117262
0.163768 0.219111 0.123687
0.182738 0.231973 0.130112
0.210458 0.247496 0.137644
0.239928 0.263551 0.145396
0.269398 0.279605 0.153149
0.298869 0.295660 0.160902
0.328339 0.311715 0.168655
0.356946 0.328081 0.177908
0.385122 0.344602 0.187912
0.413298 0.361123 0.197915
0.441473 0.377644 0.207918
0.469649 0.394166 0.217922
0.494744 0.409160 0.228977
0.516759 0.422627 0.241084
0.538774 0.436095 0.253192
0.560788 0.449562 0.265299
0.582803 0.463029 0.277406
0.603670 0.475827 0.291010
0.622242 0.487287 0.307608
0.640814 0.498746 0.324205
0.659386 0.510205 0.340803
0.677958 0.521665 0.357400
0.695250 0.533451 0.374620
0.706144 0.546869 0.394948
0.717037 0.560288 0.415276
0.727931 0.573706 0.435605
0.738825 0.587125 0.455933
0.749718 0.600544 0.476261
0.093324 0.179007 0.104982
0.112596 0.191978 0.111920
0.131867 0.204950 0.118857
0.151139 0.217922 0.125794
0.170411 0.230894 0.132731
0.189683 0.243866 0.139669
0.217819 0.259414 0.147781
0.247728 0.275478 0.156129
0.277638 0.291542 0.164476
0.307547 0.307606 0.172824
0.337456 0.323670 0.181171
0.366472 0.339971 0.190988
0.395041 0.356392 0.201541
0.423610 0.372813 0.212093
0.452180 0.389233 0.222645
0.480749 0.405654 0.233197
0.505803 0.421138 0.244737
0.527342 0.435684 0.257266
0.548881 0.450231 0.269794
0.570419 0.464778 0.282322
0.591958 0.479325 0.294850
0.612490 0.492876 0.308780
0.631007 0.504436 0.325515
0.649524 0.515996 0.342250
0.668041 0.527556 0.358985
0.686558 0.539116 0.375719
0.703826 0.550972 0.393067
0.714848 0.564308 0.413477
0.725870 0.577645 0.433888
0.736891 0.590981 0.454299
0.747913 0.604317 0.474709
0.758935 0.617653 0.495120
0.098696 0.189814 0.111789
0.118310 0.203049 0.119464
0.137923 0.216283 0.127139
0.157536 0.229517 0.134814
0.177149 0.242751 0.142489
0.196763 0.255985 0.150164
0.225340 0.271686 0.159000
0.255709 0.287881 0.168067
0.286079 0.304076 0.177134
0.316449 0.320271 0.186201
0.346819 0.336466 0.195268
0.376248 0.352769 0.205675
0.405208 0.369126 0.216752
0.434167 0.385482 0.227828
0.463127 0.401839 0.238905
0.492086 0.418195 0.249982
0.517212 0.433976 0.261964
0.538504 0.449182 0.274852
0.559796 0.464387 0.287740
0.581088 0.479593 0.300628
0.602379 0.494798 0.313516
0.622644 0.508846 0.327685
0.640853 0.520580 0.344417
0.659062 0.532314 0.361149
0.677271 0.544048 0.377880
0.695480 0.555782 0.394612
0.712506 0.567767 0.411943
0.723616 0.581009 0.432271
0.734726 0.594250 0.452600
0.745837 0.607492 0.472928
0.756947 0.620734 0.493256
0.768057 0.633975 0.513585
0.103943 0.199551 0.118217
0.123977 0.213352 0.127081
0.144011 0.227153 0.135945
0.164045 0.240955 0.144810
0.184079 0.254756 0.153674
0.204113 0.268557 0.162539
0.233179 0.284666 0.172380
0.264052 0.301236 0.182417
0.294925 0.317806 0.192454
0.325798 0.334376 0.202491
0.356671 0.350946 0.212527
0.386525 0.367380 0.223575
0.415868 0.383746 0.235127
0.445212 0.400111 0.246679
0.474556 0.416477 0.258232
0.503899 0.432843 0.269784
0.529322 0.448537 0.282123
0.550825 0.463559 0.295249
0.572327 0.478582 0.308375
0.593829 0.493604 0.321501
0.615332 0.508627 0.334627
0.635465 0.522660 0.348860
0.652860 0.534714 0.365308
0.670254 0.546768 0.381756
0.687649 0.558822 0.398204
0.705044 0.570876 0.414652
0.721393 0.583108 0.431678
0.732513 0.596231 0.451595
0.743632 0.609354 0.471512
0.754751 0.622476 0.491428
0.765871 0.635599 0.511345
0.776990 0.648722 0.531262
0.109189 0.209287 0.124645
0.129644 0.223656 0.134698
0.150099 0.238024 0.144752
0.170554 0.252393 0.154805
0.191009 0.266761 0.164859
0.211463 0.281130 0.174913
0.241019 0.297645 0.185760
0.272395 0.314590 0.196767
0.303771 0.331536 0.207773
0.335147 0.348481 0.218780
0.366523 0.365426 0.229787
0.396801 0.381991 0.241474
0.426529 0.398366 0.253502
0.456257 0.414740 0.265530
0.485984 0.431115 0.277558
0.515712 0.447490 0.289586
0.541433 0.463097 0.302282
0.563145 0.477937 0.315646
0.584858 0.492777 0.329010
0.606571 0.507616 0.342373
0.628284 0.522456 0.355737
0.648286 0.536473 0.370034
0.664866 0.548848 0.386199
0.681447 0.561222 0.402363
0.698028 0.573596 0.418528
0.714608 0.585970 0.434692
0.730280 0.598449 0.451413
0.741409 0.611453 0.470918
0.752537 0.624457 0.490423
0.763666 0.637461 0.509928
0.774795 0.650465 0.529433
0.785923 0.663468 0.548939
0.114435 0.219024 0.131073
0.135311 0.233960 0.142315
0.156187 0.248895 0.153558
0.177062 0.263831 0.164801
0.197938 0.278766 0.176044
0.218814 0.293702 0.187287
0.248859 0.310625 0.199141
0.280738 0.327945 0.211117
0.312617 0.345265 0.223093
0.344497 0.362585 0.235070
0.376376 0.379905 0.247046
0.407077 0.396602 0.259374
0.437189 0.412986 0.271877
0.467301 0.429370 0.284381
0.497413 0.445754 0.296885
0.527525 0.462138 0.309389
0.553543 0.477658 0.322441
0.575466 0.492315 0.336043
0.597389 0.506971 0.349644
0.619312 0.521628 0.363246
0.641236 0.536284 0.376847
0.661106 0.550287 0.391209
0.676873 0.562981 0.407090
0.692640 0.575676 0.422971
0.708406 0.588370 0.438851
0.724173 0.601064 0.454732
0.739168 0.613790 0.471149
0.750305 0.626675 0.490242
0.761443 0.639560 0.509335
0.772581 0.652445 0.528429
0.783718 0.665330 0.547522
0.794856 0.678215 0.566615
0.119682 0.228760 0.137500
0.140978 0.244263 0.149933
0.162275 0.259766 0.162365
0.183571 0.275269 0.174797
0.204868 0.290772 0.187229
0.226164 0.306274 0.199661
0.256699 0.323604 0.212521
0.289081 0.341299 0.225467
0.321464 0.358995 0.238413
0.353846 0.376690 0.251359
0.386228 0.394385 0.264305
0.417353 0.411212 0.277273
0.447850 0.427606 0.290253
0.478346 0.443999 0.303232
0.508842 0.460392 0.316212
0.539338 0.476785 0.329191
0.565653 0.492218 0.342600
0.587787 0.506692 0.356440
0.609920 0.521166 0.370279
0.632054 0.535639 0.384119
0.654188 0.550113 0.397958
0.673927 0.564100 0.412383
0.688880 0.577115 0.427981
0.703832 0.590129 0.443578
0.718784 0.603144 0.459175
0.733737 0.616158 0.474773
0.748055 0.629131 0.490884
0.759202 0.641897 0.509566
0.770349 0.654664 0.528247
0.781495 0.667430 0.546929
0.792642 0.680196 0.565611
0.803789 0.692962 0.584292
0.124589 0.237434 0.143416
0.146351 0.253668 0.157259
0.168112 0.269903 0.171101
0.189874 0.286137 0.184944
0.211635 0.302372 0.198786
0.233397 0.318607 0.212629
0.264436 0.336464 0.226646
0.297331 0.354645 0.240699
0.330225 0.372827 0.254752
0.363120 0.391009 0.268805
0.396015 0.409190 0.282858
0.427557 0.426217 0.296521
0.458424 0.442667 0.309990
0.489291 0.459116 0.323459
0.520158 0.475566 0.336928
0.551025 0.492015 0.350397
0.577615 0.507375 0.364114
0.599928 0.521644 0.378080
0.622242 0.535914 0.392046
0.644555 0.550183 0.406012
0.666868 0.564452 0.419978
0.686497 0.578368 0.434373
0.700756 0.591578 0.449627
0.715014 0.604788 0.464882
0.729273 0.617997 0.480136
0.743532 0.631207 0.495390
0.757274 0.644328 0.511144
0.768433 0.657007 0.529396
0.779592 0.669687 0.547647
0.790751 0.682366 0.565899
0.801910 0.695045 0.584151
0.813069 0.707724 0.602403
0.127803 0.240789 0.146772
0.150251 0.258579 0.163130
0.172699 0.276369 0.179488
0.195146 0.294159 0.195847
0.217594 0.311948 0.212205
0.240041 0.329738 0.228563
0.271660 0.348724 0.244494
0.305113 0.367948 0.260340
0.338565 0.387172 0.276186
0.372018 0.406397 0.292031
0.405470 0.425621 0.307877
0.437400 0.443191 0.322511
0.468569 0.459933 0.336537
0.499738 0.476676 0.350564
0.530907 0.493418 0.364591
0.562075 0.510160 0.378618
0.588830 0.525511 0.392400
0.611171 0.539469 0.405936
0.633512 0.553427 0.419471
0.655853 0.567386 0.433007
