filters/luts/Depression 02.cube
# LUT by SparkleStock. Enhanced with VOXCOLOR algorithms.
LUT_3D_SIZE 32
0.082051 0.085958 0.089866
0.090874 0.090535 0.094332
0.099697 0.095112 0.098799
0.108519 0.099689 0.103265
0.117342 0.104266 0.107732
0.126890 0.108842 0.112072
0.136981 0.113419 0.116318
0.147072 0.117996 0.120564
0.157163 0.122573 0.124810
0.167443 0.127213 0.129072
0.178857 0.132230 0.133428
0.190271 0.137248 0.137784
0.201686 0.142266 0.142140
0.213100 0.147284 0.146497
0.225263 0.152932 0.150932
0.237725 0.158833 0.155398
0.250187 0.164733 0.159865
0.262649 0.170633 0.164331
0.275332 0.176832 0.168734
0.288566 0.183780 0.172980
0.301800 0.190728 0.177226
0.315034 0.197676 0.181472
0.328268 0.204624 0.185718
0.341833 0.212328 0.189917
0.355453 0.220158 0.194108
0.369073 0.227988 0.198298
0.382693 0.235819 0.202489
0.396195 0.243909 0.207011
0.409540 0.252346 0.211974
0.422884 0.260782 0.216936
0.436228 0.269219 0.221899
0.449573 0.277656 0.226862
0.085580 0.091528 0.093284
0.095461 0.096827 0.097477
0.105343 0.102126 0.101670
0.115224 0.107425 0.105862
0.125105 0.112724 0.110055
0.135291 0.117759 0.114377
0.145705 0.122598 0.118798
0.156120 0.127436 0.123218
0.166535 0.132274 0.127638
0.177144 0.137172 0.132080
0.188920 0.142426 0.136647
0.200695 0.147681 0.141215
0.212470 0.152935 0.145783
0.224246 0.158190 0.150351
0.236708 0.163986 0.155024
0.249444 0.169998 0.159740
0.262180 0.176010 0.164456
0.274916 0.182022 0.169171
0.287822 0.188298 0.173831
0.301156 0.195234 0.178351
0.314490 0.202169 0.182870
0.327823 0.209105 0.187390
0.341157 0.216040 0.191910
0.354619 0.223689 0.196372
0.368102 0.231457 0.200824
0.381585 0.239225 0.205277
0.395068 0.246993 0.209729
0.408326 0.255021 0.214469
0.421285 0.263395 0.219594
0.434243 0.271770 0.224719
0.447202 0.280144 0.229843
0.460160 0.288519 0.234968
0.089109 0.097097 0.096703
0.100049 0.103118 0.100622
0.110988 0.109139 0.104541
0.121928 0.115161 0.108459
0.132867 0.121182 0.112378
0.143692 0.126676 0.116683
0.154430 0.131776 0.121277
0.165169 0.136876 0.125872
0.175907 0.141976 0.130466
0.186845 0.147131 0.135087
0.198982 0.152622 0.139867
0.211119 0.158113 0.144647
0.223255 0.163605 0.149426
0.235392 0.169096 0.154206
0.248152 0.175039 0.159117
0.261162 0.181163 0.164082
0.274172 0.187288 0.169047
0.287182 0.193412 0.174011
0.300313 0.199764 0.178927
0.313746 0.206687 0.183721
0.327180 0.213610 0.188514
0.340613 0.220533 0.193308
0.354046 0.227456 0.198102
0.367405 0.235050 0.202827
0.380751 0.242756 0.207541
0.394097 0.250462 0.212255
0.407443 0.258167 0.216968
0.420458 0.266133 0.221928
0.433030 0.274445 0.227214
0.445602 0.282757 0.232501
0.458175 0.291069 0.237787
0.470747 0.299382 0.243074
0.092639 0.102667 0.100122
0.104636 0.109410 0.103767
0.116634 0.116153 0.107412
0.128632 0.122897 0.111056
0.140630 0.129640 0.114701
0.152093 0.135593 0.118988
0.163155 0.140955 0.123757
0.174217 0.146316 0.128526
0.185280 0.151677 0.133295
0.196547 0.157091 0.138095
0.209045 0.162818 0.143087
0.221542 0.168546 0.148078
0.234040 0.174274 0.153069
0.246538 0.180001 0.158060
0.259597 0.186092 0.163210
0.272881 0.192329 0.168424
0.286165 0.198565 0.173638
0.299448 0.204801 0.178851
0.312803 0.211230 0.184023
0.326336 0.218141 0.189091
0.339869 0.225051 0.194159
0.353402 0.231962 0.199226
0.366935 0.238873 0.204294
0.380191 0.246411 0.209282
0.393400 0.254055 0.214258
0.406609 0.261698 0.219233
0.419818 0.269341 0.224208
0.432589 0.277245 0.229386
0.444775 0.285495 0.234834
0.456962 0.293745 0.240283
0.469148 0.301995 0.245731
0.481334 0.310245 0.251180
0.096168 0.108236 0.103541
0.109224 0.115701 0.106912
0.122280 0.123167 0.110282
0.135336 0.130632 0.113653
0.148392 0.138098 0.117024
0.160494 0.144510 0.121293
0.171880 0.150133 0.126237
0.183266 0.155756 0.131180
0.194652 0.161378 0.136123
0.206248 0.167050 0.141103
0.219107 0.173014 0.146306
0.231966 0.178978 0.151509
0.244825 0.184943 0.156712
0.257683 0.190907 0.161915
0.271041 0.197146 0.167303
0.284599 0.203494 0.172766
0.298157 0.209842 0.178229
0.311715 0.216191 0.183691
0.325294 0.222696 0.189119
0.338927 0.229594 0.194461
0.352559 0.236493 0.199803
0.366192 0.243391 0.205144
0.379824 0.250289 0.210486
0.392976 0.257772 0.215738
0.406049 0.265353 0.220974
0.419121 0.272935 0.226211
0.432193 0.280516 0.231448
0.444720 0.288357 0.236845
0.456521 0.296544 0.242455
0.468321 0.304732 0.248065
0.480121 0.312920 0.253675
0.491922 0.321108 0.259286
0.100264 0.114183 0.107054
0.113745 0.121944 0.110357
0.127227 0.129705 0.113661
0.140708 0.137466 0.116964
0.154189 0.145226 0.120267
0.167004 0.152114 0.124574
0.179318 0.158347 0.129635
0.191633 0.164580 0.134696
0.203947 0.170813 0.139756
0.216368 0.177039 0.144861
0.229424 0.183225 0.150233
0.242480 0.189412 0.155605
0.255536 0.195599 0.160977
0.268592 0.201785 0.166349
0.282172 0.208233 0.171974
0.295961 0.214786 0.177700
0.309750 0.221339 0.183425
0.323539 0.227892 0.189151
0.337328 0.234589 0.194868
0.351117 0.241646 0.200562
0.364906 0.248702 0.206256
0.378695 0.255758 0.211950
0.392484 0.262815 0.217643
0.405670 0.270432 0.223285
0.418754 0.278143 0.228919
0.431839 0.285854 0.234552
0.444924 0.293565 0.240186
0.457390 0.301548 0.245964
0.469032 0.309894 0.251935
0.480674 0.318240 0.257906
0.492316 0.326586 0.263878
0.503958 0.334932 0.269849
0.104786 0.120414 0.110638
0.118217 0.128150 0.114029
0.131649 0.135886 0.117419
0.145080 0.143622 0.120809
0.158512 0.151358 0.124200
0.172095 0.158733 0.128587
0.185791 0.165837 0.133723
0.199488 0.172942 0.138858
0.213184 0.180046 0.143993
0.226800 0.187050 0.149182
0.239931 0.193448 0.154691
0.253062 0.199846 0.160200
0.266193 0.206245 0.165709
0.279324 0.212643 0.171217
0.293067 0.219347 0.177077
0.307055 0.226174 0.183077
0.321044 0.233001 0.189077
0.335032 0.239828 0.195076
0.349020 0.246802 0.201106
0.363008 0.254145 0.207211
0.376997 0.261488 0.213316
0.390985 0.268831 0.219420
0.404973 0.276173 0.225525
0.418294 0.284067 0.231653
0.431503 0.292052 0.237784
0.444712 0.300036 0.243916
0.457921 0.308021 0.250047
0.470464 0.316300 0.256329
0.482119 0.324970 0.262811
0.493773 0.333639 0.269292
0.505428 0.342309 0.275774
0.517082 0.350979 0.282256
0.109307 0.126645 0.114223
0.122689 0.134356 0.117700
0.136071 0.142067 0.121178
0.149452 0.149778 0.124655
0.162834 0.157489 0.128133
0.177185 0.165352 0.132600
0.192264 0.173328 0.137810
0.207343 0.181304 0.143020
0.222421 0.189280 0.148230
0.237233 0.197061 0.153503
0.250438 0.203671 0.159148
0.263644 0.210281 0.164794
0.276849 0.216890 0.170440
0.290055 0.223500 0.176086
0.303962 0.230461 0.182180
0.318149 0.237562 0.188454
0.332337 0.244663 0.194728
0.346524 0.251764 0.201001
0.360712 0.259015 0.207344
0.374899 0.266645 0.213860
0.389087 0.274274 0.220376
0.403274 0.281903 0.226891
0.417462 0.289532 0.233407
0.430918 0.297701 0.240020
0.444251 0.305960 0.246650
0.457585 0.314219 0.253279
0.470919 0.322477 0.259909
0.483538 0.331051 0.266694
0.495205 0.340045 0.273686
0.506872 0.349038 0.280678
0.518539 0.358032 0.287671
0.530206 0.367025 0.294663
0.113829 0.132876 0.117807
0.127161 0.140563 0.121372
0.140493 0.148249 0.124936
0.153825 0.155935 0.128501
0.167156 0.163621 0.132066
0.182276 0.171971 0.136613
0.198737 0.180818 0.141898
0.215198 0.189666 0.147183
0.231659 0.198513 0.152467
0.247665 0.207072 0.157823
0.260945 0.213893 0.163606
0.274226 0.220715 0.169389
0.287506 0.227536 0.175172
0.300786 0.234358 0.180954
0.314857 0.241575 0.187284
0.329244 0.248950 0.193831
0.343630 0.256324 0.200379
0.358017 0.263699 0.206927
0.372404 0.271228 0.213582
0.386791 0.279144 0.220509
0.401177 0.287060 0.227436
0.415564 0.294975 0.234362
0.429951 0.302891 0.241289
0.443542 0.311335 0.248387
0.457000 0.319868 0.255515
0.470458 0.328401 0.262643
0.483916 0.336934 0.269770
0.496612 0.345803 0.277059
0.508292 0.355120 0.284561
0.519971 0.364437 0.292064
0.531650 0.373754 0.299567
0.543330 0.383071 0.307070
0.118547 0.139249 0.121501
0.131828 0.146918 0.125159
0.145108 0.154586 0.128816
0.158388 0.162254 0.132473
0.171669 0.169922 0.136130
0.187455 0.178692 0.140757
0.205120 0.188286 0.146111
0.222785 0.197881 0.151465
0.240450 0.207476 0.156819
0.257522 0.216720 0.162260
0.271037 0.223860 0.168221
0.284552 0.231000 0.174181
0.298067 0.238140 0.180142
0.311582 0.245280 0.186103
0.325841 0.252781 0.192668
0.340396 0.260426 0.199476
0.354952 0.268071 0.206283
0.369508 0.275716 0.213090
0.384069 0.283524 0.220049
0.398644 0.291738 0.227387
0.413220 0.299953 0.234724
0.427795 0.308167 0.242061
0.442370 0.316381 0.249399
0.456099 0.325122 0.256991
0.469687 0.333950 0.264625
0.483275 0.342778 0.272260
0.496863 0.351606 0.279894
0.509647 0.360791 0.287697
0.521359 0.370451 0.295725
0.533070 0.380112 0.303753
0.544782 0.389772 0.311780
0.556493 0.399433 0.319808
0.124448 0.146473 0.125858
0.137666 0.154166 0.129639
0.150884 0.161859 0.133421
0.164102 0.169552 0.137203
0.177320 0.177246 0.140984
0.193157 0.186025 0.145686
0.210959 0.195620 0.151077
0.228761 0.205215 0.156469
0.246563 0.214810 0.161860
0.263924 0.224191 0.167394
0.278634 0.232289 0.173778
0.293344 0.240388 0.180162
0.308055 0.248487 0.186546
0.322765 0.256586 0.192930
0.337356 0.264538 0.199741
0.351900 0.272432 0.206722
0.366443 0.280327 0.213704
0.380986 0.288221 0.220686
0.395574 0.296313 0.227886
0.410274 0.304901 0.235635
0.424974 0.313489 0.243383
0.439674 0.322077 0.251131
0.454373 0.330665 0.258880
0.468259 0.339822 0.267011
0.482009 0.349073 0.275206
0.495759 0.358324 0.283400
0.509509 0.367576 0.291595
0.522449 0.377200 0.299980
0.534310 0.387321 0.308618
0.546171 0.397442 0.317255
0.558032 0.407564 0.325893
0.569892 0.417685 0.334531
0.130348 0.153696 0.130214
0.143504 0.161415 0.134120
0.156659 0.169133 0.138026
0.169815 0.176851 0.141932
0.182971 0.184569 0.145839
0.198860 0.193359 0.150615
0.216799 0.202954 0.156044
0.234738 0.212549 0.161473
0.252677 0.222143 0.166901
0.270325 0.231661 0.172527
0.286231 0.240719 0.179334
0.302137 0.249776 0.186142
0.318043 0.258834 0.192949
0.333949 0.267891 0.199757
0.348872 0.276296 0.206813
0.363403 0.284439 0.213969
0.377934 0.292582 0.221125
0.392465 0.300726 0.228281
0.407079 0.309103 0.235724
0.421904 0.318064 0.243883
0.436728 0.327026 0.252042
0.451552 0.335987 0.260201
0.466376 0.344948 0.268361
0.480419 0.354521 0.277031
0.494330 0.364196 0.285786
0.508242 0.373871 0.294541
0.522154 0.383546 0.303296
0.535251 0.393609 0.312262
0.547261 0.404191 0.321510
0.559271 0.414773 0.330758
0.571282 0.425355 0.340006
0.583292 0.435937 0.349254
0.136248 0.160920 0.134570
0.149342 0.168663 0.138601
0.162435 0.176406 0.142631
0.175529 0.184149 0.146662
0.188622 0.191892 0.150693
0.204563 0.200693 0.155544
0.222639 0.210288 0.161010
0.240715 0.219883 0.166476
0.258791 0.229477 0.171942
0.276727 0.239132 0.177661
0.293828 0.249149 0.184891
0.310929 0.259165 0.192122
0.328031 0.269181 0.199353
0.345132 0.279197 0.206583
0.360388 0.288054 0.213885
0.374906 0.296446 0.221216
0.389425 0.304838 0.228546
0.403943 0.313230 0.235876
0.418584 0.321892 0.243561
0.433533 0.331227 0.252131
0.448482 0.340562 0.260701
0.463431 0.349897 0.269271
0.478380 0.359232 0.277841
0.492578 0.369221 0.287050
0.506652 0.379319 0.296366
0.520726 0.389417 0.305681
0.534799 0.399515 0.314997
0.548053 0.410018 0.324545
0.560212 0.421061 0.334403
0.572372 0.432104 0.344261
0.584532 0.443146 0.354119
0.596691 0.454189 0.363977
0.142148 0.168144 0.138926
0.155179 0.175912 0.143082
0.168211 0.183679 0.147237
0.181242 0.191447 0.151392
0.194273 0.199215 0.155547
0.210266 0.208027 0.160473
0.228478 0.217622 0.165976
0.246691 0.227217 0.171480
0.264904 0.236811 0.176983
0.283129 0.246603 0.182794
0.301425 0.257578 0.190448
0.319722 0.268553 0.198102
0.338018 0.279528 0.205756
0.356315 0.290503 0.213410
0.371904 0.299811 0.220958
0.386410 0.308453 0.228462
0.400916 0.317094 0.235967
0.415421 0.325735 0.243472
0.430089 0.334681 0.251398
0.445163 0.344390 0.260379
0.460236 0.354098 0.269360
0.475309 0.363807 0.278341
0.490383 0.373516 0.287322
0.504738 0.383921 0.297070
0.518974 0.394442 0.306946
0.533209 0.404964 0.316822
0.547445 0.415485 0.326697
0.560855 0.426427 0.336827
0.573164 0.437931 0.347295
0.585473 0.449434 0.357763
0.597782 0.460937 0.368231
0.610091 0.472441 0.378699
0.148757 0.175919 0.143913
0.161753 0.183738 0.148192
0.174749 0.191558 0.152472
0.187745 0.199377 0.156752
0.200740 0.207197 0.161032
0.216811 0.216092 0.166098
0.235187 0.225793 0.171755
0.253564 0.235494 0.177411
0.271940 0.245196 0.183068
0.290387 0.255131 0.189039
0.309256 0.266469 0.196903
0.328126 0.277807 0.204767
0.346995 0.289145 0.212631
0.365864 0.300483 0.220495
0.381938 0.310384 0.228449
0.396894 0.319710 0.236440
0.411850 0.329036 0.244430
0.426806 0.338362 0.252420
0.441793 0.347881 0.260780
0.456857 0.357883 0.270066
0.471922 0.367885 0.279351
0.486986 0.377887 0.288636
0.502051 0.387889 0.297921
0.516475 0.398669 0.308147
0.530792 0.409578 0.318530
0.545109 0.420487 0.328913
0.559427 0.431397 0.339295
0.572913 0.442724 0.349953
0.585292 0.454608 0.360978
0.597670 0.466492 0.372003
0.610049 0.478376 0.383028
0.622427 0.490260 0.394053
0.155650 0.183914 0.149151
0.168621 0.191796 0.153555
0.181592 0.199678 0.157960
0.194563 0.207560 0.162364
0.207533 0.215441 0.166768
0.223693 0.224448 0.172002
0.242244 0.234299 0.177858
0.260794 0.244150 0.183713
0.279345 0.254001 0.189569
0.297988 0.264082 0.195729
0.317181 0.275544 0.203718
0.336374 0.287007 0.211706
0.355567 0.298469 0.219695
0.374760 0.309932 0.227683
0.391380 0.320482 0.236109
0.406971 0.330667 0.244709
0.422562 0.340852 0.253310
0.438153 0.351037 0.261910
0.453575 0.361245 0.270781
0.468578 0.371509 0.280327
0.483580 0.381772 0.289874
0.498582 0.392036 0.299421
0.513584 0.402299 0.308967
0.528042 0.413436 0.319647
0.542409 0.424719 0.330515
0.556776 0.436002 0.341384
0.571143 0.447285 0.352252
0.584674 0.458974 0.363417
0.597090 0.471207 0.374977
0.609506 0.483440 0.386537
0.621922 0.495672 0.398097
0.634338 0.507905 0.409658
0.162543 0.191910 0.154390
0.175489 0.199854 0.158918
0.188435 0.207798 0.163447
0.201381 0.215742 0.167976
0.214326 0.223686 0.172505
0.230575 0.232805 0.177906
0.249300 0.242805 0.183961
0.268025 0.252805 0.190015
0.286750 0.262806 0.196070
0.305589 0.273033 0.202419
0.325105 0.284620 0.210532
0.344622 0.296207 0.218645
0.364139 0.307793 0.226758
0.383655 0.319380 0.234871
0.400822 0.330580 0.243768
0.417048 0.341624 0.252979
0.433273 0.352669 0.262189
0.449499 0.363713 0.271400
0.465358 0.374609 0.280781
0.480298 0.385134 0.290589
0.495238 0.395659 0.300397
0.510178 0.406184 0.310205
0.525118 0.416709 0.320014
0.539609 0.428204 0.331147
0.554026 0.439860 0.342501
0.568443 0.451516 0.353855
0.582860 0.463173 0.365208
0.596436 0.475225 0.376880
0.608889 0.487807 0.388976
0.621342 0.500388 0.401072
0.633795 0.512969 0.413167
0.646248 0.525550 0.425263
0.169436 0.199905 0.159628
0.182357 0.207912 0.164281
0.195278 0.215918 0.168935
0.208199 0.223924 0.173588
0.221120 0.231931 0.178241
0.237457 0.241162 0.183809
0.256356 0.251311 0.190064
0.275256 0.261461 0.196318
0.294155 0.271611 0.202572
0.313189 0.281983 0.209109
0.333030 0.293695 0.217347
0.352870 0.305406 0.225584
0.372711 0.317118 0.233822
0.392551 0.328829 0.242059
0.410263 0.340678 0.251428
0.427124 0.352581 0.261248
0.443985 0.364485 0.271069
0.460846 0.376389 0.280889
0.477141 0.387973 0.290781
0.492018 0.398759 0.300851
0.506896 0.409546 0.310921
0.521774 0.420332 0.320990
0.536651 0.431119 0.331060
0.551177 0.442971 0.342646
0.565643 0.455001 0.354486
0.580110 0.467031 0.366326
0.594577 0.479061 0.378165
0.608197 0.491476 0.390344
0.620687 0.504406 0.402975
0.633178 0.517336 0.415606
0.645668 0.530266 0.428237
0.658159 0.543196 0.440868
0.176360 0.207870 0.164914
0.189284 0.215984 0.169745
0.202209 0.224099 0.174576
0.215134 0.232214 0.179407
0.228058 0.240329 0.184239
0.244513 0.249724 0.190031
0.263615 0.260080 0.196545
0.282717 0.270436 0.203059
0.301820 0.280792 0.209573
0.321075 0.291365 0.216357
0.341250 0.303240 0.224766
0.361425 0.315115 0.233174
0.381600 0.326990 0.241582
0.401774 0.338866 0.249990
0.419982 0.351235 0.259765
0.437404 0.363802 0.270085
0.454825 0.376369 0.280405
0.472246 0.388936 0.290726
0.488927 0.401091 0.301074
0.503757 0.412218 0.311490
0.518587 0.423344 0.321907
0.533416 0.434470 0.332323
0.548246 0.445596 0.342740
0.562758 0.457775 0.354753
0.577218 0.470128 0.367031
0.591678 0.482482 0.379310
0.606137 0.494835 0.391589
0.619748 0.507562 0.404230
0.632226 0.520788 0.417354
0.644704 0.534013 0.430478
0.657182 0.547238 0.443602
0.669660 0.560463 0.456725
0.183363 0.215755 0.170318
0.196362 0.224094 0.175460
0.209361 0.232433 0.180603
0.222361 0.240772 0.185745
0.235360 0.249110 0.190888
0.252003 0.258801 0.197049
0.271379 0.269506 0.203973
0.290756 0.280211 0.210898
0.310132 0.290915 0.217823
0.329674 0.301824 0.225000
0.350210 0.313961 0.233695
0.370746 0.326098 0.242390
0.391281 0.338234 0.251084
0.411817 0.350371 0.259779
0.430395 0.362939 0.269795
0.448190 0.375681 0.280340
0.465985 0.388422 0.290884
0.483780 0.401163 0.301429
0.500724 0.413596 0.312097
0.515541 0.425258 0.323074
0.530358 0.436919 0.334050
0.545176 0.448581 0.345027
0.559993 0.460243 0.356004
0.574375 0.472668 0.368374
0.588686 0.485221 0.380977
0.602996 0.497774 0.393580
0.617306 0.510327 0.406182
0.630773 0.523237 0.419174
0.643114 0.536624 0.432683
0.655455 0.550011 0.446193
0.667796 0.563398 0.459703
0.680137 0.576785 0.473213
0.190366 0.223640 0.175722
0.203440 0.232203 0.181175
0.216514 0.240766 0.186629
0.229588 0.249329 0.192083
0.242662 0.257892 0.197537
0.259494 0.267878 0.204066
0.279144 0.278932 0.211401
0.298794 0.289985 0.218737
0.318444 0.301038 0.226073
0.338272 0.312284 0.233643
0.359169 0.324682 0.242625
0.380066 0.337080 0.251606
0.400963 0.349478 0.260587
0.421860 0.361876 0.269568
0.440808 0.374644 0.279826
0.458977 0.387559 0.290594
0.477145 0.400475 0.301363
0.495314 0.413391 0.312132
0.512521 0.426101 0.323120
0.527326 0.438298 0.334657
0.542130 0.450495 0.346194
0.556935 0.462692 0.357731
0.571740 0.474889 0.369268
0.585993 0.487562 0.381996
0.600153 0.500314 0.394923
0.614314 0.513066 0.407849
0.628475 0.525818 0.420775
0.641797 0.538912 0.434117
0.654002 0.552460 0.448013
0.666206 0.566009 0.461909
0.678410 0.579558 0.475804
0.690614 0.593107 0.489700
0.197369 0.231525 0.181126
0.210518 0.240313 0.186891
0.223666 0.249100 0.192656
0.236815 0.257887 0.198421
0.249964 0.266674 0.204186
0.266984 0.276955 0.211083
0.286908 0.288357 0.218830
0.306832 0.299759 0.226576
0.326756 0.311161 0.234323
0.346871 0.322743 0.242287
0.368129 0.335402 0.251554
0.389387 0.348062 0.260821
0.410645 0.360721 0.270089
0.431903 0.373381 0.279356
0.451221 0.386348 0.289856
0.469763 0.399438 0.300849
0.488305 0.412528 0.311842
0.506847 0.425618 0.322835
0.524318 0.438606 0.334143
0.539110 0.451338 0.346240
0.553902 0.464071 0.358338
0.568695 0.476803 0.370435
0.583487 0.489536 0.382533
0.597610 0.502456 0.395618
0.611621 0.515407 0.408868
0.625633 0.528358 0.422118
0.639644 0.541309 0.435368
0.652822 0.554586 0.449061
0.664889 0.568297 0.463342
0.676957 0.582008 0.477624
0.689024 0.595718 0.491906
0.701091 0.609429 0.506188
0.204372 0.239411 0.186530
0.217595 0.248422 0.192606
0.230819 0.257433 0.198682
0.244042 0.266445 0.204758
0.257266 0.275456 0.210835
0.274474 0.286032 0.218100
0.294672 0.297783 0.226258
0.314870 0.309534 0.234415
0.335068 0.321284 0.242573
0.355469 0.333202 0.250930
0.377089 0.346123 0.260483
0.398708 0.359044 0.270037
0.420327 0.371965 0.279591
0.441946 0.384886 0.289145
0.461634 0.398052 0.299887
0.480550 0.411317 0.311103
0.499465 0.424581 0.322320
0.518381 0.437845 0.333537
0.536115 0.451111 0.345166
0.550894 0.464378 0.357824
0.565674 0.477646 0.370482
0.580454 0.490914 0.383139
0.595234 0.504182 0.395797
0.609227 0.517349 0.409240
0.623089 0.530500 0.422814
0.636951 0.543650 0.436388
0.650813 0.556801 0.449961
0.663847 0.570261 0.464004
0.675777 0.584133 0.478672
0.687708 0.598006 0.493340
0.699638 0.611879 0.508007
0.711568 0.625751 0.522675
0.210146 0.246067 0.191035
0.223679 0.255644 0.197829
0.237212 0.265221 0.204622
0.250745 0.274798 0.211415
0.264278 0.284375 0.218208
0.281855 0.295546 0.226205
0.302466 0.307912 0.235104
0.323076 0.320278 0.244003
0.343687 0.332644 0.252902
0.364498 0.345148 0.261963
0.386510 0.358480 0.271996
0.408523 0.371812 0.282028
0.430535 0.385143 0.292060
0.452547 0.398475 0.302092
0.472576 0.411868 0.313108
0.491812 0.425286 0.324517
0.511048 0.438703 0.335926
0.530283 0.452120 0.347335
0.548300 0.465535 0.359170
0.563270 0.478943 0.372068
0.578241 0.492352 0.384966
0.593211 0.505760 0.397863
0.608181 0.519168 0.410761
0.621954 0.532572 0.424626
0.635528 0.545975 0.438651
0.649102 0.559378 0.452677
0.662676 0.572781 0.466703
0.675431 0.586400 0.481142
0.687097 0.600307 0.496131
0.698762 0.614213 0.511121
0.710427 0.628120 0.526111
0.722092 0.642026 0.541100
0.215715 0.252519 0.195392
0.229597 0.262718 0.202969
0.243479 0.272918 0.210547
0.257360 0.283117 0.218124
0.271242 0.293317 0.225702
0.289217 0.305131 0.234490
0.310264 0.318157 0.244186
0.331310 0.331183 0.253882
0.352357 0.344209 0.263578
0.373598 0.357341 0.273396
0.396009 0.371109 0.283938
0.418420 0.384877 0.294481
0.440830 0.398644 0.305024
0.463241 0.412412 0.315567
0.483606 0.426036 0.326862
0.503153 0.439603 0.338457
0.522700 0.453170 0.350053
0.542247 0.466736 0.361649
0.560551 0.480279 0.373670
0.575745 0.493762 0.386755
0.590939 0.507245 0.399840
0.606133 0.520728 0.412924
0.621328 0.534212 0.426009
0.634866 0.547850 0.440306
0.648129 0.561515 0.454805
0.661391 0.575179 0.469303
0.674654 0.588844 0.483802
0.687109 0.602617 0.498645
0.698488 0.616536 0.513946
0.709867 0.630455 0.529247
0.721246 0.644374 0.544548
0.732624 0.658293 0.559849
0.221285 0.258970 0.199748
0.235515 0.269792 0.208110
0.249745 0.280615 0.216472
0.263975 0.291437 0.224834
0.278206 0.302259 0.233196
0.296580 0.314717 0.242776
0.318062 0.328403 0.253269
0.339544 0.342089 0.263762
0.361027 0.355775 0.274255
0.382698 0.369535 0.284828
0.405508 0.383738 0.295881
0.428317 0.397942 0.306934
0.451126 0.412145 0.317988
0.473935 0.426349 0.329041
0.494637 0.440204 0.340615
0.514495 0.453920 0.352398
0.534353 0.467636 0.364180
0.554211 0.481352 0.375963
0.572801 0.495023 0.388171
0.588219 0.508581 0.401442
0.603638 0.522139 0.414714
0.619056 0.535697 0.427985
0.634475 0.549255 0.441257
0.647778 0.563128 0.455986
0.660730 0.577054 0.470958
0.673681 0.590980 0.485930
0.686632 0.604906 0.500901
0.698787 0.618834 0.516148
0.709879 0.632766 0.531760
0.720972 0.646697 0.547372
0.732064 0.660628 0.562985
0.743156 0.674560 0.578597
0.226854 0.265422 0.204104
0.241433 0.276867 0.213251
0.256012 0.288311 0.222397
0.270591 0.299756 0.231544
0.285169 0.311201 0.240690
0.303942 0.324303 0.251061
0.325860 0.338649 0.262351
0.347778 0.352995 0.273641
0.369696 0.367340 0.284931
0.391799 0.381728 0.296260
0.415006 0.396367 0.307824
0.438214 0.411007 0.319387
0.461422 0.425646 0.330951
0.484629 0.440285 0.342515
0.505667 0.454372 0.354369
0.525836 0.468238 0.366338
0.546006 0.482103 0.378307
0.566175 0.495969 0.390277
0.585051 0.509768 0.402671
0.600694 0.523400 0.416130
0.616337 0.537033 0.429588
0.631979 0.550665 0.443046
0.647622 0.564298 0.456504
0.660690 0.578406 0.471666
0.673330 0.592593 0.487111
0.685970 0.606781 0.502556
0.698610 0.620968 0.518001
0.710464 0.635052 0.533651
0.721270 0.648995 0.549575
0.732077 0.662939 0.565498
0.742883 0.676883 0.581422
0.753689 0.690827 0.597345
0.230864 0.270314 0.207421
0.246026 0.282744 0.217704
0.261188 0.295174 0.227987
0.276351 0.307604 0.238270
0.291513 0.320034 0.248553
0.310839 0.334064 0.260031
0.333289 0.349294 0.272406
0.355739 0.364524 0.284781
0.378189 0.379754 0.297156
0.400807 0.394974 0.309509
0.424429 0.410140 0.321733
0.448051 0.425306 0.333957
0.471673 0.440472 0.346181
0.495295 0.455638 0.358404
0.516639 0.469970 0.370580
0.537072 0.483969 0.382736
0.557505 0.497968 0.394892
0.577937 0.511967 0.407048
0.597038 0.525841 0.419578
0.612809 0.539405 0.433041
0.628579 0.552968 0.446505
0.644350 0.566531 0.459969
