filters/luts/Depression 05.cube
# LUT by SparkleStock. Enhanced with VOXCOLOR algorithms.
LUT_3D_SIZE 32
0.015629 0.007814 0.007814
0.021584 0.012226 0.011343
0.027539 0.016637 0.014873
0.033495 0.021048 0.018402
0.039450 0.025460 0.021931
0.047548 0.030249 0.025775
0.057253 0.035322 0.029855
0.066958 0.040395 0.033936
0.076663 0.045469 0.038016
0.087061 0.050731 0.042121
0.101619 0.057127 0.046367
0.116176 0.063524 0.050612
0.130734 0.069920 0.054858
0.145291 0.076317 0.059104
0.163275 0.083816 0.063232
0.182630 0.091756 0.067313
0.201985 0.099697 0.071393
0.221340 0.107637 0.075474
0.241672 0.116035 0.079491
0.264445 0.125574 0.083351
0.287219 0.135114 0.087211
0.309993 0.144653 0.091071
0.332766 0.154193 0.094931
0.356060 0.165008 0.098933
0.379440 0.176037 0.102958
0.402820 0.187065 0.106983
0.426200 0.198094 0.111009
0.448115 0.209595 0.115578
0.468077 0.221726 0.120871
0.488038 0.233857 0.126165
0.508000 0.245988 0.131459
0.527961 0.258120 0.136752
0.017614 0.012998 0.010351
0.025263 0.018754 0.013855
0.032911 0.024510 0.017359
0.040560 0.030266 0.020863
0.048209 0.036022 0.024368
0.057488 0.041545 0.028265
0.067990 0.046892 0.032458
0.078492 0.052239 0.036650
0.088994 0.057586 0.040843
0.100192 0.063123 0.045079
0.115572 0.069806 0.049574
0.130951 0.076489 0.054069
0.146330 0.083172 0.058564
0.161709 0.089855 0.063059
0.180266 0.097596 0.067533
0.200094 0.105761 0.072000
0.219922 0.113925 0.076466
0.239750 0.122090 0.080933
0.260395 0.130676 0.085375
0.283081 0.140315 0.089758
0.305768 0.149954 0.094141
0.328454 0.159593 0.098524
0.351141 0.169232 0.102907
0.373920 0.180052 0.107517
0.396715 0.191068 0.112165
0.419510 0.202083 0.116813
0.442305 0.213099 0.121461
0.463518 0.224551 0.126642
0.482620 0.236582 0.132533
0.501722 0.248614 0.138424
0.520824 0.260646 0.144315
0.539927 0.272677 0.150207
0.019599 0.018181 0.012887
0.028941 0.025282 0.016367
0.038283 0.032383 0.019846
0.047625 0.039484 0.023325
0.056968 0.046585 0.026805
0.067428 0.052840 0.030756
0.078726 0.058461 0.035060
0.090025 0.064082 0.039365
0.101324 0.069703 0.043669
0.113323 0.075516 0.048037
0.129524 0.082485 0.052781
0.145725 0.089455 0.057525
0.161926 0.096424 0.062269
0.178127 0.103393 0.067013
0.197257 0.111376 0.071834
0.217558 0.119765 0.076687
0.237859 0.128154 0.081539
0.258161 0.136542 0.086392
0.279118 0.145317 0.091259
0.301718 0.155055 0.096165
0.324317 0.164794 0.101071
0.346916 0.174533 0.105977
0.369516 0.184272 0.110883
0.391781 0.195095 0.116101
0.413991 0.206098 0.121372
0.436201 0.217102 0.126642
0.458410 0.228105 0.131913
0.478920 0.239507 0.137706
0.497163 0.251439 0.144195
0.515406 0.263371 0.150683
0.533649 0.275303 0.157172
0.551893 0.287235 0.163661
0.021584 0.023364 0.015424
0.032620 0.031810 0.018878
0.043655 0.040256 0.022333
0.054691 0.048701 0.025787
0.065726 0.057147 0.029242
0.077368 0.064135 0.033246
0.089463 0.070030 0.037662
0.101559 0.075925 0.042079
0.113655 0.081820 0.046496
0.126454 0.087909 0.050995
0.143477 0.095164 0.055988
0.160500 0.102420 0.060981
0.177523 0.109676 0.065974
0.194546 0.116931 0.070967
0.214248 0.125156 0.076135
0.235022 0.133769 0.081374
0.255797 0.142382 0.086612
0.276571 0.150995 0.091851
0.297842 0.159958 0.097144
0.320354 0.169796 0.102572
0.342866 0.179635 0.108001
0.365378 0.189473 0.113430
0.387890 0.199311 0.118859
0.409642 0.210138 0.124686
0.431266 0.221129 0.130579
0.452891 0.232120 0.136472
0.474515 0.243111 0.142365
0.494323 0.254462 0.148770
0.511706 0.266295 0.155856
0.529090 0.278127 0.162943
0.546474 0.289960 0.170029
0.563858 0.301792 0.177116
0.023569 0.028548 0.017961
0.036298 0.038338 0.021390
0.049027 0.048129 0.024819
0.061756 0.057919 0.028249
0.074485 0.067709 0.031678
0.087307 0.075430 0.035736
0.100200 0.081599 0.040265
0.113092 0.087768 0.044794
0.125985 0.093937 0.049322
0.139585 0.100302 0.053953
0.157430 0.107844 0.059195
0.175274 0.115386 0.064437
0.193119 0.122928 0.069679
0.210964 0.130470 0.074921
0.231239 0.138936 0.080436
0.252486 0.147773 0.086061
0.273734 0.156610 0.091685
0.294981 0.165447 0.097310
0.316565 0.174599 0.103028
0.338990 0.184537 0.108980
0.361415 0.194475 0.114931
0.383840 0.204413 0.120883
0.406265 0.214351 0.126835
0.427502 0.225181 0.133270
0.448542 0.236159 0.139786
0.469581 0.247138 0.146301
0.490620 0.258117 0.152817
0.509725 0.269418 0.159834
0.526250 0.281151 0.167518
0.542775 0.292884 0.175202
0.559299 0.304617 0.182886
0.575824 0.316350 0.190571
0.026248 0.034771 0.021159
0.039823 0.045145 0.024634
0.053399 0.055519 0.028110
0.066974 0.065892 0.031586
0.080550 0.076266 0.035062
0.094650 0.084780 0.039232
0.109144 0.091899 0.043922
0.123637 0.099017 0.048613
0.138130 0.106136 0.053304
0.153167 0.113348 0.058107
0.171464 0.121119 0.063591
0.189760 0.128891 0.069075
0.208057 0.136662 0.074559
0.226353 0.144434 0.080043
0.246978 0.153152 0.085954
0.268535 0.162248 0.092036
0.290092 0.171345 0.098117
0.311649 0.180442 0.104199
0.333446 0.189842 0.110423
0.355840 0.200000 0.117005
0.378235 0.210159 0.123586
0.400630 0.220317 0.130168
0.423025 0.230476 0.136749
0.443927 0.241491 0.143924
0.464580 0.252650 0.151197
0.485234 0.263808 0.158471
0.505887 0.274966 0.165744
0.524518 0.286419 0.173514
0.540455 0.298266 0.181945
0.556391 0.310113 0.190377
0.572327 0.321959 0.198808
0.588263 0.333806 0.207239
0.029446 0.041774 0.024853
0.043233 0.052160 0.028429
0.057020 0.062547 0.032004
0.070808 0.072933 0.035579
0.084595 0.083319 0.039155
0.100045 0.092671 0.043481
0.116742 0.101246 0.048371
0.133440 0.109822 0.053261
0.150137 0.118397 0.058151
0.167088 0.126884 0.063159
0.185559 0.134842 0.068880
0.204029 0.142801 0.074600
0.222500 0.150759 0.080321
0.240971 0.158717 0.086041
0.261780 0.167693 0.092384
0.283523 0.177076 0.098977
0.305267 0.186459 0.105569
0.327011 0.195842 0.112161
0.348944 0.205536 0.118953
0.371351 0.216006 0.126244
0.393759 0.226476 0.133535
0.416166 0.236945 0.140826
0.438573 0.247415 0.148117
0.459274 0.258753 0.156130
0.479691 0.270235 0.164262
0.500108 0.281717 0.172395
0.520524 0.293199 0.180528
0.538855 0.304954 0.189156
0.554405 0.317075 0.198447
0.569955 0.329195 0.207737
0.585506 0.341316 0.217028
0.601056 0.353437 0.226318
0.032644 0.048777 0.028548
0.046643 0.059176 0.032223
0.060642 0.069574 0.035898
0.074641 0.079973 0.039573
0.088640 0.090372 0.043248
0.105440 0.100561 0.047731
0.124341 0.110593 0.052820
0.143243 0.120626 0.057909
0.162144 0.130658 0.062998
0.181009 0.140421 0.068211
0.199654 0.148566 0.074168
0.218299 0.156711 0.080125
0.236944 0.164856 0.086082
0.255589 0.173001 0.092039
0.276581 0.182235 0.098815
0.298511 0.191904 0.105917
0.320442 0.201573 0.113020
0.342372 0.211243 0.120123
0.364443 0.221230 0.127482
0.386862 0.232011 0.135483
0.409282 0.242792 0.143484
0.431702 0.253573 0.151485
0.454121 0.264355 0.159486
0.474621 0.276014 0.168336
0.494802 0.287820 0.177327
0.514982 0.299625 0.186319
0.535162 0.311431 0.195311
0.553192 0.323489 0.204799
0.568356 0.335884 0.214949
0.583520 0.348278 0.225098
0.598684 0.360673 0.235248
0.613849 0.373067 0.245398
0.035842 0.055780 0.032242
0.050053 0.066191 0.036017
0.064264 0.076602 0.039791
0.078474 0.087014 0.043566
0.092685 0.097425 0.047341
0.110835 0.108452 0.051980
0.131940 0.119941 0.057268
0.153045 0.131430 0.062557
0.174151 0.142919 0.067845
0.194929 0.153957 0.073263
0.213749 0.162289 0.079456
0.232568 0.170621 0.085650
0.251388 0.178953 0.091844
0.270207 0.187284 0.098037
0.291382 0.196776 0.105245
0.313499 0.206732 0.112858
0.335617 0.216688 0.120471
0.357734 0.226643 0.128084
0.379941 0.236924 0.136011
0.402373 0.248016 0.144722
0.424805 0.259109 0.153432
0.447237 0.270201 0.162143
0.469669 0.281294 0.170854
0.489969 0.293275 0.180542
0.509912 0.305405 0.190393
0.529856 0.317534 0.200243
0.549799 0.329663 0.210094
0.567529 0.342024 0.220441
0.582307 0.354692 0.231450
0.597085 0.367361 0.242459
0.611863 0.380029 0.253468
0.626641 0.392698 0.264477
0.039206 0.063082 0.036173
0.053630 0.073519 0.040049
0.068054 0.083955 0.043925
0.082478 0.094391 0.047801
0.096902 0.104827 0.051677
0.116271 0.116580 0.056466
0.139349 0.129321 0.061939
0.162427 0.142063 0.067412
0.185505 0.154804 0.072886
0.208028 0.166966 0.078503
0.227225 0.175648 0.084989
0.246421 0.184330 0.091474
0.265618 0.193012 0.097960
0.284814 0.201694 0.104445
0.306191 0.211478 0.112088
0.328440 0.221703 0.120194
0.350689 0.231927 0.128300
0.372938 0.242151 0.136406
0.395237 0.252712 0.144886
0.417662 0.264114 0.154305
0.440087 0.275516 0.163724
0.462512 0.286918 0.173142
0.484937 0.298320 0.182561
0.505040 0.310626 0.193082
0.524756 0.323083 0.203787
0.544472 0.335540 0.214491
0.564188 0.347996 0.225196
0.581633 0.360666 0.236396
0.596052 0.373619 0.248257
0.610471 0.386572 0.260118
0.624890 0.399525 0.271979
0.639308 0.412478 0.283839
0.043562 0.072181 0.041522
0.058210 0.082717 0.045510
0.072859 0.093252 0.049498
0.087507 0.103788 0.053486
0.102155 0.114324 0.057474
0.121955 0.126134 0.062368
0.145618 0.138900 0.067941
0.169281 0.151666 0.073513
0.192944 0.164433 0.079086
0.216196 0.176806 0.084879
0.236987 0.186820 0.091986
0.257777 0.196835 0.099094
0.278567 0.206849 0.106202
0.299357 0.216864 0.113310
0.321047 0.227144 0.121407
0.343097 0.237530 0.129899
0.365147 0.247916 0.138391
0.387196 0.258303 0.146883
0.409318 0.269064 0.155838
0.431618 0.280765 0.165954
0.453919 0.292466 0.176070
0.476219 0.304167 0.186186
0.498520 0.315868 0.196302
0.518455 0.328515 0.207627
0.537997 0.341321 0.219153
0.557539 0.354126 0.230680
0.577080 0.366931 0.242206
0.594341 0.379949 0.254223
0.608560 0.393251 0.266893
0.622780 0.406553 0.279563
0.637000 0.419854 0.292233
0.651219 0.433156 0.304904
0.047918 0.081279 0.046871
0.062791 0.091915 0.050971
0.077663 0.102550 0.055071
0.092535 0.113185 0.059171
0.107408 0.123820 0.063271
0.127638 0.135688 0.068270
0.151886 0.148479 0.073942
0.176134 0.161270 0.079615
0.200382 0.174061 0.085287
0.224364 0.186646 0.091254
0.246748 0.197993 0.098984
0.269133 0.209340 0.106715
0.291517 0.220686 0.114445
0.313901 0.232033 0.122176
0.335904 0.242809 0.130726
0.357754 0.253358 0.139604
0.379605 0.263906 0.148482
0.401455 0.274454 0.157359
0.423398 0.285417 0.166790
0.445574 0.297416 0.177603
0.467750 0.309416 0.188417
0.489926 0.321416 0.199230
0.512102 0.333415 0.210043
0.531871 0.346404 0.222172
0.551238 0.359558 0.234520
0.570606 0.372712 0.246868
0.589973 0.385866 0.259217
0.607049 0.399233 0.272050
0.621069 0.412883 0.285529
0.635089 0.426534 0.299009
0.649109 0.440184 0.312488
0.663130 0.453834 0.325968
0.052275 0.090378 0.052219
0.067371 0.101113 0.056432
0.082468 0.111848 0.060644
0.097564 0.122582 0.064856
0.112660 0.133317 0.069068
0.133321 0.145241 0.074172
0.158154 0.158058 0.079944
0.182988 0.170874 0.085716
0.207821 0.183690 0.091488
0.232533 0.196486 0.097629
0.256510 0.209165 0.105982
0.280488 0.221844 0.114335
0.304466 0.234523 0.122688
0.328444 0.247203 0.131041
0.350760 0.258475 0.140045
0.372411 0.269185 0.149309
0.394062 0.279895 0.158573
0.415714 0.290605 0.167836
0.437479 0.301769 0.177742
0.459531 0.314067 0.189253
0.481582 0.326366 0.200763
0.503634 0.338664 0.212274
0.525685 0.350963 0.223784
0.545286 0.364293 0.236717
0.564479 0.377796 0.249887
0.583672 0.391299 0.263057
0.602865 0.404801 0.276227
0.619756 0.418517 0.289877
0.633577 0.432516 0.304166
0.647398 0.446515 0.318454
0.661219 0.460514 0.332743
0.675040 0.474513 0.347032
0.056631 0.099476 0.057568
0.071951 0.110311 0.061892
0.087272 0.121145 0.066217
0.102593 0.131980 0.070541
0.117913 0.142814 0.074865
0.139004 0.154795 0.080074
0.164423 0.167636 0.085945
0.189841 0.180477 0.091817
0.215260 0.193318 0.097689
0.240701 0.206326 0.104004
0.266272 0.220338 0.112980
0.291844 0.234349 0.121955
0.317416 0.248361 0.130931
0.342987 0.262372 0.139907
0.365616 0.274141 0.149364
0.387068 0.285013 0.159014
0.408520 0.295885 0.168664
0.429972 0.306756 0.178313
0.451560 0.318121 0.188694
0.473487 0.330719 0.200902
0.495414 0.343316 0.213110
0.517341 0.355913 0.225317
0.539268 0.368510 0.237525
0.558702 0.382183 0.251262
0.577721 0.396034 0.265254
0.596739 0.409885 0.279246
0.615758 0.423736 0.293237
0.632464 0.437800 0.307703
0.646085 0.452148 0.322802
0.659707 0.466496 0.337900
0.673329 0.480843 0.352998
0.686951 0.495191 0.368096
0.061657 0.109756 0.063902
0.077228 0.120699 0.068436
0.092799 0.131642 0.072970
0.108371 0.142585 0.077504
0.123942 0.153528 0.082038
0.145460 0.165646 0.087465
0.171437 0.178646 0.093560
0.197414 0.191645 0.099656
0.223391 0.204644 0.105752
0.249447 0.217850 0.112309
0.275972 0.232295 0.121632
0.302497 0.246741 0.130954
0.329022 0.261186 0.140277
0.355547 0.275632 0.149599
0.378624 0.288009 0.159596
0.400321 0.299558 0.169864
0.422019 0.311108 0.180131
0.443716 0.322657 0.190398
0.465393 0.334556 0.201363
0.487018 0.347328 0.214072
0.508642 0.360099 0.226781
0.530267 0.372871 0.239491
0.551891 0.385642 0.252200
0.571079 0.399539 0.266576
0.589861 0.413624 0.281229
0.608644 0.427708 0.295883
0.627426 0.441792 0.310536
0.643911 0.456078 0.325640
0.657333 0.470632 0.341343
0.670756 0.485186 0.357046
0.684179 0.499740 0.372749
0.697601 0.514294 0.388452
0.066950 0.120509 0.070629
0.082783 0.131564 0.075412
0.098616 0.142619 0.080195
0.114449 0.153674 0.084978
0.130282 0.164729 0.089762
0.152224 0.177016 0.095451
0.178749 0.190227 0.101821
0.205275 0.203438 0.108191
0.231800 0.216649 0.114561
0.258424 0.230047 0.121386
0.285647 0.244567 0.130945
0.312869 0.259087 0.140504
0.340091 0.273607 0.150063
0.367314 0.288128 0.159623
0.390892 0.301157 0.170194
0.413013 0.313591 0.181171
0.435134 0.326025 0.192148
0.457255 0.338458 0.203125
0.479127 0.351024 0.214718
0.500378 0.363920 0.227850
0.521629 0.376816 0.240983
0.542880 0.389712 0.254116
0.564131 0.402608 0.267248
0.583042 0.416683 0.282197
0.601562 0.430954 0.297448
0.620083 0.445225 0.312699
0.638603 0.459496 0.327951
0.654854 0.473953 0.343619
0.668077 0.488656 0.359845
0.681301 0.503359 0.376071
0.694524 0.518063 0.392297
0.707747 0.532766 0.408523
0.072244 0.131262 0.077356
0.088338 0.142429 0.082388
0.104433 0.153596 0.087421
0.120527 0.164763 0.092453
0.136621 0.175930 0.097485
0.158989 0.188386 0.103438
0.186062 0.201809 0.110082
0.213135 0.215231 0.116725
0.240208 0.228654 0.123369
0.267402 0.242244 0.130463
0.295321 0.256839 0.140259
0.323241 0.271434 0.150055
0.351161 0.286029 0.159850
0.379080 0.300623 0.169646
0.403160 0.314306 0.180792
0.425705 0.327624 0.192479
0.448249 0.340941 0.204165
0.470793 0.354259 0.215852
0.492861 0.367492 0.228073
0.513738 0.380513 0.241629
0.534616 0.393533 0.255185
0.555493 0.406554 0.268741
0.576371 0.419574 0.282297
0.595004 0.433827 0.297818
0.613263 0.448285 0.313667
0.631522 0.462743 0.329516
0.649781 0.477201 0.345365
0.665797 0.491828 0.361599
0.678821 0.506680 0.378348
0.691845 0.521533 0.395097
0.704869 0.536386 0.411846
0.717894 0.551239 0.428595
0.077538 0.142014 0.084084
0.093893 0.153293 0.089365
0.110249 0.164573 0.094646
0.126605 0.175852 0.099927
0.142961 0.187131 0.105208
0.165754 0.199756 0.111425
0.193375 0.213390 0.118342
0.220995 0.227025 0.125260
0.248616 0.240659 0.132178
0.276379 0.254441 0.139540
0.304996 0.269111 0.149573
0.333613 0.283780 0.159605
0.362230 0.298450 0.169637
0.390847 0.313119 0.179669
0.415429 0.327455 0.191390
0.438396 0.341656 0.203787
0.461364 0.355858 0.216183
0.484331 0.370060 0.228579
0.506595 0.383960 0.241428
0.527099 0.397105 0.255407
0.547603 0.410250 0.269386
0.568107 0.423395 0.283366
0.588611 0.436540 0.297345
0.606966 0.450971 0.313439
0.624964 0.465615 0.329886
0.642961 0.480260 0.346332
0.660959 0.494905 0.362779
0.676740 0.509703 0.379579
0.689565 0.524705 0.396851
0.702390 0.539707 0.414123
0.715215 0.554709 0.431395
0.728040 0.569711 0.448667
0.082941 0.152861 0.090984
0.099577 0.164295 0.096614
0.116212 0.175729 0.102244
0.132847 0.187163 0.107874
0.149482 0.198597 0.113504
0.172708 0.211438 0.120081
0.200876 0.225334 0.127368
0.229045 0.239230 0.134656
0.257213 0.253125 0.141944
0.285541 0.267149 0.149661
0.314823 0.281939 0.159959
0.344106 0.296730 0.170256
0.373388 0.311520 0.180553
0.402670 0.326311 0.190850
0.427772 0.341140 0.203060
0.451202 0.355983 0.216034
0.474632 0.370827 0.229009
0.498062 0.385671 0.241983
0.520529 0.400074 0.255349
0.540588 0.413376 0.269695
0.560647 0.426678 0.284041
0.580707 0.439979 0.298387
0.600766 0.453281 0.312733
0.618806 0.467842 0.329312
0.636511 0.482613 0.346264
0.654215 0.497384 0.363215
0.671919 0.512155 0.380167
0.687436 0.527056 0.397433
0.700037 0.542129 0.415118
0.712638 0.557202 0.432802
0.725238 0.572276 0.450487
0.737839 0.587349 0.468171
0.088621 0.163945 0.098318
0.105580 0.175640 0.104546
0.122539 0.187336 0.110773
0.139498 0.199031 0.117001
0.156456 0.210727 0.123228
0.180134 0.223900 0.130410
0.208850 0.238182 0.138308
0.237567 0.252464 0.146206
0.266283 0.266745 0.154103
0.295164 0.281134 0.162392
0.325032 0.296161 0.173025
0.354899 0.311188 0.183659
0.384767 0.326215 0.194292
0.414634 0.341242 0.204926
0.440303 0.356165 0.217409
0.464294 0.371046 0.230633
0.488284 0.385927 0.243856
0.512274 0.400809 0.257080
0.534964 0.415306 0.270688
0.554400 0.428844 0.285258
0.573837 0.442383 0.299828
0.593274 0.455921 0.314398
0.612710 0.469459 0.328967
0.630342 0.484033 0.345814
0.647672 0.498779 0.363039
0.665003 0.513525 0.380265
0.682334 0.528271 0.397491
0.697514 0.543104 0.414972
0.709829 0.558052 0.432793
0.722143 0.573001 0.450615
0.734458 0.587950 0.468436
0.746772 0.602899 0.486258
0.094301 0.175029 0.105652
0.111583 0.186985 0.112477
0.128866 0.198942 0.119302
0.146148 0.210899 0.126128
0.163431 0.222856 0.132953
0.187560 0.236362 0.140739
0.216825 0.251030 0.149247
0.246089 0.265698 0.157755
0.275353 0.280366 0.166263
0.304788 0.295118 0.175123
0.335240 0.310382 0.186092
0.365693 0.325646 0.197062
0.396145 0.340909 0.208032
0.426598 0.356173 0.219001
0.452835 0.371190 0.231759
0.477386 0.386109 0.245231
0.501936 0.401027 0.258704
0.526487 0.415946 0.272176
0.549398 0.430538 0.286026
0.568213 0.444313 0.300820
0.587027 0.458087 0.315614
0.605841 0.471862 0.330408
0.624655 0.485637 0.345202
0.641877 0.500223 0.362315
0.658834 0.514944 0.379815
0.675791 0.529665 0.397315
0.692748 0.544386 0.414814
0.707593 0.559152 0.432510
0.719621 0.573976 0.450469
0.731649 0.588800 0.468427
0.743677 0.603625 0.486386
0.755705 0.618449 0.504344
0.099980 0.186112 0.112986
0.117587 0.198330 0.120409
0.135193 0.210549 0.127832
0.152799 0.222767 0.135254
0.170406 0.234986 0.142677
0.194987 0.248824 0.151069
0.224799 0.263878 0.160187
0.254611 0.278932 0.169305
0.284423 0.293986 0.178423
0.314411 0.309103 0.187853
0.345449 0.324603 0.199159
0.376486 0.340104 0.210465
0.407524 0.355604 0.221771
0.438562 0.371104 0.233077
0.465366 0.386216 0.246108
0.490477 0.401171 0.259830
0.515588 0.416127 0.273551
0.540699 0.431083 0.287272
0.563833 0.445769 0.301364
0.582025 0.459781 0.316383
0.600216 0.473792 0.331401
0.618408 0.487804 0.346419
0.636599 0.501815 0.361437
0.653413 0.516413 0.378817
0.669996 0.531110 0.396591
0.686580 0.545806 0.414364
0.703163 0.560502 0.432138
0.717671 0.575200 0.450049
0.729413 0.589900 0.468145
0.741155 0.604599 0.486240
0.752897 0.619299 0.504336
0.764638 0.633999 0.522431
0.105660 0.197196 0.120320
0.123590 0.209676 0.128340
0.141520 0.222155 0.136361
0.159450 0.234635 0.144381
0.177380 0.247115 0.152402
0.202413 0.261286 0.161398
0.232773 0.276726 0.171126
0.263133 0.292166 0.180854
0.293493 0.307606 0.190582
0.324034 0.323088 0.200584
0.355657 0.338825 0.212226
0.387280 0.354561 0.223868
0.418903 0.370298 0.235510
0.450526 0.386035 0.247152
0.477898 0.401241 0.260457
0.503569 0.416234 0.274428
0.529240 0.431227 0.288398
0.554912 0.446221 0.302369
0.578268 0.461001 0.316703
0.595837 0.475249 0.331945
0.613406 0.489497 0.347187
0.630975 0.503745 0.362430
0.648544 0.517993 0.377672
0.664948 0.532604 0.395319
0.681158 0.547275 0.413366
0.697368 0.561946 0.431414
0.713578 0.576618 0.449461
0.727750 0.591248 0.467588
0.739205 0.605823 0.485820
0.750661 0.620398 0.504053
0.762116 0.634974 0.522285
0.773571 0.649549 0.540518
0.110867 0.206530 0.126756
0.129238 0.219709 0.136057
0.147609 0.232888 0.145358
0.165980 0.246067 0.154659
0.184352 0.259246 0.163961
0.209899 0.274102 0.174135
0.240828 0.290216 0.184964
0.271758 0.306330 0.195793
0.302687 0.322444 0.206622
0.333787 0.338556 0.217645
0.365910 0.354658 0.229826
0.398032 0.370759 0.242007
0.430155 0.386860 0.254188
0.462278 0.402962 0.266369
0.490056 0.418276 0.279846
0.516095 0.433274 0.293841
0.542135 0.448273 0.307837
0.568174 0.463271 0.321832
0.591832 0.478026 0.336175
0.609536 0.492169 0.351385
0.627240 0.506312 0.366595
0.644945 0.520455 0.381805
0.662649 0.534598 0.397016
0.678404 0.548962 0.414353
0.693835 0.563363 0.432045
0.709266 0.577764 0.449736
0.724697 0.592165 0.467428
0.738315 0.606541 0.485328
0.749516 0.620885 0.503505
0.760717 0.635229 0.521682
0.771918 0.649573 0.539860
0.783119 0.663917 0.558037
0.115995 0.215574 0.133042
0.134827 0.229525 0.143738
0.153659 0.243476 0.154433
0.172491 0.257426 0.165129
0.191323 0.271377 0.175825
0.217395 0.286977 0.187273
0.248897 0.303813 0.199285
0.280399 0.320649 0.211297
0.311901 0.337485 0.223309
0.343561 0.354272 0.235427
0.376170 0.370759 0.248181
0.408778 0.387246 0.260935
0.441386 0.403734 0.273689
0.473995 0.420221 0.286442
0.502151 0.435645 0.300074
0.528527 0.450644 0.314057
0.554903 0.465643 0.328040
0.581278 0.480641 0.342023
0.605251 0.495349 0.356335
0.623217 0.509330 0.371471
0.641182 0.523311 0.386606
0.659148 0.537293 0.401742
0.677114 0.551274 0.416878
0.692181 0.565348 0.433809
0.706765 0.579438 0.451040
0.721349 0.593527 0.468271
0.735933 0.607617 0.485502
0.748961 0.621709 0.503101
0.759913 0.635804 0.521191
0.770865 0.649899 0.539282
0.781817 0.663994 0.557372
0.792769 0.678089 0.575462
0.121123 0.224617 0.139328
0.140416 0.239340 0.151418
0.159708 0.254063 0.163509
0.179001 0.268786 0.175599
0.198294 0.283509 0.187689
0.224890 0.299852 0.200411
0.256965 0.317410 0.213606
0.289040 0.334968 0.226801
0.321115 0.352527 0.239996
0.353335 0.369987 0.253209
0.386429 0.386860 0.266536
0.419524 0.403734 0.279863
0.452618 0.420607 0.293189
0.485712 0.437481 0.306516
0.514247 0.453015 0.320302
0.540959 0.468014 0.334273
0.567671 0.483012 0.348243
0.594383 0.498011 0.362214
0.618670 0.512673 0.376496
0.636897 0.526492 0.391557
0.655124 0.540311 0.406618
0.673352 0.554131 0.421678
0.691579 0.567950 0.436739
0.705957 0.581734 0.453265
0.719695 0.595512 0.470036
0.733432 0.609291 0.486806
0.747170 0.623069 0.503576
0.759607 0.636877 0.520875
0.770310 0.650722 0.538878
0.781013 0.664568 0.556881
0.791715 0.678414 0.574884
0.802418 0.692260 0.592887
0.126252 0.233660 0.145614
0.146005 0.249155 0.159099
0.165758 0.264650 0.172584
0.185511 0.280145 0.186069
0.205265 0.295640 0.199554
0.232386 0.312726 0.213549
0.265034 0.331007 0.227927
0.297681 0.349287 0.242305
0.330329 0.367568 0.256682
0.363110 0.385702 0.270992
0.396689 0.402962 0.284891
0.430269 0.420221 0.298791
0.463849 0.437481 0.312690
0.497429 0.454740 0.326589
0.526343 0.470385 0.340531
0.553391 0.485383 0.354489
0.580439 0.500382 0.368447
0.607487 0.515381 0.382405
0.632089 0.529996 0.396656
0.650578 0.543654 0.411643
0.669066 0.557311 0.426629
0.687555 0.570968 0.441615
0.706044 0.584626 0.456601
0.719734 0.598120 0.472722
0.732625 0.611587 0.489031
0.745516 0.625054 0.505341
0.758406 0.638521 0.521650
0.770253 0.652044 0.538648
0.780707 0.665641 0.556564
0.791161 0.679238 0.574480
0.801614 0.692835 0.592396
0.812068 0.706432 0.610312
0.130293 0.240317 0.150270
0.150645 0.257026 0.165758
0.170998 0.273736 0.181245
0.191351 0.290446 0.196733
0.211704 0.307156 0.212221
0.239421 0.325328 0.227997
0.272663 0.344598 0.243990
0.305905 0.363867 0.259983
0.339147 0.383137 0.275976
0.372501 0.402189 0.291777
0.406529 0.419935 0.306425
0.440557 0.437682 0.321074
0.474584 0.455429 0.335722
0.508612 0.473176 0.350370
0.537838 0.488945 0.364459
0.565142 0.503922 0.378325
0.592446 0.518899 0.392190
0.619750 0.533876 0.406056
0.644572 0.548383 0.420116
0.663189 0.561713 0.434665
0.681806 0.575043 0.449214
0.700422 0.588373 0.463762
