filters/luts/Depression 02_S.cube
# LUT by SparkleStock. Enhanced with VOXCOLOR algorithms.
LUT_3D_SIZE 32
0.082051 0.085958 0.089866
0.091221 0.090496 0.094167
0.100390 0.095033 0.098468
0.109559 0.099571 0.102769
0.118729 0.104108 0.107070
0.127898 0.108645 0.111371
0.138564 0.112986 0.115396
0.149529 0.117287 0.119367
0.160495 0.121588 0.123337
0.171460 0.125889 0.127307
0.182425 0.130190 0.131277
0.194399 0.134995 0.135342
0.206877 0.140053 0.139454
0.219355 0.145110 0.143566
0.231833 0.150167 0.147678
0.244311 0.155225 0.151790
0.257025 0.160991 0.156044
0.269975 0.167466 0.160440
0.282926 0.173941 0.164835
0.295876 0.180417 0.169231
0.308827 0.186892 0.173626
0.321746 0.193871 0.178085
0.334602 0.201859 0.182670
0.347458 0.209847 0.187254
0.360314 0.217834 0.191839
0.373169 0.225822 0.196424
0.386002 0.233936 0.201103
0.398716 0.242680 0.206255
0.411430 0.251424 0.211407
0.424144 0.260168 0.216558
0.436858 0.268912 0.221710
0.449573 0.277656 0.226862
0.085738 0.091677 0.093316
0.095968 0.097166 0.096968
0.106199 0.102655 0.100619
0.116429 0.108144 0.104271
0.126660 0.113633 0.107922
0.136890 0.119121 0.111574
0.148442 0.123735 0.115156
0.160258 0.128173 0.118723
0.172075 0.132611 0.122291
0.183891 0.137050 0.125859
0.195707 0.141488 0.129426
0.208507 0.146327 0.133284
0.221799 0.151366 0.137286
0.235091 0.156405 0.141288
0.248383 0.161444 0.145291
0.261675 0.166483 0.149293
0.274970 0.172194 0.153656
0.288268 0.178578 0.158381
0.301566 0.184962 0.163106
0.314864 0.191346 0.167831
0.328162 0.197729 0.172556
0.341179 0.204635 0.177493
0.353632 0.212587 0.182856
0.366086 0.220538 0.188218
0.378539 0.228489 0.193580
0.390993 0.236440 0.198942
0.403291 0.244551 0.204437
0.414816 0.253459 0.210595
0.426341 0.262368 0.216754
0.437866 0.271276 0.222912
0.449391 0.280185 0.229070
0.460916 0.289094 0.235228
0.089425 0.097397 0.096766
0.100716 0.103837 0.099768
0.112008 0.110277 0.102770
0.123300 0.116717 0.105773
0.134591 0.123157 0.108775
0.145883 0.129597 0.111777
0.158321 0.134484 0.114915
0.170987 0.139059 0.118080
0.183654 0.143635 0.121245
0.196321 0.148210 0.124410
0.208988 0.152786 0.127575
0.222615 0.157658 0.131225
0.236721 0.162679 0.135118
0.250827 0.167699 0.139010
0.264933 0.172720 0.142903
0.279039 0.177741 0.146795
0.292915 0.183397 0.151269
0.306561 0.189690 0.156323
0.320207 0.195982 0.161377
0.333852 0.202274 0.166431
0.347498 0.208567 0.171486
0.360612 0.215400 0.176902
0.372663 0.223314 0.183042
0.384714 0.231229 0.189181
0.396765 0.239143 0.195321
0.408816 0.247058 0.201461
0.420581 0.255165 0.207772
0.430917 0.264239 0.214936
0.441253 0.273312 0.222101
0.451588 0.282385 0.229265
0.461924 0.291458 0.236429
0.472260 0.300532 0.243594
0.093111 0.103116 0.100217
0.105464 0.110507 0.102569
0.117817 0.117899 0.104922
0.130170 0.125290 0.107274
0.142522 0.132682 0.109627
0.154875 0.140073 0.111979
0.168199 0.145233 0.114674
0.181716 0.149945 0.117436
0.195234 0.154658 0.120199
0.208752 0.159371 0.122962
0.222269 0.164084 0.125725
0.236722 0.168989 0.129167
0.251643 0.173992 0.132950
0.266563 0.178994 0.136733
0.281483 0.183997 0.140515
0.296404 0.188999 0.144298
0.310861 0.194601 0.148881
0.324854 0.200801 0.154265
0.338847 0.207002 0.159648
0.352841 0.213203 0.165032
0.366834 0.219404 0.170415
0.380046 0.226164 0.176310
0.391694 0.234042 0.183228
0.403343 0.241920 0.190145
0.414991 0.249798 0.197062
0.426639 0.257675 0.203980
0.437871 0.265780 0.211106
0.447017 0.275018 0.219277
0.456164 0.284256 0.227447
0.465310 0.293494 0.235618
0.474457 0.302732 0.243789
0.483603 0.311970 0.251960
0.096798 0.108835 0.103667
0.110212 0.117177 0.105370
0.123626 0.125520 0.107073
0.137040 0.133863 0.108776
0.150454 0.142206 0.110479
0.163868 0.150549 0.112182
0.178077 0.155981 0.114433
0.192446 0.160831 0.116793
0.206814 0.165681 0.119153
0.221182 0.170531 0.121513
0.235551 0.175381 0.123874
0.250830 0.180321 0.127109
0.266565 0.185305 0.130782
0.282299 0.190289 0.134455
0.298034 0.195273 0.138128
0.313768 0.200257 0.141801
0.328806 0.205804 0.146493
0.343147 0.211913 0.152206
0.357488 0.218023 0.157919
0.371829 0.224132 0.163632
0.386170 0.230241 0.169345
0.399479 0.236928 0.175719
0.410725 0.244769 0.183414
0.421971 0.252611 0.191109
0.433217 0.260452 0.198804
0.444463 0.268293 0.206499
0.455161 0.276395 0.214441
0.463118 0.285797 0.223618
0.471075 0.295200 0.232794
0.479032 0.304603 0.241971
0.486989 0.314005 0.251148
0.494947 0.323408 0.260325
0.100484 0.114554 0.107117
0.114960 0.123848 0.108171
0.129435 0.133142 0.109224
0.143910 0.142437 0.110278
0.158385 0.151731 0.111331
0.172860 0.161025 0.112385
0.187955 0.166730 0.114192
0.203175 0.171717 0.116150
0.218394 0.176705 0.118107
0.233613 0.181692 0.120065
0.248832 0.186679 0.122023
0.264938 0.191652 0.125051
0.281486 0.196618 0.128614
0.298035 0.201584 0.132177
0.314584 0.206549 0.135740
0.331132 0.211515 0.139303
0.346751 0.217007 0.144106
0.361440 0.223025 0.150148
0.376128 0.229043 0.156190
0.390817 0.235061 0.162233
0.405506 0.241078 0.168275
0.418912 0.247692 0.175127
0.429756 0.255497 0.183600
0.440599 0.263301 0.192072
0.451443 0.271106 0.200545
0.462286 0.278911 0.209017
0.472450 0.287009 0.217775
0.479218 0.296577 0.227958
0.485986 0.306144 0.238141
0.492754 0.315711 0.248325
0.499522 0.325279 0.258508
0.506290 0.334846 0.268691
0.105156 0.121021 0.110843
0.119732 0.130466 0.111979
0.134307 0.139911 0.113115
0.148883 0.149357 0.114251
0.163459 0.158802 0.115387
0.178035 0.168247 0.116523
0.193817 0.175000 0.118173
0.209842 0.181215 0.119926
0.225866 0.187429 0.121680
0.241890 0.193644 0.123433
0.257914 0.199858 0.125187
0.274602 0.205345 0.128073
0.291622 0.210468 0.131527
0.308642 0.215591 0.134980
0.325662 0.220714 0.138433
0.342682 0.225837 0.141887
0.358767 0.231422 0.146761
0.373917 0.237471 0.153056
0.389068 0.243519 0.159352
0.404218 0.249567 0.165647
0.419369 0.255616 0.171942
0.433135 0.262260 0.179182
0.444133 0.270097 0.188310
0.455130 0.277934 0.197438
0.466127 0.285770 0.206566
0.477125 0.293607 0.215695
0.487364 0.301764 0.225147
0.493812 0.311518 0.236222
0.500260 0.321273 0.247298
0.506707 0.331028 0.258373
0.513155 0.340783 0.269448
0.519603 0.350538 0.280523
0.110024 0.127638 0.114624
0.124508 0.137074 0.115989
0.138993 0.146510 0.117354
0.153477 0.155946 0.118718
0.167961 0.165383 0.120083
0.182446 0.174819 0.121447
0.198876 0.182775 0.122999
0.215696 0.190435 0.124587
0.232516 0.198094 0.126176
0.249337 0.205754 0.127765
0.266157 0.213414 0.129353
0.283378 0.219511 0.132112
0.300801 0.224826 0.135456
0.318223 0.230141 0.138799
0.335645 0.235456 0.142143
0.353068 0.240771 0.145486
0.369596 0.246480 0.150425
0.385232 0.252583 0.156958
0.400867 0.258686 0.163491
0.416503 0.264790 0.170024
0.432138 0.270893 0.176558
0.446316 0.277589 0.184166
0.457579 0.285472 0.193925
0.468841 0.293354 0.203685
0.480104 0.301237 0.213444
0.491367 0.309119 0.223204
0.501803 0.317346 0.233327
0.508104 0.327293 0.245271
0.514405 0.337240 0.257216
0.520707 0.347186 0.269160
0.527008 0.357133 0.281104
0.533310 0.367080 0.293048
0.114892 0.134255 0.118406
0.129285 0.143682 0.119999
0.143678 0.153109 0.121592
0.158071 0.162536 0.123185
0.172464 0.171963 0.124779
0.186856 0.181390 0.126372
0.203935 0.190549 0.127824
0.221551 0.199654 0.129248
0.239167 0.208759 0.130672
0.256783 0.217865 0.132096
0.274399 0.226970 0.133520
0.292154 0.233677 0.136151
0.309979 0.239184 0.139385
0.327804 0.244691 0.142619
0.345629 0.250198 0.145852
0.363454 0.255705 0.149086
0.380426 0.261537 0.154089
0.396546 0.267696 0.160860
0.412667 0.273854 0.167631
0.428787 0.280012 0.174402
0.444907 0.286170 0.181173
0.459497 0.292918 0.189150
0.471025 0.300846 0.199541
0.482553 0.308775 0.209931
0.494081 0.316703 0.220322
0.505609 0.324631 0.230713
0.516241 0.332928 0.241507
0.522396 0.343067 0.254320
0.528551 0.353206 0.267133
0.534706 0.363345 0.279947
0.540861 0.373484 0.292760
0.547016 0.383623 0.305573
0.119761 0.140872 0.122187
0.134062 0.150290 0.124009
0.148363 0.159708 0.125831
0.162665 0.169126 0.127653
0.176966 0.178543 0.129475
0.191267 0.187961 0.131297
0.208994 0.198323 0.132650
0.227406 0.208874 0.133909
0.245818 0.219424 0.135169
0.264229 0.229975 0.136428
0.282641 0.240526 0.137687
0.300930 0.247842 0.140190
0.319158 0.253541 0.143314
0.337385 0.259241 0.146438
0.355612 0.264940 0.149562
0.373840 0.270639 0.152686
0.391256 0.276595 0.157752
0.407861 0.282808 0.164761
0.424466 0.289021 0.171770
0.441071 0.295234 0.178779
0.457676 0.301447 0.185788
0.472677 0.308247 0.194134
0.484471 0.316221 0.205156
0.496264 0.324195 0.216178
0.508057 0.332169 0.227200
0.519850 0.340143 0.238222
0.530680 0.348510 0.249687
0.536688 0.358841 0.263369
0.542697 0.369172 0.277051
0.548706 0.379503 0.290734
0.554714 0.389834 0.304416
0.560723 0.400165 0.318098
0.124629 0.147489 0.125968
0.138839 0.156898 0.128019
0.153049 0.166306 0.130069
0.167258 0.175715 0.132120
0.181468 0.185124 0.134171
0.195678 0.194533 0.136221
0.214053 0.206097 0.137475
0.233261 0.218093 0.138570
0.252468 0.230089 0.139665
0.271676 0.242086 0.140759
0.290884 0.254082 0.141854
0.309706 0.262008 0.144229
0.328336 0.267899 0.147243
0.346966 0.273790 0.150257
0.365596 0.279682 0.153271
0.384226 0.285573 0.156286
0.402085 0.291653 0.161416
0.419175 0.297920 0.168663
0.436265 0.304188 0.175910
0.453355 0.310456 0.183156
0.470445 0.316724 0.190403
0.485858 0.323576 0.199118
0.497917 0.331596 0.210771
0.509975 0.339615 0.222424
0.522034 0.347635 0.234077
0.534092 0.355655 0.245730
0.545118 0.364092 0.257867
0.550981 0.374615 0.272418
0.556843 0.385138 0.286969
0.562705 0.395662 0.301521
0.568568 0.406185 0.316072
0.574430 0.416708 0.330623
0.130348 0.154925 0.130285
0.144509 0.164282 0.132619
0.158670 0.173639 0.134953
0.172831 0.182996 0.137288
0.186992 0.192353 0.139622
0.201153 0.201710 0.141956
0.219751 0.213667 0.143481
0.239236 0.226145 0.144844
0.258721 0.238623 0.146207
0.278207 0.251101 0.147570
0.297692 0.263579 0.148933
0.316798 0.272371 0.151519
0.335714 0.279320 0.154716
0.354631 0.286270 0.157913
0.373547 0.293219 0.161111
0.392464 0.300169 0.164308
0.410639 0.306872 0.169582
0.428074 0.313329 0.176932
0.445508 0.319786 0.184282
0.462943 0.326243 0.191633
0.480377 0.332700 0.198983
0.496143 0.339715 0.207907
0.508571 0.347848 0.219978
0.520998 0.355980 0.232049
0.533426 0.364113 0.244119
0.545853 0.372245 0.256190
0.557222 0.380804 0.268779
0.563298 0.391495 0.283955
0.569374 0.402186 0.299132
0.575449 0.412877 0.314308
0.581525 0.423568 0.329485
0.587601 0.434259 0.344661
0.136492 0.162771 0.134869
0.150626 0.172055 0.137515
0.164759 0.181339 0.140160
0.178893 0.190622 0.142805
0.193027 0.199906 0.145451
0.207160 0.209190 0.148096
0.225769 0.221135 0.150077
0.245272 0.233613 0.151925
0.264776 0.246091 0.153772
0.284279 0.258569 0.155620
0.303783 0.271047 0.157468
0.323047 0.280833 0.160435
0.342193 0.289273 0.163962
0.361338 0.297714 0.167488
0.380483 0.306154 0.171015
0.399628 0.314595 0.174541
0.418055 0.322172 0.179998
0.435764 0.328885 0.187385
0.453473 0.335598 0.194772
0.471182 0.342311 0.202159
0.488891 0.349024 0.209546
0.504980 0.356259 0.218598
0.517828 0.364538 0.230980
0.530677 0.372817 0.243362
0.543525 0.381096 0.255743
0.556373 0.389375 0.268125
0.568158 0.398082 0.281057
0.574628 0.408928 0.296736
0.581097 0.419775 0.312416
0.587566 0.430621 0.328096
0.594035 0.441468 0.343775
0.600504 0.452314 0.359455
0.142637 0.170617 0.139454
0.156743 0.179828 0.142410
0.170849 0.189038 0.145367
0.184955 0.198249 0.148323
0.199061 0.207459 0.151279
0.213168 0.216670 0.154236
0.231787 0.228603 0.156672
0.251308 0.241081 0.159005
0.270830 0.253559 0.161338
0.290352 0.266036 0.163671
0.309874 0.278514 0.166003
0.329297 0.289295 0.169351
0.348671 0.299226 0.173207
0.368045 0.309158 0.177063
0.387419 0.319090 0.180919
0.406793 0.329021 0.184775
0.425471 0.337472 0.190415
0.443455 0.344441 0.197838
0.461438 0.351410 0.205262
0.479421 0.358379 0.212685
0.497405 0.365349 0.220109
0.513817 0.372803 0.229289
0.527086 0.381229 0.241982
0.540355 0.389654 0.254675
0.553624 0.398079 0.267368
0.566893 0.406504 0.280060
0.579095 0.415359 0.293335
0.585957 0.426361 0.309518
0.592820 0.437363 0.325700
0.599682 0.448365 0.341883
0.606545 0.459367 0.358066
0.613407 0.470369 0.374249
0.148781 0.178463 0.144039
0.162860 0.187600 0.147306
0.176938 0.196738 0.150573
0.191017 0.205875 0.153841
0.205096 0.215012 0.157108
0.219175 0.224150 0.160376
0.237805 0.236071 0.163268
0.257345 0.248549 0.166086
0.276885 0.261026 0.168903
0.296425 0.273504 0.171721
0.315965 0.285982 0.174538
0.335547 0.297757 0.178268
0.355149 0.309179 0.182453
0.374752 0.320602 0.186638
0.394354 0.332025 0.190823
0.413957 0.343448 0.195009
0.432887 0.352772 0.200831
0.451145 0.359997 0.208291
0.469403 0.367223 0.215752
0.487661 0.374448 0.223212
0.505919 0.381673 0.230672
0.522654 0.389347 0.239980
0.536344 0.397919 0.252984
0.550034 0.406491 0.265988
0.563724 0.415062 0.278992
0.577414 0.423634 0.291995
0.590031 0.432637 0.305613
0.597287 0.443794 0.322299
0.604543 0.454952 0.338985
0.611799 0.466109 0.355671
0.619055 0.477267 0.372357
0.626311 0.488424 0.389042
0.154925 0.186309 0.148623
0.168977 0.195373 0.152202
0.183028 0.204437 0.155780
0.197079 0.213501 0.159359
0.211131 0.222566 0.162937
0.225182 0.231630 0.166515
0.243822 0.243539 0.169864
0.263381 0.256016 0.173166
0.282939 0.268494 0.176469
0.302498 0.280972 0.179771
0.322056 0.293450 0.183073
0.341796 0.306218 0.187184
0.361628 0.319132 0.191698
0.381459 0.332046 0.196213
0.401290 0.344960 0.200728
0.421121 0.357874 0.205242
0.440303 0.368072 0.211248
0.458835 0.375553 0.218744
0.477368 0.383035 0.226241
0.495900 0.390516 0.233738
0.514432 0.397998 0.241235
0.531491 0.405892 0.250671
0.545602 0.414610 0.263986
0.559712 0.423328 0.277301
0.573823 0.432046 0.290616
0.587934 0.440764 0.303930
0.600968 0.449914 0.317891
0.608617 0.461227 0.335080
0.616266 0.472540 0.352269
0.623915 0.483853 0.369458
0.631565 0.495166 0.386647
0.639214 0.506479 0.403836
0.161377 0.194391 0.153468
0.175442 0.203460 0.157389
0.189507 0.212529 0.161311
0.203572 0.221597 0.165232
0.217637 0.230666 0.169154
0.231702 0.239735 0.173075
0.250433 0.251656 0.176946
0.270096 0.264147 0.180806
0.289760 0.276639 0.184667
0.309423 0.289131 0.188527
0.329087 0.301622 0.192388
0.348981 0.314904 0.197010
0.368991 0.328582 0.202014
0.389001 0.342260 0.207018
0.409010 0.355938 0.212022
0.429020 0.369615 0.217026
0.448295 0.380550 0.223386
0.466837 0.388740 0.231103
0.485378 0.396931 0.238819
0.503920 0.405121 0.246535
0.522461 0.413312 0.254252
0.539640 0.421750 0.263884
0.554094 0.430683 0.277350
0.568548 0.439616 0.290816
0.583002 0.448549 0.304282
0.597455 0.457482 0.317748
0.610843 0.466834 0.331883
0.618899 0.478284 0.349365
0.626956 0.489735 0.366846
0.635012 0.501185 0.384328
0.643068 0.512635 0.401810
0.651125 0.524085 0.419292
0.168136 0.202710 0.158573
0.182256 0.211861 0.162869
0.196376 0.221012 0.167166
0.210496 0.230163 0.171462
0.224615 0.239314 0.175759
0.238735 0.248465 0.180055
0.257635 0.260423 0.184514
0.277491 0.272942 0.189006
0.297346 0.285461 0.193498
0.317202 0.297980 0.197989
0.337058 0.310499 0.202481
0.357102 0.323815 0.207747
0.377239 0.337529 0.213401
0.397377 0.351243 0.219054
0.417515 0.364958 0.224707
0.437653 0.378672 0.230361
0.456864 0.390205 0.237247
0.475149 0.399558 0.245366
0.493435 0.408910 0.253485
0.511720 0.418262 0.261604
0.530005 0.427614 0.269722
0.547102 0.436922 0.279620
0.561821 0.446138 0.293077
0.576540 0.455355 0.306534
0.591259 0.464571 0.319990
0.605978 0.473788 0.333447
0.619657 0.483397 0.347588
0.628134 0.494966 0.365153
0.636611 0.506535 0.382717
0.645088 0.518104 0.400281
0.653565 0.529673 0.417845
0.662043 0.541242 0.435409
0.174895 0.211028 0.163677
0.189069 0.220262 0.168349
0.203244 0.229495 0.173020
0.217419 0.238728 0.177692
0.231594 0.247962 0.182363
0.245769 0.257195 0.187035
0.264838 0.269189 0.192083
0.284885 0.281736 0.197206
0.304933 0.294282 0.202328
0.324981 0.306829 0.207451
0.345029 0.319375 0.212574
0.365222 0.332725 0.218484
0.385488 0.346476 0.224787
0.405754 0.360227 0.231090
0.426019 0.373978 0.237393
0.446285 0.387728 0.243696
0.465433 0.399861 0.251108
0.483462 0.410375 0.259629
0.501491 0.420889 0.268150
0.519520 0.431403 0.276672
0.537549 0.441917 0.285193
0.554564 0.452093 0.295357
0.569548 0.461594 0.308804
0.584532 0.471094 0.322252
0.599517 0.480594 0.335699
0.614501 0.490094 0.349147
0.628471 0.499959 0.363294
0.637369 0.511647 0.380940
0.646267 0.523335 0.398587
0.655165 0.535023 0.416233
0.664063 0.546711 0.433880
0.672961 0.558399 0.451526
0.181653 0.219347 0.168782
0.195883 0.228663 0.173828
0.210113 0.237978 0.178875
0.224343 0.247294 0.183922
0.238572 0.256610 0.188968
0.252802 0.265925 0.194015
0.272040 0.277956 0.199651
0.292280 0.290530 0.205405
0.312520 0.303104 0.211159
0.332760 0.315678 0.216913
0.353000 0.328252 0.222667
0.373342 0.341635 0.229220
0.393736 0.355422 0.236173
0.414130 0.369210 0.243125
0.434524 0.382997 0.250078
0.454918 0.396785 0.257030
0.474001 0.409517 0.264968
0.491774 0.421193 0.273892
0.509547 0.432868 0.282816
0.527320 0.444544 0.291740
0.545093 0.456220 0.300664
0.562025 0.467265 0.311093
0.577275 0.477049 0.324531
0.592525 0.486833 0.337969
0.607774 0.496617 0.351408
0.623024 0.506400 0.364846
0.637285 0.516521 0.379000
0.646604 0.528328 0.396728
0.655923 0.540135 0.414457
0.665241 0.551942 0.432186
0.674560 0.563749 0.449915
0.683879 0.575556 0.467643
0.188412 0.227666 0.173886
0.202697 0.237064 0.179308
0.216981 0.246462 0.184730
0.231266 0.255860 0.190151
0.245551 0.265258 0.195573
0.259835 0.274656 0.200995
0.279243 0.286723 0.207220
0.299675 0.299324 0.213605
0.320107 0.311926 0.219990
0.340539 0.324527 0.226375
0.360971 0.337128 0.232761
0.381463 0.350545 0.239957
0.401985 0.364369 0.247559
0.422507 0.378193 0.255161
0.443029 0.392017 0.262763
0.463551 0.405841 0.270365
0.482570 0.419172 0.278829
0.500087 0.432010 0.288156
0.517604 0.444848 0.297482
0.535120 0.457685 0.306808
0.552637 0.470523 0.316135
0.569487 0.482437 0.326829
0.585002 0.492505 0.340258
0.600517 0.502572 0.353687
0.616032 0.512639 0.367116
0.631547 0.522707 0.380546
0.646099 0.533084 0.394705
0.655839 0.545010 0.412516
0.665578 0.556936 0.430327
0.675318 0.568862 0.448138
0.685057 0.580787 0.465950
0.694797 0.592713 0.483761
0.194872 0.235543 0.178802
0.209287 0.245154 0.184711
0.223703 0.254766 0.190621
0.238119 0.264377 0.196531
0.252535 0.273989 0.202440
0.266950 0.283600 0.208350
0.286583 0.295815 0.215228
0.307259 0.308551 0.222299
0.327935 0.321286 0.229370
0.348611 0.334022 0.236442
0.369287 0.346757 0.243513
0.389980 0.360259 0.251363
0.410682 0.374144 0.259602
0.431384 0.388029 0.267842
0.452086 0.401914 0.276081
0.472787 0.415800 0.284320
0.491828 0.429554 0.293321
0.509208 0.443179 0.303084
0.526587 0.456803 0.312846
0.543967 0.470428 0.322608
0.561347 0.484052 0.332371
0.578126 0.496632 0.343376
0.593705 0.507123 0.356866
0.609284 0.517614 0.370356
0.624863 0.528106 0.383846
0.640442 0.538597 0.397337
0.655106 0.549349 0.411547
0.665193 0.561406 0.429355
0.675280 0.573463 0.447163
0.685367 0.585520 0.464971
0.695455 0.597577 0.482779
0.705542 0.609634 0.500587
0.200733 0.242538 0.183339
0.215432 0.252625 0.189962
0.230131 0.262712 0.196586
0.244830 0.272800 0.203209
0.259530 0.282887 0.209832
0.274229 0.292974 0.216455
0.294199 0.305558 0.224115
0.315222 0.318641 0.231982
0.336246 0.331724 0.239849
0.357269 0.344807 0.247717
0.378293 0.357890 0.255584
0.399291 0.371581 0.264108
0.420276 0.385576 0.272960
0.441262 0.399571 0.281812
0.462247 0.413566 0.290664
0.483233 0.427561 0.299517
0.502466 0.441389 0.309075
0.519946 0.455050 0.319341
0.537426 0.468711 0.329607
0.554907 0.482372 0.339872
0.572387 0.496033 0.350138
0.589121 0.508872 0.361545
0.604361 0.520067 0.375237
0.619602 0.531263 0.388928
0.634842 0.542459 0.402620
0.650083 0.553654 0.416311
0.664498 0.565019 0.430660
0.674786 0.577232 0.448294
0.685075 0.589445 0.465928
0.695363 0.601657 0.483562
0.705652 0.613870 0.501197
0.715940 0.626082 0.518831
0.206593 0.249533 0.187877
0.221576 0.260096 0.195213
0.236559 0.270659 0.202550
0.251542 0.281222 0.209887
0.266525 0.291785 0.217223
0.281508 0.302348 0.224560
0.301814 0.315300 0.233002
0.323185 0.328731 0.241665
0.344557 0.342162 0.250328
0.365928 0.355593 0.258992
0.387299 0.369023 0.267655
0.408602 0.382903 0.276852
0.429871 0.397008 0.286318
0.451140 0.411113 0.295783
0.472409 0.425217 0.305248
0.493678 0.439322 0.314713
0.513103 0.453223 0.324830
0.530684 0.466921 0.335598
0.548265 0.480618 0.346367
0.565846 0.494316 0.357136
0.583427 0.508014 0.367905
0.600115 0.521112 0.379715
0.615017 0.533012 0.393607
0.629919 0.544912 0.407500
0.644821 0.556812 0.421393
0.659723 0.568712 0.435286
0.673890 0.580690 0.449773
0.684379 0.593058 0.467233
0.694869 0.605426 0.484694
0.705359 0.617794 0.502154
0.715848 0.630162 0.519615
0.726338 0.642530 0.537075
0.212454 0.256528 0.192414
0.227721 0.267567 0.200464
0.242987 0.278606 0.208514
0.258254 0.289644 0.216565
0.273520 0.300683 0.224615
0.288786 0.311721 0.232665
0.309430 0.325043 0.241889
0.331149 0.338821 0.251348
0.352868 0.352600 0.260807
0.374586 0.366378 0.270266
0.396305 0.380157 0.279725
0.417913 0.394226 0.289597
0.439466 0.408440 0.299675
0.461019 0.422654 0.309753
0.482571 0.436869 0.319831
0.504124 0.451083 0.329909
0.523741 0.465058 0.340584
0.541422 0.478792 0.351856
0.559104 0.492526 0.363128
0.576785 0.506260 0.374400
0.594467 0.519994 0.385671
0.611109 0.533352 0.397884
0.625673 0.545956 0.411978
0.640236 0.558561 0.426072
0.654800 0.571165 0.440166
0.669364 0.583769 0.454260
0.683282 0.596360 0.468886
0.693973 0.608884 0.486173
0.704664 0.621408 0.503459
0.715355 0.633931 0.520746
0.726045 0.646455 0.538033
0.736736 0.658978 0.555319
0.218315 0.263524 0.196951
0.233865 0.275038 0.205715
0.249415 0.286552 0.214479
0.264965 0.298066 0.223243
0.280515 0.309581 0.232006
0.296065 0.321095 0.240770
0.317046 0.334786 0.250777
0.339112 0.348912 0.261032
0.361179 0.363038 0.271286
0.383245 0.377164 0.281541
0.405311 0.391290 0.291796
0.427224 0.405548 0.302342
0.449061 0.419872 0.313033
0.470897 0.434196 0.323724
0.492733 0.448520 0.334415
0.514569 0.462845 0.345106
0.534378 0.476892 0.356338
0.552161 0.490663 0.368113
0.569943 0.504434 0.379888
0.587725 0.518204 0.391663
0.605507 0.531975 0.403438
0.622104 0.545592 0.416053
0.636329 0.558901 0.430349
0.650554 0.572209 0.444644
0.664779 0.585518 0.458939
0.679004 0.598827 0.473234
0.692674 0.612031 0.487999
0.703566 0.624710 0.505112
0.714458 0.637389 0.522225
0.725350 0.650068 0.539338
0.736242 0.662747 0.556451
0.747135 0.675426 0.573563
0.223695 0.269747 0.201197
0.239605 0.281871 0.210800
0.255515 0.293995 0.220402
0.271425 0.306119 0.230004
0.287335 0.318243 0.239607
0.303245 0.330367 0.249209
0.324601 0.344533 0.260084
0.347047 0.359108 0.271214
0.369494 0.373682 0.282345
0.391940 0.388256 0.293475
0.414386 0.402830 0.304605
0.436617 0.417341 0.315854
0.458742 0.431819 0.327162
0.480866 0.446297 0.338470
0.502991 0.460775 0.349779
0.525115 0.475253 0.361087
0.545115 0.489386 0.372847
0.562992 0.503174 0.385058
0.580869 0.516961 0.397269
0.598745 0.530749 0.409480
0.616622 0.544536 0.421691
0.633181 0.558351 0.434653
0.647104 0.572221 0.449118
0.661027 0.586091 0.463582
0.674951 0.599961 0.478047
0.688874 0.613831 0.492511
0.702329 0.627542 0.507405
0.713444 0.640459 0.524445
0.724559 0.653376 0.541484
0.735673 0.666293 0.558524
0.746788 0.679210 0.575563
0.757903 0.692127 0.592603
0.226673 0.272110 0.203986
0.243324 0.285515 0.215052
0.259975 0.298920 0.226118
0.276626 0.312324 0.237184
0.293276 0.325729 0.248250
0.309927 0.339134 0.259316
0.331857 0.354306 0.271495
0.354843 0.369832 0.283897
0.377829 0.385358 0.296298
0.400815 0.400883 0.308700
0.423801 0.416409 0.321101
0.446419 0.431486 0.333201
0.468855 0.446340 0.345150
0.491290 0.461193 0.357099
0.513726 0.476046 0.369048
0.536161 0.490899 0.380996
0.556349 0.505179 0.393127
0.574290 0.518884 0.405438
0.592231 0.532589 0.417750
0.610171 0.546294 0.430062
0.628112 0.559999 0.442373
0.644674 0.573708 0.455406
