filters/luts/Depression 04_S.cube
# LUT by SparkleStock. Enhanced with VOXCOLOR algorithms.
LUT_3D_SIZE 5
DOMAIN_MIN 0.000000 0.000000 0.000000
DOMAIN_MAX 0.903226 0.903226 0.903226
0.019536 0.054701 0.019536
0.084320 0.083524 0.047855
0.180393 0.119824 0.076821
0.299862 0.171807 0.107291
0.420143 0.235228 0.142495
0.041916 0.097270 0.042105
0.163739 0.171039 0.058696
0.311360 0.219999 0.083344
0.447124 0.265671 0.132777
0.531634 0.327562 0.209605
0.075844 0.155327 0.071503
0.206559 0.234304 0.100349
0.379464 0.330033 0.138456
0.528982 0.385456 0.204539
0.620154 0.451676 0.317077
0.118461 0.221947 0.110780
0.256044 0.300568 0.165531
0.440374 0.398905 0.235229
0.584935 0.491520 0.320381
0.687395 0.568083 0.441488
0.152420 0.265706 0.142188
0.307561 0.376738 0.263304
0.511041 0.492666 0.377674
0.663960 0.584151 0.471962
0.764233 0.673506 0.576996
0.038237 0.091780 0.074843
0.136992 0.109220 0.102419
0.276115 0.142212 0.146323
0.400674 0.194304 0.181596
0.478389 0.254760 0.214262
0.068769 0.150490 0.137956
0.191004 0.218190 0.192365
0.374958 0.257261 0.223685
0.539786 0.301797 0.254552
0.631671 0.375943 0.304108
0.109854 0.223445 0.197827
0.240551 0.323510 0.250854
0.428485 0.408433 0.272721
0.611607 0.448915 0.305511
0.727864 0.504570 0.372581
0.172569 0.314444 0.270694
0.317140 0.414912 0.334874
0.491613 0.510342 0.375159
0.651711 0.586770 0.405196
0.783799 0.642827 0.468895
0.263462 0.421758 0.382262
0.412608 0.503861 0.440942
0.582876 0.597481 0.509962
0.725471 0.678071 0.560946
0.824504 0.746419 0.607069
0.068022 0.149758 0.151916
0.152811 0.177280 0.182712
0.321638 0.199449 0.212559
0.456063 0.252641 0.265787
0.524002 0.316001 0.300466
0.101431 0.216821 0.233694
0.207943 0.286522 0.313276
0.391367 0.319541 0.370927
0.575442 0.362477 0.400024
0.685471 0.442069 0.433042
0.161322 0.308601 0.333502
0.272789 0.392108 0.406659
0.452493 0.461948 0.452250
0.652210 0.491081 0.465076
0.796050 0.540154 0.496423
0.235163 0.413127 0.432675
0.363391 0.501703 0.496340
0.532120 0.590833 0.535908
0.690850 0.650839 0.530223
0.845681 0.686945 0.549572
0.344711 0.531871 0.549115
0.480455 0.607227 0.605747
0.648360 0.688996 0.645926
0.770486 0.754259 0.658706
0.872512 0.809662 0.663650
0.097365 0.210461 0.234897
0.171594 0.259932 0.285108
0.328082 0.318465 0.338693
0.493249 0.364654 0.375019
0.574128 0.439345 0.435911
0.139720 0.289445 0.327702
0.240164 0.375520 0.419864
0.397532 0.441271 0.495676
0.580906 0.488071 0.547494
0.712943 0.559529 0.576745
0.217890 0.399731 0.446316
0.328268 0.480649 0.525613
0.474406 0.552732 0.595924
0.653900 0.589372 0.644500
0.814613 0.628863 0.658944
0.323551 0.508463 0.552639
0.433910 0.583237 0.620019
0.565984 0.654211 0.676592
0.712436 0.702906 0.697415
0.870773 0.725762 0.698511
0.434925 0.614050 0.652450
0.556802 0.685390 0.715453
0.679023 0.751285 0.762116
0.802776 0.811348 0.779808
0.900113 0.852568 0.769971
0.111655 0.242593 0.277262
0.204431 0.324885 0.362826
0.365776 0.432543 0.465039
0.525242 0.513652 0.533701
0.616323 0.561115 0.570133
0.187345 0.367397 0.419307
0.295034 0.461048 0.512615
0.441998 0.556891 0.606392
0.607891 0.635735 0.681745
0.731561 0.694916 0.731157
0.297333 0.502876 0.558571
0.412288 0.577742 0.630935
0.536912 0.648944 0.700866
0.684789 0.716038 0.769517
0.818015 0.768217 0.820605
0.412157 0.601435 0.650641
0.535298 0.674969 0.720952
0.643817 0.735428 0.780011
0.752646 0.784760 0.823992
0.871391 0.822235 0.861440
0.543533 0.684559 0.724574
0.651856 0.752888 0.791333
0.740499 0.807579 0.842917
0.825551 0.854627 0.877553
0.913732 0.891282 0.887922
