filters/luts/Depression 02.cube
# LUT by SparkleStock. Enhanced with VOXCOLOR algorithms.
LUT_3D_SIZE 8
DOMAIN_MIN 0.000000 0.000000 0.000000
DOMAIN_MAX 0.903226 0.903226 0.903226
0.082051 0.085958 0.089866
0.117342 0.104266 0.107732
0.157163 0.122573 0.124810
0.201686 0.142266 0.142140
0.250187 0.164733 0.159865
0.301800 0.190728 0.177226
0.355453 0.220158 0.194108
0.409540 0.252346 0.211974
0.096168 0.108236 0.103541
0.148392 0.138098 0.117024
0.194652 0.161378 0.136123
0.244825 0.184943 0.156712
0.298157 0.209842 0.178229
0.352559 0.236493 0.199803
0.406049 0.265353 0.220974
0.456521 0.296544 0.242455
0.113829 0.132876 0.117807
0.167156 0.163621 0.132066
0.231659 0.198513 0.152467
0.287506 0.227536 0.175172
0.343630 0.256324 0.200379
0.401177 0.287060 0.227436
0.457000 0.319868 0.255515
0.508292 0.355120 0.284561
0.136248 0.160920 0.134570
0.188622 0.191892 0.150693
0.258791 0.229477 0.171942
0.328031 0.269181 0.199353
0.389425 0.304838 0.228546
0.448482 0.340562 0.260701
0.506652 0.379319 0.296366
0.560212 0.421061 0.334403
0.162543 0.191910 0.154390
0.214326 0.223686 0.172505
0.286750 0.262806 0.196070
0.364139 0.307793 0.226758
0.433273 0.352669 0.262189
0.495238 0.395659 0.300397
0.554026 0.439860 0.342501
0.608889 0.487807 0.388976
0.190366 0.223640 0.175722
0.242662 0.257892 0.197537
0.318444 0.301038 0.226073
0.400963 0.349478 0.260587
0.477145 0.400475 0.301363
0.542130 0.450495 0.346194
0.600153 0.500314 0.394923
0.654002 0.552460 0.448013
0.215715 0.252519 0.195392
0.271242 0.293317 0.225702
0.352357 0.344209 0.263578
0.440830 0.398644 0.305024
0.522700 0.453170 0.350053
0.590939 0.507245 0.399840
0.648129 0.561515 0.454805
0.698488 0.616536 0.513946
0.232794 0.273126 0.209351
0.297029 0.328724 0.256908
0.386446 0.393297 0.311447
0.481865 0.457064 0.364431
0.568798 0.515697 0.414754
0.640214 0.570291 0.466146
0.696954 0.624826 0.523444
0.744691 0.682044 0.588265
0.095947 0.108015 0.118540
0.136418 0.117357 0.126245
0.185687 0.138084 0.145437
0.238136 0.161562 0.166196
0.291305 0.186462 0.186361
0.343459 0.212543 0.205488
0.392928 0.239205 0.224055
0.437495 0.265103 0.243856
0.112454 0.131886 0.144766
0.157263 0.159801 0.161944
0.219012 0.185610 0.180303
0.282561 0.214078 0.199887
0.343652 0.244984 0.220624
0.400728 0.277761 0.241984
0.452682 0.311553 0.263653
0.498402 0.344667 0.286040
0.132328 0.160789 0.164290
0.181870 0.198050 0.184210
0.253719 0.233870 0.203044
0.323939 0.266195 0.225140
0.389783 0.299272 0.249855
0.449935 0.334096 0.276255
0.503306 0.369992 0.303763
0.549244 0.406096 0.332092
0.157565 0.193728 0.185279
0.211732 0.237591 0.208452
0.284198 0.276833 0.229659
0.362760 0.316245 0.254147
0.433836 0.353940 0.282968
0.496516 0.391976 0.315381
0.551912 0.431626 0.350345
0.599336 0.472348 0.386916
0.188605 0.231185 0.210229
0.246539 0.279535 0.237258
0.318044 0.320637 0.262037
0.399315 0.363761 0.289545
0.475326 0.406981 0.321800
0.541186 0.449920 0.359355
0.598075 0.493972 0.401499
0.646957 0.539766 0.446552
0.224739 0.273503 0.240782
0.285524 0.323738 0.270714
0.356897 0.367219 0.300011
0.438463 0.412889 0.332004
0.517293 0.459906 0.367974
0.584595 0.506265 0.408623
0.641324 0.553585 0.455397
0.690275 0.603153 0.507324
0.264888 0.320525 0.278788
0.326487 0.368816 0.308237
0.398768 0.416053 0.343519
0.481406 0.465944 0.381976
0.561632 0.515860 0.422640
0.629521 0.563957 0.465817
0.684339 0.611658 0.513847
0.730033 0.661151 0.568166
0.307580 0.371514 0.326771
0.365126 0.411559 0.347812
0.440635 0.465922 0.392120
0.525622 0.522903 0.440265
0.606952 0.576619 0.486932
0.675389 0.625601 0.532616
0.728023 0.671055 0.579607
0.769125 0.716885 0.631741
0.112206 0.133026 0.150167
0.149318 0.143364 0.158207
0.208869 0.154871 0.166819
0.268266 0.178807 0.188251
0.324927 0.206388 0.211930
0.377342 0.233392 0.233253
0.423384 0.258767 0.252421
0.460806 0.281094 0.271324
0.130926 0.160448 0.181296
0.173276 0.192199 0.206238
0.235723 0.210459 0.218652
0.307067 0.238711 0.237825
0.375080 0.271998 0.259861
0.435722 0.307035 0.282355
0.488416 0.343003 0.305604
0.532736 0.378706 0.330702
0.155852 0.194775 0.216694
0.200554 0.232986 0.245082
0.267350 0.266469 0.264928
0.347827 0.301252 0.283537
0.423886 0.339046 0.304764
0.489339 0.378935 0.329128
0.544030 0.419507 0.356192
0.588275 0.458783 0.385580
0.184034 0.234095 0.248986
0.233740 0.278376 0.277711
0.303254 0.320976 0.300207
0.386778 0.360649 0.320650
0.466723 0.400096 0.344488
0.535118 0.440867 0.372937
0.590996 0.482632 0.405323
0.635498 0.524041 0.440611
0.218746 0.278656 0.283132
0.273110 0.327605 0.312929
0.344740 0.375044 0.337279
0.426288 0.417169 0.360803
0.506774 0.457721 0.386793
0.577038 0.499453 0.418945
0.634114 0.542736 0.457233
0.679373 0.586738 0.499208
0.260726 0.329400 0.323033
0.317870 0.379827 0.353995
0.391336 0.429350 0.380158
0.469985 0.472967 0.407390
0.548504 0.514845 0.436444
0.617749 0.556548 0.469921
0.674351 0.600233 0.511000
0.719739 0.646313 0.558657
0.309652 0.387432 0.372355
0.366772 0.435046 0.402027
0.441486 0.484069 0.428612
0.517922 0.529182 0.459670
0.593487 0.572696 0.493043
0.660219 0.614233 0.528061
0.713786 0.655614 0.568070
0.756142 0.699544 0.615814
0.365139 0.453632 0.436384
0.417663 0.492550 0.458182
0.492005 0.538029 0.481573
0.566955 0.585302 0.516614
0.639759 0.631088 0.554740
0.703882 0.673232 0.592593
0.753665 0.711335 0.630583
0.790922 0.749081 0.672833
0.132215 0.162551 0.186656
0.164944 0.175393 0.197229
0.223135 0.187080 0.204879
0.292695 0.203201 0.215897
0.355329 0.230384 0.239328
0.408665 0.260851 0.265337
0.453192 0.288453 0.287188
0.486976 0.311684 0.306396
0.151717 0.192036 0.219577
0.193476 0.229055 0.253144
0.251952 0.250407 0.269186
0.326402 0.272088 0.283161
0.400188 0.303835 0.304011
0.465074 0.340842 0.327856
0.519721 0.379112 0.352015
0.564698 0.418267 0.378087
0.180768 0.232581 0.263781
0.224561 0.273751 0.299519
0.286425 0.311486 0.327326
0.363021 0.339589 0.344134
0.444490 0.375205 0.362213
0.517101 0.416766 0.384373
0.575955 0.459946 0.410168
0.622859 0.503738 0.440161
0.216683 0.279770 0.311078
0.261430 0.322880 0.345630
0.324882 0.366350 0.375929
0.402556 0.401933 0.395100
0.488115 0.441308 0.412271
0.564273 0.484732 0.434056
0.623699 0.529158 0.462103
0.668763 0.572677 0.495591
0.255621 0.331431 0.358037
0.304355 0.377558 0.390986
0.369151 0.424143 0.419974
0.446302 0.465235 0.440177
0.529304 0.504314 0.458503
0.604817 0.545478 0.482176
0.664682 0.588719 0.513511
0.708976 0.631697 0.551052
0.300758 0.388309 0.407146
0.353144 0.436114 0.439146
0.419052 0.483883 0.466637
0.495137 0.527544 0.487636
0.572772 0.565941 0.508432
0.643496 0.603056 0.532993
0.701610 0.642975 0.565569
0.745582 0.685426 0.606673
0.353841 0.451703 0.462759
0.406903 0.497673 0.493436
0.473072 0.543528 0.518961
0.548207 0.587287 0.540474
0.620557 0.625726 0.563795
0.684938 0.660475 0.589371
0.738083 0.695635 0.620177
0.778877 0.733944 0.659856
0.413473 0.522225 0.530458
0.463784 0.561965 0.556149
0.528609 0.602645 0.576753
0.602515 0.644603 0.597226
0.669716 0.682460 0.622090
0.727988 0.716578 0.649683
0.775306 0.747703 0.678384
0.810637 0.778759 0.711828
0.154067 0.194257 0.225420
0.183495 0.210636 0.239999
0.238086 0.228203 0.253238
0.309572 0.245410 0.263827
0.381125 0.267625 0.279069
0.439859 0.298414 0.304654
0.484682 0.331820 0.332829
0.518080 0.360764 0.355824
0.174508 0.225336 0.259943
0.217227 0.268893 0.302111
0.272134 0.297703 0.325856
0.344203 0.321519 0.342566
0.421249 0.348220 0.360018
0.490724 0.383442 0.382578
0.548487 0.424712 0.408057
0.595910 0.468056 0.434529
0.207757 0.272398 0.310360
0.252967 0.318557 0.353108
0.311261 0.361972 0.389734
0.381784 0.391794 0.411613
0.461328 0.421627 0.429375
0.538008 0.459786 0.448772
0.602725 0.504337 0.471746
0.654316 0.551834 0.499918
0.250353 0.327947 0.368040
0.294783 0.372462 0.407431
0.353311 0.417608 0.444672
0.423267 0.455011 0.469954
0.502818 0.488382 0.487550
0.582120 0.527710 0.504171
0.648973 0.572832 0.525692
0.698967 0.618870 0.555000
0.297014 0.385998 0.425119
0.341514 0.429682 0.461063
0.399363 0.474236 0.495546
0.468278 0.514763 0.520740
0.544793 0.548998 0.536764
0.622772 0.587261 0.551495
0.688855 0.630610 0.572965
0.735677 0.673483 0.603876
0.345910 0.446986 0.482214
0.393178 0.491173 0.515687
0.450572 0.535169 0.546775
0.517916 0.576145 0.569759
0.590442 0.611044 0.584745
0.662178 0.644933 0.599006
0.723643 0.682240 0.620847
0.768553 0.721682 0.653081
0.399332 0.511862 0.541433
0.449270 0.555553 0.573258
0.506059 0.597417 0.600746
0.571896 0.637358 0.621145
0.640689 0.672646 0.636031
0.704285 0.702643 0.651137
0.757687 0.732168 0.671885
0.798842 0.765405 0.701939
0.457761 0.579851 0.605717
0.507427 0.619978 0.634732
0.562991 0.657568 0.658079
0.627427 0.694476 0.675439
0.692551 0.728378 0.689900
0.748760 0.756661 0.705653
0.793352 0.780806 0.724324
0.827917 0.805963 0.748921
0.174327 0.223309 0.261405
0.202902 0.244925 0.281362
0.256385 0.271947 0.304071
0.326442 0.298935 0.324264
0.401856 0.323894 0.340340
0.467854 0.352178 0.360278
0.517194 0.387058 0.388543
0.551779 0.424353 0.419206
0.197786 0.258942 0.300338
0.243043 0.309458 0.350096
0.296794 0.347104 0.383273
0.365678 0.379863 0.409338
0.442017 0.408868 0.430272
0.513715 0.440446 0.451547
0.574609 0.479936 0.476110
0.625235 0.526980 0.503423
0.237253 0.314420 0.358419
0.284723 0.365404 0.406975
0.340822 0.413591 0.450578
0.407327 0.451023 0.481213
0.482297 0.482302 0.504283
0.557388 0.515710 0.525013
0.624984 0.556718 0.545725
0.682012 0.605733 0.569546
0.285714 0.377954 0.423259
0.332513 0.425162 0.466437
0.387887 0.472238 0.508154
0.451555 0.513781 0.541350
0.522901 0.546548 0.565027
0.597924 0.579921 0.583724
0.667864 0.620282 0.601096
0.725138 0.666811 0.622391
0.338850 0.441969 0.486752
0.383994 0.485574 0.525105
0.437423 0.529129 0.562671
0.498082 0.569458 0.594075
0.564991 0.602294 0.614682
0.636959 0.634988 0.629796
0.705154 0.673210 0.644601
0.759031 0.715281 0.664847
0.392946 0.504308 0.546477
0.437674 0.545837 0.581063
0.489069 0.586788 0.614656
0.546701 0.624566 0.642469
0.609739 0.656968 0.659792
0.675727 0.686180 0.670869
0.738472 0.718963 0.682929
0.788424 0.756108 0.703021
0.447206 0.566845 0.604770
0.493885 0.607725 0.637270
0.543758 0.646052 0.666819
0.598419 0.681438 0.690723
0.658089 0.712987 0.705673
0.717605 0.738977 0.714349
0.771860 0.764393 0.724147
0.815519 0.793692 0.742918
0.501532 0.628922 0.662831
0.550696 0.668902 0.694279
0.599693 0.703808 0.720044
0.651981 0.735963 0.739902
0.708650 0.765834 0.752614
0.762738 0.790787 0.760665
0.807606 0.810618 0.769398
0.842179 0.830448 0.784828
0.189389 0.245083 0.288889
0.221336 0.274262 0.316026
0.277684 0.313497 0.350659
0.348722 0.354174 0.384638
0.423948 0.391120 0.413152
0.493218 0.422593 0.434733
0.546793 0.454398 0.457725
0.583290 0.492365 0.488260
0.220468 0.291743 0.338823
0.269541 0.348537 0.394153
0.325125 0.396045 0.437820
0.393317 0.439749 0.475570
0.467587 0.478611 0.507047
0.538601 0.512215 0.532722
0.599274 0.546943 0.556773
0.650155 0.590563 0.582941
0.270179 0.360118 0.408990
0.319418 0.413616 0.459887
0.374505 0.464690 0.507418
0.438932 0.510136 0.547423
0.510285 0.549470 0.579900
0.581323 0.583725 0.606913
0.646126 0.619287 0.630066
0.703902 0.663308 0.651332
0.325867 0.432160 0.481144
0.374432 0.480360 0.525465
0.427384 0.527370 0.568493
0.486167 0.571009 0.606787
0.552194 0.608957 0.638023
0.620642 0.642080 0.663803
0.686243 0.676444 0.684548
0.745406 0.717655 0.701646
0.382410 0.500210 0.547335
0.430768 0.544528 0.586750
0.481510 0.586656 0.624541
0.535648 0.625738 0.658386
0.594481 0.660064 0.685258
0.657308 0.690341 0.707211
0.720551 0.722040 0.724554
0.777427 0.758916 0.738649
0.438997 0.561543 0.605022
0.486057 0.602693 0.640585
0.534256 0.641104 0.674427
0.584702 0.676023 0.704207
0.637552 0.706364 0.726810
0.693544 0.732043 0.742058
0.751469 0.759333 0.753497
0.803814 0.791450 0.765667
0.494910 0.618683 0.657643
0.541089 0.657813 0.690457
0.586431 0.693004 0.720584
0.632992 0.724605 0.746573
0.681296 0.752002 0.765773
0.731660 0.774492 0.775631
0.782335 0.795969 0.781376
0.827664 0.820613 0.790846
0.546919 0.672056 0.706399
0.594830 0.710926 0.738508
0.638420 0.743151 0.765318
0.681542 0.771458 0.787188
0.725927 0.796646 0.803073
0.772374 0.818441 0.811110
0.816046 0.835427 0.814386
0.852487 0.851300 0.820457
0.197361 0.257560 0.304281
0.238088 0.296971 0.340768
0.302453 0.349817 0.388257
0.378477 0.405316 0.436832
0.455260 0.456077 0.479664
0.523275 0.497930 0.513059
0.575486 0.529360 0.535818
0.609645 0.557481 0.556350
0.243140 0.324641 0.375034
0.296456 0.385626 0.432773
0.357000 0.443423 0.487233
0.427542 0.498288 0.537060
0.501391 0.547480 0.579879
0.570429 0.589029 0.614807
0.627466 0.622675 0.642350
0.672540 0.655844 0.665892
0.309126 0.412954 0.464343
0.357818 0.463959 0.511924
0.412108 0.514914 0.559134
0.476219 0.567527 0.607920
0.545394 0.614819 0.650194
0.612981 0.655070 0.684877
0.672359 0.689170 0.714024
0.723483 0.723450 0.737444
0.374983 0.495987 0.546201
0.422141 0.539770 0.585901
0.471730 0.582611 0.625134
0.526437 0.625507 0.664383
0.588120 0.667508 0.702151
0.651643 0.705110 0.734977
0.710412 0.737658 0.763096
0.763242 0.770333 0.784643
0.433519 0.564752 0.611738
0.482589 0.606125 0.648230
0.530225 0.643873 0.682591
0.578705 0.679027 0.714670
0.630882 0.712639 0.744424
0.687089 0.744607 0.771865
0.742597 0.774140 0.796861
0.793719 0.803533 0.815356
0.486169 0.620440 0.662585
0.537534 0.661204 0.697861
0.584102 0.696184 0.729519
0.628908 0.727016 0.757805
0.673771 0.754083 0.781591
0.721269 0.778712 0.801563
0.770454 0.802789 0.820032
0.817763 0.828226 0.834761
0.538224 0.667852 0.704391
0.589104 0.707488 0.738136
0.633040 0.740109 0.767365
0.674013 0.767951 0.792835
0.713948 0.791646 0.813537
0.754279 0.811236 0.828074
0.796364 0.828798 0.838346
0.838592 0.848314 0.846705
0.589806 0.710749 0.742043
0.638906 0.749218 0.774389
0.679215 0.779148 0.800934
0.715719 0.804010 0.823330
0.751013 0.825383 0.841110
0.786495 0.843335 0.852979
0.823391 0.857181 0.857607
0.859899 0.870238 0.859430
