filters/luts/Depression 04.cube
# Created by: Adobe Photoshop Export Color Lookup Plugin
# LUT by SparkleStock. Enhanced with VOXCOLOR algorithms.
LUT_3D_SIZE 8
DOMAIN_MIN 0.000000 0.000000 0.000000
DOMAIN_MAX 0.903226 0.903226 0.903226
0.019536 0.054701 0.019536
0.052999 0.070960 0.036173
0.094899 0.089897 0.052944
0.145788 0.111828 0.070164
0.205672 0.137138 0.087912
0.274489 0.167577 0.105495
0.346772 0.201323 0.123392
0.417496 0.235937 0.143605
0.031447 0.077388 0.032203
0.086426 0.110186 0.046937
0.140926 0.136125 0.065331
0.199828 0.160886 0.086478
0.265841 0.188410 0.109550
0.336561 0.219141 0.133865
0.405624 0.252204 0.159228
0.469011 0.286495 0.186101
0.046839 0.105030 0.046209
0.109442 0.142341 0.062151
0.179907 0.177722 0.083514
0.251635 0.210297 0.108779
0.320991 0.240541 0.137020
0.393095 0.274156 0.169727
0.460666 0.310339 0.204731
0.520466 0.348405 0.241331
0.065950 0.136839 0.062893
0.130333 0.174138 0.081689
0.213016 0.215943 0.106641
0.297310 0.256902 0.136829
0.372871 0.294098 0.171638
0.445354 0.331422 0.212322
0.512215 0.372349 0.257529
0.570547 0.415902 0.304936
0.088590 0.171815 0.083004
0.154675 0.209882 0.105624
0.242350 0.252858 0.134672
0.335753 0.299764 0.170837
0.422605 0.348326 0.213844
0.494612 0.389748 0.260950
0.560784 0.435338 0.315461
0.618344 0.484024 0.372906
0.113545 0.208114 0.106259
0.181972 0.248231 0.135904
0.274374 0.295018 0.171978
0.374644 0.345364 0.214375
0.469089 0.396744 0.262652
0.542413 0.447387 0.316052
0.607342 0.496465 0.376856
0.663383 0.547572 0.440754
0.135980 0.239056 0.127465
0.208579 0.286345 0.171820
0.306759 0.340943 0.221308
0.413764 0.397657 0.273607
0.515192 0.452723 0.327245
0.594346 0.505025 0.383401
0.657868 0.556839 0.444015
0.711425 0.608995 0.508942
0.151971 0.259916 0.141809
0.231486 0.322061 0.212005
0.337079 0.390302 0.283812
0.451294 0.457106 0.351484
0.559177 0.517103 0.411562
0.643479 0.568124 0.465486
0.707675 0.618388 0.521057
0.763341 0.671064 0.582520
0.028989 0.073796 0.049785
0.075333 0.086103 0.060129
0.129180 0.107205 0.078485
0.189680 0.133332 0.100170
0.255547 0.161661 0.121723
0.324071 0.191660 0.142086
0.389109 0.221553 0.162521
0.447074 0.249329 0.184985
0.044559 0.103216 0.079285
0.098254 0.134102 0.100983
0.165546 0.163202 0.121057
0.239716 0.193339 0.141673
0.315211 0.226261 0.164216
0.387451 0.261312 0.188366
0.452121 0.296981 0.213980
0.508080 0.331234 0.241074
0.062263 0.135932 0.103799
0.121537 0.177464 0.130090
0.201328 0.215808 0.152225
0.287117 0.251703 0.175047
0.368511 0.286393 0.201785
0.443146 0.323791 0.232424
0.507235 0.362268 0.265502
0.561162 0.400293 0.299951
0.083801 0.172620 0.128326
0.148321 0.220259 0.157453
0.235675 0.265080 0.182749
0.329609 0.306436 0.209289
0.417846 0.344670 0.240711
0.493870 0.383623 0.278656
0.557694 0.424432 0.320291
0.610508 0.465823 0.363511
0.110374 0.213615 0.156688
0.180689 0.265210 0.190163
0.269305 0.311950 0.220130
0.367216 0.357110 0.250821
0.464669 0.402289 0.285830
0.541662 0.443485 0.329786
0.605757 0.487549 0.379724
0.658725 0.533046 0.431732
0.143233 0.259135 0.191652
0.219290 0.312099 0.229999
0.309610 0.361008 0.265802
0.408109 0.408324 0.302075
0.507064 0.455456 0.341148
0.586620 0.500547 0.384940
0.650813 0.547024 0.439905
0.703684 0.594899 0.497956
0.181135 0.307471 0.235423
0.261174 0.359278 0.276129
0.353472 0.411054 0.319107
0.453039 0.462335 0.363120
0.553075 0.512385 0.407424
0.634609 0.558530 0.452801
0.696391 0.603597 0.503336
0.747376 0.650512 0.559936
0.222191 0.356872 0.288378
0.302163 0.404163 0.325556
0.396884 0.460463 0.377760
0.498804 0.518550 0.433413
0.599638 0.572772 0.484387
0.681815 0.618774 0.529444
0.742400 0.661143 0.574173
0.792517 0.705162 0.624506
0.042459 0.100122 0.085927
0.088309 0.113143 0.096923
0.154536 0.130501 0.109638
0.227481 0.154792 0.128944
0.297749 0.186231 0.156052
0.365670 0.217243 0.180130
0.424880 0.245596 0.202220
0.473309 0.269811 0.224904
0.059511 0.133268 0.124483
0.109705 0.166185 0.153269
0.183071 0.193748 0.173538
0.267142 0.223364 0.193015
0.351560 0.259147 0.216467
0.427017 0.296358 0.241144
0.490248 0.333535 0.267494
0.542143 0.369045 0.296158
0.080948 0.171577 0.163112
0.134973 0.214013 0.197773
0.216036 0.252422 0.223856
0.309692 0.289588 0.246132
0.403417 0.327652 0.268679
0.483319 0.367949 0.295826
0.547502 0.408771 0.326759
0.598858 0.448344 0.360392
0.106131 0.214120 0.201314
0.165631 0.261906 0.236992
0.252188 0.308648 0.267014
0.351777 0.352237 0.292553
0.451547 0.392174 0.316171
0.534055 0.433223 0.347465
0.598278 0.475160 0.383908
0.648474 0.516181 0.423052
0.135355 0.260473 0.239729
0.202777 0.313225 0.276637
0.291498 0.364054 0.309058
0.392392 0.410937 0.337185
0.495364 0.453140 0.363261
0.579533 0.493503 0.398941
0.644253 0.536006 0.441630
0.694764 0.578913 0.487388
0.173838 0.312830 0.284121
0.248153 0.366833 0.323268
0.339564 0.419261 0.358659
0.438939 0.467530 0.390719
0.537623 0.510452 0.420689
0.622392 0.550348 0.453518
0.687346 0.593476 0.499863
0.738421 0.637806 0.550543
0.221727 0.371423 0.339364
0.299864 0.422321 0.377534
0.393457 0.474306 0.414768
0.491836 0.523606 0.450668
0.586268 0.567936 0.485234
0.668559 0.608175 0.519775
0.729997 0.647481 0.560051
0.779286 0.689550 0.608061
0.277745 0.435663 0.409032
0.354530 0.478044 0.438309
0.448714 0.527923 0.474757
0.546337 0.578569 0.514594
0.636999 0.625098 0.554455
0.715436 0.665533 0.590217
0.773686 0.701758 0.625387
0.820237 0.739486 0.666533
0.058923 0.132183 0.128591
0.099138 0.148387 0.143527
0.170511 0.164350 0.153926
0.254131 0.185487 0.168549
0.335004 0.214714 0.192633
0.402376 0.248860 0.223248
0.457591 0.278966 0.248766
0.499870 0.303798 0.272478
0.076378 0.167269 0.171233
0.123042 0.204153 0.206877
0.196036 0.232187 0.230083
0.285112 0.260231 0.249591
0.379448 0.294099 0.271655
0.459237 0.332925 0.297648
0.523223 0.371688 0.324697
0.573990 0.409627 0.354447
0.101431 0.210618 0.221059
0.151691 0.254140 0.262352
0.228857 0.293630 0.294518
0.323856 0.330994 0.319301
0.426221 0.368355 0.339425
0.513940 0.410251 0.362464
0.581519 0.452865 0.390551
0.634006 0.495063 0.423148
0.132032 0.259302 0.272364
0.186344 0.304636 0.312504
0.267618 0.352263 0.348826
0.366463 0.397032 0.377124
0.472384 0.436860 0.396786
0.564449 0.479357 0.419227
0.632721 0.522491 0.449176
0.684030 0.564646 0.484186
0.166991 0.311367 0.322008
0.227840 0.359673 0.360343
0.311843 0.410836 0.396298
0.411087 0.458681 0.425463
0.516564 0.500067 0.446828
0.609752 0.540296 0.470545
0.677625 0.581991 0.503669
0.727859 0.623261 0.542267
0.208755 0.368176 0.374524
0.277573 0.418177 0.412358
0.365544 0.470707 0.447856
0.463291 0.519846 0.478171
0.562231 0.561855 0.502246
0.650986 0.597414 0.524009
0.718364 0.637224 0.559395
0.769315 0.678165 0.601202
0.262416 0.431414 0.434322
0.335596 0.479321 0.471258
0.426481 0.529976 0.505297
0.523106 0.578190 0.535712
0.615905 0.620339 0.562351
0.697110 0.655053 0.586392
0.759162 0.689302 0.616190
0.807798 0.726871 0.655105
0.325840 0.500338 0.506234
0.399136 0.542180 0.538085
0.490284 0.588036 0.566963
0.585001 0.633763 0.595275
0.672352 0.675864 0.624080
0.745189 0.710029 0.649879
0.801515 0.740864 0.676108
0.845930 0.773685 0.709061
0.077025 0.167892 0.176777
0.112538 0.188194 0.196433
0.178925 0.209952 0.213912
0.267845 0.231121 0.226721
0.366404 0.252850 0.237874
0.436172 0.290162 0.274417
0.489759 0.325278 0.306350
0.529198 0.355261 0.334108
0.094919 0.204423 0.221212
0.139700 0.245774 0.263220
0.207515 0.279992 0.294194
0.297087 0.309449 0.316789
0.401199 0.337932 0.335229
0.486841 0.377487 0.362178
0.553268 0.418422 0.389632
0.605411 0.459776 0.419105
0.122873 0.251939 0.276058
0.172886 0.298750 0.322558
0.243952 0.342401 0.361784
0.334483 0.380368 0.392515
0.439039 0.413381 0.415160
0.535997 0.454663 0.435097
0.609650 0.498024 0.459453
0.666847 0.543217 0.489501
0.160485 0.306566 0.335861
0.213034 0.351972 0.379573
0.286451 0.399768 0.421519
0.377775 0.443631 0.456178
0.481928 0.481240 0.480373
0.584600 0.523258 0.495598
0.660280 0.566656 0.518164
0.716850 0.610801 0.548262
0.205763 0.364924 0.396406
0.260373 0.408800 0.437416
0.334184 0.455362 0.477204
0.425694 0.501240 0.510701
0.530485 0.544280 0.534502
0.632284 0.584996 0.547155
0.705960 0.626660 0.569161
0.758879 0.667380 0.599385
0.250674 0.424057 0.455563
0.314132 0.469896 0.493763
0.390811 0.517142 0.530304
0.481108 0.564388 0.561591
0.581544 0.609116 0.584985
0.672861 0.641891 0.597922
0.744597 0.679131 0.620711
0.797487 0.717289 0.652143
0.307223 0.487804 0.516376
0.376475 0.532940 0.553365
0.455241 0.578538 0.587493
0.544670 0.624526 0.616502
0.641112 0.668847 0.638945
0.720544 0.699546 0.654038
0.784072 0.729506 0.673339
0.833299 0.762990 0.702478
0.372739 0.554526 0.582599
0.444227 0.596217 0.617173
0.523270 0.638383 0.647752
0.611189 0.681666 0.673394
0.703637 0.724277 0.693811
0.771282 0.753138 0.709898
0.825820 0.778897 0.727491
0.869077 0.807399 0.752467
0.093474 0.202111 0.223475
0.127230 0.227536 0.249132
0.190305 0.258565 0.277692
0.275701 0.290650 0.303735
0.374350 0.320411 0.323761
0.465342 0.346160 0.338056
0.521612 0.386179 0.376406
0.561216 0.425310 0.413220
0.113855 0.242009 0.270983
0.159599 0.288256 0.318652
0.224656 0.329992 0.358361
0.309465 0.368269 0.391489
0.410382 0.403638 0.418987
0.508409 0.434348 0.439439
0.579540 0.476391 0.467530
0.635366 0.521793 0.497386
0.146579 0.295069 0.330769
0.198669 0.345426 0.381547
0.266378 0.393150 0.426572
0.350682 0.436785 0.465069
0.449671 0.475576 0.496675
0.551860 0.509931 0.520809
0.632385 0.552342 0.541253
0.696404 0.598993 0.565673
0.189899 0.355404 0.395976
0.245498 0.402873 0.442247
0.314905 0.451569 0.487343
0.397898 0.497656 0.527406
0.492992 0.538706 0.560042
0.595381 0.575007 0.585291
0.680083 0.616484 0.600463
0.746099 0.661099 0.621219
0.242166 0.418007 0.460856
0.300208 0.462529 0.503009
0.369399 0.508042 0.544331
0.449828 0.552898 0.581656
0.540640 0.595376 0.612752
0.638983 0.631663 0.636081
0.723111 0.671196 0.648039
0.786692 0.712038 0.667011
0.303031 0.478311 0.519867
0.361082 0.520604 0.558983
0.428717 0.563972 0.597474
0.506035 0.606890 0.632277
0.592195 0.647587 0.660445
0.684022 0.681485 0.675785
0.763378 0.718086 0.686203
0.821816 0.754897 0.705311
0.361507 0.539813 0.579924
0.426241 0.582216 0.617697
0.495244 0.623973 0.653013
0.570119 0.664901 0.684117
0.651220 0.704339 0.709097
0.735600 0.738882 0.722570
0.802892 0.767020 0.732685
0.854710 0.797499 0.751172
0.425194 0.600357 0.638371
0.494873 0.641865 0.675396
0.564532 0.681448 0.707903
0.637041 0.720068 0.735486
0.713613 0.758023 0.757486
0.790616 0.793004 0.770437
0.845451 0.815548 0.780646
0.888412 0.839852 0.797264
0.104723 0.226878 0.256623
0.141723 0.259621 0.290842
0.206401 0.302374 0.332613
0.291321 0.348395 0.374604
0.388019 0.391845 0.410777
0.480475 0.425668 0.434537
0.545283 0.457194 0.459786
0.589753 0.495313 0.492875
0.131862 0.276728 0.314646
0.181492 0.327518 0.366949
0.247429 0.377280 0.415539
0.330368 0.425499 0.460199
0.427688 0.471012 0.500060
0.524856 0.508551 0.529864
0.599684 0.543860 0.556105
0.659624 0.585957 0.583257
0.173537 0.339845 0.383874
0.229152 0.392182 0.436321
0.296092 0.442741 0.485278
0.376720 0.491502 0.530623
0.470644 0.537804 0.571776
0.569196 0.577340 0.604908
0.650485 0.614911 0.631323
0.718835 0.657732 0.653645
0.225289 0.407515 0.455185
0.284592 0.455568 0.501832
0.352049 0.503481 0.547589
0.429277 0.550348 0.590765
0.516723 0.595134 0.630035
0.612863 0.635015 0.663678
0.696727 0.673281 0.689244
0.767705 0.714494 0.707921
0.283814 0.473051 0.521688
0.346969 0.518276 0.564724
0.414208 0.562441 0.606220
0.486810 0.605114 0.644625
0.566053 0.645955 0.679070
0.655708 0.684325 0.709864
0.738111 0.721704 0.733312
0.807180 0.759855 0.749517
0.349655 0.532574 0.579333
0.413518 0.575721 0.619955
0.479098 0.617117 0.658681
0.547839 0.656656 0.694072
0.620799 0.694003 0.724543
0.699216 0.727133 0.745592
0.775635 0.761749 0.764767
0.839204 0.796389 0.779572
0.419613 0.589475 0.633247
0.482642 0.630725 0.671591
0.545117 0.669546 0.707272
0.609074 0.706472 0.739441
0.675974 0.741700 0.766876
0.746706 0.773802 0.784852
0.813103 0.802054 0.796835
0.869616 0.831492 0.808356
0.486542 0.642788 0.682850
0.551730 0.683388 0.721083
0.612814 0.720401 0.754743
0.672946 0.755231 0.783964
0.734484 0.788824 0.808434
0.798634 0.820665 0.824711
0.855432 0.845470 0.832855
0.902238 0.869592 0.842697
0.111040 0.241152 0.275182
0.156408 0.283952 0.320459
0.228805 0.340040 0.376388
0.318749 0.400673 0.433964
0.416486 0.458149 0.485607
0.505898 0.502627 0.522559
0.571272 0.531675 0.544243
0.613176 0.560018 0.567817
0.150309 0.309408 0.353294
0.205649 0.363653 0.408325
0.275965 0.421434 0.465273
0.360916 0.479653 0.520913
0.457313 0.535071 0.572037
0.550848 0.580856 0.612115
0.624600 0.614808 0.640966
0.680983 0.648757 0.666174
0.206124 0.388710 0.438144
0.265038 0.439645 0.488312
0.332771 0.491207 0.538725
0.412059 0.544053 0.589328
0.502791 0.597237 0.638866
0.595976 0.642725 0.680075
0.674303 0.679655 0.713306
0.739141 0.716525 0.739185
0.269912 0.466629 0.517908
0.331703 0.511237 0.560784
0.397630 0.555502 0.603766
0.470558 0.601238 0.647523
0.551933 0.648715 0.691732
0.640507 0.692579 0.731934
0.719453 0.730525 0.766685
0.787417 0.767999 0.792223
0.335361 0.534233 0.584400
0.402534 0.577134 0.625356
0.468050 0.617525 0.664406
0.534405 0.656070 0.701235
0.604295 0.693857 0.736241
0.683988 0.734295 0.772553
0.759596 0.771242 0.805833
0.826139 0.807425 0.829976
0.401049 0.587749 0.635043
0.472151 0.631311 0.676466
0.537381 0.670423 0.714389
0.599817 0.706308 0.748944
0.662070 0.739863 0.779969
0.726706 0.770773 0.805162
0.794654 0.804086 0.832788
0.855884 0.837556 0.854208
0.473340 0.635994 0.679318
0.541571 0.678600 0.720170
0.602553 0.716026 0.756639
0.659560 0.749868 0.789215
0.715225 0.781240 0.817875
0.771191 0.809535 0.839609
0.829349 0.836576 0.856133
0.882972 0.865117 0.870932
0.545969 0.682875 0.722079
0.610505 0.724025 0.762372
0.666445 0.759411 0.797026
0.717496 0.791155 0.827075
0.766654 0.820819 0.853012
0.815800 0.848332 0.872561
0.865998 0.872793 0.882905
0.911294 0.896569 0.892408
