filters/luts/Depression 03_S.cube
# Created by: Adobe Photoshop Export Color Lookup Plugin
# LUT by SparkleStock. Enhanced with VOXCOLOR algorithms.
LUT_3D_SIZE 32
0.023443 0.101587 0.093773
0.034409 0.104849 0.096845
0.045374 0.108110 0.099917
0.056339 0.111371 0.102989
0.067305 0.114632 0.106062
0.078270 0.117894 0.109134
0.091520 0.121115 0.112206
0.105227 0.124329 0.115278
0.118933 0.127543 0.118350
0.132640 0.130757 0.121423
0.146347 0.133971 0.124495
0.160999 0.137721 0.127567
0.176124 0.141739 0.130639
0.191248 0.145756 0.133711
0.206373 0.149774 0.136784
0.221497 0.153791 0.139856
0.236599 0.158494 0.143046
0.251676 0.163882 0.146355
0.266753 0.169270 0.149663
0.281831 0.174658 0.152972
0.296908 0.180046 0.156280
0.311686 0.185892 0.159809
0.325866 0.192650 0.163780
0.340045 0.199409 0.167750
0.354224 0.206168 0.171720
0.368404 0.212927 0.175690
0.382331 0.219835 0.179787
0.394998 0.227492 0.184513
0.407665 0.235149 0.189239
0.420332 0.242806 0.193966
0.432999 0.250463 0.198692
0.445665 0.258120 0.203419
0.027508 0.106314 0.096183
0.039974 0.110609 0.098725
0.052439 0.114904 0.101267
0.064905 0.119199 0.103808
0.077371 0.123494 0.106350
0.089836 0.127789 0.108891
0.103992 0.131290 0.111593
0.118485 0.134632 0.114327
0.132979 0.137974 0.117061
0.147472 0.141316 0.119794
0.161965 0.144658 0.122528
0.177368 0.148444 0.125451
0.193224 0.152452 0.128468
0.209081 0.156461 0.131485
0.224937 0.160469 0.134503
0.240794 0.164477 0.137520
0.256398 0.169139 0.140852
0.271750 0.174454 0.144499
0.287101 0.179769 0.148146
0.302453 0.185084 0.151793
0.317805 0.190399 0.155440
0.332620 0.196195 0.159430
0.346360 0.202954 0.164104
0.360100 0.209713 0.168779
0.373841 0.216472 0.173454
0.387581 0.223231 0.178128
0.400967 0.230166 0.182961
0.412582 0.237988 0.188584
0.424197 0.245810 0.194207
0.435812 0.253631 0.199830
0.447426 0.261453 0.205453
0.459041 0.269274 0.211076
0.031573 0.111040 0.098594
0.045539 0.116369 0.100605
0.059505 0.121698 0.102616
0.073470 0.127026 0.104627
0.087436 0.132355 0.106638
0.101402 0.137684 0.108649
0.116463 0.141464 0.110980
0.131744 0.144934 0.113375
0.147024 0.148404 0.115771
0.162304 0.151874 0.118166
0.177584 0.155344 0.120561
0.193736 0.159167 0.123335
0.210325 0.163166 0.126297
0.226913 0.167165 0.129259
0.243501 0.171165 0.132222
0.260090 0.175164 0.135184
0.276197 0.179784 0.138658
0.291823 0.185026 0.142644
0.307450 0.190268 0.146629
0.323076 0.195510 0.150615
0.338702 0.200751 0.154600
0.353553 0.206499 0.159050
0.366855 0.213258 0.164429
0.380156 0.220017 0.169808
0.393457 0.226775 0.175187
0.406758 0.233534 0.180566
0.419603 0.240498 0.186135
0.430166 0.248484 0.192655
0.440729 0.256470 0.199174
0.451291 0.264456 0.205694
0.461854 0.272442 0.212213
0.472417 0.280429 0.218733
0.035637 0.115767 0.101004
0.051104 0.122129 0.102485
0.066570 0.128492 0.103965
0.082036 0.134854 0.105446
0.097502 0.141216 0.106926
0.112968 0.147579 0.108407
0.128935 0.151638 0.110367
0.145002 0.155236 0.112424
0.161069 0.158834 0.114481
0.177136 0.162432 0.116538
0.193203 0.166031 0.118594
0.210105 0.169890 0.121218
0.227425 0.173880 0.124126
0.244746 0.177870 0.127033
0.262066 0.181860 0.129941
0.279386 0.185850 0.132848
0.295996 0.190429 0.136464
0.311897 0.195598 0.140788
0.327798 0.200767 0.145112
0.343699 0.205935 0.149436
0.359599 0.211104 0.153760
0.374487 0.216803 0.158670
0.387349 0.223561 0.164754
0.400211 0.230320 0.170837
0.413073 0.237079 0.176921
0.425935 0.243838 0.183004
0.438239 0.250829 0.189310
0.447750 0.258980 0.196726
0.457261 0.267130 0.204141
0.466771 0.275281 0.211557
0.476282 0.283432 0.218973
0.485793 0.291583 0.226389
0.039702 0.120493 0.103415
0.056669 0.127889 0.104365
0.073635 0.135285 0.105315
0.090602 0.142682 0.106264
0.107568 0.150078 0.107214
0.124535 0.157474 0.108164
0.141407 0.161812 0.109754
0.158261 0.165538 0.111473
0.175114 0.169264 0.113191
0.191968 0.172991 0.114909
0.208821 0.176717 0.116628
0.226474 0.180613 0.119102
0.244526 0.184594 0.121955
0.262578 0.188575 0.124807
0.280630 0.192556 0.127660
0.298682 0.196536 0.130513
0.315796 0.201075 0.134270
0.331971 0.206170 0.138933
0.348146 0.211265 0.143595
0.364321 0.216361 0.148258
0.380496 0.221456 0.152920
0.395421 0.227106 0.158291
0.407844 0.233865 0.165079
0.420267 0.240624 0.171866
0.432690 0.247383 0.178654
0.445113 0.254142 0.185442
0.456875 0.261160 0.192484
0.465334 0.269475 0.200796
0.473792 0.277791 0.209109
0.482251 0.286106 0.217421
0.490710 0.294422 0.225734
0.499169 0.302737 0.234046
0.043767 0.125220 0.105825
0.062234 0.133649 0.106245
0.080700 0.142079 0.106664
0.099167 0.150509 0.107083
0.117634 0.158939 0.107502
0.136101 0.167369 0.107922
0.153879 0.171986 0.109142
0.171519 0.175840 0.110521
0.189159 0.179695 0.111901
0.206800 0.183549 0.113281
0.224440 0.187403 0.114661
0.242843 0.191336 0.116986
0.261627 0.195308 0.119784
0.280410 0.199279 0.122581
0.299194 0.203251 0.125379
0.317978 0.207223 0.128177
0.335595 0.211720 0.132076
0.352045 0.216742 0.137077
0.368494 0.221764 0.142078
0.384944 0.226787 0.147079
0.401393 0.231809 0.152080
0.416354 0.237410 0.157911
0.428338 0.244169 0.165403
0.440322 0.250928 0.172896
0.452306 0.257686 0.180388
0.464290 0.264445 0.187880
0.475511 0.271491 0.195658
0.482918 0.279971 0.204867
0.490324 0.288451 0.214076
0.497731 0.296931 0.223285
0.505138 0.305412 0.232494
0.512545 0.313892 0.241703
0.050037 0.130852 0.108551
0.068510 0.139469 0.109065
0.086983 0.148087 0.109579
0.105456 0.156704 0.110092
0.123929 0.165322 0.110606
0.142402 0.173939 0.111120
0.160919 0.179698 0.112207
0.179445 0.184884 0.113408
0.197971 0.190071 0.114610
0.216497 0.195258 0.115811
0.235024 0.200445 0.117013
0.253991 0.204918 0.119247
0.273179 0.209033 0.121997
0.292367 0.213148 0.124748
0.311555 0.217263 0.127498
0.330742 0.221378 0.130249
0.348771 0.225982 0.134267
0.365640 0.231076 0.139553
0.382509 0.236170 0.144839
0.399377 0.241264 0.150125
0.416246 0.246358 0.155411
0.431529 0.252040 0.161637
0.443637 0.258898 0.169742
0.455746 0.265756 0.177847
0.467855 0.272614 0.185952
0.479964 0.279472 0.194057
0.491245 0.286644 0.202483
0.498385 0.295388 0.212512
0.505525 0.304132 0.222541
0.512665 0.312876 0.232571
0.519805 0.321620 0.242600
0.526945 0.330364 0.252629
0.056749 0.136665 0.111340
0.074929 0.145301 0.112073
0.093109 0.153937 0.112806
0.111289 0.162573 0.113540
0.129469 0.171208 0.114273
0.147649 0.179844 0.115006
0.166873 0.186917 0.116008
0.186304 0.193677 0.117063
0.205736 0.200438 0.118118
0.225168 0.207198 0.119173
0.244600 0.213958 0.120228
0.264095 0.219071 0.122383
0.283621 0.223360 0.125088
0.303148 0.227649 0.127792
0.322674 0.231938 0.130497
0.342200 0.236227 0.133202
0.360622 0.240968 0.137335
0.377939 0.246163 0.142895
0.395256 0.251357 0.148455
0.412573 0.256552 0.154016
0.429891 0.261746 0.159576
0.445551 0.267535 0.166183
0.457898 0.274512 0.174883
0.470244 0.281489 0.183583
0.482591 0.288466 0.192282
0.494938 0.295442 0.200982
0.506398 0.302761 0.210038
0.513429 0.311789 0.220872
0.520459 0.320816 0.231706
0.527489 0.329844 0.242540
0.534519 0.338871 0.253375
0.541549 0.347899 0.264209
0.063461 0.142479 0.114128
0.081348 0.151133 0.115081
0.099235 0.159787 0.116034
0.117123 0.168441 0.116987
0.135010 0.177095 0.117940
0.152897 0.185749 0.118893
0.172826 0.194136 0.119809
0.193164 0.202470 0.120718
0.213501 0.210804 0.121626
0.233839 0.219138 0.122535
0.254176 0.227471 0.123444
0.274199 0.233224 0.125519
0.294064 0.237687 0.128178
0.313928 0.242150 0.130837
0.333793 0.246613 0.133496
0.353658 0.251075 0.136155
0.372473 0.255954 0.140402
0.390239 0.261249 0.146237
0.408004 0.266544 0.152072
0.425769 0.271840 0.157907
0.443535 0.277135 0.163742
0.459573 0.283030 0.170730
0.472158 0.290126 0.180024
0.484742 0.297222 0.189318
0.497327 0.304317 0.198613
0.509911 0.311413 0.207907
0.521552 0.318878 0.217592
0.528472 0.328189 0.229232
0.535393 0.337500 0.240871
0.542313 0.346812 0.252510
0.549234 0.356123 0.264149
0.556154 0.365434 0.275789
0.070172 0.148293 0.116917
0.087767 0.156965 0.118089
0.105361 0.165637 0.119262
0.122956 0.174309 0.120434
0.140551 0.182982 0.121607
0.158145 0.191654 0.122779
0.178780 0.201355 0.123610
0.200023 0.211263 0.124372
0.221267 0.221170 0.125134
0.242510 0.231077 0.125897
0.263753 0.240984 0.126659
0.284303 0.247378 0.128655
0.304506 0.252014 0.131269
0.324709 0.256651 0.133882
0.344913 0.261287 0.136495
0.365116 0.265924 0.139109
0.384324 0.270940 0.143470
0.402538 0.276336 0.149579
0.420752 0.281732 0.155688
0.438965 0.287127 0.161798
0.457179 0.292523 0.167907
0.473595 0.298525 0.175276
0.486418 0.305740 0.185165
0.499240 0.312955 0.195054
0.512063 0.320169 0.204943
0.524885 0.327384 0.214832
0.536706 0.334995 0.225147
0.543516 0.344590 0.237591
0.550327 0.354185 0.250036
0.557138 0.363780 0.262480
0.563948 0.373374 0.274924
0.570759 0.382969 0.287369
0.076884 0.154106 0.119705
0.094186 0.162797 0.121097
0.111487 0.171487 0.122489
0.128789 0.180178 0.123881
0.146091 0.188868 0.125273
0.163393 0.197559 0.126665
0.184734 0.208575 0.127411
0.206883 0.220055 0.128027
0.229032 0.231536 0.128643
0.251180 0.243017 0.129259
0.273329 0.254498 0.129875
0.294407 0.261531 0.131792
0.314948 0.266342 0.134359
0.335490 0.271152 0.136927
0.356032 0.275962 0.139494
0.376574 0.280773 0.142062
0.396176 0.285926 0.146537
0.414838 0.291422 0.152921
0.433499 0.296919 0.159305
0.452161 0.302415 0.165689
0.470823 0.307912 0.172072
0.487618 0.314020 0.179823
0.500678 0.321354 0.190306
0.513738 0.328688 0.200790
0.526799 0.336021 0.211274
0.539859 0.343355 0.221757
0.551859 0.351113 0.232702
0.558560 0.360991 0.245951
0.565261 0.370869 0.259200
0.571962 0.380748 0.272450
0.578663 0.390626 0.285699
0.585364 0.400504 0.298948
0.084761 0.160959 0.123093
0.101825 0.169613 0.124747
0.118889 0.178267 0.126401
0.135953 0.186921 0.128055
0.153017 0.195575 0.129710
0.170081 0.204229 0.131364
0.191588 0.215651 0.132377
0.213984 0.227625 0.133261
0.236380 0.239600 0.134145
0.258776 0.251575 0.135030
0.281172 0.263549 0.135914
0.302500 0.271547 0.138056
0.323295 0.277556 0.140828
0.344090 0.283564 0.143600
0.364885 0.289573 0.146372
0.385680 0.295582 0.149144
0.405550 0.301436 0.153804
0.424495 0.307137 0.160352
0.443441 0.312838 0.166901
0.462386 0.318539 0.173449
0.481332 0.324239 0.179998
0.498433 0.330548 0.188005
0.511847 0.338074 0.198931
0.525261 0.345600 0.209857
0.538675 0.353125 0.220782
0.552089 0.360651 0.231708
0.564415 0.368616 0.243123
0.571299 0.378778 0.256982
0.578183 0.388940 0.270841
0.585066 0.399102 0.284700
0.591950 0.409264 0.298560
0.598834 0.419426 0.312419
0.093221 0.168333 0.126779
0.110075 0.176923 0.128717
0.126929 0.185513 0.130655
0.143782 0.194103 0.132593
0.160636 0.202693 0.134531
0.177490 0.211283 0.136469
0.198893 0.222655 0.137925
0.221207 0.234584 0.139285
0.243520 0.246513 0.140645
0.265833 0.258442 0.142005
0.288147 0.270371 0.143365
0.309588 0.279493 0.145886
0.330594 0.287213 0.148987
0.351599 0.294932 0.152088
0.372604 0.302652 0.155189
0.393609 0.310371 0.158290
0.413685 0.317209 0.163170
0.432832 0.323166 0.169828
0.451979 0.329123 0.176486
0.471126 0.335080 0.183145
0.490272 0.341036 0.189803
0.507645 0.347592 0.198005
0.521471 0.355347 0.209297
0.535297 0.363101 0.220589
0.549122 0.370856 0.231880
0.562948 0.378610 0.243172
0.575671 0.386813 0.254977
0.582885 0.397259 0.269349
0.590098 0.407704 0.283720
0.597311 0.418150 0.298092
0.604524 0.428595 0.312463
0.611737 0.439041 0.326834
0.101682 0.175706 0.130466
0.118325 0.184232 0.132687
0.134968 0.192758 0.134909
0.151612 0.201284 0.137130
0.168255 0.209810 0.139352
0.184898 0.218336 0.141573
0.206198 0.229659 0.143473
0.228429 0.241543 0.145309
0.250660 0.253426 0.147144
0.272891 0.265309 0.148980
0.295122 0.277192 0.150816
0.316676 0.287440 0.153715
0.337892 0.296870 0.157145
0.359108 0.306300 0.160576
0.380323 0.315730 0.164006
0.401539 0.325160 0.167437
0.421821 0.332982 0.172536
0.441169 0.339195 0.179304
0.460517 0.345408 0.186072
0.479865 0.351621 0.192840
0.499213 0.357834 0.199608
0.516857 0.364637 0.208006
0.531095 0.372620 0.219663
0.545332 0.380603 0.231321
0.559569 0.388586 0.242978
0.573807 0.396569 0.254636
0.586928 0.405010 0.266831
0.594471 0.415739 0.281715
0.602013 0.426468 0.296599
0.609556 0.437197 0.311483
0.617098 0.447926 0.326366
0.624641 0.458655 0.341250
0.110142 0.183079 0.134153
0.126575 0.191541 0.136658
0.143008 0.200003 0.139163
0.159441 0.208465 0.141668
0.175873 0.216927 0.144173
0.192306 0.225389 0.146678
0.213502 0.236664 0.149021
0.235651 0.248501 0.151333
0.257800 0.260339 0.153644
0.279949 0.272176 0.155956
0.302098 0.284014 0.158267
0.323765 0.295386 0.161544
0.345191 0.306527 0.165304
0.366617 0.317668 0.169064
0.388043 0.328809 0.172823
0.409469 0.339949 0.176583
0.429957 0.348754 0.181902
0.449506 0.355223 0.188780
0.469055 0.361693 0.195658
0.488604 0.368162 0.202535
0.508154 0.374631 0.209413
0.526069 0.381681 0.218006
0.540718 0.389893 0.230030
0.555367 0.398105 0.242053
0.570016 0.406316 0.254077
0.584665 0.414528 0.266100
0.598185 0.423207 0.278686
0.606056 0.434220 0.294082
0.613928 0.445232 0.309478
0.621800 0.456245 0.324874
0.629672 0.467257 0.340270
0.637544 0.478270 0.355666
0.118603 0.190453 0.137839
0.134825 0.198850 0.140628
0.151047 0.207248 0.143416
0.167270 0.215646 0.146205
0.183492 0.224044 0.148994
0.199715 0.232442 0.151782
0.220807 0.243668 0.154570
0.242874 0.255460 0.157357
0.264940 0.267251 0.160144
0.287006 0.279043 0.162931
0.309073 0.290835 0.165718
0.330853 0.303333 0.169373
0.352489 0.316184 0.173462
0.374126 0.329036 0.177551
0.395762 0.341887 0.181641
0.417399 0.354739 0.185730
0.438092 0.364527 0.191268
0.457843 0.371252 0.198256
0.477593 0.377978 0.205243
0.497344 0.384703 0.212231
0.517094 0.391428 0.219218
0.535281 0.398725 0.228006
0.550342 0.407166 0.240396
0.565403 0.415606 0.252785
0.580463 0.424047 0.265175
0.595524 0.432487 0.277564
0.609441 0.441404 0.290540
0.617642 0.452700 0.306448
0.625844 0.463996 0.322357
0.634045 0.475292 0.338265
0.642246 0.486589 0.354173
0.650447 0.497885 0.370082
0.127252 0.198346 0.141904
0.143337 0.206730 0.145031
0.159422 0.215114 0.148158
0.175508 0.223498 0.151285
0.191593 0.231882 0.154412
0.207678 0.240266 0.157539
0.228751 0.251475 0.160818
0.250822 0.263248 0.164126
0.272893 0.275022 0.167435
0.294964 0.286795 0.170743
0.317035 0.298569 0.174052
0.338920 0.311631 0.178195
0.360712 0.325338 0.182755
0.382504 0.339044 0.187315
0.404297 0.352751 0.191876
0.426089 0.366458 0.196436
0.446821 0.377088 0.202356
0.466494 0.384641 0.209636
0.486166 0.392194 0.216917
0.505839 0.399747 0.224197
0.525512 0.407301 0.231477
0.543746 0.415236 0.240540
0.559104 0.423938 0.253167
0.574462 0.432639 0.265794
0.589820 0.441340 0.278422
0.605178 0.450041 0.291049
0.619400 0.459216 0.304279
0.627945 0.470760 0.320521
0.636489 0.482303 0.336763
0.645033 0.493846 0.353005
0.653577 0.505389 0.369248
0.662121 0.516933 0.385490
0.136090 0.206759 0.146347
0.152112 0.215180 0.149867
0.168133 0.223600 0.153388
0.184154 0.232021 0.156908
0.200175 0.240442 0.160429
0.216196 0.248862 0.163949
0.237335 0.260085 0.167766
0.259498 0.271867 0.171641
0.281660 0.283650 0.175517
0.303823 0.295432 0.179393
0.325985 0.307215 0.183268
0.347968 0.320280 0.188009
0.369860 0.333987 0.193182
0.391753 0.347694 0.198355
0.413646 0.361401 0.203529
0.435538 0.375107 0.208702
0.456143 0.386437 0.215166
0.475459 0.395390 0.222922
0.494775 0.404343 0.230678
0.514091 0.413296 0.238434
0.533407 0.422248 0.246190
0.551464 0.431215 0.255607
0.567005 0.440209 0.268344
0.582546 0.449203 0.281081
0.598087 0.458197 0.293818
0.613628 0.467191 0.306555
0.628062 0.476645 0.319902
0.636963 0.488398 0.336300
0.645864 0.500152 0.352697
0.654765 0.511906 0.369095
0.663666 0.523659 0.385493
0.672567 0.535413 0.401891
0.144929 0.215172 0.150790
0.160886 0.223629 0.154704
0.176843 0.232087 0.158617
0.192800 0.240544 0.162531
0.208757 0.249001 0.166445
0.224715 0.257458 0.170359
0.245919 0.268694 0.174713
0.268173 0.280486 0.179156
0.290427 0.292278 0.183599
0.312681 0.304070 0.188042
0.334935 0.315861 0.192485
0.357015 0.328930 0.197823
0.379008 0.342637 0.203609
0.401002 0.356343 0.209395
0.422995 0.370050 0.215182
0.444988 0.383757 0.220968
0.465464 0.395786 0.227977
0.484424 0.406139 0.236208
0.503383 0.416491 0.244440
0.522342 0.426844 0.252672
0.541301 0.437196 0.260903
0.559182 0.447193 0.270673
0.574906 0.456480 0.283520
0.590630 0.465767 0.296367
0.606354 0.475054 0.309214
0.622077 0.484340 0.322060
0.636724 0.494073 0.335525
0.645981 0.506037 0.352078
0.655239 0.518001 0.368632
0.664497 0.529965 0.385185
0.673755 0.541929 0.401738
0.683012 0.553893 0.418291
0.153767 0.223585 0.155233
0.169660 0.232079 0.159540
0.185554 0.240573 0.163847
0.201447 0.249067 0.168154
0.217340 0.257561 0.172461
0.233233 0.266055 0.176768
0.254503 0.277304 0.181661
0.276848 0.289105 0.186671
0.299194 0.300906 0.191681
0.321539 0.312707 0.196691
0.343885 0.324508 0.201702
0.366063 0.337579 0.207638
0.388156 0.351286 0.214037
0.410250 0.364993 0.220436
0.432344 0.378699 0.226835
0.454438 0.392406 0.233234
0.474786 0.405136 0.240787
0.493389 0.416888 0.249494
0.511991 0.428640 0.258201
0.530594 0.440392 0.266909
0.549196 0.452144 0.275616
0.566900 0.463172 0.285740
0.582807 0.472751 0.298697
0.598713 0.482331 0.311653
0.614620 0.491910 0.324610
0.630527 0.501490 0.337566
0.645385 0.511502 0.351148
0.655000 0.523676 0.367857
0.664614 0.535851 0.384566
0.674229 0.548025 0.401275
0.683843 0.560199 0.417983
0.693458 0.572374 0.434692
0.162606 0.231998 0.159675
0.178435 0.240529 0.164376
0.194264 0.249059 0.169077
0.210093 0.257590 0.173777
0.225922 0.266120 0.178478
0.241751 0.274651 0.183178
0.263087 0.285914 0.188609
0.285524 0.297724 0.194186
0.307961 0.309534 0.199764
0.330398 0.321344 0.205341
0.352835 0.333154 0.210918
0.375110 0.346229 0.217452
0.397304 0.359935 0.224464
0.419499 0.373642 0.231476
0.441693 0.387349 0.238488
0.463888 0.401056 0.245500
0.484108 0.414485 0.253597
0.502354 0.427637 0.262780
0.520599 0.440788 0.271963
0.538845 0.453940 0.281146
0.557091 0.467092 0.290329
0.574618 0.479150 0.300807
0.590707 0.489023 0.313873
0.606797 0.498895 0.326939
0.622887 0.508767 0.340006
0.638977 0.518639 0.353072
0.654047 0.528930 0.366771
0.664018 0.541315 0.383636
0.673989 0.553700 0.400500
0.683961 0.566085 0.417364
0.693932 0.578469 0.434229
0.703903 0.590854 0.451093
0.171050 0.240033 0.163977
0.186883 0.248747 0.169208
0.202715 0.257460 0.174439
0.218547 0.266173 0.179670
0.234379 0.274887 0.184901
0.250211 0.283600 0.190132
0.271682 0.295011 0.196183
0.294280 0.306961 0.202397
0.316879 0.318912 0.208612
0.339477 0.330862 0.214826
0.362076 0.342812 0.221041
0.384501 0.355950 0.228183
0.406839 0.369681 0.235790
0.429176 0.383412 0.243396
0.451514 0.397143 0.251003
0.473852 0.410874 0.258610
0.494039 0.424779 0.267245
0.512074 0.438858 0.276910
0.530109 0.452937 0.286575
0.548144 0.467016 0.296240
0.566180 0.481094 0.305905
0.583550 0.493927 0.316768
0.599591 0.504269 0.330030
0.615632 0.514611 0.343291
0.631673 0.524953 0.356553
0.647714 0.535295 0.369814
0.662789 0.546008 0.383694
0.673035 0.558582 0.400665
0.683281 0.571156 0.417636
0.693526 0.583730 0.434607
0.703772 0.596304 0.451578
0.714018 0.608878 0.468549
0.178707 0.247312 0.167994
0.194677 0.256501 0.174030
0.210646 0.265690 0.180066
0.226615 0.274879 0.186102
0.242585 0.284068 0.192139
0.258554 0.293258 0.198175
0.280299 0.305083 0.205008
0.303200 0.317436 0.212000
0.326100 0.329789 0.218992
0.349001 0.342142 0.225984
0.371901 0.354494 0.232976
0.394579 0.367815 0.240750
0.417145 0.381619 0.248914
0.439712 0.395423 0.257079
0.462278 0.409228 0.265243
0.484845 0.423032 0.273408
0.505187 0.436964 0.282570
0.523305 0.451025 0.292728
0.541422 0.465085 0.302887
0.559540 0.479146 0.313046
0.577657 0.493206 0.323205
0.594912 0.506302 0.334520
0.610441 0.517467 0.348147
0.625969 0.528632 0.361775
0.641498 0.539797 0.375402
0.657027 0.550962 0.389030
0.671693 0.562386 0.403216
0.682049 0.575107 0.420196
0.692404 0.587827 0.437176
0.702760 0.600547 0.454157
0.713115 0.613267 0.471137
0.723471 0.625988 0.488117
0.186364 0.254591 0.172012
0.202471 0.264255 0.178853
0.218577 0.273920 0.185694
0.234684 0.283585 0.192535
0.250790 0.293250 0.199376
0.266897 0.302915 0.206217
0.288917 0.315155 0.213832
0.312119 0.327910 0.221602
0.335321 0.340666 0.229372
0.358524 0.353421 0.237141
0.381726 0.366176 0.244911
0.404657 0.379680 0.253316
0.427452 0.393557 0.262039
0.450247 0.407435 0.270761
0.473043 0.421312 0.279484
0.495838 0.435190 0.288206
0.516335 0.449150 0.297894
0.534535 0.463192 0.308547
0.552735 0.477234 0.319200
0.570935 0.491276 0.329853
0.589135 0.505318 0.340505
0.606274 0.518676 0.352272
0.621290 0.530664 0.366265
0.636307 0.542653 0.380258
0.651323 0.554641 0.394252
0.666339 0.566629 0.408245
0.680597 0.578764 0.422738
0.691063 0.591631 0.439727
0.701528 0.604498 0.456716
0.711993 0.617364 0.473706
0.722458 0.630231 0.490695
0.732924 0.643097 0.507684
0.194021 0.261869 0.176029
0.210265 0.272010 0.183675
0.226509 0.282150 0.191321
0.242752 0.292291 0.198968
0.258996 0.302431 0.206614
0.275240 0.312572 0.214260
0.297534 0.325227 0.222657
0.321038 0.338385 0.231204
0.344542 0.351543 0.239752
0.368047 0.364700 0.248299
0.391551 0.377858 0.256846
0.414735 0.391545 0.265882
0.437759 0.405495 0.275163
0.460783 0.419446 0.284443
0.483807 0.433397 0.293724
0.506831 0.447347 0.303005
0.527484 0.461335 0.313218
0.545766 0.475359 0.324365
0.564048 0.489382 0.335512
0.582330 0.503406 0.346659
0.600613 0.517430 0.357806
0.617636 0.531050 0.370023
0.632140 0.543862 0.384383
0.646644 0.556673 0.398742
0.661148 0.569485 0.413101
0.675652 0.582297 0.427460
0.689501 0.595142 0.442260
0.700076 0.608155 0.459258
0.710651 0.621168 0.476257
0.721226 0.634181 0.493255
0.731802 0.647194 0.510253
0.742377 0.660207 0.527252
0.201678 0.269148 0.180046
0.218059 0.279764 0.188498
0.234440 0.290381 0.196949
0.250821 0.300997 0.205400
0.267202 0.311613 0.213851
0.283583 0.322229 0.222303
0.306151 0.335299 0.231482
0.329957 0.348859 0.240807
0.353764 0.362420 0.250131
0.377570 0.375980 0.259456
0.401376 0.389540 0.268781
0.424813 0.403410 0.278449
0.448066 0.417434 0.288287
0.471318 0.431457 0.298126
0.494571 0.445481 0.307964
0.517823 0.459505 0.317803
0.538632 0.473520 0.328543
0.556997 0.487525 0.340184
0.575361 0.501531 0.351824
0.593726 0.515536 0.363465
0.612090 0.529542 0.375106
0.628997 0.543424 0.387775
0.642989 0.557059 0.402500
0.656981 0.570694 0.417225
0.670973 0.584329 0.431951
0.684965 0.597964 0.446676
0.698405 0.611520 0.461781
0.709090 0.624679 0.478789
0.719775 0.637839 0.495797
0.730460 0.650998 0.512804
0.741145 0.664158 0.529812
0.751830 0.677317 0.546819
0.208791 0.275671 0.183788
0.225376 0.286901 0.193186
0.241962 0.298132 0.202584
0.258547 0.309363 0.211982
0.275132 0.320593 0.221380
0.291718 0.331824 0.230778
0.314599 0.345433 0.240835
0.338739 0.359518 0.251022
0.362879 0.373603 0.261210
0.387019 0.387688 0.271398
0.411159 0.401772 0.281586
0.434867 0.415910 0.291917
0.458359 0.430074 0.302320
0.481851 0.444238 0.312722
0.505343 0.458402 0.323125
0.528835 0.472567 0.333528
0.549798 0.486629 0.344760
0.568233 0.500588 0.356822
0.586667 0.514548 0.368883
0.605102 0.528508 0.380945
0.623537 0.542468 0.393007
0.640340 0.556531 0.406063
0.653879 0.570800 0.421108
0.667418 0.585069 0.436154
0.680957 0.599339 0.451199
0.694496 0.613608 0.466244
0.707577 0.627725 0.481641
0.718374 0.641078 0.498795
0.729170 0.654431 0.515949
0.739966 0.667784 0.533103
0.750762 0.681137 0.550257
0.761558 0.694490 0.567411
0.213187 0.278412 0.186151
0.230312 0.290951 0.197205
0.247437 0.303490 0.208259
0.264562 0.316028 0.219313
0.281687 0.328567 0.230367
0.298812 0.341106 0.241421
0.322194 0.355879 0.252828
0.346828 0.371098 0.264305
0.371462 0.386317 0.275783
0.396096 0.401536 0.287261
0.420730 0.416755 0.298738
0.444798 0.431588 0.309896
0.468583 0.446228 0.320893
0.492368 0.460868 0.331890
0.516152 0.475508 0.342888
0.539937 0.490147 0.353885
0.561051 0.504356 0.365442
0.579495 0.518133 0.377559
0.597939 0.531910 0.389675
0.616383 0.545686 0.401792
