filters/luts/Depression 05.cube
# LUT by SparkleStock. Enhanced with VOXCOLOR algorithms.
LUT_3D_SIZE 5
DOMAIN_MIN 0.000000 0.000000 0.000000
DOMAIN_MAX 0.903226 0.903226 0.903226
0.015629 0.007814 0.007814
0.066958 0.040395 0.033936
0.163275 0.083816 0.063232
0.309993 0.144653 0.091071
0.468077 0.221726 0.120871
0.032644 0.048777 0.028548
0.143243 0.120626 0.057909
0.276581 0.182235 0.098815
0.431702 0.253573 0.151485
0.568356 0.335884 0.214949
0.061657 0.109756 0.063902
0.197414 0.191645 0.099656
0.378624 0.288009 0.159596
0.530267 0.372871 0.239491
0.657333 0.470632 0.341343
0.099980 0.186112 0.112986
0.254611 0.278932 0.169305
0.465366 0.386216 0.246108
0.618408 0.487804 0.346419
0.729413 0.589900 0.468145
0.132884 0.243791 0.152751
0.313571 0.378795 0.280562
0.548532 0.509091 0.393321
0.711508 0.606535 0.488857
0.802827 0.695961 0.595266
0.029698 0.047714 0.064548
0.125336 0.076372 0.081861
0.266844 0.130887 0.118613
0.415412 0.197138 0.160582
0.533820 0.257845 0.204788
0.057441 0.117328 0.142701
0.172621 0.193147 0.189858
0.359772 0.265959 0.221438
0.522611 0.349158 0.267330
0.635554 0.434652 0.328115
0.097659 0.202118 0.211809
0.234459 0.300962 0.265555
0.438980 0.389724 0.303562
0.610403 0.472680 0.364939
0.715290 0.558831 0.447326
0.161237 0.308342 0.292706
0.321956 0.410490 0.356515
0.519385 0.501826 0.408078
0.684171 0.581422 0.469161
0.782501 0.665739 0.563885
0.257925 0.433859 0.408508
0.426948 0.517534 0.464420
0.615423 0.612352 0.532807
0.762647 0.688102 0.595723
0.841921 0.751110 0.663782
0.056261 0.117657 0.162070
0.147556 0.152635 0.186715
0.339850 0.191496 0.190201
0.491093 0.268042 0.250496
0.585725 0.333046 0.303993
0.091367 0.201759 0.257530
0.195495 0.287645 0.327476
0.389364 0.348000 0.358342
0.580287 0.431655 0.393871
0.693471 0.521428 0.449618
0.156083 0.312865 0.366147
0.270928 0.397405 0.432095
0.459008 0.479155 0.473629
0.659682 0.560463 0.495625
0.766032 0.642317 0.549734
0.237470 0.430825 0.466129
0.374873 0.516056 0.523707
0.556121 0.599704 0.565239
0.723867 0.662480 0.589288
0.824010 0.730820 0.645853
0.358678 0.560603 0.576928
0.504041 0.631281 0.628520
0.671878 0.704845 0.662749
0.799128 0.758759 0.691415
0.876023 0.804968 0.730494
0.085762 0.198456 0.274253
0.165803 0.258063 0.322648
0.349964 0.325536 0.359533
0.544942 0.382079 0.381510
0.636769 0.467077 0.454696
0.132240 0.296374 0.371476
0.237927 0.395153 0.454972
0.407525 0.473834 0.512743
0.608646 0.537273 0.546733
0.737173 0.622031 0.585877
0.220468 0.423108 0.484812
0.337790 0.506852 0.556363
0.489148 0.586084 0.617048
0.672869 0.648874 0.651297
0.805892 0.721742 0.672038
0.342485 0.539720 0.585157
0.455805 0.609995 0.645815
0.590601 0.678505 0.697075
0.738741 0.733240 0.717482
0.855909 0.791225 0.731006
0.468561 0.647763 0.675661
0.589078 0.712794 0.733002
0.704706 0.771332 0.774124
0.819841 0.821564 0.788003
0.900413 0.856585 0.800829
0.100264 0.241932 0.334216
0.199059 0.341916 0.415728
0.385117 0.459524 0.504937
0.571744 0.543804 0.562999
0.673665 0.594007 0.595363
0.186833 0.392778 0.468302
0.302053 0.491661 0.551438
0.463170 0.590748 0.633749
0.641307 0.668897 0.697536
0.762290 0.726444 0.738723
0.315287 0.541055 0.591357
0.435621 0.612762 0.656506
0.562484 0.681356 0.719370
0.709634 0.748909 0.777984
0.829391 0.805531 0.818924
0.446113 0.639560 0.672364
0.568742 0.706194 0.737221
0.672408 0.761590 0.790966
0.773928 0.806942 0.828664
0.873370 0.854511 0.856848
0.587889 0.716049 0.739443
0.684829 0.778352 0.801838
0.762840 0.827076 0.848734
0.837274 0.868006 0.877018
0.911782 0.900127 0.881164
