filters/luts/Depression 03_S.cube
# Created by: Adobe Photoshop Export Color Lookup Plugin
# LUT by SparkleStock. Enhanced with VOXCOLOR algorithms.
LUT_3D_SIZE 8
DOMAIN_MIN 0.000000 0.000000 0.000000
DOMAIN_MAX 0.903226 0.903226 0.903226
0.023443 0.101587 0.093773
0.067305 0.114632 0.106062
0.118933 0.127543 0.118350
0.176124 0.141739 0.130639
0.236599 0.158494 0.143046
0.296908 0.180046 0.156280
0.354224 0.206168 0.171720
0.407665 0.235149 0.189239
0.039702 0.120493 0.103415
0.107568 0.150078 0.107214
0.175114 0.169264 0.113191
0.244526 0.184594 0.121955
0.315796 0.201075 0.134270
0.380496 0.221456 0.152920
0.432690 0.247383 0.178654
0.473792 0.277791 0.209109
0.063461 0.142479 0.114128
0.135010 0.177095 0.117940
0.213501 0.210804 0.121626
0.294064 0.237687 0.128178
0.372473 0.255954 0.140402
0.443535 0.277135 0.163742
0.497327 0.304317 0.198613
0.535393 0.337500 0.240871
0.093221 0.168333 0.126779
0.160636 0.202693 0.134531
0.243520 0.246513 0.140645
0.330594 0.287213 0.148987
0.413685 0.317209 0.163170
0.490272 0.341036 0.189803
0.549122 0.370856 0.231880
0.590098 0.407704 0.283720
0.127252 0.198346 0.141904
0.191593 0.231882 0.154412
0.272893 0.275022 0.167435
0.360712 0.325338 0.182755
0.446821 0.377088 0.202356
0.525512 0.407301 0.231477
0.589820 0.441340 0.278422
0.636489 0.482303 0.336763
0.162606 0.231998 0.159675
0.225922 0.266120 0.178478
0.307961 0.309534 0.199764
0.397304 0.359935 0.224464
0.484108 0.414485 0.253597
0.557091 0.467092 0.290329
0.622887 0.508767 0.340006
0.673989 0.553700 0.400500
0.194021 0.261869 0.176029
0.258996 0.302431 0.206614
0.344542 0.351543 0.239752
0.437759 0.405495 0.275163
0.527484 0.461335 0.313218
0.600613 0.517430 0.357806
0.661148 0.569485 0.413101
0.710651 0.621168 0.476257
0.217582 0.281153 0.188515
0.288241 0.336541 0.239353
0.380046 0.399031 0.290356
0.478807 0.462382 0.339467
0.572305 0.522083 0.386124
0.646117 0.576459 0.434810
0.702512 0.631012 0.493685
0.750671 0.686827 0.562378
0.035354 0.116901 0.118729
0.091071 0.123506 0.128675
0.156214 0.133191 0.143392
0.225468 0.145910 0.159218
0.293920 0.161970 0.173747
0.354522 0.184108 0.187566
0.404325 0.211059 0.202982
0.445519 0.239174 0.221227
0.056150 0.140344 0.143886
0.120234 0.167115 0.158601
0.198259 0.183651 0.169748
0.282501 0.196967 0.179849
0.365883 0.212596 0.191001
0.438582 0.234697 0.205363
0.493423 0.265041 0.225256
0.530476 0.301793 0.250308
0.082684 0.167179 0.163582
0.148619 0.207423 0.179528
0.232212 0.240234 0.186877
0.324324 0.264077 0.192727
0.416696 0.280304 0.202437
0.498645 0.301126 0.219185
0.559292 0.330495 0.245435
0.597890 0.368152 0.279422
0.115164 0.198680 0.182649
0.181007 0.246874 0.199645
0.264479 0.292826 0.206814
0.357376 0.330265 0.212023
0.452338 0.356340 0.221541
0.540530 0.377259 0.240761
0.607842 0.405252 0.272836
0.652454 0.441557 0.314873
0.153348 0.235773 0.204799
0.220224 0.287492 0.224782
0.300151 0.336340 0.237239
0.388293 0.384552 0.246652
0.480140 0.430639 0.257563
0.570068 0.456498 0.278408
0.644004 0.485768 0.314108
0.697332 0.522245 0.361122
0.196313 0.279964 0.232670
0.264884 0.331362 0.256680
0.343533 0.380139 0.276338
0.428856 0.429362 0.294423
0.516369 0.480076 0.313408
0.594470 0.526290 0.336537
0.669441 0.561721 0.373233
0.729540 0.599950 0.421011
0.241682 0.328668 0.268637
0.310666 0.377101 0.294703
0.389582 0.426478 0.322507
0.474615 0.477438 0.351075
0.560753 0.529806 0.380025
0.634770 0.580301 0.411160
0.698203 0.624561 0.449266
0.754744 0.667785 0.496201
0.287760 0.377878 0.313818
0.354188 0.420579 0.336950
0.434288 0.473442 0.374153
0.521020 0.530111 0.415935
0.607072 0.585490 0.455845
0.678533 0.635564 0.494535
0.733403 0.682177 0.536490
0.782728 0.727294 0.585438
0.052889 0.137036 0.148237
0.107502 0.143836 0.158434
0.180324 0.149953 0.170973
0.259040 0.159624 0.187174
0.333771 0.175585 0.206560
0.396325 0.197998 0.221794
0.442260 0.225640 0.236028
0.475701 0.253627 0.252264
0.076357 0.163772 0.181237
0.135418 0.191796 0.205448
0.215420 0.205046 0.223324
0.306212 0.215083 0.237606
0.398134 0.230287 0.250449
0.476717 0.253554 0.262879
0.534079 0.287134 0.278769
0.570933 0.328504 0.299844
0.106589 0.196928 0.214583
0.166075 0.237988 0.242061
0.247189 0.267132 0.258621
0.342991 0.287048 0.269051
0.445202 0.301752 0.277659
0.535622 0.322332 0.289536
0.603261 0.353805 0.308607
0.646454 0.395641 0.335193
0.142179 0.235588 0.247349
0.202362 0.285005 0.273656
0.281438 0.328830 0.288096
0.375261 0.362650 0.295347
0.478126 0.385089 0.300402
0.575995 0.403357 0.312637
0.652584 0.430266 0.334986
0.704470 0.467203 0.366709
0.182429 0.279581 0.279842
0.245908 0.334654 0.305289
0.322370 0.385512 0.320666
0.408969 0.431922 0.327648
0.502988 0.471815 0.330074
0.601983 0.492675 0.342247
0.685353 0.517156 0.366708
0.747222 0.549608 0.402066
0.230102 0.332859 0.317501
0.296150 0.387507 0.344388
0.372361 0.439094 0.363138
0.454981 0.487854 0.375816
0.540240 0.533579 0.384736
0.622172 0.573397 0.394029
0.705534 0.602005 0.417640
0.775150 0.633316 0.452518
0.283844 0.394019 0.365686
0.349819 0.443253 0.391672
0.426389 0.492522 0.413642
0.507322 0.540971 0.433292
0.587361 0.587940 0.451780
0.661125 0.632739 0.468655
0.728080 0.670168 0.490520
0.792308 0.705492 0.521862
0.342333 0.460122 0.428010
0.404016 0.499036 0.446583
0.480064 0.544710 0.469521
0.560265 0.593267 0.496340
0.636797 0.641509 0.525656
0.704897 0.686553 0.552037
0.759498 0.727185 0.577979
0.811800 0.764329 0.609512
0.075103 0.161204 0.182457
0.123460 0.171663 0.194886
0.196685 0.178606 0.205993
0.280474 0.187198 0.220200
0.362349 0.201483 0.239615
0.427659 0.225262 0.259777
0.473230 0.254504 0.274913
0.503675 0.284046 0.289760
0.099864 0.190538 0.219226
0.154330 0.222834 0.251750
0.230498 0.237752 0.276022
0.320897 0.247432 0.294806
0.416881 0.261284 0.310369
0.500081 0.285530 0.323874
0.560804 0.321409 0.337711
0.600801 0.366113 0.355751
0.133437 0.230396 0.264418
0.188357 0.272249 0.301475
0.263378 0.301105 0.328442
0.355712 0.319590 0.346920
0.459664 0.332156 0.358951
0.556406 0.352505 0.368337
0.630533 0.385422 0.382029
0.680703 0.430391 0.402495
0.173383 0.277204 0.311443
0.227898 0.323688 0.345797
0.300258 0.365416 0.370608
0.389354 0.396290 0.385555
0.491936 0.414419 0.392232
0.596901 0.430503 0.399168
0.681602 0.456547 0.413360
0.742146 0.494314 0.436002
0.217845 0.328852 0.356523
0.274271 0.379620 0.387314
0.344617 0.428498 0.409424
0.426436 0.471191 0.419942
0.518207 0.503950 0.419906
0.623366 0.520172 0.424577
0.714581 0.540454 0.439099
0.785095 0.569735 0.463555
0.267018 0.388729 0.404025
0.327165 0.440054 0.433348
0.398372 0.490583 0.454244
0.476450 0.537082 0.465922
0.558074 0.577384 0.468798
0.641816 0.610580 0.466386
0.731787 0.632463 0.478398
0.809982 0.657345 0.501489
0.324262 0.456711 0.459075
0.385049 0.503636 0.487059
0.457085 0.550883 0.507219
0.533554 0.596077 0.521334
0.609203 0.637741 0.530734
0.681077 0.676122 0.534802
0.750988 0.707132 0.542614
0.822114 0.735176 0.560296
0.387494 0.529391 0.526822
0.445445 0.568243 0.550029
0.516675 0.609064 0.566532
0.591694 0.650741 0.581757
0.663175 0.692085 0.598612
0.726332 0.730637 0.612349
0.780682 0.765818 0.623984
0.836273 0.796526 0.640924
0.100295 0.188050 0.220387
0.143199 0.203412 0.236695
0.210429 0.218006 0.250877
0.294111 0.230479 0.263048
0.383873 0.242404 0.275653
0.453117 0.268177 0.302420
0.501387 0.300511 0.322453
0.533312 0.333939 0.339289
0.125916 0.220184 0.260028
0.177479 0.258772 0.299887
0.246980 0.282968 0.329457
0.331958 0.298222 0.351974
0.427051 0.310953 0.370363
0.513661 0.335607 0.387456
0.578884 0.372944 0.401473
0.624645 0.420015 0.417551
0.162137 0.266664 0.311903
0.215832 0.312273 0.355899
0.284375 0.347384 0.391450
0.367959 0.369460 0.419376
0.464477 0.380592 0.440035
0.564074 0.400475 0.450493
0.643486 0.433679 0.461054
0.701616 0.480047 0.476951
0.207748 0.322141 0.369367
0.259521 0.367618 0.409615
0.325160 0.410039 0.444857
0.404675 0.440103 0.471783
0.497626 0.454627 0.488410
0.604579 0.469132 0.494239
0.694645 0.494009 0.502842
0.763574 0.531769 0.518583
0.259980 0.382395 0.427371
0.309026 0.427389 0.463951
0.371357 0.471336 0.495380
0.444954 0.508334 0.515626
0.529671 0.534295 0.522417
0.635431 0.546874 0.523830
0.731597 0.563797 0.530802
0.809623 0.590652 0.545920
0.309337 0.445803 0.483747
0.363364 0.492586 0.516139
0.425639 0.538172 0.542942
0.495700 0.579633 0.559624
0.572664 0.614715 0.563532
0.654940 0.640742 0.554633
0.748809 0.656541 0.557872
0.833465 0.675996 0.571217
0.366215 0.515792 0.542074
0.422744 0.559974 0.572380
0.485024 0.602791 0.596621
0.553779 0.643412 0.611859
0.627516 0.680835 0.616635
0.695880 0.711896 0.611931
0.767273 0.736538 0.609058
0.843328 0.758013 0.616007
0.428644 0.587368 0.607244
0.484635 0.626134 0.634481
0.545987 0.664034 0.655649
0.613919 0.701423 0.669320
0.685938 0.737830 0.675540
0.743722 0.768849 0.678577
0.797067 0.798104 0.678523
0.854985 0.822951 0.684102
0.123171 0.213573 0.256497
0.164465 0.235375 0.279245
0.228633 0.260971 0.302148
0.308473 0.286385 0.322455
0.396022 0.309013 0.338719
0.476243 0.329224 0.352752
0.529026 0.365632 0.380543
0.565281 0.405775 0.405905
0.152597 0.251708 0.301700
0.203911 0.297529 0.347886
0.269542 0.333200 0.384618
0.348553 0.361782 0.413826
0.437538 0.385811 0.437221
0.523000 0.406490 0.455517
0.591943 0.443821 0.473666
0.644612 0.492087 0.491806
0.193869 0.306470 0.360589
0.247870 0.357377 0.409754
0.312072 0.400226 0.451800
0.388366 0.433042 0.486323
0.475973 0.455796 0.513413
0.565429 0.473932 0.533475
0.647218 0.505432 0.544822
0.713246 0.550117 0.557980
0.243638 0.370680 0.425664
0.296748 0.418442 0.469401
0.358245 0.463616 0.510205
0.429846 0.499771 0.544561
0.511977 0.523367 0.570613
0.602641 0.537013 0.589898
0.693540 0.559437 0.596625
0.770061 0.594162 0.606590
0.299128 0.438052 0.490364
0.350374 0.482200 0.528904
0.408935 0.524737 0.564446
0.474409 0.562185 0.593313
0.547367 0.590754 0.613761
0.634473 0.600533 0.628573
0.730122 0.614113 0.631983
0.814285 0.637245 0.639997
0.359169 0.502045 0.547032
0.407237 0.543564 0.581838
0.462079 0.584604 0.613849
0.523149 0.622115 0.639238
0.589855 0.653006 0.654663
0.662315 0.670226 0.653951
0.755441 0.681116 0.653231
0.843028 0.696537 0.659487
0.413803 0.569814 0.606141
0.465658 0.610167 0.638557
0.520330 0.648951 0.666674
0.578690 0.684982 0.688139
0.640968 0.716940 0.700594
0.705899 0.741027 0.697825
0.776543 0.759553 0.690265
0.854101 0.775600 0.690565
0.471005 0.635042 0.664815
0.525434 0.672953 0.695183
0.579858 0.708386 0.720100
0.636334 0.741811 0.738656
0.695866 0.773295 0.749833
0.756661 0.800863 0.749697
0.808620 0.823605 0.743213
0.866381 0.842540 0.741819
0.138170 0.232164 0.282681
0.183587 0.262724 0.313821
0.249994 0.301466 0.348607
0.330047 0.342454 0.382132
0.416190 0.380756 0.410577
0.495924 0.411261 0.430538
0.553443 0.441477 0.450596
0.594145 0.480971 0.476632
0.177134 0.283374 0.340765
0.230908 0.335252 0.391452
0.296488 0.382586 0.436471
0.373132 0.425493 0.475618
0.458019 0.463748 0.508668
0.539840 0.494514 0.533705
0.605565 0.526468 0.554203
0.660038 0.570040 0.574323
0.228324 0.351073 0.411394
0.282990 0.404815 0.462200
0.345095 0.453712 0.508345
0.416926 0.496771 0.549219
0.498245 0.533296 0.584289
0.580691 0.561752 0.611582
0.653212 0.591150 0.631772
0.718575 0.630598 0.647274
0.285394 0.425034 0.484486
0.338829 0.473342 0.528514
0.397192 0.519416 0.570682
0.462937 0.560561 0.609033
0.537119 0.594692 0.642204
0.617931 0.619003 0.669017
0.694982 0.642918 0.687817
0.768402 0.673448 0.699751
0.343819 0.497143 0.552178
0.397140 0.541139 0.591214
0.452873 0.582535 0.627786
0.511906 0.620021 0.660185
0.575843 0.651809 0.687531
0.651499 0.671529 0.710463
0.729963 0.688617 0.726394
0.808555 0.708650 0.735505
0.403446 0.561478 0.608529
0.455156 0.602013 0.644284
0.507948 0.640359 0.677216
0.562715 0.675089 0.705585
0.620273 0.704608 0.727576
0.682378 0.724252 0.738269
0.756959 0.736437 0.748573
0.836675 0.748793 0.755014
0.463134 0.621193 0.659372
0.513037 0.659133 0.692514
0.562521 0.694654 0.722049
0.612989 0.727155 0.746870
0.665491 0.755850 0.765501
0.720910 0.777724 0.772451
0.781549 0.791722 0.771988
0.854513 0.802990 0.771876
0.519348 0.676555 0.707094
0.570314 0.712919 0.739251
0.618279 0.745892 0.766430
0.665645 0.776088 0.788426
0.714294 0.803781 0.804618
0.765696 0.827500 0.810874
0.815457 0.844420 0.806983
0.872225 0.858224 0.804093
0.146063 0.242711 0.298484
0.201427 0.284871 0.339357
0.275811 0.338051 0.386654
0.360840 0.394849 0.434115
0.448305 0.448818 0.476487
0.525258 0.491996 0.507536
0.581546 0.522093 0.526976
0.618602 0.552540 0.547081
0.201183 0.315785 0.378047
0.258954 0.371567 0.430568
0.327850 0.429777 0.484014
0.405717 0.486251 0.534144
0.488963 0.537528 0.577659
0.566827 0.579233 0.611111
0.627796 0.611492 0.635898
0.675982 0.646376 0.656818
0.267724 0.402873 0.466586
0.321700 0.454568 0.514338
0.382838 0.506239 0.561750
0.452439 0.557234 0.608082
0.529664 0.605889 0.651724
0.606225 0.644693 0.685742
0.670491 0.676511 0.713382
0.727151 0.710639 0.734104
0.335510 0.489297 0.550170
0.386378 0.532745 0.589506
0.441146 0.575304 0.628157
0.502172 0.618098 0.667170
0.570379 0.660652 0.706200
0.643263 0.695654 0.739036
0.708796 0.724717 0.766973
0.771185 0.754426 0.786534
0.397403 0.564312 0.618863
0.449837 0.604240 0.654549
0.501764 0.641232 0.688079
0.555002 0.675693 0.719242
0.611729 0.708023 0.748352
0.677988 0.738359 0.777585
0.742181 0.762789 0.803155
0.807435 0.786016 0.820612
0.451937 0.622518 0.668116
0.506888 0.661327 0.703000
0.557937 0.696095 0.734435
0.607453 0.727201 0.762448
0.657540 0.754807 0.786806
0.710900 0.777494 0.805227
0.769807 0.796305 0.824749
0.834065 0.813563 0.838851
0.509008 0.670818 0.707112
0.561780 0.708253 0.741304
0.609454 0.741228 0.771224
0.654607 0.770402 0.797090
0.699394 0.796104 0.818701
0.745734 0.816769 0.833034
0.796203 0.831188 0.841275
0.855437 0.844713 0.847970
0.566813 0.715251 0.743959
0.616963 0.751605 0.777759
0.660688 0.782752 0.806039
0.701103 0.810028 0.829516
0.740808 0.834362 0.848473
0.782041 0.855004 0.860569
0.826098 0.869207 0.863052
0.875291 0.881326 0.863981
