filters/luts/Depression 02.cube
# LUT by SparkleStock. Enhanced with VOXCOLOR algorithms.
LUT_3D_SIZE 5
DOMAIN_MIN 0.000000 0.000000 0.000000
DOMAIN_MAX 0.903226 0.903226 0.903226
0.082051 0.085958 0.089866
0.147072 0.117996 0.120564
0.225263 0.152932 0.150932
0.315034 0.197676 0.181472
0.409540 0.252346 0.211974
0.109307 0.126645 0.114223
0.207343 0.181304 0.143020
0.303962 0.230461 0.182180
0.403274 0.281903 0.226891
0.495205 0.340045 0.273686
0.148757 0.175919 0.143913
0.253564 0.235494 0.177411
0.381938 0.310384 0.228449
0.486986 0.377887 0.288636
0.585292 0.454608 0.360978
0.197369 0.231525 0.181126
0.306832 0.299759 0.226576
0.451221 0.386348 0.289856
0.568695 0.476803 0.370435
0.664889 0.568297 0.463342
0.232794 0.273126 0.209351
0.363336 0.376885 0.297603
0.527534 0.487475 0.390068
0.655985 0.583593 0.479373
0.744691 0.682044 0.588265
0.108070 0.126685 0.142172
0.188432 0.146965 0.158422
0.289179 0.187899 0.194441
0.381673 0.234826 0.231238
0.455118 0.276999 0.264590
0.143764 0.177668 0.195608
0.238569 0.237397 0.235100
0.369305 0.294905 0.269340
0.481501 0.360593 0.311278
0.565478 0.427385 0.358970
0.192871 0.244211 0.247820
0.299095 0.324726 0.293469
0.441449 0.397475 0.334403
0.563056 0.468553 0.389113
0.649437 0.543020 0.455931
0.262608 0.328178 0.312172
0.375878 0.415192 0.364229
0.513158 0.493564 0.416167
0.635358 0.568694 0.477329
0.722325 0.650216 0.560909
0.351266 0.433590 0.409215
0.460068 0.507836 0.451466
0.594828 0.594260 0.517837
0.711669 0.671980 0.587708
0.785552 0.741112 0.662632
0.142928 0.178156 0.205790
0.215113 0.203035 0.225368
0.338207 0.230630 0.242686
0.436648 0.285650 0.290306
0.501580 0.332762 0.328235
0.185724 0.240864 0.274543
0.273364 0.311685 0.336338
0.401538 0.359202 0.367936
0.532882 0.428249 0.405236
0.624993 0.505892 0.453059
0.254601 0.330571 0.367519
0.343490 0.407230 0.428719
0.473499 0.475763 0.466551
0.614867 0.549511 0.497317
0.704587 0.626832 0.550888
0.334916 0.433286 0.460447
0.431220 0.513860 0.514321
0.557572 0.588394 0.549907
0.680260 0.647697 0.583568
0.765885 0.716336 0.643370
0.436114 0.552888 0.571600
0.530229 0.622209 0.615686
0.652093 0.690249 0.645601
0.752075 0.744452 0.683522
0.819740 0.792805 0.730708
0.179015 0.229981 0.269786
0.247184 0.275300 0.310236
0.368418 0.327343 0.350303
0.489623 0.375021 0.381477
0.560335 0.441673 0.436590
0.234087 0.310135 0.354944
0.323314 0.398515 0.438432
0.439724 0.465778 0.494300
0.569322 0.521402 0.532696
0.674838 0.601258 0.572411
0.321450 0.423744 0.470145
0.408497 0.503563 0.541502
0.515095 0.576173 0.600476
0.639852 0.631259 0.634303
0.749277 0.704679 0.662761
0.418617 0.533551 0.575457
0.499925 0.603877 0.634094
0.596142 0.667174 0.681509
0.703814 0.714416 0.700759
0.799800 0.773436 0.724411
0.512564 0.640279 0.675024
0.597293 0.706026 0.726846
0.684767 0.760246 0.761846
0.778224 0.803898 0.775301
0.845352 0.836226 0.793707
0.197361 0.257560 0.304281
0.285653 0.336203 0.376054
0.417259 0.431886 0.459593
0.538780 0.507169 0.520142
0.609645 0.557481 0.556350
0.292023 0.390239 0.441459
0.384166 0.484493 0.529657
0.498749 0.576133 0.613874
0.618852 0.648611 0.676170
0.711106 0.707472 0.720696
0.405820 0.533243 0.582210
0.489498 0.604863 0.646721
0.579411 0.671806 0.707422
0.685118 0.734774 0.762564
0.780049 0.789074 0.802626
0.498816 0.632988 0.673757
0.585513 0.699698 0.732306
0.662714 0.751880 0.779885
0.741431 0.792188 0.812339
0.823156 0.833608 0.838477
0.589806 0.710749 0.742043
0.669401 0.771922 0.794472
0.733475 0.815262 0.833090
0.795441 0.847394 0.855164
0.859899 0.870238 0.859430
