filters/luts/Depression 01.cube
# Created by: Adobe Photoshop Export Color Lookup Plugin
# LUT by SparkleStock. Enhanced with VOXCOLOR algorithms.
LUT_3D_SIZE 5
DOMAIN_MIN 0.000000 0.000000 0.000000
DOMAIN_MAX 0.903226 0.903226 0.903226
0.101587 0.101587 0.101587
0.148009 0.117098 0.116838
0.211974 0.139801 0.135949
0.289677 0.174824 0.159565
0.379038 0.223144 0.189098
0.120414 0.127417 0.113490
0.202875 0.171560 0.134539
0.288495 0.212073 0.166549
0.381307 0.258258 0.205819
0.474259 0.316182 0.251989
0.153437 0.165560 0.134365
0.248144 0.221146 0.164334
0.364715 0.293073 0.212812
0.472177 0.363401 0.274304
0.576447 0.446920 0.351348
0.195124 0.214140 0.164299
0.301430 0.284624 0.210815
0.441604 0.375441 0.277434
0.561867 0.474610 0.365439
0.666616 0.576859 0.470248
0.224530 0.252527 0.189365
0.360825 0.369935 0.287630
0.527926 0.492027 0.390129
0.661143 0.596292 0.490223
0.751551 0.696911 0.607431
0.117374 0.123565 0.136012
0.183387 0.140180 0.149273
0.269966 0.170352 0.176089
0.355232 0.208371 0.207556
0.428503 0.245937 0.238747
0.147463 0.168678 0.187991
0.240495 0.232324 0.230806
0.357667 0.284321 0.260262
0.466089 0.346367 0.299596
0.551971 0.414805 0.348676
0.194314 0.232469 0.240761
0.303164 0.319698 0.290716
0.436220 0.390713 0.330802
0.556060 0.463214 0.385893
0.645809 0.543159 0.457160
0.262156 0.318763 0.307706
0.380115 0.413614 0.363613
0.514527 0.494763 0.417032
0.635767 0.572272 0.480796
0.727063 0.660145 0.572197
0.354384 0.434935 0.412973
0.466014 0.512038 0.456844
0.602609 0.604013 0.528029
0.719952 0.684566 0.601925
0.794685 0.754607 0.680237
0.141022 0.160227 0.189814
0.207843 0.186365 0.211347
0.317873 0.216403 0.230278
0.415078 0.265812 0.273972
0.483515 0.312567 0.312924
0.183274 0.223891 0.264623
0.273726 0.301898 0.332609
0.396995 0.355862 0.366390
0.523523 0.421992 0.402105
0.617793 0.501625 0.453233
0.253526 0.320428 0.363253
0.348449 0.404181 0.428759
0.477013 0.476508 0.468737
0.613244 0.549064 0.500486
0.704342 0.628758 0.557450
0.337387 0.431414 0.464405
0.440630 0.517457 0.520541
0.565311 0.595104 0.558744
0.685605 0.654295 0.592867
0.772988 0.726800 0.656710
0.447019 0.565329 0.583818
0.545289 0.633608 0.626409
0.662060 0.700682 0.658801
0.762890 0.755908 0.697285
0.830516 0.804384 0.745928
0.167655 0.201323 0.249880
0.237806 0.252445 0.297561
0.358049 0.313212 0.342737
0.480026 0.362441 0.372918
0.555626 0.437615 0.437826
0.227093 0.290643 0.348291
0.321862 0.388670 0.438807
0.440424 0.463281 0.497918
0.569273 0.521422 0.535930
0.676629 0.606623 0.581255
0.321068 0.417419 0.474627
0.413231 0.503194 0.549025
0.522106 0.578690 0.606901
0.644541 0.635939 0.641795
0.754560 0.712806 0.674154
0.426740 0.539307 0.585751
0.510587 0.609724 0.645678
0.607343 0.673894 0.691890
0.713494 0.723572 0.708481
0.808557 0.783694 0.735405
0.529019 0.657907 0.691012
0.616259 0.720169 0.740037
0.701947 0.772268 0.773137
0.794015 0.816473 0.786398
0.858240 0.847464 0.806706
0.181756 0.223175 0.283422
0.276801 0.315438 0.370446
0.416547 0.428417 0.467064
0.545446 0.516847 0.534636
0.619277 0.572489 0.575637
0.285779 0.375901 0.440647
0.386515 0.480291 0.535913
0.507154 0.580257 0.622932
0.630509 0.660091 0.687428
0.722683 0.720142 0.730447
0.410678 0.536600 0.592067
0.499452 0.611598 0.656776
0.592900 0.680436 0.717356
0.698730 0.745570 0.770979
0.791577 0.799687 0.808270
0.515144 0.648338 0.689559
0.603100 0.713109 0.745252
0.679802 0.763545 0.789489
0.755757 0.802587 0.819509
0.836859 0.845085 0.845690
0.612764 0.728657 0.755772
0.690740 0.785297 0.806015
0.753674 0.826039 0.841537
0.814047 0.857631 0.862063
0.874970 0.882105 0.867961
