filters/luts/Foreshadowing 02.cube
# LUT by SparkleStock. Enhanced with VOXCOLOR algorithms.
LUT_3D_SIZE 8
DOMAIN_MIN 0.000000 0.000000 0.000000
DOMAIN_MAX 0.903226 0.903226 0.903226
0.105495 0.078144 0.050794
0.172547 0.083879 0.036677
0.256536 0.102217 0.033392
0.352783 0.132467 0.041286
0.454512 0.173036 0.059656
0.553106 0.219544 0.085746
0.638560 0.264674 0.114758
0.699437 0.298263 0.139478
0.120273 0.099319 0.058955
0.196290 0.122784 0.049620
0.288355 0.144090 0.048804
0.387561 0.174752 0.058262
0.487099 0.214033 0.076945
0.580001 0.258321 0.102153
0.658575 0.301615 0.129494
0.714101 0.335148 0.152577
0.146473 0.138217 0.076175
0.222562 0.168919 0.074289
0.319208 0.197626 0.073211
0.423001 0.231572 0.083091
0.523072 0.272005 0.102398
0.612747 0.316538 0.127842
0.686588 0.360391 0.155594
0.738593 0.396548 0.180204
0.179416 0.188255 0.100894
0.251691 0.222115 0.105996
0.352058 0.259292 0.110112
0.458016 0.296208 0.118119
0.558954 0.338263 0.136205
0.647084 0.383941 0.162018
0.717411 0.428966 0.190975
0.766573 0.468000 0.218285
0.212628 0.240002 0.128709
0.282889 0.277740 0.141801
0.383993 0.320554 0.151736
0.493198 0.363648 0.162225
0.594855 0.407878 0.180428
0.681142 0.453571 0.205665
0.748290 0.498720 0.234935
0.794492 0.539167 0.264584
0.240356 0.284210 0.154012
0.314261 0.330059 0.178630
0.415526 0.377377 0.194145
0.526041 0.425725 0.208628
0.628796 0.473351 0.228271
0.714660 0.521341 0.257200
0.779017 0.566598 0.289410
0.821381 0.605608 0.319545
0.258970 0.314428 0.172240
0.344288 0.375198 0.214119
0.448676 0.428579 0.236413
0.558500 0.479778 0.253992
0.660409 0.529922 0.275228
0.745174 0.580015 0.307527
0.808385 0.628155 0.348486
0.848711 0.668538 0.387008
0.267856 0.329048 0.181567
0.372839 0.413099 0.248392
0.485141 0.475378 0.279622
0.595408 0.529053 0.299834
0.693704 0.579369 0.322101
0.773780 0.628206 0.353777
0.834368 0.678207 0.402012
0.874644 0.724216 0.457868
0.111450 0.085202 0.071968
0.163959 0.105679 0.086938
0.251904 0.126487 0.084991
0.354640 0.157106 0.088231
0.461456 0.195576 0.098924
0.562498 0.237645 0.115110
0.647283 0.277395 0.133457
0.704930 0.306744 0.149325
0.130013 0.115939 0.087301
0.187169 0.155227 0.121808
0.285298 0.179439 0.122786
0.393024 0.210265 0.125483
0.499448 0.248675 0.135737
0.596391 0.291222 0.152789
0.675569 0.332460 0.173860
0.728816 0.364657 0.193773
0.166224 0.170449 0.113472
0.220097 0.210822 0.147530
0.315407 0.243819 0.153017
0.424792 0.275486 0.156656
0.531157 0.311919 0.166650
0.625549 0.352867 0.183873
0.701628 0.394394 0.206061
0.753441 0.430306 0.228718
0.206639 0.231657 0.145634
0.256427 0.271565 0.180869
0.349003 0.309338 0.189908
0.455789 0.344817 0.194498
0.561651 0.381990 0.204204
0.655022 0.422096 0.221210
0.728982 0.463427 0.244215
0.779792 0.501718 0.269729
0.245883 0.292354 0.182450
0.293832 0.333319 0.221787
0.383726 0.373134 0.233719
0.489356 0.413516 0.240933
0.592648 0.452648 0.250815
0.683819 0.492427 0.266996
0.756178 0.533158 0.290198
0.805720 0.572005 0.318010
0.280756 0.347064 0.221584
0.329365 0.390176 0.265970
0.418413 0.432662 0.281824
0.523429 0.476780 0.292033
0.625112 0.518996 0.303425
0.713180 0.559489 0.320646
0.782438 0.598922 0.344362
0.830152 0.636394 0.373102
0.309295 0.391918 0.260154
0.360006 0.436744 0.307817
0.452331 0.485284 0.330892
0.557363 0.532746 0.344677
0.658045 0.577649 0.358239
0.743239 0.619239 0.377344
0.808767 0.658187 0.404078
0.853683 0.694084 0.436037
0.331131 0.425977 0.295480
0.383037 0.469405 0.341637
0.483971 0.529364 0.377630
0.592108 0.582289 0.397693
0.691459 0.628750 0.413616
0.773634 0.670602 0.433929
0.835331 0.709328 0.464197
0.876842 0.744608 0.502808
0.120950 0.095411 0.089795
0.174569 0.118535 0.110905
0.255601 0.151157 0.133407
0.353568 0.184700 0.143721
0.458115 0.222157 0.151800
0.558784 0.261692 0.160750
0.645010 0.298776 0.169371
0.706172 0.327963 0.176121
0.150414 0.139091 0.117103
0.203557 0.181302 0.156117
0.289765 0.210936 0.180962
0.392688 0.242989 0.190439
0.498488 0.280683 0.197562
0.596927 0.321767 0.206922
0.679076 0.361893 0.218394
0.736389 0.395467 0.230199
0.182946 0.193056 0.144957
0.241845 0.246900 0.198972
0.315848 0.284055 0.232729
0.420612 0.313341 0.240337
0.529498 0.347149 0.244801
0.627608 0.386702 0.254686
0.707407 0.427613 0.269902
0.762062 0.463521 0.287801
0.229738 0.265943 0.186886
0.283619 0.315307 0.237371
0.351352 0.354641 0.274025
0.450914 0.389025 0.284347
0.558259 0.421888 0.288670
0.655318 0.457852 0.297947
0.733416 0.496954 0.314180
0.787501 0.534455 0.335336
0.275144 0.336214 0.231762
0.324661 0.381024 0.279248
0.389428 0.421379 0.318801
0.484794 0.459478 0.331229
0.587596 0.494899 0.336386
0.681860 0.529787 0.345210
0.758522 0.566251 0.361103
0.812098 0.603179 0.383892
0.313576 0.395886 0.276444
0.362953 0.440116 0.325415
0.427083 0.482619 0.369287
0.520222 0.522445 0.383084
0.619500 0.560764 0.389251
0.709354 0.596544 0.398723
0.782632 0.631001 0.414404
0.834963 0.665504 0.437567
0.345384 0.444703 0.320904
0.397241 0.489782 0.372084
0.462681 0.535017 0.420149
0.555824 0.577591 0.436802
0.653491 0.618097 0.444524
0.739295 0.654990 0.455235
0.807511 0.688376 0.472281
0.856329 0.719856 0.496544
0.371542 0.484033 0.363551
0.425714 0.527918 0.414006
0.492710 0.574695 0.464103
0.589680 0.623274 0.487321
0.687942 0.667150 0.498838
0.771301 0.704976 0.511223
0.834635 0.737613 0.530535
0.877984 0.766455 0.557814
0.133648 0.107905 0.105833
0.192917 0.133790 0.130957
0.273283 0.170709 0.162439
0.362079 0.211027 0.189754
0.456308 0.251403 0.207483
0.550473 0.291092 0.217209
0.635899 0.328497 0.221328
0.702584 0.360840 0.221801
0.173301 0.165246 0.144909
0.225886 0.211669 0.186883
0.309249 0.242567 0.219643
0.400849 0.277266 0.246781
0.497012 0.316268 0.263429
0.591133 0.357431 0.272684
0.674523 0.398155 0.278723
0.738415 0.435069 0.283651
0.213201 0.230737 0.185790
0.270349 0.284818 0.239955
0.338358 0.324938 0.283099
0.429449 0.354685 0.310557
0.528909 0.387271 0.322948
0.624001 0.425263 0.329707
0.705886 0.465498 0.337274
0.766901 0.503338 0.346911
0.254322 0.296949 0.224606
0.314645 0.354486 0.286762
0.379119 0.400284 0.338320
0.457628 0.433570 0.370729
0.554368 0.461578 0.380059
0.650834 0.493779 0.383516
0.731953 0.531468 0.392362
0.791065 0.569054 0.406920
0.301677 0.371149 0.273812
0.358835 0.423389 0.332627
0.419938 0.468173 0.385150
0.490932 0.504316 0.421015
0.582658 0.535442 0.431920
0.676834 0.565540 0.434713
0.756283 0.598483 0.443164
0.814207 0.633928 0.459522
0.344895 0.437310 0.324300
0.399938 0.484651 0.379368
0.458406 0.527958 0.432180
0.527146 0.566061 0.470944
0.614859 0.600810 0.483573
0.704155 0.632100 0.487005
0.779930 0.662250 0.495102
0.836247 0.693745 0.511003
0.379227 0.487596 0.370148
0.436476 0.534424 0.426003
0.495145 0.578230 0.480832
0.563545 0.618841 0.522984
0.649410 0.655401 0.536600
0.734444 0.688282 0.540558
0.804674 0.717760 0.549501
0.856787 0.745364 0.565548
0.407722 0.526909 0.412732
0.468484 0.573650 0.469577
0.527741 0.617158 0.524635
0.596819 0.659977 0.569231
0.683895 0.699909 0.585951
0.767631 0.734700 0.591713
0.832574 0.763791 0.602204
0.877984 0.788619 0.620204
0.147402 0.120320 0.120147
0.216020 0.151555 0.150535
0.300152 0.191373 0.186019
0.385172 0.235463 0.221901
0.466630 0.279752 0.251830
0.547363 0.322468 0.271982
0.625843 0.362570 0.280794
0.694843 0.399815 0.280825
0.197358 0.194922 0.172535
0.251715 0.247397 0.219658
0.336459 0.279615 0.256263
0.423760 0.315271 0.292106
0.506320 0.354925 0.322277
0.587858 0.397228 0.341992
0.666588 0.439969 0.351172
0.734509 0.480955 0.354038
0.245248 0.272395 0.225737
0.301406 0.326870 0.279794
0.368789 0.370479 0.327634
0.454046 0.401071 0.365341
0.538725 0.432556 0.392963
0.621663 0.469507 0.408666
0.700479 0.509891 0.415625
0.766714 0.550419 0.420080
0.288329 0.341838 0.271282
0.350057 0.399499 0.334773
0.414031 0.447612 0.390150
0.483701 0.482562 0.434233
0.563955 0.508859 0.460551
0.648821 0.537906 0.471019
0.727980 0.573457 0.475378
0.792291 0.611413 0.482035
0.332594 0.408095 0.315982
0.395768 0.465180 0.383347
0.458778 0.513499 0.442204
0.520409 0.551503 0.491044
0.591393 0.579601 0.519947
0.672657 0.604291 0.527750
0.751332 0.633347 0.529213
0.813720 0.667635 0.537689
0.376684 0.472671 0.365703
0.438606 0.524936 0.430462
0.499021 0.570752 0.488787
0.557712 0.609297 0.539503
0.622427 0.640647 0.571161
0.698801 0.666860 0.579986
0.774631 0.692648 0.580728
0.834297 0.721466 0.588907
0.415387 0.526534 0.414352
0.477661 0.575097 0.476754
0.536574 0.618698 0.533979
0.593294 0.657690 0.585846
0.656130 0.691264 0.619434
0.729318 0.720473 0.629836
0.799993 0.746011 0.631286
0.854600 0.770158 0.638936
0.447958 0.566010 0.456455
0.512632 0.613542 0.519244
0.571628 0.656347 0.576422
0.627233 0.695404 0.628620
0.689769 0.731005 0.663929
0.762150 0.762307 0.675424
0.828603 0.788469 0.677774
0.875976 0.810230 0.686641
0.159534 0.130560 0.131679
0.241983 0.170562 0.169439
0.332552 0.214393 0.209092
0.417934 0.260563 0.247820
0.492159 0.307467 0.284067
0.558064 0.352968 0.314400
0.622074 0.396070 0.334292
0.685843 0.437875 0.342013
0.222324 0.228870 0.201514
0.280360 0.286897 0.254569
0.368089 0.322808 0.296428
0.455770 0.359640 0.336263
0.531180 0.399410 0.374057
0.597365 0.441420 0.405675
0.662407 0.485023 0.425980
0.727403 0.529353 0.434313
0.275783 0.315719 0.263446
0.335058 0.373543 0.322064
0.402839 0.421062 0.375452
0.486976 0.453527 0.417816
0.563780 0.484781 0.454796
0.630817 0.519966 0.483839
0.696751 0.559397 0.500576
0.762224 0.601709 0.506865
0.323157 0.390805 0.317301
0.387908 0.448481 0.382477
0.451254 0.497748 0.440407
0.519109 0.535683 0.489171
0.590426 0.563067 0.527073
0.658390 0.589981 0.552077
0.725150 0.622761 0.563717
0.790426 0.660404 0.567366
0.367029 0.453060 0.362449
0.435804 0.511525 0.434487
0.499547 0.560556 0.496086
0.559478 0.600656 0.548363
0.618666 0.629388 0.589076
0.681294 0.651651 0.611658
0.748230 0.676922 0.618271
0.812327 0.708983 0.620235
0.411420 0.510367 0.407625
0.480320 0.566340 0.481155
0.542606 0.613693 0.543946
0.599499 0.652719 0.596783
0.650520 0.683141 0.639424
0.706165 0.705927 0.662607
0.769658 0.727042 0.667074
0.830857 0.752552 0.667284
0.453786 0.562114 0.454405
0.521590 0.613628 0.525819
0.581635 0.658010 0.587149
0.635593 0.695821 0.639455
0.683797 0.727111 0.682921
0.735296 0.752438 0.707633
0.793517 0.773373 0.712555
0.849507 0.794019 0.711810
0.492510 0.604237 0.498584
0.560139 0.652113 0.568293
0.618558 0.693975 0.627835
0.670174 0.730584 0.678943
0.716173 0.762342 0.722361
0.766320 0.789432 0.747607
0.821644 0.811958 0.753497
0.870984 0.830716 0.753313
0.168293 0.137233 0.139557
0.269470 0.190290 0.187640
0.368328 0.239231 0.231779
0.455061 0.287264 0.272303
0.526634 0.335459 0.309937
0.583216 0.382504 0.344677
0.631420 0.426593 0.373393
0.680488 0.469051 0.391776
0.248032 0.268200 0.233013
0.310341 0.328262 0.290865
0.402912 0.370793 0.339740
0.491968 0.411088 0.384997
0.565964 0.451876 0.426442
0.622883 0.493062 0.464530
0.671682 0.534852 0.495694
0.723199 0.578127 0.514748
0.306178 0.363827 0.302234
0.371587 0.424743 0.367640
0.440757 0.475205 0.426296
0.523880 0.511629 0.474668
0.598728 0.544869 0.516427
0.656019 0.578966 0.553885
0.705202 0.615424 0.582983
0.758328 0.655429 0.598839
0.354197 0.438202 0.357987
0.427318 0.499658 0.431013
0.492412 0.550872 0.493666
0.558145 0.591248 0.546520
0.626535 0.621415 0.589070
0.683842 0.648547 0.624455
0.733352 0.678482 0.649660
0.787454 0.713076 0.660986
0.399166 0.498870 0.405973
0.477231 0.560244 0.485355
0.543018 0.609873 0.549982
0.600778 0.650690 0.604037
0.656439 0.681680 0.647616
0.707447 0.705239 0.681508
0.756648 0.728452 0.702290
0.810606 0.756851 0.709020
0.444887 0.550010 0.449132
0.523575 0.609746 0.532167
0.588271 0.657767 0.598249
0.643395 0.696627 0.651903
0.690435 0.727422 0.694956
0.732144 0.749919 0.727684
0.776397 0.768713 0.745075
0.828214 0.790772 0.748076
0.490559 0.596023 0.492006
0.566925 0.651946 0.574947
0.629075 0.697443 0.640534
0.681049 0.734399 0.693057
0.724314 0.763762 0.734499
0.759623 0.786209 0.766289
0.797280 0.803583 0.782124
0.843880 0.820806 0.782860
0.536166 0.638954 0.536808
0.609010 0.689300 0.616832
0.667744 0.731177 0.679763
0.716219 0.765987 0.729921
0.756035 0.794375 0.769626
0.788529 0.816955 0.800529
0.822784 0.834670 0.815817
0.862651 0.849469 0.815490
0.173587 0.140163 0.143574
0.299040 0.211435 0.205931
0.406878 0.266355 0.254978
0.494035 0.315265 0.296067
0.562277 0.363569 0.333427
0.614619 0.411583 0.368610
0.653323 0.455591 0.400097
0.684937 0.493477 0.424054
0.275183 0.314248 0.268337
0.340343 0.369454 0.327352
0.440079 0.421826 0.385607
0.531039 0.468377 0.438141
0.603370 0.511976 0.484594
0.657393 0.554012 0.525753
0.696577 0.593522 0.561871
0.730834 0.630346 0.589165
0.338098 0.419298 0.344686
0.410626 0.479771 0.416678
0.481487 0.530385 0.478916
0.563964 0.573041 0.534621
0.636634 0.611423 0.583555
0.691276 0.647419 0.625651
0.730212 0.681466 0.661783
0.765594 0.714844 0.688028
0.384139 0.487926 0.397431
0.469216 0.554076 0.482106
0.537518 0.605736 0.549663
0.601143 0.647081 0.605148
0.665589 0.681468 0.653005
0.719531 0.712107 0.693559
0.757992 0.740936 0.727689
0.793885 0.770051 0.751241
0.426979 0.539756 0.441325
0.519373 0.608104 0.534855
0.590107 0.659896 0.605738
0.646360 0.700356 0.661072
0.697119 0.732139 0.705496
0.743804 0.758685 0.742489
0.781201 0.782904 0.773720
0.816896 0.807668 0.793977
0.473375 0.585202 0.483829
0.566871 0.651930 0.581787
0.636391 0.701910 0.653183
0.690238 0.740440 0.707251
0.732507 0.770164 0.748422
0.769061 0.793436 0.780654
0.800555 0.813368 0.807234
0.834657 0.833742 0.823891
0.523055 0.627457 0.526170
0.612751 0.689907 0.624593
0.678600 0.736985 0.694775
0.728604 0.773042 0.746393
0.766970 0.800522 0.784725
0.796087 0.821016 0.812675
0.819298 0.836802 0.833687
0.847781 0.852169 0.845692
0.572886 0.667232 0.568427
0.656489 0.723913 0.664442
0.717820 0.767550 0.732331
0.763755 0.801284 0.781242
0.797974 0.826695 0.816555
0.823079 0.845265 0.841531
0.840879 0.858148 0.858411
0.861086 0.868542 0.865382
