filters/luts/Foreshadowing 01_S.cube
# Created by: Adobe Photoshop Export Color Lookup Plugin
# LUT by SparkleStock. Enhanced with VOXCOLOR algorithms.
LUT_3D_SIZE 8
DOMAIN_MIN 0.000000 0.000000 0.000000
DOMAIN_MAX 0.903226 0.903226 0.903226
0.085958 0.097680 0.089866
0.136626 0.103730 0.077010
0.209256 0.119824 0.072055
0.303218 0.145961 0.073347
0.415731 0.181551 0.079586
0.537674 0.225413 0.091118
0.643704 0.268644 0.106117
0.719209 0.301918 0.119863
0.095222 0.113183 0.099130
0.154965 0.137968 0.083932
0.238536 0.160563 0.073836
0.340365 0.186334 0.070236
0.454378 0.218924 0.073969
0.570905 0.259272 0.085940
0.668837 0.301674 0.103696
0.736261 0.338382 0.122565
0.108905 0.140202 0.114152
0.173368 0.174703 0.101070
0.264847 0.211155 0.086766
0.373265 0.246470 0.078060
0.489453 0.279844 0.079441
0.603053 0.318650 0.091644
0.696151 0.360896 0.112035
0.759421 0.400666 0.135643
0.125511 0.175509 0.133830
0.192962 0.215339 0.125798
0.291378 0.264596 0.110884
0.405716 0.313053 0.099264
0.523547 0.354584 0.098084
0.634756 0.393512 0.109946
0.724437 0.435769 0.132383
0.785650 0.477548 0.159923
0.143377 0.215353 0.156587
0.214524 0.260142 0.155526
0.320122 0.316261 0.144797
0.440279 0.376216 0.133881
0.559338 0.432880 0.130471
0.667053 0.474662 0.142425
0.752995 0.516815 0.166006
0.812493 0.558950 0.196188
0.159258 0.252219 0.178518
0.238455 0.305936 0.187117
0.350237 0.367356 0.182627
0.476908 0.432030 0.175383
0.602206 0.495648 0.174754
0.703480 0.551042 0.194611
0.782738 0.593390 0.218290
0.838199 0.633115 0.248435
0.170255 0.276955 0.193832
0.264699 0.347650 0.216970
0.385368 0.417149 0.220574
0.516509 0.484918 0.217966
0.643381 0.549938 0.220667
0.743582 0.607845 0.242574
0.816237 0.657178 0.283772
0.865165 0.697132 0.322017
0.176998 0.288101 0.203214
0.294549 0.384362 0.247100
0.427925 0.466048 0.260526
0.563524 0.537504 0.262247
0.688796 0.601786 0.267812
0.783844 0.657290 0.292103
0.847996 0.706919 0.342995
0.891458 0.748561 0.399725
0.089172 0.101083 0.107448
0.135742 0.112988 0.116401
0.211427 0.126746 0.117392
0.311146 0.148089 0.116757
0.428526 0.180569 0.118678
0.551493 0.224138 0.122307
0.654767 0.269394 0.127206
0.725729 0.306346 0.132158
0.101364 0.127124 0.121688
0.155308 0.158331 0.145184
0.240154 0.177551 0.148045
0.346211 0.196498 0.144851
0.464468 0.223414 0.145682
0.584966 0.260410 0.150770
0.685825 0.303572 0.159540
0.755368 0.345935 0.169398
0.121395 0.166860 0.144590
0.176354 0.206903 0.170230
0.264128 0.240454 0.169273
0.373223 0.268273 0.161365
0.493142 0.292917 0.160057
0.612294 0.325311 0.165754
0.711971 0.365713 0.177766
0.781986 0.409642 0.193054
0.145332 0.214376 0.172916
0.200257 0.258512 0.198298
0.289444 0.305329 0.194261
0.399802 0.346601 0.181828
0.519710 0.378306 0.176183
0.637255 0.408187 0.181605
0.735818 0.445438 0.195895
0.806996 0.487997 0.215815
0.170059 0.264667 0.204145
0.227688 0.312359 0.233453
0.320025 0.365479 0.231126
0.431539 0.419099 0.216428
0.549322 0.467771 0.204913
0.663118 0.498821 0.209264
0.759340 0.533126 0.224563
0.831120 0.572237 0.247342
0.193697 0.313389 0.237492
0.257790 0.365137 0.273514
0.355127 0.422056 0.276246
0.471143 0.480849 0.264530
0.591538 0.537663 0.253742
0.693681 0.583118 0.256705
0.783294 0.617090 0.271026
0.852601 0.651464 0.294211
0.215013 0.354737 0.269346
0.287195 0.410753 0.311294
0.392883 0.472967 0.322030
0.514844 0.536016 0.317110
0.637047 0.595328 0.309947
0.736681 0.645317 0.314544
0.813078 0.684926 0.335534
0.872980 0.718429 0.361483
0.234648 0.387332 0.298512
0.313686 0.445736 0.343606
0.430782 0.516370 0.365174
0.561424 0.586358 0.370744
0.685158 0.646830 0.368952
0.781353 0.696375 0.377477
0.846760 0.737173 0.404337
0.895767 0.770799 0.439921
0.094797 0.107165 0.122084
0.142348 0.122436 0.138331
0.217283 0.140769 0.152712
0.315338 0.163566 0.162530
0.430910 0.192741 0.166432
0.553036 0.235188 0.166096
0.656266 0.282503 0.163194
0.728447 0.324182 0.160199
0.112611 0.144366 0.145345
0.164955 0.178462 0.182664
0.247411 0.198357 0.204953
0.351604 0.215623 0.215227
0.469367 0.239169 0.217087
0.590605 0.275114 0.217144
0.693266 0.320393 0.216873
0.765704 0.368035 0.216983
0.135739 0.191050 0.173119
0.192296 0.237576 0.219313
0.273340 0.269047 0.243182
0.376420 0.290884 0.251049
0.496436 0.309305 0.249681
0.617853 0.337477 0.250400
0.721731 0.376569 0.254142
0.797338 0.422673 0.260266
0.164154 0.246827 0.207337
0.223021 0.298771 0.254502
0.300742 0.341765 0.277317
0.399970 0.374613 0.281097
0.518725 0.398191 0.273442
0.639499 0.420207 0.274019
0.744383 0.452236 0.280862
0.823916 0.493199 0.292558
0.196520 0.309030 0.247918
0.256056 0.360489 0.292782
0.333515 0.408905 0.315172
0.429950 0.454917 0.315089
0.543138 0.496440 0.298616
0.659979 0.517817 0.296951
0.763789 0.544574 0.304416
0.846073 0.579559 0.319012
0.226153 0.365357 0.288120
0.291209 0.417926 0.336030
0.372499 0.469996 0.362656
0.471150 0.521889 0.365167
0.583325 0.572132 0.347356
0.685547 0.610555 0.337741
0.782998 0.636355 0.343003
0.864130 0.664577 0.357815
0.253866 0.414229 0.327545
0.325845 0.467572 0.378469
0.413591 0.522796 0.411258
0.517136 0.578465 0.419943
0.631402 0.632375 0.406026
0.729520 0.677191 0.396946
0.809255 0.709864 0.402329
0.879230 0.737383 0.416475
0.281085 0.456082 0.365298
0.357471 0.506832 0.415835
0.451652 0.564597 0.454543
0.561954 0.624771 0.471977
0.681231 0.682606 0.466604
0.777155 0.728768 0.462327
0.844203 0.764639 0.471259
0.899209 0.792924 0.490303
0.102044 0.115136 0.134799
0.154682 0.133359 0.152546
0.230608 0.158213 0.176911
0.324582 0.186458 0.199399
0.431818 0.217150 0.213836
0.548979 0.258499 0.217013
0.651707 0.307695 0.211587
0.727714 0.354592 0.203960
0.126469 0.164487 0.168561
0.180764 0.202139 0.209505
0.262742 0.225887 0.245502
0.362831 0.245773 0.271517
0.473317 0.269916 0.284707
0.590799 0.305603 0.285973
0.693411 0.352848 0.280786
0.769435 0.404792 0.273827
0.153866 0.219328 0.203589
0.215287 0.270636 0.257907
0.292664 0.302978 0.301060
0.388421 0.323234 0.328394
0.501541 0.338921 0.338586
0.620459 0.364540 0.338752
0.725451 0.402912 0.336544
0.805518 0.450245 0.334464
0.186518 0.280703 0.242741
0.253976 0.338381 0.301296
0.325603 0.380288 0.347376
0.413261 0.407949 0.373279
0.522414 0.424661 0.377321
0.641755 0.440707 0.375738
0.749191 0.468501 0.376297
0.834614 0.507214 0.379734
0.224517 0.347591 0.287183
0.293656 0.404585 0.343025
0.364446 0.451447 0.388907
0.445632 0.490545 0.411483
0.543062 0.521972 0.406978
0.658979 0.534912 0.401122
0.766617 0.554639 0.402038
0.856302 0.584745 0.408932
0.260456 0.411176 0.333337
0.333491 0.466229 0.387739
0.406106 0.515394 0.434924
0.486996 0.560438 0.458940
0.580618 0.601826 0.452943
0.680586 0.634265 0.434782
0.782186 0.652297 0.432313
0.871851 0.674190 0.438978
0.293732 0.463503 0.375990
0.373617 0.518697 0.432005
0.450321 0.569254 0.482506
0.533968 0.617322 0.510853
0.629101 0.663704 0.508936
0.723775 0.703978 0.490036
0.805334 0.731265 0.483503
0.883136 0.753292 0.487118
0.327147 0.508198 0.416281
0.412851 0.562135 0.472968
0.491868 0.611357 0.524749
0.578366 0.660575 0.557690
0.678354 0.711486 0.564228
0.772491 0.755252 0.550789
0.840757 0.788331 0.546182
0.900957 0.812858 0.552086
0.109985 0.124069 0.146166
0.171258 0.146427 0.165962
0.253357 0.176582 0.191391
0.345249 0.212103 0.221544
0.440357 0.251021 0.252834
0.546046 0.292608 0.268526
0.644850 0.343444 0.268249
0.724150 0.395394 0.261505
0.141216 0.187398 0.190613
0.200563 0.231777 0.235405
0.287197 0.261683 0.273442
0.384585 0.287445 0.309572
0.482587 0.316659 0.343743
0.589617 0.352231 0.355653
0.689030 0.400302 0.353133
0.768422 0.455003 0.344674
0.176236 0.255141 0.237557
0.241392 0.308906 0.293519
0.321489 0.346118 0.341463
0.412967 0.370618 0.383160
0.513034 0.387889 0.416981
0.622008 0.412345 0.424527
0.723955 0.450355 0.421383
0.806915 0.498322 0.414306
0.214429 0.321048 0.282256
0.288009 0.379829 0.344338
0.362532 0.425408 0.398826
0.443291 0.453965 0.443320
0.534886 0.466327 0.474143
0.645029 0.478882 0.476568
0.749916 0.503928 0.473672
0.838048 0.540573 0.470150
0.255328 0.383030 0.323816
0.335724 0.446564 0.391385
0.412001 0.496836 0.448396
0.482903 0.531756 0.492065
0.553911 0.550962 0.518703
0.661702 0.557116 0.514263
0.767971 0.570598 0.511288
0.860947 0.595384 0.511899
0.299354 0.453348 0.375477
0.380897 0.511640 0.437796
0.456131 0.560966 0.491246
0.524303 0.600532 0.534257
0.589836 0.630892 0.561272
0.680630 0.656277 0.542828
0.781181 0.666979 0.535488
0.875031 0.682827 0.535494
0.339574 0.508581 0.420390
0.425750 0.565036 0.481881
0.502736 0.614101 0.535520
0.571368 0.656242 0.580733
0.636452 0.692625 0.611455
0.721458 0.726732 0.591621
0.801793 0.748985 0.577091
0.884017 0.765970 0.572147
0.380803 0.554495 0.461439
0.471241 0.609108 0.522792
0.549410 0.656757 0.576709
0.617797 0.698728 0.623588
0.682636 0.737002 0.657989
0.768978 0.776956 0.644007
0.836682 0.807642 0.629878
0.900240 0.829065 0.625213
0.116602 0.132010 0.155051
0.191633 0.160808 0.178946
0.283759 0.196574 0.206400
0.381274 0.238217 0.237419
0.474772 0.284289 0.271362
0.556311 0.331877 0.305203
0.642673 0.384568 0.321369
0.719246 0.439841 0.325017
0.157200 0.214952 0.213257
0.225433 0.267470 0.263054
0.319147 0.304847 0.303621
0.421044 0.337904 0.340909
0.517464 0.373918 0.378542
0.598191 0.411864 0.413474
0.685937 0.459768 0.426036
0.763533 0.514436 0.425853
0.198685 0.293703 0.269294
0.272510 0.354097 0.330044
0.357815 0.398567 0.381946
0.452118 0.431063 0.426527
0.549909 0.456054 0.465187
0.630266 0.481587 0.498460
0.720691 0.518064 0.507206
0.802020 0.563788 0.504742
0.242452 0.366831 0.322080
0.325740 0.428746 0.387562
0.404415 0.478919 0.446071
0.486413 0.514216 0.495223
0.574529 0.534374 0.533999
0.654289 0.546956 0.563729
0.747525 0.569139 0.568618
0.833758 0.601815 0.565163
0.289901 0.433497 0.370940
0.379934 0.496766 0.440577
0.459821 0.547439 0.499997
0.530884 0.585395 0.549217
0.596855 0.609772 0.588033
0.672720 0.612910 0.612767
0.767246 0.621733 0.613721
0.857961 0.641045 0.610129
0.344320 0.493129 0.415430
0.434139 0.554897 0.485822
0.512346 0.605393 0.545440
0.579914 0.644473 0.594000
0.638470 0.671902 0.630502
0.691330 0.684185 0.647465
0.780461 0.687509 0.643488
0.872163 0.697802 0.639329
0.393468 0.550607 0.462196
0.484200 0.608327 0.530212
0.561160 0.656528 0.587761
0.626220 0.695903 0.635148
0.681372 0.727037 0.671733
0.728199 0.748532 0.690044
0.799181 0.764262 0.677335
0.880366 0.776402 0.667126
0.446028 0.600083 0.505636
0.536522 0.653420 0.571437
0.611323 0.698554 0.627089
0.673343 0.736737 0.673579
0.725574 0.769138 0.710915
0.771207 0.796079 0.733006
0.831607 0.822023 0.719093
0.895348 0.840197 0.707123
0.120855 0.136957 0.160314
0.215013 0.175610 0.191356
0.319853 0.217983 0.222415
0.424119 0.264886 0.255123
0.518644 0.316313 0.290438
0.593719 0.370023 0.327914
0.657475 0.421742 0.356883
0.718099 0.475404 0.374283
0.174847 0.248172 0.238864
0.254311 0.306580 0.293410
0.356711 0.351976 0.338395
0.464079 0.393083 0.379105
0.561827 0.435750 0.419212
0.636108 0.478837 0.458402
0.699237 0.523246 0.487287
0.760849 0.573091 0.502120
0.223192 0.338643 0.304101
0.308688 0.404639 0.370760
0.400703 0.455869 0.426911
0.498022 0.496344 0.474800
0.595581 0.530009 0.516673
0.669150 0.561827 0.555002
0.732229 0.595693 0.581645
0.796671 0.635991 0.593383
0.270826 0.414245 0.360227
0.368484 0.482093 0.433299
0.453438 0.537009 0.495817
0.536593 0.578409 0.547796
0.622583 0.607225 0.590176
0.694773 0.628233 0.626066
0.757865 0.650223 0.649350
0.825987 0.678124 0.658034
0.321974 0.479847 0.410639
0.427203 0.548080 0.488235
0.513690 0.601895 0.551793
0.585475 0.643199 0.603761
0.648124 0.672884 0.646173
0.715276 0.685662 0.678630
0.777449 0.696445 0.698127
0.849008 0.711786 0.704164
0.381906 0.537454 0.456617
0.486128 0.602921 0.535402
0.569660 0.654531 0.598615
0.636878 0.694145 0.648823
0.691564 0.723040 0.688071
0.734900 0.738562 0.715212
0.791369 0.742842 0.730155
0.863769 0.749281 0.733869
0.443540 0.591200 0.501090
0.542452 0.651386 0.577776
0.620764 0.699394 0.638980
0.682691 0.737038 0.687209
0.731632 0.765699 0.724501
0.767116 0.783904 0.749906
0.808960 0.793570 0.757341
0.872649 0.800049 0.755988
0.509240 0.640486 0.544440
0.601476 0.694387 0.618041
0.673333 0.738015 0.676571
0.729179 0.773121 0.722706
0.772672 0.801123 0.758679
0.804367 0.821454 0.784161
0.837812 0.837395 0.789534
0.886278 0.848886 0.785085
0.123613 0.139667 0.163110
0.241378 0.191633 0.203892
0.360015 0.241341 0.239675
0.470029 0.292504 0.274356
0.564157 0.347508 0.310708
0.635115 0.406019 0.349392
0.685134 0.458751 0.384437
0.726955 0.505200 0.408536
0.195449 0.287785 0.268794
0.285725 0.347103 0.326337
0.397382 0.400416 0.377236
0.510203 0.450583 0.423853
0.608414 0.499646 0.467923
0.679216 0.547570 0.509322
0.727297 0.590807 0.546015
0.770156 0.632016 0.570251
0.251405 0.391287 0.344510
0.348596 0.458411 0.416092
0.447285 0.514018 0.476434
0.546995 0.561745 0.528764
0.643465 0.604481 0.575561
0.713312 0.643000 0.616784
0.759580 0.677099 0.652365
0.803804 0.710883 0.674791
0.301447 0.465837 0.401263
0.415632 0.538875 0.483558
0.506947 0.595710 0.549424
0.590138 0.640712 0.603305
0.672929 0.677557 0.648936
0.740219 0.707883 0.687969
0.784574 0.733382 0.720942
0.830230 0.758749 0.740743
0.353999 0.524745 0.448411
0.477797 0.599959 0.537557
0.572011 0.656836 0.606233
0.643941 0.699494 0.659253
0.702080 0.731589 0.701191
0.762686 0.755110 0.736375
0.804390 0.772831 0.766059
0.851138 0.789933 0.783210
0.417993 0.577859 0.493248
0.539798 0.649450 0.583825
0.629869 0.703208 0.651804
0.696452 0.743181 0.702745
0.746634 0.772680 0.741321
0.784142 0.791989 0.769144
0.819534 0.803866 0.794269
0.865653 0.814661 0.808738
0.489706 0.627892 0.536251
0.601370 0.692837 0.624961
0.682655 0.741840 0.690594
0.741408 0.778388 0.738758
0.784143 0.805312 0.774120
0.812973 0.822585 0.797943
0.836196 0.832173 0.815632
0.874911 0.840232 0.825184
0.560538 0.673299 0.576158
0.660863 0.731137 0.662175
0.732853 0.775297 0.725163
0.783740 0.808669 0.770743
0.819651 0.833626 0.803613
0.843195 0.850207 0.825186
0.858793 0.860044 0.839039
0.886006 0.867881 0.843458
