filters/luts/Foreshadowing 02_S.cube
# LUT by SparkleStock. Enhanced with VOXCOLOR algorithms.
LUT_3D_SIZE 8
DOMAIN_MIN 0.000000 0.000000 0.000000
DOMAIN_MAX 0.903226 0.903226 0.903226
0.105495 0.078144 0.050794
0.175446 0.085328 0.038316
0.259459 0.103092 0.035480
0.354145 0.131199 0.042365
0.455315 0.168963 0.058671
0.554004 0.215660 0.084572
0.636622 0.260782 0.113624
0.695750 0.294529 0.137776
0.122132 0.102154 0.060436
0.196328 0.128806 0.048543
0.285207 0.151418 0.044012
0.383248 0.176829 0.048323
0.484949 0.209690 0.062324
0.581734 0.250972 0.087201
0.660620 0.294337 0.118033
0.714857 0.331261 0.146827
0.147741 0.140762 0.077577
0.222450 0.176201 0.071247
0.311803 0.209580 0.065443
0.410649 0.241116 0.066550
0.513385 0.272171 0.078764
0.609409 0.309593 0.103134
0.686740 0.350943 0.135834
0.739312 0.389748 0.169493
0.178542 0.188924 0.100721
0.252165 0.227718 0.102306
0.342065 0.270585 0.099253
0.441013 0.311458 0.099660
0.542326 0.347105 0.109531
0.637202 0.382160 0.132998
0.713580 0.421225 0.166788
0.765997 0.460352 0.204221
0.210682 0.241175 0.127662
0.283847 0.282366 0.137993
0.376893 0.329301 0.143140
0.476750 0.378079 0.147195
0.573932 0.424576 0.154822
0.665863 0.460235 0.177246
0.740362 0.496976 0.210694
0.792532 0.534701 0.249720
0.237528 0.287306 0.152617
0.315231 0.334351 0.174511
0.411155 0.383823 0.188319
0.514183 0.434626 0.199350
0.614439 0.485569 0.212978
0.699198 0.534254 0.239355
0.768233 0.569996 0.270413
0.817738 0.604311 0.307365
0.254606 0.317208 0.169696
0.344043 0.377548 0.208276
0.445722 0.432506 0.231892
0.550987 0.484652 0.249056
0.651694 0.535818 0.267329
0.734770 0.585943 0.296194
0.799560 0.632068 0.339050
0.844651 0.668778 0.379488
0.265020 0.330655 0.179771
0.372149 0.411804 0.241373
0.482881 0.476165 0.276409
0.590921 0.530980 0.298771
0.690277 0.581781 0.320049
0.769754 0.630314 0.350713
0.828720 0.679665 0.399286
0.870770 0.722150 0.451607
0.112112 0.085706 0.071401
0.171086 0.103429 0.086879
0.256147 0.120327 0.092508
0.356530 0.142993 0.097332
0.462603 0.175708 0.107381
0.563633 0.218893 0.122158
0.645423 0.263917 0.138500
0.701580 0.300469 0.152163
0.133140 0.119816 0.088800
0.189559 0.152813 0.118009
0.277344 0.172935 0.126338
0.381516 0.191962 0.129145
0.489805 0.218328 0.137229
0.592899 0.254851 0.152115
0.676810 0.297628 0.171371
0.733879 0.339104 0.190071
0.166769 0.171426 0.114736
0.218908 0.210142 0.145715
0.301572 0.240530 0.151831
0.402990 0.265226 0.151562
0.512355 0.287911 0.157868
0.616726 0.318684 0.172417
0.702810 0.357643 0.194313
0.762764 0.399608 0.218600
0.205620 0.231408 0.146552
0.254549 0.271721 0.176901
0.332217 0.311574 0.182036
0.428557 0.345886 0.179629
0.534250 0.372703 0.182696
0.638391 0.399476 0.196258
0.725885 0.433934 0.219536
0.789273 0.473402 0.248078
0.243797 0.292166 0.181964
0.292567 0.333984 0.215620
0.370286 0.377816 0.224640
0.462868 0.421059 0.222729
0.560077 0.460485 0.221568
0.660846 0.487069 0.233379
0.747914 0.517431 0.256091
0.813880 0.552714 0.286205
0.276938 0.346932 0.219361
0.329451 0.391432 0.259140
0.409657 0.437116 0.274191
0.504098 0.483385 0.277784
0.601080 0.528943 0.280528
0.688105 0.568553 0.289831
0.769557 0.598009 0.309548
0.834666 0.628646 0.337726
0.302993 0.389983 0.254613
0.360876 0.437429 0.300162
0.446827 0.486890 0.323604
0.545299 0.536149 0.334996
0.643103 0.583402 0.342908
0.726783 0.626719 0.355323
0.796553 0.664040 0.378523
0.853934 0.695622 0.405996
0.324824 0.420970 0.286863
0.386904 0.470074 0.335566
0.480828 0.526530 0.369655
0.585660 0.581772 0.391528
0.684867 0.630375 0.405173
0.766295 0.674083 0.421980
0.827104 0.714588 0.449314
0.875365 0.749210 0.482795
0.121675 0.095947 0.089464
0.179935 0.118817 0.114755
0.260594 0.142676 0.137070
0.356737 0.167946 0.153897
0.461156 0.196247 0.164415
0.562144 0.235918 0.172527
0.644952 0.280413 0.178458
0.703475 0.320151 0.182317
0.151656 0.142437 0.118146
0.202409 0.177833 0.161242
0.282196 0.198995 0.189713
0.381158 0.216497 0.205917
0.489759 0.238720 0.213395
0.595091 0.272409 0.220982
0.682318 0.315490 0.229261
0.743665 0.361016 0.237131
0.187145 0.198828 0.149204
0.235732 0.242811 0.200199
0.306558 0.271234 0.229710
0.399655 0.290311 0.243283
0.510777 0.306637 0.247364
0.619559 0.332512 0.254497
0.711658 0.369525 0.266014
0.778390 0.413190 0.279808
0.228395 0.264478 0.186599
0.275721 0.311305 0.237595
0.338126 0.347879 0.266067
0.422414 0.374749 0.276476
0.529091 0.393960 0.275574
0.638907 0.413291 0.281621
0.734649 0.442963 0.295157
0.807409 0.481033 0.313866
0.273414 0.335792 0.231389
0.318409 0.380081 0.277915
0.378474 0.420179 0.306036
0.455928 0.457341 0.314534
0.550654 0.490623 0.307648
0.656674 0.508621 0.311105
0.753166 0.532514 0.324004
0.830763 0.564217 0.344564
0.310567 0.395979 0.275422
0.358433 0.440419 0.323595
0.420796 0.483124 0.355909
0.499084 0.524841 0.368391
0.590846 0.565167 0.362621
0.679358 0.598439 0.359440
0.770216 0.621227 0.368659
0.848320 0.646852 0.387248
0.341073 0.444213 0.318376
0.393080 0.488915 0.368721
0.460298 0.534333 0.406910
0.542499 0.579347 0.426064
0.635572 0.622755 0.425562
0.719278 0.661772 0.424965
0.793557 0.692879 0.432983
0.861883 0.719322 0.448395
0.368501 0.482195 0.359375
0.422436 0.524778 0.408898
0.494334 0.572734 0.452507
0.582067 0.622094 0.480140
0.679468 0.669433 0.488385
0.761859 0.710536 0.493622
0.824914 0.746162 0.504951
0.879600 0.775403 0.523483
0.133633 0.107842 0.105534
0.197114 0.134554 0.133777
0.275079 0.166532 0.168607
0.363603 0.198541 0.199607
0.458735 0.228497 0.219866
0.555100 0.265022 0.229063
0.637971 0.308667 0.229869
0.701135 0.351470 0.227144
0.173774 0.168261 0.146767
0.225602 0.206621 0.192824
0.299788 0.231358 0.235613
0.389566 0.251305 0.268022
0.488732 0.273724 0.286140
0.591027 0.305409 0.292744
0.679266 0.348452 0.294200
0.745707 0.396776 0.293671
0.212321 0.230979 0.185831
0.263844 0.278793 0.243984
0.326866 0.307738 0.291457
0.408523 0.325029 0.323244
0.510443 0.338202 0.337791
0.617983 0.360606 0.342295
0.712719 0.395891 0.345991
0.785542 0.440178 0.350272
0.254164 0.298797 0.227461
0.307320 0.350630 0.289439
0.360900 0.386472 0.338449
0.431543 0.408813 0.368133
0.527807 0.421543 0.377208
0.637901 0.434785 0.379079
0.737972 0.460158 0.384408
0.818070 0.496157 0.393396
0.300774 0.371485 0.274334
0.352154 0.420904 0.331989
0.403431 0.460524 0.380211
0.465571 0.492639 0.407493
0.546679 0.517720 0.410160
0.653674 0.527584 0.407657
0.755729 0.545066 0.412342
0.841903 0.572502 0.423770
0.342038 0.437539 0.324014
0.394579 0.483946 0.378293
0.446847 0.525350 0.427082
0.508568 0.562748 0.456159
0.585284 0.596572 0.458745
0.673204 0.624458 0.446903
0.769719 0.640442 0.447349
0.857361 0.660443 0.456899
0.375403 0.487768 0.369526
0.431975 0.533854 0.424565
0.487753 0.576909 0.476216
0.552395 0.617587 0.509778
0.630510 0.656205 0.517388
0.712890 0.691474 0.506932
0.790245 0.717699 0.503361
0.867127 0.739123 0.508262
0.406189 0.527366 0.412067
0.465872 0.572673 0.467667
0.523725 0.615311 0.520449
0.591528 0.657860 0.558450
0.674286 0.701238 0.574546
0.756840 0.740502 0.570765
0.821940 0.773388 0.569848
0.882229 0.798787 0.576403
0.147079 0.120202 0.119879
0.218794 0.152457 0.152238
0.300042 0.189733 0.189164
0.382926 0.229233 0.228249
0.463295 0.268376 0.265194
0.548500 0.303473 0.284417
0.627788 0.346179 0.287778
0.694741 0.391381 0.283954
0.196716 0.196209 0.173846
0.252429 0.240765 0.223368
0.328649 0.270798 0.268182
0.411405 0.296060 0.310836
0.492954 0.323443 0.349729
0.584755 0.353829 0.364476
0.670431 0.395777 0.366261
0.741423 0.445037 0.362476
0.243269 0.271780 0.226512
0.296365 0.320833 0.284278
0.360511 0.353608 0.335424
0.433958 0.374330 0.381161
0.516236 0.388461 0.419137
0.613756 0.408901 0.429077
0.706573 0.442418 0.430020
0.784123 0.486260 0.428047
0.286702 0.341020 0.272817
0.343132 0.393092 0.336821
0.398795 0.432106 0.393097
0.460424 0.455318 0.440197
0.534694 0.464007 0.474629
0.635880 0.473190 0.479102
0.734937 0.495071 0.479499
0.819746 0.528762 0.480400
0.328189 0.402981 0.313028
0.387927 0.459048 0.383572
0.443925 0.502600 0.443090
0.496526 0.532259 0.489420
0.552768 0.547844 0.519079
0.652699 0.550576 0.516799
0.755081 0.561942 0.516132
0.846082 0.584681 0.519759
0.374191 0.474287 0.367684
0.432726 0.524168 0.430532
0.487178 0.566381 0.485585
0.537834 0.600399 0.531111
0.589669 0.626700 0.561594
0.670511 0.648360 0.548686
0.767682 0.657506 0.543374
0.860694 0.671816 0.545419
0.410893 0.526519 0.414529
0.471882 0.574063 0.475740
0.528301 0.616438 0.530698
0.580628 0.653727 0.578495
0.633159 0.686508 0.613120
0.708789 0.716742 0.600487
0.786338 0.738238 0.589014
0.868475 0.754795 0.585443
0.445596 0.566677 0.456663
0.508995 0.612841 0.517897
0.566905 0.654882 0.573350
0.620421 0.693219 0.622931
0.674357 0.728839 0.661321
0.752131 0.765103 0.655575
0.817855 0.795645 0.645847
0.882048 0.817864 0.642711
0.159368 0.130411 0.131411
0.243670 0.171156 0.170065
0.331285 0.214225 0.210174
0.415413 0.258409 0.250247
0.491026 0.302528 0.288765
0.554568 0.344651 0.322625
0.621586 0.387186 0.339769
0.685599 0.432840 0.344483
0.220422 0.227642 0.201186
0.282490 0.279553 0.254962
0.362857 0.316334 0.302205
0.446905 0.347716 0.345997
0.523768 0.380400 0.387852
0.588127 0.414072 0.423581
0.661891 0.454471 0.437469
0.731469 0.501864 0.439611
0.273000 0.313446 0.263543
0.331275 0.367678 0.324326
0.398768 0.407225 0.378686
0.473240 0.435254 0.427092
0.550500 0.455836 0.469719
0.616084 0.477909 0.504338
0.697161 0.509047 0.514658
0.774166 0.549640 0.515149
0.319933 0.388333 0.318301
0.382072 0.442223 0.383613
0.440854 0.485723 0.442818
0.503351 0.515492 0.494101
0.572575 0.531139 0.536283
0.638944 0.540595 0.567758
0.726419 0.559123 0.574174
0.811039 0.588417 0.573561
0.363982 0.453112 0.365793
0.429542 0.507824 0.436399
0.488532 0.551757 0.497240
0.542151 0.584750 0.548474
0.593804 0.605672 0.589825
0.657814 0.605816 0.616729
0.749008 0.612230 0.618784
0.839800 0.629388 0.617188
0.408960 0.508025 0.406983
0.474222 0.562103 0.479752
0.532333 0.606718 0.541972
0.583960 0.641567 0.593290
0.630498 0.666278 0.632689
0.676098 0.677533 0.652931
0.763515 0.679385 0.649493
0.856064 0.688156 0.646097
0.449638 0.561428 0.454755
0.515335 0.611450 0.524697
0.573351 0.654322 0.584696
0.624469 0.690262 0.634986
0.669849 0.719437 0.674854
0.711673 0.740322 0.696787
0.781424 0.755550 0.686070
0.863672 0.767087 0.676775
0.490665 0.604922 0.499268
0.556288 0.651250 0.566877
0.613702 0.692173 0.625128
0.664131 0.728136 0.674826
0.709117 0.759584 0.715787
0.751357 0.786202 0.741647
0.811352 0.812216 0.731422
0.876507 0.830838 0.721211
0.167718 0.136681 0.139005
0.269365 0.189697 0.187001
0.365598 0.239144 0.231443
0.452038 0.286822 0.272768
0.525470 0.333906 0.311396
0.581986 0.379761 0.347329
0.630635 0.421983 0.374130
0.680671 0.465603 0.390294
0.243970 0.263186 0.230320
0.313089 0.319719 0.288284
0.398940 0.363804 0.339599
0.485605 0.402366 0.386423
0.561138 0.440312 0.430166
0.618263 0.477848 0.469498
0.669831 0.516177 0.497641
0.724705 0.559116 0.512619
0.302467 0.359758 0.301708
0.367306 0.417678 0.367207
0.439001 0.463330 0.425314
0.515109 0.498962 0.476744
0.590877 0.527515 0.522250
0.648698 0.555204 0.561895
0.703185 0.585439 0.588888
0.764080 0.621333 0.601673
0.350634 0.435291 0.359287
0.421959 0.493709 0.431147
0.485121 0.541643 0.494006
0.548641 0.577607 0.547957
0.616035 0.601901 0.593541
0.674083 0.619492 0.631532
0.731092 0.639393 0.655871
0.798161 0.664750 0.666002
0.394759 0.497109 0.408100
0.470717 0.555785 0.485719
0.535081 0.602980 0.550409
0.590281 0.640025 0.604356
0.640128 0.667034 0.649305
0.695549 0.676938 0.684351
0.753811 0.686422 0.705181
0.826093 0.700429 0.712550
0.440176 0.548313 0.450461
0.516270 0.605677 0.531320
0.579682 0.651950 0.597061
0.632778 0.688318 0.650146
0.677723 0.715518 0.692456
0.715510 0.730885 0.722350
0.770029 0.734378 0.738395
0.844057 0.739883 0.742681
0.485785 0.595650 0.493569
0.559585 0.649426 0.573355
0.620869 0.693614 0.637847
0.671673 0.729241 0.689462
0.713681 0.757095 0.730075
0.746310 0.775721 0.758183
0.787757 0.785847 0.767311
0.853641 0.792075 0.766190
0.533660 0.638395 0.537035
0.604198 0.687477 0.614452
0.662549 0.728796 0.676870
0.710700 0.763211 0.726815
0.750345 0.791414 0.766329
0.781229 0.812470 0.794522
0.815562 0.829359 0.802204
0.866338 0.841338 0.798506
0.173233 0.139809 0.143149
0.296584 0.209022 0.203873
0.402375 0.265553 0.253573
0.490329 0.315450 0.295814
0.560818 0.363351 0.333605
0.612998 0.411091 0.368861
0.651070 0.453962 0.399960
0.685174 0.491711 0.421863
0.268134 0.303460 0.262383
0.343618 0.359628 0.322999
0.435602 0.411019 0.379985
0.525404 0.457931 0.432230
0.599720 0.501058 0.479085
0.653600 0.542306 0.520026
0.692565 0.580373 0.555335
0.730802 0.616653 0.579132
0.332640 0.411890 0.343633
0.403608 0.468975 0.413328
0.479499 0.518378 0.475311
0.557224 0.561183 0.530976
0.631864 0.598716 0.581162
0.686801 0.632990 0.623798
0.726184 0.664863 0.659830
0.768186 0.696350 0.683029
0.380273 0.484724 0.400827
0.462363 0.546991 0.481816
0.529937 0.596570 0.548079
0.593859 0.636445 0.603968
0.659489 0.669274 0.652797
0.714287 0.696685 0.694440
0.753775 0.721574 0.729057
0.799165 0.746331 0.750349
0.422372 0.538422 0.445774
0.511553 0.603213 0.535202
0.582404 0.653822 0.605577
0.638910 0.692975 0.660941
0.686446 0.723047 0.705415
0.737805 0.744578 0.743888
0.776712 0.762374 0.775830
0.824854 0.779760 0.794735
0.468441 0.584174 0.487476
0.558160 0.647445 0.580691
0.628028 0.696567 0.651826
0.682555 0.734410 0.706177
0.725730 0.763283 0.748096
0.759696 0.782794 0.778385
0.794370 0.794867 0.805734
0.843013 0.805976 0.821670
0.518566 0.626587 0.528437
0.604204 0.686237 0.621795
0.670334 0.732780 0.691867
0.721156 0.768645 0.744116
0.760212 0.795828 0.783022
0.788209 0.813995 0.809205
0.812155 0.824749 0.828452
0.853907 0.833227 0.838645
0.569116 0.666060 0.568783
0.649618 0.720934 0.660436
0.711466 0.764412 0.728560
0.758439 0.798362 0.778557
0.793820 0.824358 0.814949
0.818567 0.842083 0.838814
0.835803 0.853318 0.853752
0.865522 0.861790 0.858366
