filters/luts/Foreshadowing 04_S.cube
# LUT by SparkleStock. Enhanced with VOXCOLOR algorithms.
LUT_3D_SIZE 8
DOMAIN_MIN 0.000000 0.000000 0.000000
DOMAIN_MAX 0.903226 0.903226 0.903226
0.082051 0.113309 0.097680
0.133002 0.119044 0.083564
0.209555 0.132262 0.079294
0.308937 0.153830 0.082618
0.422687 0.183268 0.092631
0.537918 0.218370 0.108259
0.639088 0.254417 0.126653
0.709339 0.283296 0.143117
0.090433 0.128087 0.103415
0.152142 0.151553 0.089498
0.240876 0.168983 0.079380
0.346661 0.189698 0.077851
0.460461 0.216396 0.085103
0.570996 0.248994 0.100447
0.664759 0.284898 0.121779
0.727496 0.317833 0.144490
0.106101 0.154878 0.115452
0.169674 0.184690 0.105291
0.265031 0.221313 0.090023
0.377092 0.249953 0.084278
0.493153 0.278207 0.089480
0.602067 0.310358 0.105048
0.692381 0.346444 0.129262
0.752102 0.382647 0.157750
0.126110 0.189870 0.133097
0.189697 0.222628 0.128216
0.291484 0.270238 0.115686
0.406375 0.315841 0.106784
0.523396 0.352516 0.109458
0.631348 0.386436 0.124908
0.719459 0.422821 0.151236
0.777923 0.460709 0.184125
0.146764 0.227752 0.152814
0.212045 0.264388 0.154999
0.318784 0.316797 0.148340
0.439807 0.373660 0.142062
0.556338 0.424134 0.146520
0.660781 0.464858 0.162341
0.745799 0.501549 0.189026
0.802672 0.539328 0.224237
0.164378 0.261594 0.170365
0.235664 0.306796 0.182824
0.347367 0.362791 0.182983
0.474211 0.424141 0.182528
0.593183 0.483565 0.191336
0.694158 0.534804 0.213943
0.773314 0.576059 0.245015
0.826621 0.611825 0.279955
0.176439 0.285273 0.182646
0.260361 0.346840 0.210864
0.379199 0.408661 0.218583
0.509678 0.471899 0.223880
0.631094 0.533193 0.237545
0.729882 0.590183 0.267757
0.803510 0.639207 0.311142
0.851948 0.677782 0.355183
0.182394 0.294773 0.189216
0.287420 0.382666 0.241483
0.416967 0.454588 0.258029
0.550827 0.519953 0.267801
0.670750 0.580292 0.285860
0.765684 0.635328 0.319631
0.833858 0.687367 0.374568
0.877628 0.733348 0.438823
0.084478 0.118161 0.112017
0.127261 0.128478 0.124198
0.209875 0.136495 0.123280
0.316714 0.152941 0.124697
0.435537 0.179625 0.129281
0.552134 0.214756 0.136428
0.650764 0.253585 0.145060
0.716020 0.287487 0.153114
0.094851 0.140311 0.122932
0.145693 0.171058 0.153846
0.239075 0.183094 0.152921
0.351199 0.197722 0.152390
0.471190 0.219855 0.156244
0.587307 0.250115 0.164495
0.685374 0.287035 0.176477
0.750122 0.326085 0.189904
0.118382 0.179987 0.142994
0.166461 0.216888 0.172261
0.259250 0.250913 0.166880
0.374306 0.271401 0.162272
0.495897 0.291739 0.164139
0.611969 0.318431 0.172854
0.710155 0.352835 0.188295
0.776734 0.393078 0.208541
0.144766 0.226491 0.168694
0.190969 0.267211 0.198356
0.283228 0.311492 0.192241
0.397318 0.350885 0.182121
0.518572 0.378584 0.180595
0.634276 0.404154 0.189093
0.732585 0.435731 0.206776
0.801698 0.474105 0.231949
0.170927 0.275736 0.198813
0.218355 0.319885 0.232925
0.311872 0.367097 0.229147
0.427519 0.418642 0.218797
0.545286 0.461419 0.214398
0.656915 0.493243 0.221002
0.753616 0.522841 0.239286
0.824057 0.557763 0.267085
0.195059 0.324093 0.231904
0.246564 0.371126 0.272150
0.343873 0.419916 0.273600
0.462990 0.475571 0.267161
0.580376 0.528957 0.264018
0.685159 0.571809 0.271088
0.774655 0.604960 0.289581
0.843493 0.636175 0.317602
0.216155 0.367744 0.266227
0.272964 0.416214 0.311129
0.377816 0.469224 0.321793
0.501481 0.526680 0.321633
0.620975 0.583026 0.323331
0.721102 0.633026 0.334229
0.800501 0.673155 0.356645
0.861549 0.705027 0.387309
0.234562 0.403158 0.300460
0.294698 0.449432 0.345003
0.411902 0.512953 0.370637
0.542394 0.574317 0.379496
0.663131 0.630786 0.387224
0.761086 0.680781 0.403618
0.832083 0.724012 0.433207
0.881405 0.759858 0.472352
0.090252 0.124786 0.123991
0.133760 0.137729 0.140946
0.212273 0.152247 0.163625
0.315514 0.166847 0.174558
0.432600 0.190467 0.179189
0.549039 0.224609 0.180574
0.648921 0.265388 0.179793
0.717453 0.304847 0.178230
0.108132 0.156975 0.145599
0.155715 0.188709 0.184880
0.241722 0.200707 0.215093
0.351999 0.212629 0.224997
0.472714 0.232576 0.228157
0.590409 0.262995 0.229992
0.690893 0.303282 0.231429
0.759380 0.349096 0.233137
0.129157 0.200135 0.168402
0.182840 0.247693 0.221121
0.260635 0.275425 0.251915
0.372887 0.288991 0.257535
0.496965 0.303738 0.258341
0.617136 0.326777 0.261706
0.721015 0.359893 0.268603
0.794517 0.401794 0.279065
0.161662 0.259460 0.203960
0.213210 0.307878 0.252569
0.285428 0.345153 0.281768
0.392547 0.377515 0.280501
0.515054 0.397673 0.277048
0.635721 0.416499 0.280023
0.741824 0.443577 0.289527
0.820870 0.480558 0.305633
0.193940 0.319744 0.243504
0.245136 0.367032 0.289098
0.316163 0.409640 0.320183
0.420278 0.453997 0.316210
0.536875 0.490028 0.306367
0.653316 0.514624 0.305564
0.758969 0.537506 0.315201
0.841561 0.568543 0.333678
0.222327 0.375271 0.284281
0.277784 0.423115 0.331826
0.351148 0.469318 0.368182
0.456059 0.517334 0.366097
0.569482 0.564727 0.354412
0.677130 0.601787 0.349851
0.775344 0.628241 0.356828
0.857708 0.653790 0.375078
0.247746 0.425236 0.326551
0.309827 0.473628 0.377113
0.387703 0.521994 0.419616
0.496689 0.571587 0.423303
0.611149 0.622313 0.415789
0.712065 0.668233 0.412201
0.797468 0.703210 0.418467
0.870323 0.729170 0.435830
0.271794 0.468203 0.369618
0.339154 0.514580 0.419914
0.420985 0.563150 0.466531
0.537733 0.616719 0.480588
0.655840 0.669438 0.481461
0.755013 0.716799 0.484322
0.829393 0.756469 0.495653
0.885585 0.787035 0.516284
0.098854 0.132837 0.134988
0.146973 0.148014 0.154291
0.225497 0.168603 0.183867
0.320717 0.190540 0.212651
0.428071 0.215574 0.230045
0.538421 0.249166 0.235006
0.638048 0.291733 0.230999
0.712829 0.336947 0.223106
0.123337 0.176168 0.167169
0.171109 0.212642 0.210456
0.256378 0.227824 0.249613
0.357397 0.243286 0.282797
0.469941 0.264163 0.298996
0.583674 0.295054 0.302213
0.684885 0.337818 0.298576
0.759622 0.389043 0.292059
0.150088 0.231271 0.203594
0.205070 0.279397 0.259039
0.278487 0.308544 0.304528
0.379605 0.320101 0.337439
0.496727 0.332497 0.350381
0.614903 0.354309 0.352587
0.720654 0.388002 0.352241
0.800530 0.432788 0.352141
0.181281 0.289865 0.238483
0.241709 0.345148 0.301061
0.312343 0.385197 0.351033
0.400903 0.408498 0.379030
0.514399 0.420435 0.385575
0.634950 0.433952 0.385431
0.744797 0.457448 0.387950
0.831343 0.492809 0.394958
0.217687 0.357052 0.283816
0.279235 0.410309 0.342550
0.347917 0.454179 0.391704
0.428548 0.488283 0.417681
0.533910 0.515043 0.416489
0.650509 0.532485 0.411052
0.760968 0.549257 0.413558
0.852494 0.576035 0.423441
0.251893 0.420143 0.331809
0.316219 0.470291 0.386667
0.384982 0.515492 0.435890
0.464341 0.555789 0.464501
0.564290 0.595093 0.460340
0.671036 0.625710 0.448201
0.774288 0.646219 0.446108
0.866545 0.666211 0.455124
0.281728 0.472424 0.377034
0.352436 0.522164 0.432712
0.424470 0.568309 0.484775
0.505959 0.611934 0.518835
0.605577 0.655533 0.517901
0.704484 0.696414 0.504227
0.793588 0.727238 0.498312
0.875575 0.748106 0.504171
0.310701 0.515531 0.420582
0.387926 0.564649 0.477280
0.462684 0.609717 0.530735
0.547026 0.654418 0.570375
0.650546 0.700838 0.577400
0.748802 0.745161 0.570775
0.825404 0.782839 0.568238
0.887753 0.810411 0.574567
0.108267 0.141219 0.144748
0.165281 0.159803 0.167794
0.248544 0.185370 0.199435
0.340905 0.215273 0.235389
0.435163 0.247256 0.267241
0.531812 0.283964 0.286598
0.624968 0.328351 0.290338
0.703098 0.378488 0.283503
0.139737 0.199015 0.189181
0.190806 0.243530 0.237220
0.279279 0.263842 0.278000
0.377351 0.285198 0.320453
0.475490 0.310456 0.355084
0.576075 0.343419 0.372979
0.672786 0.387608 0.374478
0.751906 0.441920 0.366947
0.173196 0.266594 0.238589
0.231001 0.316872 0.294705
0.305033 0.351828 0.346218
0.402162 0.367766 0.391588
0.503829 0.382219 0.424865
0.609284 0.404532 0.439851
0.711680 0.438542 0.440444
0.795999 0.484733 0.435575
0.207452 0.331506 0.282518
0.274394 0.387307 0.347478
0.346530 0.430130 0.404192
0.427276 0.454466 0.449040
0.523509 0.463998 0.478081
0.632246 0.474387 0.488681
0.739972 0.495550 0.488716
0.830964 0.529306 0.488275
0.246443 0.395275 0.325493
0.318186 0.452606 0.393873
0.390580 0.498902 0.452159
0.462384 0.531363 0.496968
0.545957 0.549740 0.519739
0.649001 0.559007 0.523533
0.758412 0.570367 0.521402
0.854508 0.592955 0.523800
0.285672 0.459075 0.374088
0.360161 0.513292 0.439281
0.432205 0.559650 0.496011
0.501322 0.596850 0.541445
0.576202 0.626266 0.561943
0.668332 0.647534 0.558461
0.771360 0.661580 0.550327
0.868452 0.676230 0.552016
0.322122 0.515041 0.422977
0.400677 0.566066 0.485173
0.473869 0.611283 0.540655
0.542481 0.651124 0.587863
0.615591 0.686755 0.611464
0.699809 0.720156 0.605971
0.788850 0.745645 0.592015
0.875683 0.761832 0.589031
0.358596 0.557843 0.465914
0.441720 0.607547 0.528458
0.516655 0.651742 0.584243
0.585332 0.691597 0.633416
0.659402 0.729779 0.662391
0.742679 0.767985 0.662770
0.819952 0.802725 0.650577
0.886198 0.827598 0.645889
0.116491 0.148340 0.152499
0.187137 0.172617 0.181522
0.279052 0.203062 0.216192
0.373407 0.239111 0.253681
0.460476 0.279137 0.291971
0.540805 0.321456 0.324529
0.618437 0.368202 0.343740
0.691931 0.421028 0.347953
0.157382 0.227083 0.213497
0.214320 0.280272 0.266792
0.308272 0.307182 0.309927
0.408644 0.334999 0.353833
0.499339 0.366479 0.397351
0.581925 0.402453 0.431712
0.663023 0.446921 0.449137
0.739747 0.501481 0.450457
0.196195 0.305368 0.272836
0.261149 0.361449 0.333007
0.337861 0.403604 0.388958
0.435815 0.427194 0.436930
0.528907 0.447680 0.480729
0.614479 0.472297 0.513147
0.700693 0.505840 0.527625
0.783839 0.550841 0.527450
0.235094 0.377544 0.326661
0.310722 0.434949 0.393165
0.385203 0.481168 0.452880
0.465129 0.512155 0.503688
0.551682 0.527110 0.546269
0.639279 0.539007 0.574634
0.730372 0.558681 0.585445
0.820691 0.589752 0.584611
0.277083 0.440305 0.372131
0.360080 0.499371 0.445306
0.436321 0.546992 0.507346
0.507334 0.582524 0.558462
0.578178 0.601831 0.597511
0.658274 0.608967 0.620105
0.751506 0.616504 0.626419
0.847074 0.634644 0.625175
0.322643 0.499125 0.417225
0.408271 0.556545 0.491579
0.484272 0.603931 0.553714
0.552130 0.640941 0.603830
0.612081 0.666693 0.640764
0.679749 0.680929 0.657107
0.766512 0.687809 0.656775
0.862748 0.697026 0.653502
0.367851 0.553343 0.464494
0.454508 0.606881 0.535961
0.529582 0.652225 0.595993
0.594950 0.689985 0.645166
0.651443 0.720156 0.682863
0.710534 0.744648 0.697139
0.783821 0.761814 0.690834
0.870148 0.772794 0.681941
0.414180 0.598065 0.509195
0.501467 0.648111 0.578562
0.575508 0.691123 0.636683
0.638869 0.728297 0.685140
0.693118 0.760366 0.724503
0.749912 0.789994 0.742433
0.812941 0.817897 0.736716
0.880082 0.839031 0.724503
0.122132 0.153184 0.157478
0.211490 0.186284 0.195152
0.315034 0.222109 0.234173
0.413544 0.262951 0.273652
0.498842 0.309041 0.313024
0.568307 0.357434 0.351099
0.627612 0.406084 0.382418
0.685093 0.456897 0.401243
0.176199 0.262181 0.241856
0.240681 0.320870 0.299581
0.342323 0.356012 0.347412
0.446626 0.391017 0.394418
0.536892 0.428873 0.439743
0.607905 0.468803 0.481970
0.668915 0.512181 0.514580
0.730323 0.561952 0.531490
0.220077 0.350518 0.310142
0.295710 0.412374 0.376402
0.376686 0.460813 0.435975
0.475906 0.492981 0.486796
0.567822 0.521620 0.532786
0.640083 0.551020 0.574555
0.703500 0.584125 0.605043
0.770592 0.624513 0.618769
0.261569 0.424060 0.367206
0.350976 0.486922 0.440901
0.430379 0.537665 0.504343
0.509890 0.574986 0.558084
0.593925 0.599176 0.603536
0.666382 0.617857 0.642562
0.732205 0.638703 0.669320
0.805296 0.666140 0.679517
0.306389 0.486808 0.416749
0.404740 0.549577 0.496566
0.486422 0.599185 0.561187
0.556733 0.637922 0.614564
0.623917 0.663972 0.657620
0.687824 0.677398 0.692668
0.754655 0.686933 0.714830
0.832127 0.701905 0.721502
0.357697 0.540789 0.460461
0.458378 0.601945 0.543937
0.539331 0.650229 0.609230
0.606349 0.687930 0.661044
0.661987 0.715567 0.701147
0.712243 0.730627 0.730934
0.771843 0.736395 0.747038
0.849717 0.742244 0.749919
0.411906 0.589324 0.503448
0.510480 0.647106 0.586546
0.588548 0.693178 0.650774
0.651614 0.729843 0.700756
0.702448 0.757735 0.738559
0.742919 0.777208 0.765044
0.789902 0.788270 0.775301
0.859330 0.794241 0.772240
0.469856 0.633571 0.547833
0.563652 0.686436 0.627668
0.637179 0.729312 0.689077
0.695684 0.764404 0.736675
0.742113 0.792609 0.772991
0.778575 0.814757 0.799740
0.816719 0.833418 0.808443
0.869943 0.847672 0.801012
0.124700 0.155626 0.159699
0.238463 0.201462 0.208729
0.355040 0.243276 0.253122
0.457672 0.287643 0.294683
0.540987 0.337473 0.335077
0.605366 0.390873 0.374323
0.652444 0.441386 0.409694
0.689587 0.485487 0.436428
0.196640 0.306189 0.276351
0.268830 0.362692 0.334944
0.380122 0.407985 0.390603
0.488901 0.451393 0.443641
0.578672 0.495351 0.492648
0.646164 0.539827 0.536744
0.694272 0.582418 0.575179
0.734567 0.623103 0.603526
0.245737 0.404900 0.354029
0.334290 0.468308 0.426046
0.420066 0.519319 0.487868
0.520488 0.560423 0.543605
0.610901 0.598018 0.594053
0.679541 0.633952 0.638228
0.727789 0.668079 0.675785
0.770572 0.701964 0.702437
0.287809 0.474452 0.409599
0.395441 0.542782 0.493767
0.481356 0.595879 0.560742
0.560087 0.637187 0.615543
0.640330 0.670114 0.663538
0.707851 0.698270 0.705126
0.755798 0.723988 0.740065
0.800880 0.749411 0.763840
0.333730 0.529530 0.455244
0.452697 0.599509 0.547866
0.542431 0.652294 0.617554
0.612305 0.692985 0.671562
0.674460 0.723674 0.714716
0.732049 0.746541 0.751337
0.778854 0.764647 0.782712
0.825496 0.781564 0.803306
0.388586 0.578236 0.497940
0.510022 0.646329 0.594930
0.598250 0.697002 0.664614
0.664660 0.735655 0.716702
0.715131 0.764655 0.755666
0.758426 0.785124 0.786040
0.797234 0.798274 0.811670
0.843535 0.808100 0.828563
0.450933 0.622413 0.539203
0.567332 0.686623 0.636888
0.650065 0.734333 0.705097
0.710719 0.770476 0.754209
0.755694 0.797405 0.789763
0.788613 0.816507 0.814931
0.815753 0.828002 0.833549
0.855284 0.834723 0.844549
0.517507 0.661990 0.579369
0.624450 0.721637 0.675069
0.699625 0.766367 0.741113
0.753663 0.800245 0.787338
0.792695 0.825336 0.819580
0.820378 0.843159 0.841717
0.839585 0.855011 0.855788
0.866192 0.862820 0.860724
