filters/luts/Foreshadowing 05.cube
# Created by: Adobe Photoshop Export Color Lookup Plugin
# LUT by SparkleStock. Enhanced with VOXCOLOR algorithms.
LUT_3D_SIZE 32
0.070330 0.101587 0.093773
0.083847 0.102863 0.091788
0.097365 0.104140 0.089803
0.110883 0.105416 0.087818
0.124400 0.106692 0.085832
0.137918 0.107968 0.083847
0.157816 0.111844 0.084462
0.178991 0.116239 0.085596
0.200165 0.120635 0.086730
0.221340 0.125031 0.087865
0.242514 0.129426 0.088999
0.267565 0.135618 0.091804
0.294553 0.142707 0.095443
0.321541 0.149797 0.099082
0.348529 0.156887 0.102722
0.375517 0.163977 0.106361
0.402930 0.171846 0.110780
0.430769 0.180495 0.115979
0.458608 0.189145 0.121178
0.486447 0.197794 0.126378
0.514286 0.206444 0.131577
0.540376 0.214904 0.136807
0.562968 0.222986 0.142101
0.585561 0.231069 0.147395
0.608153 0.239151 0.152688
0.630746 0.247233 0.157982
0.651447 0.254732 0.162960
0.662696 0.259317 0.166363
0.673945 0.263902 0.169766
0.685194 0.268486 0.173169
0.696443 0.273071 0.176573
0.707692 0.277656 0.179976
0.073166 0.105652 0.095616
0.087516 0.107797 0.094006
0.101866 0.109942 0.092396
0.116216 0.112088 0.090786
0.130566 0.114233 0.089176
0.144916 0.116378 0.087566
0.165426 0.120521 0.088289
0.187168 0.125063 0.089478
0.208909 0.129605 0.090667
0.230651 0.134146 0.091856
0.252393 0.138688 0.093046
0.277608 0.144978 0.095862
0.304559 0.152141 0.099492
0.331511 0.159303 0.103123
0.358462 0.166466 0.106753
0.385414 0.173629 0.110383
0.412594 0.181535 0.114761
0.440003 0.190185 0.119887
0.467411 0.198834 0.125013
0.494820 0.207484 0.130139
0.522229 0.216133 0.135265
0.547862 0.224602 0.140419
0.569942 0.232712 0.145631
0.592022 0.240822 0.150842
0.614102 0.248932 0.156053
0.636183 0.257041 0.161264
0.656413 0.264585 0.166170
0.667397 0.269297 0.169545
0.678381 0.274010 0.172921
0.689364 0.278723 0.176297
0.700348 0.283436 0.179672
0.711332 0.288148 0.183048
0.076001 0.109717 0.097460
0.091184 0.112731 0.096225
0.106367 0.115745 0.094990
0.121549 0.118760 0.093755
0.136732 0.121774 0.092520
0.151914 0.124788 0.091285
0.173036 0.129197 0.092116
0.195344 0.133886 0.093360
0.217653 0.138574 0.094604
0.239962 0.143262 0.095848
0.262271 0.147951 0.097092
0.287651 0.154338 0.099921
0.314565 0.161574 0.103542
0.341480 0.168810 0.107163
0.368395 0.176046 0.110784
0.395310 0.183282 0.114405
0.422257 0.191225 0.118742
0.449236 0.199874 0.123795
0.476215 0.208523 0.128848
0.503194 0.217173 0.133900
0.530173 0.225822 0.138953
0.555348 0.234301 0.144031
0.576916 0.242438 0.149160
0.598484 0.250575 0.154289
0.620052 0.258712 0.159418
0.641619 0.266849 0.164547
0.661379 0.274437 0.169379
0.672098 0.279278 0.172727
0.682816 0.284119 0.176075
0.693534 0.288960 0.179424
0.704253 0.293800 0.182772
0.714971 0.298641 0.186120
0.078837 0.113782 0.099303
0.094852 0.117665 0.098443
0.110867 0.121548 0.097583
0.126882 0.125432 0.096723
0.142898 0.129315 0.095863
0.158913 0.133198 0.095003
0.180645 0.137874 0.095942
0.203521 0.142709 0.097242
0.226397 0.147544 0.098541
0.249273 0.152378 0.099840
0.272149 0.157213 0.101139
0.297694 0.163698 0.103979
0.324572 0.171007 0.107591
0.351450 0.178316 0.111203
0.378328 0.185625 0.114815
0.405207 0.192934 0.118427
0.431920 0.200914 0.122723
0.458469 0.209563 0.127702
0.485018 0.218213 0.132682
0.511567 0.226862 0.137662
0.538116 0.235511 0.142641
0.562834 0.243999 0.147643
0.583890 0.252164 0.152690
0.604945 0.260328 0.157736
0.626001 0.268493 0.162783
0.647056 0.276658 0.167830
0.666345 0.284289 0.172589
0.676798 0.289258 0.175909
0.687251 0.294227 0.179230
0.697704 0.299196 0.182551
0.708157 0.304165 0.185871
0.718610 0.309134 0.189192
0.081673 0.117846 0.101146
0.098521 0.122599 0.100661
0.115368 0.127351 0.100176
0.132216 0.132103 0.099692
0.149063 0.136856 0.099207
0.165911 0.141608 0.098722
0.188255 0.146551 0.099769
0.211698 0.151532 0.101123
0.235141 0.156513 0.102477
0.258584 0.161494 0.103831
0.282028 0.166475 0.105185
0.307737 0.173057 0.108038
0.334578 0.180440 0.111641
0.361420 0.187822 0.115244
0.388262 0.195205 0.118846
0.415103 0.202587 0.122449
0.441584 0.210603 0.126704
0.467703 0.219252 0.131610
0.493822 0.227902 0.136517
0.519941 0.236551 0.141423
0.546060 0.245201 0.146329
0.570320 0.253698 0.151255
0.590863 0.261890 0.156219
0.611407 0.270082 0.161184
0.631950 0.278274 0.166148
0.652493 0.286466 0.171112
0.671311 0.294142 0.175798
0.681499 0.299239 0.179091
0.691686 0.304336 0.182385
0.701874 0.309433 0.185678
0.712062 0.314530 0.188971
0.722250 0.319627 0.192264
0.084509 0.121911 0.102989
0.102189 0.127532 0.102880
0.119869 0.133154 0.102770
0.137549 0.138775 0.102660
0.155229 0.144397 0.102550
0.172909 0.150018 0.102441
0.195864 0.155228 0.103596
0.219875 0.160355 0.105005
0.243885 0.165483 0.106414
0.267896 0.170610 0.107823
0.291906 0.175738 0.109231
0.317779 0.182417 0.112097
0.344585 0.189873 0.115690
0.371390 0.197329 0.119284
0.398195 0.204784 0.122878
0.425000 0.212240 0.126471
0.451247 0.220292 0.130685
0.476936 0.228942 0.135518
0.502625 0.237591 0.140351
0.528314 0.246240 0.145184
0.554003 0.254890 0.150017
0.577806 0.263396 0.154867
0.597837 0.271615 0.159749
0.617868 0.279835 0.164631
0.637899 0.288054 0.169513
0.657930 0.296274 0.174395
0.676277 0.303994 0.179007
0.686199 0.309219 0.182273
0.696122 0.314444 0.185539
0.706044 0.319669 0.188805
0.715967 0.324894 0.192071
0.725889 0.330119 0.195337
0.088684 0.129402 0.106487
0.106617 0.135481 0.106752
0.124550 0.141560 0.107018
0.142483 0.147639 0.107283
0.160416 0.153718 0.107548
0.178350 0.159797 0.107814
0.201985 0.165484 0.108989
0.226761 0.171093 0.110345
0.251536 0.176703 0.111702
0.276312 0.182312 0.113059
0.301088 0.187921 0.114416
0.327335 0.194907 0.117299
0.354317 0.202580 0.120944
0.381298 0.210254 0.124590
0.408280 0.217927 0.128235
0.435262 0.225601 0.131881
0.461455 0.233839 0.136126
0.486859 0.242641 0.140969
0.512263 0.251443 0.145813
0.537667 0.260245 0.150657
0.563071 0.269046 0.155501
0.586539 0.277709 0.160363
0.606134 0.286093 0.165262
0.625729 0.294477 0.170161
0.645324 0.302861 0.175059
0.664919 0.311246 0.179958
0.682867 0.319151 0.184605
0.692586 0.324664 0.187996
0.702304 0.330178 0.191387
0.712022 0.335691 0.194778
0.721740 0.341204 0.198169
0.731459 0.346717 0.201560
0.093127 0.137579 0.110315
0.111197 0.144033 0.110956
0.129268 0.150487 0.111596
0.147338 0.156941 0.112237
0.165408 0.163395 0.112877
0.183478 0.169849 0.113517
0.207808 0.176056 0.114694
0.233388 0.182214 0.115978
0.258969 0.188372 0.117261
0.284550 0.194531 0.118545
0.310131 0.200689 0.119829
0.336792 0.208022 0.122730
0.363994 0.215942 0.126439
0.391195 0.223863 0.130149
0.418397 0.231784 0.133858
0.445598 0.239704 0.137568
0.471773 0.248157 0.141858
0.496921 0.257142 0.146730
0.522068 0.266127 0.151601
0.547216 0.275112 0.156472
0.572364 0.284096 0.161343
0.595521 0.292945 0.166236
0.614695 0.301521 0.171171
0.633869 0.310097 0.176107
0.653043 0.318674 0.181042
0.672217 0.327250 0.185977
0.689783 0.335369 0.190681
0.699309 0.341202 0.194228
0.708836 0.347036 0.197774
0.718362 0.352869 0.201320
0.727888 0.358702 0.204867
0.737414 0.364536 0.208413
0.097570 0.145756 0.114144
0.115777 0.152585 0.115159
0.133985 0.159414 0.116175
0.152192 0.166243 0.117190
0.170400 0.173072 0.118206
0.188607 0.179901 0.119221
0.213630 0.186628 0.120399
0.240016 0.193335 0.121610
0.266402 0.200042 0.122820
0.292788 0.206749 0.124031
0.319174 0.213456 0.125241
0.346250 0.221137 0.128161
0.373671 0.229305 0.131934
0.401092 0.237472 0.135708
0.428513 0.245640 0.139481
0.455934 0.253807 0.143255
0.482090 0.262475 0.147591
0.506982 0.271643 0.152490
0.531873 0.280811 0.157388
0.556765 0.289979 0.162287
0.581657 0.299146 0.167186
0.604502 0.308181 0.172109
0.623256 0.316949 0.177081
0.642009 0.325718 0.182053
0.660762 0.334486 0.187025
0.679516 0.343254 0.191997
0.696699 0.351587 0.196757
0.706033 0.357740 0.200459
0.715367 0.363894 0.204161
0.724701 0.370047 0.207863
0.734035 0.376201 0.211565
0.743369 0.382355 0.215266
0.102013 0.153933 0.117972
0.120357 0.161137 0.119363
0.138702 0.168341 0.120753
0.157047 0.175545 0.122144
0.175392 0.182749 0.123534
0.193736 0.189953 0.124925
0.219453 0.197200 0.126104
0.246644 0.204456 0.127242
0.273835 0.211712 0.128379
0.301025 0.218968 0.129517
0.328216 0.226224 0.130654
0.355707 0.234252 0.133592
0.383348 0.242667 0.137429
0.410988 0.251081 0.141267
0.438629 0.259496 0.145104
0.466269 0.267911 0.148942
0.492408 0.276793 0.153324
0.517043 0.286144 0.158250
0.541679 0.295495 0.163176
0.566314 0.304846 0.168102
0.590950 0.314196 0.173028
0.613484 0.323417 0.177982
0.631817 0.332377 0.182991
0.650149 0.341338 0.187999
0.668482 0.350298 0.193008
0.686814 0.359259 0.198016
0.703615 0.367805 0.202833
0.712757 0.374278 0.206690
0.721899 0.380752 0.210548
0.731041 0.387226 0.214405
0.740183 0.393700 0.218262
0.749325 0.400173 0.222120
0.106456 0.162110 0.121801
0.124938 0.169689 0.123566
0.143419 0.177268 0.125332
0.161901 0.184847 0.127097
0.180383 0.192426 0.128863
0.198865 0.200005 0.130629
0.225276 0.207772 0.131810
0.253271 0.215577 0.132874
0.281267 0.223382 0.133938
0.309263 0.231186 0.135002
0.337259 0.238991 0.136067
0.365164 0.247367 0.139022
0.393025 0.256029 0.142924
0.420885 0.264690 0.146826
0.448745 0.273352 0.150727
0.476605 0.282014 0.154629
0.502725 0.291111 0.159056
0.527104 0.300645 0.164010
0.551484 0.310179 0.168964
0.575863 0.319712 0.173917
0.600242 0.329246 0.178871
0.622466 0.338653 0.183855
0.640378 0.347805 0.188900
0.658289 0.356958 0.193945
0.676201 0.366111 0.198990
0.694113 0.375263 0.204036
0.710531 0.384023 0.208909
0.719481 0.390816 0.212922
0.728431 0.397610 0.216934
0.737380 0.404404 0.220947
0.746330 0.411198 0.224960
0.755280 0.417992 0.228973
0.111277 0.171704 0.126764
0.129835 0.179604 0.128929
0.148393 0.187503 0.131094
0.166951 0.195402 0.133259
0.185509 0.203301 0.135424
0.204068 0.211201 0.137589
0.230968 0.219484 0.138979
0.259537 0.227843 0.140214
0.288106 0.236203 0.141449
0.316676 0.244563 0.142684
0.345245 0.252923 0.143919
0.373528 0.261632 0.146803
0.401669 0.270516 0.150513
0.429810 0.279400 0.154222
0.457950 0.288285 0.157932
0.486091 0.297169 0.161641
0.512275 0.306469 0.165993
0.536502 0.316186 0.170986
0.560729 0.325903 0.175979
0.584956 0.335619 0.180972
0.609183 0.345336 0.185966
0.631186 0.354923 0.190997
0.648745 0.364249 0.196103
0.666303 0.373575 0.201209
0.683861 0.382902 0.206315
0.701419 0.392228 0.211421
0.717512 0.401180 0.216374
0.726282 0.408257 0.220561
0.735052 0.415335 0.224747
0.743821 0.422412 0.228934
0.752591 0.429490 0.233121
0.761361 0.436567 0.237307
0.116287 0.182008 0.132294
0.134891 0.190200 0.134870
0.153494 0.198392 0.137447
0.172098 0.206584 0.140024
0.190702 0.214776 0.142600
0.209306 0.222968 0.145177
0.236596 0.231765 0.146879
0.265622 0.240683 0.148407
0.294649 0.249600 0.149935
0.323675 0.258518 0.151463
0.352702 0.267436 0.152990
0.381345 0.276472 0.155759
0.409797 0.285566 0.159148
0.438249 0.294661 0.162538
0.466700 0.303755 0.165927
0.495152 0.312850 0.169316
0.521441 0.322347 0.173531
0.545567 0.332247 0.178570
0.569694 0.342146 0.183609
0.593820 0.352046 0.188648
0.617946 0.361946 0.193687
0.639776 0.371709 0.198772
0.657014 0.381200 0.203952
0.674252 0.390691 0.209131
0.691490 0.400182 0.214310
0.708728 0.409673 0.219490
0.724525 0.418806 0.224534
0.733121 0.426149 0.228904
0.741717 0.433492 0.233273
0.750314 0.440835 0.237643
0.758910 0.448177 0.242013
0.767506 0.455520 0.246382
0.121297 0.192312 0.137823
0.139946 0.200796 0.140812
0.158596 0.209281 0.143800
0.177246 0.217766 0.146788
0.195895 0.226251 0.149777
0.214545 0.234735 0.152765
0.242223 0.244046 0.154780
0.271707 0.253522 0.156601
0.301191 0.262998 0.158421
0.330675 0.272473 0.160242
0.360159 0.281949 0.162062
0.389162 0.291311 0.164715
0.417925 0.300616 0.167784
0.446688 0.309921 0.170853
0.475451 0.319226 0.173922
0.504213 0.328531 0.176992
0.530607 0.338225 0.181069
0.554633 0.348308 0.186153
0.578659 0.358390 0.191238
0.602684 0.368473 0.196323
0.626710 0.378555 0.201408
0.648366 0.388496 0.206548
0.665284 0.398151 0.211801
0.682202 0.407807 0.217053
0.699119 0.417463 0.222306
0.716037 0.427118 0.227558
0.731539 0.436433 0.232694
0.739961 0.444041 0.237247
0.748383 0.451649 0.241799
0.756806 0.459257 0.246352
0.765228 0.466865 0.250904
0.773650 0.474473 0.255457
0.126307 0.202615 0.143353
0.145002 0.211393 0.146753
0.163698 0.220170 0.150153
0.182393 0.228948 0.153553
0.201088 0.237725 0.156953
0.219784 0.246503 0.160353
0.247851 0.256327 0.162681
0.277792 0.266361 0.164794
0.307733 0.276395 0.166907
0.337675 0.286429 0.169021
0.367616 0.296462 0.171134
0.396979 0.306151 0.173671
0.426053 0.315666 0.176420
0.455127 0.325181 0.179169
0.484201 0.334697 0.181918
0.513274 0.344212 0.184667
0.539774 0.354103 0.188606
0.563699 0.364368 0.193737
0.587624 0.374634 0.198867
0.611549 0.384899 0.203998
0.635474 0.395165 0.209128
0.656956 0.405282 0.214324
0.673554 0.415103 0.219650
0.690151 0.424923 0.224975
0.706749 0.434743 0.230301
0.723346 0.444564 0.235627
0.738552 0.454059 0.240854
0.746801 0.461933 0.245589
0.755049 0.469806 0.250325
0.763298 0.477680 0.255061
0.771546 0.485553 0.259796
0.779794 0.493426 0.264532
0.131317 0.212919 0.148883
0.150058 0.221989 0.152695
0.168799 0.231059 0.156507
0.187540 0.240130 0.160318
0.206281 0.249200 0.164130
0.225023 0.258270 0.167942
0.253478 0.268608 0.170582
0.283877 0.279200 0.172988
0.314276 0.289792 0.175394
0.344675 0.300384 0.177800
0.375073 0.310976 0.180206
0.404796 0.320990 0.182627
0.434181 0.330716 0.185056
0.463566 0.340442 0.187484
0.492951 0.350168 0.189913
0.522335 0.359893 0.192342
0.548940 0.369981 0.196144
0.572764 0.380429 0.201321
0.596589 0.390878 0.206497
0.620413 0.401326 0.211673
0.644238 0.411775 0.216849
0.665546 0.422069 0.222100
0.681824 0.432054 0.227499
0.698101 0.442039 0.232897
0.714378 0.452024 0.238296
0.730656 0.462009 0.243695
0.745566 0.471686 0.249014
0.753640 0.479825 0.253932
0.761715 0.487963 0.258851
0.769790 0.496102 0.263770
0.777864 0.504241 0.268688
0.785939 0.512379 0.273607
0.135972 0.222632 0.154413
0.154896 0.232127 0.158756
0.173821 0.241623 0.163098
0.192745 0.251119 0.167440
0.211669 0.260614 0.171782
0.230593 0.270110 0.176125
0.259319 0.280881 0.179059
0.290006 0.291907 0.181712
0.320693 0.302934 0.184365
0.351380 0.313960 0.187018
0.382067 0.324987 0.189671
0.412102 0.335353 0.192095
0.441812 0.345390 0.194405
0.471521 0.355427 0.196715
0.501231 0.365464 0.199024
0.530941 0.375501 0.201334
0.557666 0.385819 0.205075
0.581409 0.396418 0.210247
0.605151 0.407018 0.215418
0.628893 0.417617 0.220590
0.652635 0.428217 0.225762
0.673789 0.438639 0.231023
0.689769 0.448706 0.236463
0.705749 0.458773 0.241903
0.721729 0.468841 0.247343
0.737709 0.478908 0.252783
0.752342 0.488680 0.258160
0.760238 0.496974 0.263220
0.768135 0.505268 0.268280
0.776031 0.513563 0.273341
0.783927 0.521857 0.278401
0.791823 0.530151 0.283461
0.140273 0.231754 0.159943
0.159518 0.241808 0.164935
0.178762 0.251861 0.169927
0.198006 0.261915 0.174919
0.217251 0.271968 0.179910
0.236495 0.282022 0.184902
0.265374 0.293145 0.188112
0.296180 0.304483 0.190967
0.326985 0.315820 0.193821
0.357791 0.327158 0.196675
0.388597 0.338495 0.199529
0.418898 0.349240 0.202075
0.448946 0.359688 0.204468
0.478994 0.370137 0.206860
0.509042 0.380585 0.209252
0.539090 0.391034 0.211644
0.565953 0.401617 0.215399
0.589631 0.412336 0.220515
0.613309 0.423054 0.225632
0.636987 0.433773 0.230749
0.660665 0.444491 0.235866
0.681686 0.454992 0.241093
0.697391 0.465060 0.246542
0.713097 0.475127 0.251992
0.728802 0.485194 0.257441
0.744508 0.495262 0.262890
0.758881 0.505041 0.268291
0.766595 0.513381 0.273452
0.774308 0.521721 0.278613
0.782021 0.530061 0.283774
0.789734 0.538401 0.288935
0.797448 0.546741 0.294096
0.144574 0.240876 0.165473
0.164139 0.251488 0.171114
0.183703 0.262099 0.176756
0.203268 0.272711 0.182397
0.222832 0.283323 0.188038
0.242397 0.293934 0.193680
0.271428 0.305410 0.197166
0.302353 0.317058 0.200221
0.333278 0.328707 0.203277
0.364202 0.340355 0.206332
0.395127 0.352004 0.209388
0.425693 0.363127 0.212056
0.456080 0.373987 0.214530
0.486466 0.384847 0.217005
0.516853 0.395707 0.219479
0.547239 0.406567 0.221954
0.574240 0.417416 0.225722
0.597854 0.428253 0.230784
0.621468 0.439091 0.235846
0.645081 0.449928 0.240908
0.668695 0.460765 0.245970
0.689582 0.471346 0.251164
0.705013 0.481413 0.256622
0.720444 0.491481 0.262080
0.735875 0.501548 0.267539
0.751306 0.511615 0.272997
0.765421 0.521402 0.278422
0.772951 0.529788 0.283684
0.780481 0.538174 0.288946
0.788012 0.546559 0.294207
0.795542 0.554945 0.299469
0.803072 0.563331 0.304730
0.148875 0.249998 0.171003
0.168760 0.261168 0.177294
0.188645 0.272337 0.183585
0.208529 0.283507 0.189875
0.228414 0.294677 0.196166
0.248299 0.305846 0.202457
0.277483 0.317674 0.206219
0.308526 0.329634 0.209476
0.339570 0.341593 0.212733
0.370614 0.353553 0.215989
0.401657 0.365512 0.219246
0.432489 0.377013 0.222036
0.463214 0.388285 0.224593
0.493939 0.399557 0.227150
0.524664 0.410829 0.229707
0.555389 0.422101 0.232264
0.582526 0.433215 0.236046
0.606076 0.444171 0.241053
0.629626 0.455127 0.246060
0.653176 0.466083 0.251067
0.676726 0.477039 0.256074
0.697478 0.487699 0.261234
0.712635 0.497767 0.266701
0.727791 0.507834 0.272169
0.742948 0.517901 0.277636
0.758105 0.527969 0.283104
0.771960 0.537763 0.288554
0.779307 0.546195 0.293916
0.786655 0.554626 0.299278
0.794002 0.563058 0.304640
0.801349 0.571489 0.310003
0.808697 0.579920 0.315365
0.153177 0.259120 0.176533
0.173381 0.270848 0.183473
0.193586 0.282576 0.190414
0.213791 0.294303 0.197354
0.233996 0.306031 0.204294
0.254201 0.317759 0.211234
0.283537 0.329939 0.215273
0.314700 0.342209 0.218731
0.345862 0.354480 0.222189
0.377025 0.366750 0.225647
0.408187 0.379021 0.229105
0.439284 0.390900 0.232017
0.470347 0.402583 0.234656
0.501411 0.414267 0.237295
0.532474 0.425950 0.239934
0.563538 0.437634 0.242573
0.590813 0.449013 0.246369
0.614299 0.460088 0.251321
0.637784 0.471163 0.256273
0.661270 0.482239 0.261225
0.684756 0.493314 0.266178
0.705374 0.504053 0.271304
0.720257 0.514120 0.276781
0.735139 0.524188 0.282258
0.750021 0.534255 0.287734
0.764903 0.544322 0.293211
0.778499 0.554125 0.298685
0.785664 0.562602 0.304148
0.792828 0.571079 0.309611
0.799992 0.579556 0.315074
0.807157 0.588033 0.320537
0.814321 0.596510 0.325999
0.156879 0.267045 0.181401
0.177584 0.279486 0.189131
0.198289 0.291927 0.196861
0.218994 0.304369 0.204592
0.239699 0.316810 0.212322
0.260404 0.329251 0.220052
0.289943 0.341812 0.224389
0.321249 0.354396 0.228048
0.352555 0.366981 0.231708
0.383860 0.379565 0.235367
0.415166 0.392150 0.239026
0.446435 0.404345 0.242042
0.477684 0.416346 0.244736
0.508934 0.428347 0.247430
0.540183 0.440347 0.250124
0.571433 0.452348 0.252818
0.598767 0.463936 0.256605
0.622186 0.475112 0.261484
0.645604 0.486288 0.266362
0.669023 0.497463 0.271241
0.692442 0.508639 0.276120
0.712947 0.519486 0.281282
0.727625 0.529675 0.287008
0.742303 0.539865 0.292735
0.756981 0.550054 0.298462
0.771659 0.560243 0.304188
0.785054 0.570139 0.309880
0.792032 0.578564 0.315394
0.799010 0.586989 0.320909
0.805989 0.595415 0.326424
0.812967 0.603840 0.331939
0.819946 0.612265 0.337453
0.159384 0.272575 0.184946
0.180949 0.286041 0.193747
0.202514 0.299506 0.202547
0.224078 0.312972 0.211347
0.245643 0.326438 0.220148
0.267208 0.339904 0.228948
0.297051 0.352902 0.233632
0.328549 0.365807 0.237492
0.360047 0.378712 0.241353
0.391545 0.391616 0.245213
0.423043 0.404521 0.249074
0.454296 0.416909 0.252156
0.485426 0.429037 0.254851
0.516557 0.441166 0.257545
0.547688 0.453295 0.260239
0.578818 0.465423 0.262933
0.606056 0.477108 0.266664
0.629402 0.488347 0.271434
0.652748 0.499587 0.276203
0.676093 0.510827 0.280972
0.699439 0.522067 0.285741
0.719874 0.533078 0.291073
0.734488 0.543634 0.297532
0.749102 0.554189 0.303990
0.763716 0.564744 0.310449
0.778329 0.575299 0.316907
0.791639 0.585459 0.323201
0.798425 0.593637 0.328670
0.805211 0.601815 0.334139
0.811998 0.609993 0.339608
0.818784 0.618172 0.345077
0.825570 0.626350 0.350546
0.161889 0.278105 0.188491
0.184314 0.292595 0.198362
0.206739 0.307085 0.208232
0.229163 0.321576 0.218103
0.251588 0.336066 0.227974
0.274013 0.350557 0.237844
0.304159 0.363993 0.242874
0.335849 0.377217 0.246936
0.367539 0.390442 0.250998
0.399229 0.403667 0.255059
0.430919 0.416892 0.259121
0.462157 0.429472 0.262271
0.493169 0.441729 0.264965
0.524180 0.453985 0.267659
0.555192 0.466242 0.270353
0.586204 0.478499 0.273047
0.613346 0.490279 0.276724
0.636618 0.501583 0.281383
0.659891 0.512887 0.286043
0.683163 0.524191 0.290702
0.706435 0.535495 0.295362
0.726800 0.546671 0.300865
0.741350 0.557592 0.308055
0.755900 0.568513 0.315245
0.770450 0.579434 0.322436
0.785000 0.590355 0.329626
0.798224 0.600778 0.336522
0.804818 0.608710 0.341945
0.811412 0.616641 0.347368
0.818006 0.624572 0.352791
0.824600 0.632504 0.358215
0.831195 0.640435 0.363638
0.164394 0.283635 0.192036
0.187679 0.299150 0.202977
0.210963 0.314665 0.213918
0.234248 0.330180 0.224859
0.257533 0.345695 0.235800
0.280817 0.361210 0.246741
0.311267 0.375083 0.252117
0.343149 0.388628 0.256380
0.375031 0.402173 0.260643
0.406913 0.415718 0.264906
0.438796 0.429263 0.269169
0.470018 0.442035 0.272386
0.500911 0.454420 0.275080
0.531804 0.466805 0.277774
0.562696 0.479189 0.280468
0.593589 0.491574 0.283162
0.620635 0.503451 0.286784
0.643834 0.514819 0.291333
0.667034 0.526186 0.295883
0.690233 0.537554 0.300433
0.713432 0.548922 0.304982
0.733727 0.560263 0.310656
0.748213 0.571550 0.318578
0.762699 0.582837 0.326500
0.777184 0.594124 0.334422
0.791670 0.605412 0.342345
0.804809 0.616098 0.349843
0.811211 0.623782 0.355220
0.817613 0.631467 0.360598
0.824015 0.639151 0.365975
0.830417 0.646835 0.371353
0.836819 0.654520 0.376730
0.166899 0.289165 0.195581
0.191044 0.305704 0.207592
0.215188 0.322244 0.219603
0.239333 0.338783 0.231615
0.263477 0.355323 0.243626
0.287622 0.371862 0.255637
0.318375 0.386173 0.261359
0.350449 0.400039 0.265824
0.382523 0.413904 0.270288
0.414598 0.427769 0.274752
0.446672 0.441634 0.279216
0.477879 0.454598 0.282500
0.508653 0.467111 0.285194
0.539427 0.479624 0.287888
0.570201 0.492137 0.290583
0.600975 0.504650 0.293277
0.627924 0.516622 0.296844
0.651051 0.528054 0.301283
0.674177 0.539486 0.305723
0.697303 0.550918 0.310163
0.720429 0.562350 0.314603
0.740653 0.573856 0.320447
0.755075 0.585509 0.329101
0.769497 0.597162 0.337755
0.783919 0.608815 0.346409
0.798341 0.620468 0.355063
0.811394 0.631418 0.363164
0.817604 0.638855 0.368495
0.823814 0.646293 0.373827
0.830024 0.653730 0.379159
0.836234 0.661167 0.384491
0.842444 0.668605 0.389822
0.169089 0.294009 0.198692
0.194205 0.311680 0.211867
0.219321 0.329351 0.225042
0.244436 0.347022 0.238216
0.269552 0.364693 0.251391
0.294668 0.382363 0.264565
0.325778 0.397143 0.270653
0.358087 0.411343 0.275323
0.390396 0.425544 0.279993
0.422706 0.439745 0.284663
0.455015 0.453945 0.289333
0.486210 0.467087 0.292671
0.516848 0.479699 0.295342
0.547486 0.492311 0.298013
0.578124 0.504923 0.300684
0.608762 0.517535 0.303355
0.635573 0.529571 0.306857
0.658555 0.541030 0.311188
0.681538 0.552489 0.315520
0.704521 0.563949 0.319851
0.727504 0.575408 0.324183
0.747590 0.587017 0.330148
0.761884 0.598925 0.339378
0.776178 0.610832 0.348608
0.790471 0.622740 0.357838
0.804765 0.634647 0.367069
0.817693 0.645802 0.375694
0.823792 0.653189 0.381294
0.829890 0.660576 0.386894
0.835989 0.667963 0.392494
0.842088 0.675350 0.398094
0.848186 0.682737 0.403695
0.169703 0.295427 0.199638
0.196347 0.314763 0.214441
0.222990 0.334099 0.229244
0.249634 0.353434 0.244047
0.276277 0.372770 0.258849
0.302921 0.392106 0.273652
0.334659 0.407506 0.280202
0.367417 0.422118 0.285101
0.400174 0.436730 0.289999
0.432931 0.451343 0.294898
0.465689 0.465955 0.299797
0.496887 0.479203 0.303119
0.527306 0.491770 0.305653
0.557724 0.504336 0.308187
0.588143 0.516902 0.310721
0.618561 0.529469 0.313255
0.645015 0.541404 0.316638
0.667504 0.552707 0.320868
0.689992 0.564011 0.325099
0.712481 0.575315 0.329330
