filters/luts/Foreshadowing 03.cube
# Created by: Adobe Photoshop Export Color Lookup Plugin
# LUT by SparkleStock. Enhanced with VOXCOLOR algorithms.
LUT_3D_SIZE 32
0.093773 0.113309 0.097680
0.106251 0.114632 0.095175
0.118729 0.115956 0.092670
0.131206 0.117279 0.090165
0.143684 0.118603 0.087660
0.156162 0.119926 0.085155
0.176005 0.124085 0.084659
0.197322 0.128812 0.084564
0.218638 0.133538 0.084470
0.239954 0.138265 0.084375
0.261271 0.142991 0.084281
0.287219 0.149955 0.085604
0.315483 0.158037 0.087636
0.343747 0.166119 0.089669
0.372012 0.174201 0.091701
0.400276 0.182284 0.093734
0.429131 0.191453 0.096640
0.458577 0.201709 0.100421
0.488022 0.211966 0.104203
0.517468 0.222222 0.107984
0.546914 0.232479 0.111765
0.574343 0.242625 0.115782
0.597739 0.252550 0.120273
0.621135 0.262476 0.124763
0.644531 0.272401 0.129253
0.667927 0.282327 0.133743
0.689338 0.291567 0.138091
0.700823 0.297381 0.141731
0.712308 0.303194 0.145370
0.723794 0.309008 0.149009
0.735279 0.314821 0.152649
0.746764 0.320635 0.156288
0.095663 0.117657 0.100043
0.109038 0.119859 0.097648
0.122412 0.122060 0.095253
0.135787 0.124262 0.092858
0.149161 0.126464 0.090462
0.162535 0.128665 0.088067
0.183084 0.133177 0.087627
0.205068 0.138150 0.087578
0.227053 0.143124 0.087530
0.249037 0.148097 0.087481
0.271021 0.153071 0.087432
0.297167 0.160178 0.088783
0.325395 0.168351 0.090834
0.353623 0.176525 0.092884
0.381850 0.184699 0.094935
0.410078 0.192872 0.096986
0.438672 0.202083 0.099879
0.467633 0.212330 0.103614
0.496594 0.222577 0.107350
0.525555 0.232825 0.111085
0.554516 0.243072 0.114820
0.581445 0.253206 0.118786
0.604310 0.263113 0.123212
0.627176 0.273020 0.127638
0.650041 0.282928 0.132064
0.672907 0.292835 0.136490
0.693834 0.302075 0.140775
0.705072 0.307980 0.144350
0.716311 0.313885 0.147925
0.727549 0.319790 0.151501
0.738787 0.325695 0.155076
0.750026 0.331600 0.158651
0.097554 0.122006 0.102407
0.111825 0.125085 0.100121
0.126096 0.128165 0.097836
0.140367 0.131245 0.095550
0.154637 0.134325 0.093265
0.168908 0.137405 0.090979
0.190163 0.142268 0.090596
0.212815 0.147489 0.090593
0.235467 0.152709 0.090590
0.258119 0.157930 0.090587
0.280771 0.163150 0.090584
0.307116 0.170400 0.091962
0.335307 0.178666 0.094031
0.363498 0.186931 0.096100
0.391689 0.195196 0.098169
0.419880 0.203461 0.100238
0.448213 0.212713 0.103117
0.476690 0.222951 0.106807
0.505166 0.233189 0.110496
0.533642 0.243427 0.114186
0.562118 0.253665 0.117876
0.588547 0.263787 0.121790
0.610882 0.273676 0.126152
0.633217 0.283565 0.130514
0.655551 0.293454 0.134876
0.677886 0.303343 0.139238
0.698330 0.312583 0.143458
0.709322 0.318580 0.146969
0.720313 0.324576 0.150481
0.731304 0.330573 0.153992
0.742296 0.336569 0.157503
0.753287 0.342566 0.161015
0.099445 0.126354 0.104770
0.114612 0.130312 0.102594
0.129779 0.134270 0.100418
0.144947 0.138228 0.098243
0.160114 0.142186 0.096067
0.175281 0.146144 0.093891
0.197242 0.151360 0.093564
0.220562 0.156827 0.093607
0.243882 0.162295 0.093650
0.267202 0.167762 0.093692
0.290521 0.173230 0.093735
0.317064 0.180623 0.095141
0.345219 0.188980 0.097228
0.373373 0.197337 0.099315
0.401527 0.205693 0.101403
0.429682 0.214050 0.103490
0.457755 0.223343 0.106355
0.485746 0.233572 0.109999
0.513737 0.243801 0.113643
0.541729 0.254030 0.117287
0.569720 0.264259 0.120931
0.595649 0.274368 0.124793
0.617453 0.284239 0.129091
0.639257 0.294110 0.133389
0.661061 0.303980 0.137687
0.682866 0.313851 0.141985
0.702827 0.323091 0.146142
0.713571 0.329179 0.149589
0.724315 0.335267 0.153036
0.735060 0.341355 0.156483
0.745804 0.347443 0.159931
0.756548 0.353531 0.163378
0.101335 0.130702 0.107133
0.117399 0.135539 0.105067
0.133463 0.140375 0.103001
0.149527 0.145211 0.100935
0.165591 0.150047 0.098869
0.181654 0.154883 0.096803
0.204321 0.160452 0.096533
0.228309 0.166166 0.096621
0.252296 0.171880 0.096710
0.276284 0.177595 0.096798
0.300272 0.183309 0.096887
0.327013 0.190846 0.098320
0.355130 0.199294 0.100425
0.383248 0.207742 0.102531
0.411366 0.216191 0.104636
0.439484 0.224639 0.106742
0.467296 0.233973 0.109594
0.494803 0.244193 0.113192
0.522309 0.254412 0.116790
0.549815 0.264632 0.120388
0.577322 0.274852 0.123987
0.602751 0.284949 0.127797
0.624024 0.294802 0.132031
0.645298 0.304654 0.136265
0.666572 0.314507 0.140499
0.687845 0.324359 0.144733
0.707323 0.333599 0.148825
0.717820 0.339779 0.152208
0.728317 0.345958 0.155591
0.738815 0.352138 0.158975
0.749312 0.358317 0.162358
0.759809 0.364496 0.165741
0.103226 0.135051 0.109496
0.120186 0.140765 0.107540
0.137147 0.146479 0.105584
0.154107 0.152194 0.103628
0.171067 0.157908 0.101672
0.188028 0.163623 0.099716
0.211400 0.169543 0.099501
0.236056 0.175505 0.099635
0.260711 0.181466 0.099770
0.285366 0.187427 0.099904
0.310022 0.193389 0.100038
0.336961 0.201069 0.101499
0.365042 0.209609 0.103622
0.393124 0.218148 0.105746
0.421205 0.226688 0.107870
0.449286 0.235228 0.109994
0.476837 0.244603 0.112832
0.503859 0.254813 0.116385
0.530881 0.265024 0.119937
0.557902 0.275235 0.123490
0.584924 0.285445 0.127042
0.609853 0.295531 0.130800
0.630596 0.305365 0.134970
0.651339 0.315199 0.139140
0.672082 0.325033 0.143310
0.692825 0.334867 0.147480
0.711819 0.344107 0.151508
0.722069 0.350378 0.154828
0.732320 0.356649 0.158147
0.742570 0.362920 0.161466
0.752820 0.369191 0.164785
0.763071 0.375462 0.168104
0.106416 0.143023 0.113238
0.123694 0.149097 0.111552
0.140971 0.155171 0.109865
0.158249 0.161245 0.108179
0.175526 0.167320 0.106493
0.192804 0.173394 0.104807
0.216894 0.179821 0.104542
0.242347 0.186319 0.104562
0.267799 0.192818 0.104582
0.293252 0.199316 0.104602
0.318705 0.205814 0.104621
0.346033 0.213866 0.106076
0.374298 0.222695 0.108249
0.402564 0.231525 0.110422
0.430830 0.240354 0.112594
0.459096 0.249183 0.114767
0.486592 0.258771 0.117652
0.513320 0.269118 0.121251
0.540047 0.279464 0.124849
0.566774 0.289810 0.128447
0.593502 0.300157 0.132045
0.618095 0.310372 0.135851
0.638422 0.320325 0.140071
0.658749 0.330278 0.144291
0.679076 0.340231 0.148512
0.699403 0.350184 0.152732
0.718024 0.359563 0.156822
0.728119 0.366070 0.160260
0.738214 0.372577 0.163698
0.748309 0.379084 0.167136
0.758403 0.385592 0.170574
0.768498 0.392099 0.174012
0.109866 0.151719 0.117256
0.127345 0.158050 0.115871
0.144824 0.164380 0.114487
0.162303 0.170710 0.113102
0.179781 0.177041 0.111718
0.197260 0.183371 0.110334
0.222070 0.190337 0.109997
0.248346 0.197430 0.109871
0.274622 0.204522 0.109744
0.300898 0.211615 0.109618
0.327174 0.218708 0.109491
0.354929 0.227178 0.110934
0.383424 0.236337 0.113162
0.411918 0.245495 0.115389
0.440412 0.254654 0.117617
0.468907 0.263812 0.119844
0.496390 0.273647 0.122789
0.522861 0.284158 0.126451
0.549332 0.294669 0.130113
0.575803 0.305180 0.133776
0.602275 0.315691 0.137438
0.626566 0.326065 0.141311
0.646500 0.336165 0.145604
0.666433 0.346264 0.149898
0.686367 0.356363 0.154191
0.706300 0.366463 0.158484
0.724571 0.376008 0.162661
0.734529 0.382780 0.166255
0.744486 0.389553 0.169849
0.754444 0.396325 0.173442
0.764401 0.403098 0.177036
0.774359 0.409870 0.180629
0.113317 0.160416 0.121273
0.130997 0.167002 0.120190
0.148677 0.173589 0.119108
0.166357 0.180176 0.118025
0.184037 0.186762 0.116943
0.201717 0.193349 0.115860
0.227246 0.200853 0.115453
0.254346 0.208540 0.115180
0.281445 0.216227 0.114907
0.308544 0.223915 0.114634
0.335644 0.231602 0.114361
0.363826 0.240490 0.115792
0.392549 0.249978 0.118074
0.421272 0.259466 0.120356
0.449995 0.268954 0.122639
0.478718 0.278442 0.124921
0.506187 0.288523 0.127926
0.532402 0.299199 0.131652
0.558617 0.309875 0.135378
0.584832 0.320551 0.139104
0.611047 0.331226 0.142831
0.635038 0.341759 0.146770
0.654578 0.352004 0.151137
0.674118 0.362250 0.155504
0.693658 0.372496 0.159870
0.713198 0.382742 0.164237
0.731118 0.392453 0.168501
0.740938 0.399491 0.172250
0.750759 0.406528 0.175999
0.760579 0.413566 0.179748
0.770399 0.420604 0.183497
0.780220 0.427642 0.187246
0.116767 0.169113 0.125290
0.134648 0.175955 0.124510
0.152530 0.182798 0.123729
0.170411 0.189641 0.122949
0.188292 0.196483 0.122168
0.206173 0.203326 0.121387
0.232422 0.211368 0.120908
0.260345 0.219650 0.120489
0.288268 0.227932 0.120069
0.316191 0.236214 0.119650
0.344113 0.244496 0.119231
0.372722 0.253802 0.120649
0.401674 0.263619 0.122986
0.430626 0.273436 0.125324
0.459577 0.283253 0.127661
0.488529 0.293071 0.129998
0.515985 0.303400 0.133062
0.541944 0.314240 0.136853
0.567903 0.325080 0.140643
0.593861 0.335921 0.144433
0.619820 0.346761 0.148223
0.643509 0.357452 0.152230
0.662655 0.367844 0.156670
0.681802 0.378236 0.161110
0.700949 0.388628 0.165550
0.720095 0.399020 0.169990
0.737665 0.408898 0.174340
0.747348 0.416201 0.178245
0.757031 0.423504 0.182149
0.766714 0.430807 0.186054
0.776397 0.438110 0.189959
0.786081 0.445413 0.193863
0.120217 0.177809 0.129308
0.138300 0.184908 0.128829
0.156382 0.192007 0.128350
0.174465 0.199106 0.127872
0.192547 0.206205 0.127393
0.210630 0.213303 0.126914
0.237599 0.221884 0.126363
0.266345 0.230760 0.125797
0.295091 0.239637 0.125232
0.323837 0.248514 0.124666
0.352583 0.257390 0.124100
0.381618 0.267113 0.125507
0.410799 0.277260 0.127899
0.439979 0.287407 0.130291
0.469160 0.297553 0.132683
0.498341 0.307700 0.135076
0.525782 0.318276 0.138199
0.551485 0.329281 0.142053
0.577188 0.340286 0.145907
0.602891 0.351291 0.149762
0.628593 0.362296 0.153616
0.651980 0.373145 0.157690
0.670733 0.383684 0.162203
0.689486 0.394222 0.166716
0.708240 0.404761 0.171229
0.726993 0.415299 0.175742
0.744212 0.425343 0.180180
0.753758 0.432911 0.184240
0.763304 0.440480 0.188300
0.772850 0.448048 0.192360
0.782395 0.455616 0.196420
0.791941 0.463185 0.200481
0.124203 0.187483 0.134302
0.142420 0.194844 0.134162
0.160637 0.202205 0.134022
0.178853 0.209566 0.133881
0.197070 0.216927 0.133741
0.215287 0.224288 0.133601
0.242745 0.233357 0.133137
0.272053 0.242767 0.132608
0.301360 0.252177 0.132079
0.330667 0.261588 0.131549
0.359974 0.270998 0.131020
0.389418 0.281082 0.132439
0.418931 0.291503 0.134831
0.448444 0.301924 0.137223
0.477957 0.312345 0.139615
0.507470 0.322766 0.142008
0.535001 0.333577 0.145163
0.560552 0.344777 0.149081
0.586102 0.355977 0.153000
0.611652 0.367177 0.156918
0.637203 0.378377 0.160836
0.660378 0.389394 0.164992
0.678806 0.400042 0.169621
0.697233 0.410690 0.174249
0.715660 0.421338 0.178878
0.734087 0.431987 0.183507
0.751013 0.442159 0.188078
0.760434 0.449950 0.192361
0.769855 0.457741 0.196644
0.779276 0.465532 0.200927
0.788696 0.473323 0.205210
0.798117 0.481114 0.209492
0.128457 0.197645 0.139785
0.146775 0.205271 0.140001
0.165092 0.212897 0.140218
0.183409 0.220524 0.140434
0.201726 0.228150 0.140651
0.220044 0.235776 0.140867
0.247877 0.245309 0.140569
0.277615 0.255222 0.140168
0.307352 0.265135 0.139767
0.337089 0.275049 0.139366
0.366826 0.284962 0.138965
0.396669 0.295379 0.140408
0.426566 0.306047 0.142773
0.456464 0.316715 0.145138
0.486361 0.327383 0.147503
0.516258 0.338051 0.149867
0.543931 0.349090 0.153041
0.569381 0.360501 0.157023
0.594831 0.371911 0.161006
0.620280 0.383322 0.164988
0.645730 0.394733 0.168971
0.668741 0.405920 0.173214
0.686876 0.416659 0.177980
0.705010 0.427399 0.182746
0.723144 0.438139 0.187512
0.741279 0.448878 0.192279
0.757941 0.459160 0.197007
0.767243 0.467153 0.201546
0.776545 0.475145 0.206085
0.785847 0.483137 0.210624
0.795149 0.491129 0.215163
0.804451 0.499122 0.219701
0.132711 0.207807 0.145268
0.151129 0.215698 0.145841
0.169547 0.223590 0.146414
0.187965 0.231482 0.146987
0.206383 0.239373 0.147561
0.224801 0.247265 0.148134
0.253009 0.257261 0.148002
0.283176 0.267677 0.147729
0.313343 0.278094 0.147456
0.343510 0.288510 0.147183
0.373677 0.298927 0.146910
0.403921 0.309675 0.148378
0.434202 0.320590 0.150715
0.464483 0.331506 0.153052
0.494765 0.342421 0.155390
0.525046 0.353336 0.157727
0.552861 0.364604 0.160919
0.578210 0.376225 0.164965
0.603559 0.387846 0.169012
0.628908 0.399467 0.173058
0.654257 0.411088 0.177105
0.677104 0.422445 0.181437
0.694946 0.433277 0.186340
0.712787 0.444108 0.191243
0.730629 0.454939 0.196147
0.748470 0.465770 0.201050
0.764869 0.476162 0.205935
0.774052 0.484355 0.210730
0.783235 0.492549 0.215525
0.792418 0.500742 0.220320
0.801601 0.508936 0.225116
0.810784 0.517129 0.229911
0.136965 0.217968 0.150750
0.155483 0.226125 0.151680
0.174002 0.234282 0.152610
0.192521 0.242439 0.153540
0.211039 0.250596 0.154471
0.229558 0.258753 0.155401
0.258142 0.269212 0.155435
0.288738 0.280132 0.155290
0.319335 0.291052 0.155145
0.349932 0.301971 0.155000
0.380529 0.312891 0.154855
0.411172 0.323972 0.156347
0.441838 0.335134 0.158657
0.472503 0.346296 0.160967
0.503169 0.357458 0.163277
0.533834 0.368620 0.165587
0.561791 0.380117 0.168797
0.587040 0.391949 0.172907
0.612288 0.403780 0.177018
0.637536 0.415611 0.181128
0.662785 0.427443 0.185239
0.685467 0.438971 0.189659
0.703016 0.449894 0.194700
0.720565 0.460817 0.199740
0.738113 0.471739 0.204781
0.755662 0.482662 0.209821
0.771797 0.493163 0.214864
0.780861 0.501558 0.219915
0.789925 0.509953 0.224966
0.798989 0.518348 0.230017
0.808054 0.526742 0.235069
0.817118 0.535137 0.240120
0.141219 0.228130 0.156233
0.159838 0.236553 0.157520
0.178457 0.244975 0.158807
0.197076 0.253397 0.160093
0.215695 0.261819 0.161380
0.234315 0.270241 0.162667
0.263274 0.281164 0.162868
0.294300 0.292587 0.162851
0.325327 0.304010 0.162834
0.356354 0.315433 0.162817
0.387381 0.326855 0.162801
0.418423 0.338269 0.164317
0.449473 0.349678 0.166599
0.480523 0.361087 0.168881
0.511573 0.372496 0.171164
0.542622 0.383905 0.173446
0.570721 0.395631 0.176675
0.595869 0.407672 0.180849
0.621017 0.419714 0.185024
0.646165 0.431756 0.189198
0.671312 0.443798 0.193373
0.693830 0.455497 0.197882
0.711086 0.466511 0.203059
0.728342 0.477525 0.208237
0.745598 0.488539 0.213415
0.762854 0.499554 0.218593
0.778725 0.510165 0.223792
0.787670 0.518761 0.229099
0.796616 0.527357 0.234407
0.805561 0.535953 0.239714
0.814506 0.544549 0.245022
0.823451 0.553145 0.250329
0.145236 0.237512 0.161621
0.164089 0.246342 0.163361
0.182941 0.255171 0.165100
0.201794 0.264000 0.166840
0.220646 0.272830 0.168580
0.239498 0.281659 0.170319
0.268736 0.292981 0.170729
0.300051 0.304802 0.170872
0.331367 0.316623 0.171015
0.362682 0.328443 0.171159
0.393997 0.340264 0.171302
0.425367 0.352018 0.172868
0.456764 0.363738 0.175146
0.488161 0.375458 0.177424
0.519559 0.387178 0.179702
0.550956 0.398898 0.181980
0.579217 0.410854 0.185380
0.604342 0.423047 0.189902
0.629467 0.435240 0.194424
0.654592 0.447433 0.198946
0.679717 0.459625 0.203468
0.702126 0.471434 0.208241
0.719103 0.482476 0.213515
0.736080 0.493518 0.218789
0.753057 0.504559 0.224062
0.770035 0.515601 0.229336
0.785649 0.526250 0.234658
0.794447 0.534938 0.240217
0.803246 0.543625 0.245775
0.812045 0.552313 0.251334
0.820844 0.561000 0.256893
0.829643 0.569688 0.262452
0.149017 0.246114 0.166915
0.168236 0.255493 0.169203
0.187454 0.264871 0.171492
0.206672 0.274249 0.173780
0.225891 0.283627 0.176069
0.245109 0.293005 0.178357
0.274530 0.304663 0.179018
0.305992 0.316777 0.179354
0.337453 0.328890 0.179689
0.368914 0.341003 0.180025
0.400376 0.353117 0.180360
0.432002 0.365218 0.182003
0.463710 0.377313 0.184299
0.495419 0.389408 0.186595
0.527127 0.401504 0.188891
0.558836 0.413599 0.191187
0.587280 0.425788 0.194912
0.612460 0.438073 0.200065
0.637639 0.450357 0.205219
0.662819 0.462641 0.210372
0.687999 0.474925 0.215525
0.710356 0.486783 0.220737
0.727068 0.497788 0.226066
0.743780 0.508793 0.231395
0.760492 0.519798 0.236723
0.777203 0.530803 0.242052
0.792568 0.541419 0.247460
0.801193 0.550088 0.253266
0.809818 0.558757 0.259072
0.818443 0.567427 0.264878
0.827068 0.576096 0.270684
0.835693 0.584765 0.276490
0.152798 0.254717 0.172208
0.172383 0.264644 0.175046
0.191967 0.274571 0.177883
0.211551 0.284498 0.180721
0.231136 0.294425 0.183558
0.250720 0.304352 0.186395
0.280324 0.316345 0.187308
0.311932 0.328751 0.187835
0.343539 0.341157 0.188363
0.375147 0.353564 0.188891
0.406755 0.365970 0.189418
0.438637 0.378419 0.191137
0.470657 0.390889 0.193451
0.502676 0.403359 0.195766
0.534696 0.415829 0.198080
0.566715 0.428300 0.200395
0.595342 0.440722 0.204444
0.620577 0.453098 0.210229
0.645812 0.465474 0.216013
0.671046 0.477850 0.221798
0.696281 0.490225 0.227582
0.718586 0.502132 0.233233
0.735033 0.513100 0.238617
0.751479 0.524069 0.244001
0.767926 0.535037 0.249384
0.784372 0.546006 0.254768
0.799486 0.556588 0.260263
0.807938 0.565239 0.266316
0.816389 0.573890 0.272369
0.824840 0.582541 0.278422
0.833291 0.591192 0.284474
0.841742 0.599842 0.290527
0.156580 0.263319 0.177502
0.176530 0.273795 0.180888
0.196480 0.284271 0.184275
0.216430 0.294747 0.187661
0.236381 0.305223 0.191047
0.256331 0.315699 0.194433
0.286118 0.328027 0.195598
0.317872 0.340726 0.196317
0.349626 0.353425 0.197037
0.381380 0.366124 0.197756
0.413134 0.378823 0.198476
0.445273 0.391619 0.200271
0.477603 0.404464 0.202604
0.509934 0.417310 0.204937
0.542264 0.430155 0.207269
0.574595 0.443000 0.209602
0.603405 0.455657 0.213976
0.628694 0.468124 0.220392
0.653984 0.480591 0.226808
0.679273 0.493058 0.233224
0.704563 0.505525 0.239639
0.726816 0.517481 0.245729
0.742998 0.528412 0.251168
0.759179 0.539344 0.256606
0.775360 0.550276 0.262045
0.791541 0.561208 0.267483
0.806405 0.571757 0.273065
0.814683 0.580389 0.279365
0.822960 0.589022 0.285665
0.831238 0.597655 0.291965
0.839515 0.606287 0.298265
0.847792 0.614920 0.304565
0.160361 0.271921 0.182796
0.180677 0.282946 0.186731
0.200993 0.293971 0.190666
0.221309 0.304995 0.194601
0.241625 0.316020 0.198536
0.261941 0.327045 0.202471
0.291911 0.339709 0.203887
0.323812 0.352701 0.204799
0.355712 0.365692 0.205711
0.387613 0.378684 0.206622
0.419513 0.391676 0.207534
0.451908 0.404820 0.209405
0.484549 0.418040 0.211756
0.517191 0.431260 0.214107
0.549832 0.444481 0.216458
0.582474 0.457701 0.218810
0.611467 0.470591 0.223509
0.636811 0.483149 0.230556
0.662156 0.495708 0.237603
0.687500 0.508267 0.244650
0.712845 0.520825 0.251697
0.735047 0.532829 0.258226
0.750963 0.543725 0.263719
0.766878 0.554620 0.269212
0.782794 0.565515 0.274706
0.798710 0.576410 0.280199
0.813324 0.586926 0.285868
0.821428 0.595540 0.292415
0.829531 0.604154 0.298962
0.837635 0.612769 0.305509
0.845739 0.621383 0.312056
0.853842 0.629997 0.318603
0.163638 0.279326 0.187443
0.184488 0.291064 0.192065
0.205337 0.302802 0.196686
0.226187 0.314541 0.201307
0.247037 0.326279 0.205928
0.267887 0.338018 0.210550
0.298098 0.351044 0.212258
0.330181 0.364329 0.213383
0.362265 0.377613 0.214508
0.394348 0.390898 0.215633
0.426432 0.404182 0.216758
0.459003 0.417611 0.218735
0.491819 0.431112 0.221138
0.524634 0.444612 0.223541
0.557449 0.458113 0.225944
0.590265 0.471614 0.228347
0.619352 0.484679 0.233270
0.644712 0.497308 0.240713
0.670071 0.509937 0.248157
0.695431 0.522565 0.255600
0.720791 0.535194 0.263044
0.742952 0.547271 0.270033
0.758715 0.558242 0.276115
0.774479 0.569213 0.282197
0.790242 0.580185 0.288279
0.806006 0.591156 0.294361
0.820458 0.601717 0.300549
0.828351 0.610221 0.307270
0.836244 0.618726 0.313990
0.844137 0.627230 0.320711
0.852030 0.635735 0.327432
0.859924 0.644240 0.334153
0.165906 0.284336 0.190799
0.187625 0.297117 0.196381
0.209344 0.309898 0.201963
0.231063 0.322679 0.207545
0.252782 0.335461 0.213126
0.274501 0.348242 0.218708
0.305070 0.361686 0.220790
0.337410 0.375264 0.222171
0.369749 0.388841 0.223552
0.402089 0.402418 0.224934
0.434429 0.415995 0.226315
0.467018 0.429582 0.228457
0.499733 0.443175 0.230978
0.532448 0.456767 0.233500
0.565162 0.470359 0.236022
0.597877 0.483952 0.238544
0.626882 0.497076 0.243490
0.652178 0.509732 0.250860
0.677474 0.522389 0.258230
0.702769 0.535045 0.265600
0.728065 0.547701 0.272971
0.750208 0.559896 0.280463
0.766044 0.571170 0.288201
0.781881 0.582443 0.295939
0.797718 0.593716 0.303676
0.813555 0.604990 0.311414
0.828020 0.615753 0.318987
0.835630 0.623965 0.325735
0.843239 0.632176 0.332483
0.850849 0.640388 0.339231
0.858458 0.648600 0.345979
0.866068 0.656812 0.352728
0.168175 0.289346 0.194155
0.190763 0.303170 0.200697
0.213351 0.316994 0.207240
0.235939 0.330818 0.213782
0.258527 0.344642 0.220324
0.281115 0.358466 0.226867
0.312042 0.372329 0.229322
0.344638 0.386198 0.230959
0.377234 0.400068 0.232597
0.409830 0.413938 0.234234
0.442426 0.427808 0.235872
0.475034 0.441554 0.238178
0.507648 0.455238 0.240819
0.540262 0.468922 0.243459
0.572876 0.482605 0.246100
0.605490 0.496289 0.248741
0.634413 0.509473 0.253710
0.659644 0.522157 0.261007
0.684876 0.534840 0.268304
0.710108 0.547524 0.275601
0.735339 0.560208 0.282898
0.757464 0.572522 0.290894
0.773374 0.584097 0.300287
0.789283 0.595672 0.309680
0.805193 0.607248 0.319074
0.821103 0.618823 0.328467
0.835582 0.629789 0.337425
0.842908 0.637708 0.344200
0.850234 0.645627 0.350976
0.857560 0.653546 0.357751
0.864886 0.661465 0.364527
0.872212 0.669384 0.371303
0.170444 0.294356 0.197511
0.193901 0.309223 0.205014
0.217358 0.324090 0.212516
0.240815 0.338957 0.220019
0.264272 0.353824 0.227522
0.287729 0.368691 0.235025
0.319015 0.382971 0.237854
0.351867 0.397133 0.239747
0.384719 0.411296 0.241641
0.417570 0.425459 0.243534
0.450422 0.439621 0.245428
0.483049 0.453526 0.247899
0.515562 0.467301 0.250659
0.548076 0.481076 0.253418
0.580589 0.494852 0.256178
0.613102 0.508627 0.258938
0.641943 0.521870 0.263929
0.667111 0.534581 0.271153
0.692278 0.547292 0.278377
0.717446 0.560004 0.285601
0.742613 0.572715 0.292825
0.764720 0.585148 0.301324
0.780703 0.597025 0.312373
0.796686 0.608902 0.323422
0.812669 0.620779 0.334471
0.828652 0.632656 0.345521
0.843145 0.643825 0.355862
0.850187 0.651451 0.362665
0.857230 0.659078 0.369468
0.864272 0.666704 0.376271
0.871314 0.674330 0.383074
0.878357 0.681957 0.389878
0.172713 0.299366 0.200867
0.197039 0.315276 0.209330
0.221365 0.331186 0.217793
0.245691 0.347095 0.226257
0.270017 0.363005 0.234720
0.294343 0.378915 0.243184
0.325987 0.393613 0.246386
0.359095 0.408068 0.248535
0.392203 0.422524 0.250685
0.425311 0.436979 0.252835
0.458419 0.451434 0.254985
0.491064 0.465497 0.257620
0.523477 0.479364 0.260499
0.555889 0.493231 0.263377
0.588302 0.507098 0.266256
0.620715 0.520965 0.269135
0.649473 0.534267 0.274149
0.674577 0.547006 0.281300
0.699680 0.559744 0.288451
0.724784 0.572483 0.295601
0.749888 0.585221 0.302752
0.771975 0.597773 0.311754
0.788032 0.609952 0.324459
0.804088 0.622132 0.337164
0.820144 0.634311 0.349869
0.836200 0.646490 0.362574
0.850707 0.657861 0.374300
0.857466 0.665195 0.381131
0.864225 0.672528 0.387961
0.870983 0.679862 0.394791
0.877742 0.687195 0.401622
0.884501 0.694529 0.408452
0.174650 0.303714 0.203781
0.199954 0.320777 0.213312
0.225257 0.337839 0.222843
0.250560 0.354902 0.232373
0.275864 0.371964 0.241904
0.301167 0.389027 0.251435
0.333228 0.404177 0.255043
0.366641 0.418945 0.257467
0.400054 0.433713 0.259892
0.433467 0.448481 0.262316
0.466880 0.463249 0.264740
0.499556 0.477458 0.267546
0.531864 0.491389 0.270544
0.564172 0.505320 0.273541
0.596479 0.519251 0.276539
0.628787 0.533182 0.279536
0.657427 0.546511 0.284592
0.682399 0.559239 0.291706
0.707372 0.571967 0.298820
0.732344 0.584695 0.305934
0.757317 0.597423 0.313048
0.779311 0.610033 0.322478
0.795349 0.622407 0.336538
0.811387 0.634781 0.350599
0.827425 0.647155 0.364659
0.843463 0.659529 0.378720
0.857924 0.671048 0.391646
0.864503 0.678285 0.398900
0.871082 0.685523 0.406155
0.877661 0.692760 0.413409
0.884240 0.699998 0.420663
0.890819 0.707235 0.427918
0.174934 0.304754 0.204490
0.201756 0.323518 0.215622
0.228578 0.342282 0.226753
0.255400 0.361046 0.237885
0.282222 0.379810 0.249016
0.309043 0.398574 0.260148
0.341815 0.414351 0.264328
0.375777 0.429531 0.267118
0.409739 0.444710 0.269909
0.443701 0.459890 0.272699
0.477663 0.475069 0.275489
0.510436 0.489368 0.278497
0.542616 0.503225 0.281613
0.574796 0.517083 0.284729
0.606975 0.530941 0.287846
0.639155 0.544798 0.290962
0.667497 0.557990 0.296151
0.692003 0.570517 0.303411
0.716509 0.583044 0.310671
0.741015 0.595570 0.317932
