filters/luts/Foreshadowing 05_S.cube
# Created by: Adobe Photoshop Export Color Lookup Plugin
# LUT by SparkleStock. Enhanced with VOXCOLOR algorithms.
LUT_3D_SIZE 8
DOMAIN_MIN 0.000000 0.000000 0.000000
DOMAIN_MAX 0.903226 0.903226 0.903226
0.070330 0.101587 0.093773
0.124778 0.106314 0.085643
0.201457 0.118941 0.085683
0.296821 0.139391 0.093340
0.405861 0.167206 0.107850
0.517216 0.201804 0.128646
0.610138 0.236086 0.150703
0.674796 0.262626 0.168916
0.081673 0.117846 0.101146
0.148417 0.141893 0.092870
0.235524 0.160985 0.088824
0.337134 0.181142 0.091504
0.446850 0.206506 0.102501
0.553375 0.237884 0.122859
0.639028 0.271264 0.148501
0.696007 0.300376 0.173325
0.097436 0.145890 0.114010
0.169113 0.179304 0.110668
0.263768 0.211285 0.104311
0.371450 0.240342 0.102602
0.483022 0.266636 0.110799
0.586895 0.296452 0.130614
0.668059 0.328947 0.158875
0.720938 0.359929 0.189169
0.115885 0.182725 0.131892
0.189160 0.220372 0.136185
0.289957 0.263522 0.132400
0.402974 0.304106 0.129233
0.515692 0.337450 0.133605
0.617625 0.367486 0.152102
0.695773 0.399336 0.181445
0.746615 0.431298 0.215190
0.135145 0.224601 0.153610
0.210177 0.265541 0.166813
0.316580 0.313527 0.171472
0.434027 0.363073 0.171190
0.546900 0.408920 0.171219
0.646107 0.442030 0.187374
0.721422 0.473798 0.215762
0.770926 0.505730 0.250218
0.151593 0.263169 0.175162
0.232480 0.310989 0.200222
0.342871 0.362225 0.213730
0.464941 0.414137 0.220388
0.582772 0.464339 0.225375
0.675539 0.509743 0.239188
0.746122 0.543072 0.263527
0.793375 0.573785 0.294701
0.162527 0.288976 0.190413
0.255855 0.350871 0.232573
0.372760 0.407975 0.255423
0.497512 0.461460 0.267354
0.615865 0.512083 0.276019
0.707680 0.558805 0.290906
0.773428 0.600709 0.319997
0.816882 0.634206 0.350437
0.169184 0.300248 0.199590
0.281978 0.383922 0.264657
0.408804 0.450817 0.297774
0.536304 0.506814 0.313092
0.652586 0.556525 0.322750
0.740346 0.601338 0.338283
0.799813 0.645582 0.369475
0.840087 0.684271 0.406854
0.074867 0.105368 0.109276
0.125218 0.115950 0.120467
0.204952 0.126760 0.125934
0.305768 0.142843 0.131834
0.418997 0.167456 0.142063
0.531084 0.201029 0.155249
0.621079 0.236849 0.168475
0.681602 0.266864 0.179198
0.087967 0.131873 0.121625
0.144946 0.162002 0.148195
0.233858 0.178861 0.155629
0.342006 0.193688 0.158139
0.458093 0.214447 0.165563
0.570109 0.243101 0.178423
0.659294 0.277168 0.194309
0.717771 0.310979 0.209835
0.109322 0.172132 0.143198
0.166613 0.210972 0.173049
0.258316 0.241809 0.178021
0.369749 0.265523 0.176144
0.488028 0.284687 0.180152
0.599742 0.309517 0.192100
0.688758 0.340685 0.210402
0.747984 0.374957 0.231249
0.134394 0.220164 0.171082
0.190601 0.262547 0.201306
0.282822 0.305624 0.205469
0.394925 0.341718 0.200336
0.513068 0.367245 0.198868
0.623967 0.390038 0.208979
0.712813 0.418108 0.228308
0.774049 0.450663 0.252950
0.159619 0.270768 0.202826
0.216945 0.315792 0.236691
0.310381 0.363725 0.245212
0.422166 0.410200 0.239821
0.537786 0.450651 0.231679
0.646143 0.474960 0.238359
0.733957 0.500775 0.256444
0.797062 0.530491 0.281908
0.182800 0.318703 0.236966
0.244848 0.366981 0.277021
0.340898 0.417107 0.292017
0.454747 0.466656 0.292215
0.571245 0.513076 0.286751
0.669083 0.550700 0.285536
0.752429 0.577491 0.299119
0.815337 0.604405 0.321623
0.202662 0.357903 0.269683
0.271485 0.409831 0.315413
0.373361 0.463720 0.338438
0.490637 0.515890 0.345684
0.607308 0.563543 0.344095
0.702192 0.604353 0.343689
0.774547 0.637937 0.355607
0.831116 0.666445 0.374340
0.220668 0.386940 0.299444
0.295327 0.441312 0.348381
0.406033 0.502433 0.381192
0.529409 0.560172 0.397262
0.646124 0.608141 0.399164
0.737515 0.648100 0.400872
0.800853 0.683733 0.413120
0.848757 0.714599 0.434048
0.081547 0.111024 0.121698
0.132361 0.125490 0.139354
0.210974 0.141106 0.158396
0.310157 0.158922 0.174368
0.422030 0.180683 0.184929
0.533293 0.213128 0.193303
0.623298 0.250554 0.198942
0.685488 0.284823 0.202379
0.099825 0.148190 0.143483
0.153288 0.181306 0.182569
0.239181 0.199384 0.208745
0.345879 0.213208 0.223823
0.462560 0.231148 0.230773
0.576104 0.258900 0.237489
0.667610 0.294847 0.243887
0.729414 0.333359 0.249610
0.123511 0.195278 0.170658
0.179920 0.239873 0.219016
0.263378 0.269926 0.247127
0.369259 0.289326 0.259401
0.490240 0.303272 0.261635
0.606326 0.324762 0.267106
0.700972 0.355384 0.275886
0.766477 0.391952 0.286566
0.152087 0.250921 0.205304
0.209834 0.300157 0.254439
0.288716 0.341567 0.282219
0.390255 0.371961 0.290844
0.510859 0.391075 0.286123
0.628169 0.407629 0.289545
0.725617 0.432141 0.299743
0.796300 0.463943 0.314676
0.183899 0.311846 0.247256
0.241214 0.360503 0.293016
0.318617 0.406617 0.320852
0.416236 0.448966 0.326678
0.530657 0.484775 0.313733
0.645630 0.501426 0.312752
0.743775 0.521620 0.321566
0.818910 0.548364 0.337673
0.212257 0.365935 0.288903
0.273723 0.415584 0.336392
0.353099 0.464254 0.368224
0.450691 0.510794 0.377781
0.562072 0.553484 0.365213
0.663730 0.586156 0.352872
0.757752 0.606753 0.356676
0.834279 0.629054 0.370097
0.237938 0.411166 0.329342
0.305155 0.461758 0.378905
0.389126 0.512757 0.415917
0.489275 0.561728 0.431100
0.600346 0.606563 0.422427
0.696928 0.643971 0.410042
0.775766 0.672213 0.408663
0.844335 0.696153 0.416776
0.263030 0.447925 0.367546
0.333823 0.497051 0.416291
0.422644 0.550406 0.457975
0.527391 0.602867 0.479987
0.641128 0.650251 0.477526
0.734464 0.687925 0.468035
0.801949 0.719362 0.466136
0.857661 0.745430 0.474311
0.089661 0.117925 0.131908
0.145073 0.136014 0.151649
0.223791 0.158154 0.181062
0.318659 0.181567 0.209150
0.423071 0.205538 0.228416
0.530066 0.237300 0.237948
0.620010 0.276492 0.239806
0.686469 0.315462 0.238203
0.114403 0.166897 0.165145
0.168706 0.203598 0.207762
0.252572 0.225502 0.247366
0.354313 0.242118 0.277384
0.464161 0.261103 0.294116
0.574891 0.288766 0.299639
0.667153 0.326634 0.299802
0.733537 0.369259 0.297735
0.141461 0.221688 0.200543
0.201353 0.270554 0.256344
0.278983 0.301896 0.302394
0.376444 0.320527 0.332674
0.491515 0.332540 0.345094
0.607089 0.352076 0.347723
0.704452 0.382568 0.348891
0.775828 0.420817 0.350123
0.173157 0.282451 0.240555
0.238162 0.336599 0.300202
0.308719 0.377821 0.348607
0.397687 0.404760 0.377024
0.510169 0.418823 0.382976
0.629204 0.430557 0.382205
0.731635 0.452131 0.384372
0.809925 0.482762 0.389559
0.209646 0.347523 0.286142
0.275528 0.400935 0.342223
0.344689 0.446687 0.389561
0.426468 0.484757 0.414734
0.526562 0.513733 0.413194
0.644440 0.523421 0.406609
0.749390 0.538317 0.407606
0.833860 0.561619 0.414865
0.243578 0.407722 0.334242
0.312374 0.459671 0.387282
0.382170 0.507237 0.434590
0.462166 0.550102 0.460930
0.556955 0.587615 0.458704
0.659394 0.616062 0.438861
0.760582 0.630685 0.434437
0.847667 0.648030 0.439368
0.274528 0.455964 0.377798
0.348751 0.508337 0.431536
0.421547 0.556983 0.480737
0.502682 0.601948 0.510211
0.596561 0.642979 0.511492
0.692169 0.677506 0.490431
0.775738 0.701797 0.478784
0.853994 0.721353 0.477642
0.305753 0.495471 0.418005
0.384341 0.547550 0.472108
0.458663 0.595169 0.521661
0.541357 0.640726 0.553987
0.637776 0.684852 0.561241
0.731035 0.721194 0.543436
0.801845 0.750628 0.530637
0.864332 0.773525 0.528553
0.098334 0.125393 0.140510
0.162291 0.148110 0.163947
0.245833 0.175372 0.194775
0.337660 0.206007 0.230108
0.430431 0.238751 0.265097
0.527674 0.271537 0.283356
0.614681 0.312760 0.287462
0.684879 0.356420 0.284987
0.129699 0.188270 0.185951
0.187872 0.231342 0.232547
0.274256 0.258925 0.274040
0.371689 0.281277 0.313684
0.468983 0.305771 0.350245
0.570882 0.334034 0.362740
0.661281 0.373142 0.362650
0.732263 0.418726 0.357046
0.163354 0.254867 0.234576
0.225693 0.306257 0.291217
0.304256 0.341922 0.341014
0.395599 0.364605 0.384786
0.496423 0.378866 0.420032
0.603826 0.397954 0.427002
0.699948 0.428407 0.424636
0.776082 0.467733 0.418965
0.199479 0.319625 0.280301
0.269455 0.375050 0.342610
0.341582 0.419235 0.397803
0.421871 0.447245 0.443419
0.515059 0.458728 0.475326
0.627249 0.467709 0.476421
0.729508 0.487143 0.473057
0.812809 0.516561 0.469601
0.238111 0.380425 0.321869
0.314083 0.439667 0.389483
0.387440 0.487823 0.446422
0.457476 0.522779 0.490734
0.530115 0.543256 0.518643
0.642976 0.547006 0.512398
0.749506 0.557034 0.508067
0.839763 0.576552 0.507581
0.279326 0.446534 0.375604
0.355945 0.501480 0.435985
0.427581 0.548787 0.488069
0.494448 0.587846 0.530694
0.561529 0.618647 0.558162
0.656727 0.641666 0.538744
0.759785 0.650361 0.528865
0.853421 0.662770 0.526641
0.316810 0.497712 0.421366
0.396720 0.551170 0.479785
0.469471 0.598134 0.530839
0.536088 0.639203 0.574323
0.601404 0.674984 0.604133
0.688858 0.705315 0.582696
0.773419 0.725668 0.564079
0.857938 0.740839 0.555320
0.355709 0.539095 0.461882
0.438180 0.591421 0.519858
0.511437 0.637191 0.570503
0.577232 0.677783 0.614391
0.641135 0.714518 0.645937
0.727736 0.748543 0.627730
0.799424 0.776195 0.607045
0.866601 0.796369 0.596353
0.105518 0.132199 0.147127
0.183526 0.161210 0.176565
0.276040 0.193626 0.210388
0.371452 0.229615 0.246562
0.460747 0.268891 0.282978
0.537353 0.309874 0.315728
0.613846 0.353682 0.332006
0.681976 0.400709 0.336643
0.145812 0.214104 0.208229
0.211577 0.264716 0.259920
0.303122 0.299342 0.303902
0.402932 0.328304 0.344143
0.497076 0.358904 0.382853
0.574597 0.391965 0.416410
0.655276 0.431958 0.427134
0.726074 0.478198 0.426001
0.185285 0.290916 0.266917
0.254536 0.348524 0.327345
0.336305 0.390893 0.380146
0.428222 0.420760 0.425841
0.524696 0.442047 0.464912
0.604143 0.464299 0.496467
0.690896 0.494433 0.502176
0.767734 0.532597 0.497468
0.226191 0.361773 0.321375
0.304165 0.420564 0.385384
0.378799 0.468889 0.443066
0.458359 0.502742 0.492023
0.545814 0.521267 0.530833
0.626771 0.532080 0.558590
0.719791 0.549809 0.560004
0.804127 0.576392 0.553538
0.270440 0.426305 0.370500
0.354524 0.486080 0.438199
0.430411 0.534590 0.495942
0.499473 0.571831 0.544153
0.565493 0.596649 0.582545
0.644005 0.599469 0.605427
0.741355 0.605774 0.603086
0.832667 0.620702 0.596135
0.320729 0.484364 0.413989
0.404780 0.541769 0.482161
0.479229 0.589912 0.539382
0.544954 0.628168 0.585879
0.603687 0.655888 0.621039
0.660230 0.669365 0.637774
0.754052 0.671673 0.630584
0.848000 0.679370 0.623108
0.366435 0.537860 0.461336
0.450831 0.591832 0.525715
0.523877 0.637846 0.579647
0.586985 0.676094 0.623833
0.641966 0.706803 0.657990
0.691652 0.728705 0.675294
0.767707 0.743597 0.658774
0.852675 0.754299 0.644855
0.415921 0.583237 0.504456
0.498926 0.633603 0.565818
0.569499 0.676779 0.617016
0.629529 0.713586 0.659304
0.681271 0.744847 0.692907
0.728164 0.770680 0.712010
0.792765 0.794453 0.692050
0.860885 0.811298 0.674803
0.110339 0.136799 0.151223
0.207521 0.175032 0.189346
0.311796 0.213022 0.227723
0.412320 0.253249 0.265583
0.500761 0.297180 0.302252
0.570023 0.344164 0.336685
0.627546 0.389583 0.362189
0.682056 0.436535 0.377056
0.162977 0.245660 0.234451
0.238624 0.301547 0.290426
0.337294 0.343726 0.338643
0.440809 0.380290 0.381905
0.534507 0.417058 0.422122
0.604912 0.454986 0.458269
0.663668 0.494481 0.483232
0.720869 0.538169 0.494075
0.208573 0.333099 0.302841
0.287805 0.396021 0.367902
0.374593 0.444717 0.424012
0.467707 0.482154 0.472225
0.562076 0.511812 0.513646
0.633724 0.539965 0.548792
0.694757 0.570283 0.571228
0.757047 0.605428 0.578088
0.252725 0.405593 0.360523
0.343443 0.470394 0.430540
0.422851 0.523050 0.490851
0.501955 0.562488 0.541448
0.585485 0.589277 0.582822
0.657349 0.608044 0.615649
0.720784 0.627790 0.634696
0.789162 0.651780 0.638100
0.300091 0.468506 0.410923
0.397763 0.533583 0.484750
0.479120 0.585129 0.545063
0.547831 0.625211 0.594493
0.609182 0.654554 0.634980
0.677102 0.666473 0.664983
0.741723 0.676231 0.680525
0.815717 0.688973 0.681329
0.355674 0.524369 0.455388
0.452539 0.586170 0.530122
0.531711 0.635600 0.589385
0.596678 0.674065 0.636111
0.650713 0.702547 0.672642
0.696041 0.718682 0.698236
0.756353 0.723087 0.709927
0.832529 0.728228 0.709102
0.412731 0.576279 0.499177
0.504933 0.632309 0.570852
0.579638 0.678145 0.627086
0.640062 0.714687 0.670797
0.688947 0.742738 0.704396
0.726401 0.761300 0.727621
0.772153 0.771497 0.732536
0.840040 0.777487 0.727742
0.473881 0.622968 0.541771
0.559616 0.672960 0.609575
0.628446 0.714477 0.662259
0.683491 0.748342 0.702906
0.727415 0.775336 0.734090
0.760388 0.795027 0.756000
0.796570 0.810563 0.757738
0.848756 0.821442 0.749430
0.112742 0.139525 0.154303
0.233928 0.190498 0.203233
0.351239 0.234947 0.247052
0.456227 0.278512 0.286660
0.542951 0.325239 0.322911
0.606975 0.376437 0.356307
0.652662 0.423839 0.385267
0.690523 0.465354 0.405150
0.181736 0.283191 0.265945
0.267662 0.339527 0.323269
0.374612 0.389424 0.377025
0.482190 0.434949 0.425995
0.574735 0.477991 0.469395
0.640737 0.520496 0.506304
0.685919 0.560418 0.537871
0.726255 0.597920 0.557362
0.234262 0.382436 0.344635
0.324161 0.446336 0.412628
0.416551 0.499290 0.471654
0.510858 0.544064 0.523567
0.602839 0.583079 0.569436
0.669796 0.617768 0.606517
0.714778 0.649773 0.637429
0.758172 0.680815 0.654675
0.280509 0.453321 0.402108
0.386489 0.523440 0.479785
0.471311 0.577913 0.541840
0.549562 0.620920 0.593053
0.628913 0.655882 0.636874
0.694979 0.683782 0.672172
0.739634 0.707967 0.700633
0.786233 0.731350 0.714934
0.329044 0.509422 0.448393
0.443922 0.581758 0.532320
0.532427 0.636520 0.596464
0.600728 0.677786 0.645492
0.656632 0.709018 0.683865
0.717318 0.731367 0.715946
0.760724 0.748405 0.741202
0.810088 0.764133 0.752737
0.388689 0.560693 0.491321
0.501844 0.629323 0.576301
0.587304 0.681165 0.639060
0.651694 0.719885 0.685320
0.700925 0.748529 0.719855
0.738763 0.767493 0.744338
0.776925 0.779351 0.765543
0.826906 0.789331 0.774940
0.455199 0.610039 0.532704
0.559631 0.671268 0.615094
0.637762 0.718272 0.674630
0.695751 0.753660 0.717217
0.738795 0.779672 0.747758
0.768478 0.796494 0.767847
0.793930 0.806541 0.782622
0.836213 0.814310 0.788490
0.521346 0.654499 0.572045
0.615798 0.708205 0.650450
0.685807 0.750187 0.706149
0.737015 0.782286 0.745036
0.774198 0.806122 0.772072
0.798840 0.821649 0.789291
0.815615 0.831552 0.800272
0.845206 0.839208 0.801713
