filters/luts/Foreshadowing 04.cube
# Created by: Adobe Photoshop Export Color Lookup Plugin
# LUT by SparkleStock. Enhanced with VOXCOLOR algorithms.
LUT_3D_SIZE 8
DOMAIN_MIN 0.000000 0.000000 0.000000
DOMAIN_MAX 0.903226 0.903226 0.903226
0.082051 0.113309 0.097680
0.136689 0.120682 0.085391
0.213557 0.135957 0.081941
0.309504 0.158896 0.085911
0.420103 0.188790 0.095955
0.535996 0.224144 0.111458
0.635031 0.257765 0.128694
0.704069 0.283154 0.143306
0.091504 0.129946 0.104486
0.156973 0.149468 0.096149
0.244050 0.170877 0.093748
0.345986 0.196805 0.097511
0.456165 0.228584 0.107244
0.565617 0.264670 0.122307
0.656748 0.299388 0.138982
0.720523 0.326741 0.153406
0.106983 0.156225 0.116917
0.176959 0.182919 0.112324
0.271667 0.212684 0.109957
0.380369 0.245747 0.112985
0.493340 0.282055 0.123094
0.598841 0.321153 0.138859
0.684038 0.359078 0.156718
0.743630 0.390636 0.172987
0.126362 0.189074 0.133711
0.197814 0.220708 0.133205
0.298446 0.259214 0.131788
0.413351 0.301008 0.134708
0.529616 0.343558 0.145178
0.633287 0.386913 0.162297
0.713951 0.428607 0.182445
0.770060 0.464900 0.201957
0.147347 0.224971 0.153184
0.220244 0.261911 0.157838
0.325744 0.308277 0.159454
0.445491 0.358378 0.163588
0.564166 0.408059 0.174301
0.667270 0.456208 0.194128
0.744195 0.500987 0.217181
0.797131 0.541016 0.240650
0.165686 0.256733 0.171334
0.243999 0.303333 0.184477
0.353255 0.356560 0.190643
0.476990 0.413102 0.196973
0.599965 0.470009 0.210008
0.700581 0.523720 0.240227
0.773554 0.569792 0.266721
0.822959 0.610419 0.293665
0.177408 0.277782 0.183497
0.267966 0.340994 0.210496
0.383836 0.403196 0.223468
0.510289 0.464521 0.233070
0.633523 0.524585 0.248460
0.732626 0.580320 0.280777
0.803640 0.632178 0.327319
0.849595 0.674018 0.366644
0.182890 0.289314 0.189854
0.292770 0.376318 0.237887
0.419116 0.450335 0.260346
0.549111 0.516087 0.273675
0.670854 0.576886 0.291356
0.765548 0.631640 0.325777
0.831380 0.683588 0.382951
0.875157 0.729188 0.442204
0.085076 0.118413 0.111670
0.132835 0.132081 0.119580
0.210392 0.149398 0.120570
0.310449 0.172569 0.121332
0.425257 0.202500 0.126290
0.543052 0.237122 0.134913
0.641306 0.269645 0.145148
0.708630 0.294418 0.154241
0.097456 0.143540 0.124624
0.151627 0.173435 0.148157
0.239629 0.196954 0.153038
0.348065 0.222282 0.153083
0.465157 0.254494 0.157871
0.579118 0.291435 0.167982
0.671414 0.326642 0.181187
0.734060 0.354474 0.194129
0.119181 0.181626 0.144861
0.174482 0.217074 0.172573
0.266675 0.249399 0.179043
0.379684 0.281413 0.179148
0.499355 0.315420 0.183550
0.610526 0.353829 0.194683
0.698526 0.391701 0.210397
0.758494 0.424082 0.227067
0.145255 0.226733 0.170389
0.200172 0.264193 0.199364
0.293722 0.303831 0.206869
0.408889 0.343516 0.207214
0.530360 0.382191 0.211064
0.639985 0.422119 0.222975
0.724797 0.462202 0.241039
0.782974 0.498753 0.261518
0.171730 0.273956 0.199540
0.227596 0.314838 0.232570
0.322316 0.358153 0.241874
0.438545 0.403945 0.242486
0.560590 0.451113 0.245960
0.669336 0.493441 0.258907
0.751479 0.534960 0.279316
0.807898 0.573913 0.303704
0.196069 0.319476 0.231595
0.255765 0.365259 0.270621
0.352896 0.411960 0.283186
0.470828 0.461530 0.285625
0.593688 0.513828 0.290742
0.698247 0.560811 0.307056
0.777193 0.602717 0.329450
0.831450 0.641423 0.357158
0.216354 0.358918 0.263761
0.281893 0.409189 0.307729
0.384358 0.461449 0.326079
0.505312 0.515508 0.333028
0.627933 0.570165 0.340362
0.730035 0.619399 0.358736
0.804283 0.662516 0.390187
0.854673 0.700134 0.424080
0.233131 0.392467 0.294434
0.303935 0.444828 0.340583
0.414922 0.505441 0.367797
0.541992 0.566668 0.383007
0.664918 0.622965 0.393786
0.763352 0.672039 0.414764
0.831794 0.714196 0.451784
0.878144 0.751365 0.495110
0.090913 0.125125 0.123786
0.139154 0.141561 0.140075
0.214113 0.162978 0.153661
0.310306 0.189050 0.163147
0.421623 0.219446 0.168357
0.538522 0.254580 0.172901
0.638121 0.288200 0.176860
0.709145 0.315921 0.180071
0.109642 0.160400 0.146619
0.160919 0.194895 0.180652
0.244191 0.221185 0.199720
0.348650 0.247741 0.209210
0.464245 0.280192 0.214042
0.579274 0.318188 0.219751
0.674151 0.355235 0.227029
0.740664 0.386656 0.234971
0.133469 0.205342 0.172593
0.188661 0.249711 0.217494
0.271487 0.284479 0.242984
0.377052 0.315253 0.253900
0.497647 0.346931 0.256196
0.612110 0.385343 0.262650
0.703714 0.424308 0.273694
0.767177 0.458772 0.287229
0.162654 0.258923 0.204772
0.219688 0.306103 0.253416
0.299498 0.347040 0.283021
0.403287 0.383710 0.295444
0.526258 0.418428 0.295710
0.640422 0.456108 0.302413
0.729641 0.495589 0.316496
0.791307 0.532333 0.334921
0.195849 0.318223 0.243965
0.251862 0.363519 0.290974
0.330506 0.405498 0.321297
0.432808 0.447791 0.334679
0.554005 0.491547 0.334876
0.666959 0.529103 0.341456
0.754082 0.568005 0.357172
0.814768 0.605946 0.378894
0.225153 0.371903 0.284119
0.283970 0.418625 0.333908
0.364242 0.462937 0.367584
0.466457 0.507561 0.383035
0.585456 0.553589 0.383232
0.693485 0.596660 0.390246
0.777660 0.634935 0.406707
0.836707 0.671344 0.430901
0.250803 0.419388 0.325385
0.314439 0.467048 0.377369
0.398506 0.514403 0.415267
0.502708 0.561964 0.434475
0.621249 0.609584 0.436551
0.725302 0.654357 0.444999
0.803003 0.692140 0.465090
0.857725 0.726338 0.492098
0.274179 0.461855 0.366428
0.341061 0.506982 0.416764
0.429389 0.556918 0.458430
0.537805 0.608952 0.483589
0.659051 0.660248 0.491136
0.759772 0.705223 0.502164
0.831004 0.741879 0.525360
0.880083 0.773642 0.556644
0.098933 0.132892 0.134657
0.152393 0.151072 0.154581
0.226965 0.176480 0.179274
0.317394 0.206578 0.201020
0.419101 0.239657 0.214872
0.529560 0.276792 0.221611
0.628919 0.313591 0.222938
0.705382 0.347079 0.222148
0.124870 0.179852 0.168785
0.177901 0.217895 0.205914
0.258231 0.246869 0.236703
0.355849 0.275214 0.259463
0.462489 0.308775 0.273586
0.573014 0.348412 0.280339
0.669067 0.388563 0.283879
0.741484 0.425630 0.286985
0.152043 0.232928 0.203237
0.211250 0.283190 0.254816
0.287447 0.320389 0.295361
0.382965 0.351009 0.321282
0.495670 0.381165 0.332321
0.607893 0.419829 0.337985
0.701810 0.460636 0.344502
0.770825 0.498698 0.352990
0.183748 0.292318 0.241174
0.248238 0.346700 0.299993
0.319263 0.390232 0.348065
0.409407 0.425480 0.377590
0.522644 0.456077 0.386568
0.636533 0.491532 0.390101
0.728937 0.530915 0.398993
0.795609 0.568788 0.412498
0.220776 0.356517 0.284322
0.285634 0.408139 0.341812
0.355853 0.452568 0.392062
0.441750 0.492846 0.424409
0.547644 0.530693 0.434556
0.661499 0.563192 0.435512
0.752369 0.599902 0.445343
0.817734 0.637088 0.462197
0.255655 0.417211 0.331099
0.321862 0.466415 0.386818
0.392127 0.511019 0.438438
0.476273 0.552350 0.472439
0.578460 0.591727 0.482801
0.687287 0.630949 0.483795
0.775087 0.665716 0.493518
0.838650 0.699901 0.511619
0.286187 0.467807 0.376010
0.357113 0.516954 0.432757
0.429569 0.562477 0.486503
0.514266 0.605255 0.522971
0.615563 0.646172 0.535390
0.719287 0.686322 0.536697
0.799701 0.720352 0.547753
0.858412 0.751764 0.566892
0.314956 0.512167 0.419614
0.390443 0.560071 0.476098
0.464048 0.604271 0.529508
0.549795 0.647907 0.568008
0.653335 0.692417 0.585452
0.754836 0.733619 0.589214
0.828558 0.766973 0.602235
0.880316 0.795254 0.623529
0.108220 0.141069 0.144559
0.169969 0.161920 0.168545
0.249654 0.190115 0.197585
0.337233 0.224208 0.228879
0.426583 0.262644 0.258576
0.523357 0.303309 0.275396
0.617660 0.344982 0.280263
0.697691 0.386039 0.279524
0.140872 0.201677 0.190323
0.197744 0.245268 0.232732
0.281187 0.276653 0.267972
0.374952 0.306636 0.300978
0.468570 0.342518 0.332770
0.567222 0.384213 0.349038
0.660316 0.428367 0.354843
0.737602 0.472014 0.356501
0.175317 0.267327 0.237850
0.236485 0.319570 0.290750
0.314076 0.359442 0.335179
0.403671 0.391690 0.373071
0.501187 0.421619 0.404029
0.602799 0.460127 0.416343
0.695427 0.503062 0.421629
0.770260 0.545972 0.425514
0.210940 0.331360 0.281884
0.279946 0.387206 0.343316
0.352957 0.434801 0.396913
0.434180 0.471534 0.440693
0.526424 0.498583 0.471699
0.631515 0.531011 0.477866
0.723924 0.570323 0.482476
0.796362 0.610592 0.489462
0.247868 0.391219 0.321803
0.323376 0.450355 0.391561
0.398491 0.500614 0.451274
0.472065 0.540714 0.499874
0.548186 0.571153 0.533841
0.655660 0.597696 0.533741
0.747373 0.632289 0.538197
0.817323 0.669024 0.549054
0.289626 0.458042 0.374251
0.364600 0.510908 0.438075
0.437356 0.557288 0.494843
0.507714 0.596925 0.543777
0.580140 0.630787 0.580628
0.681594 0.664124 0.581188
0.769837 0.694978 0.584778
0.837287 0.727167 0.595657
0.326397 0.510635 0.421343
0.404147 0.561185 0.483812
0.477482 0.606416 0.540258
0.547039 0.646620 0.590547
0.617515 0.682562 0.630030
0.713618 0.716496 0.629898
0.794393 0.746789 0.633790
0.856421 0.775729 0.644603
0.362030 0.554908 0.464912
0.443053 0.603700 0.526880
0.517056 0.647443 0.582642
0.585370 0.686803 0.632804
0.653677 0.722969 0.673242
0.749346 0.759372 0.675446
0.824028 0.789843 0.680543
0.878229 0.815548 0.692556
0.116350 0.148253 0.152310
0.191125 0.174081 0.182151
0.279482 0.206008 0.215698
0.371074 0.243626 0.251066
0.457753 0.286105 0.286361
0.533157 0.331455 0.318257
0.612800 0.378298 0.337102
0.688073 0.426290 0.344890
0.157637 0.227889 0.213297
0.221303 0.278043 0.262581
0.309915 0.313463 0.303427
0.406541 0.345894 0.341121
0.497813 0.383256 0.378738
0.573736 0.424989 0.412688
0.654398 0.472501 0.431395
0.729504 0.521652 0.439520
0.197919 0.304687 0.270862
0.265026 0.361869 0.329569
0.345681 0.405767 0.379643
0.436309 0.440705 0.422595
0.530622 0.471476 0.459906
0.607663 0.507301 0.492669
0.689671 0.551635 0.508201
0.764589 0.598404 0.515047
0.238591 0.376076 0.323715
0.314471 0.433583 0.388273
0.389461 0.483499 0.445553
0.470040 0.522808 0.493566
0.557606 0.551582 0.531577
0.635708 0.579921 0.561026
0.718921 0.618461 0.571908
0.793287 0.660547 0.577103
0.281118 0.440271 0.371226
0.363996 0.498405 0.441929
0.440923 0.547981 0.502362
0.513001 0.589473 0.553272
0.582720 0.622859 0.594533
0.659438 0.644194 0.620122
0.742826 0.675609 0.626176
0.815820 0.711744 0.630248
0.328730 0.495677 0.413722
0.412661 0.552414 0.487215
0.489136 0.601378 0.549977
0.558716 0.642511 0.602430
0.622559 0.675821 0.644322
0.683739 0.699758 0.670006
0.762826 0.724847 0.672172
0.832200 0.754415 0.675944
0.373064 0.549051 0.462204
0.457580 0.601923 0.532869
0.532564 0.647856 0.593395
0.599102 0.687235 0.644626
0.658730 0.720461 0.686591
0.714294 0.746845 0.713849
0.787097 0.771760 0.715971
0.850701 0.797447 0.719034
0.418741 0.595354 0.507847
0.502909 0.644311 0.575910
0.575932 0.687126 0.633941
0.639341 0.724417 0.683334
0.695226 0.756828 0.724577
0.747707 0.784444 0.752952
0.816269 0.810724 0.755691
0.872388 0.833528 0.758957
0.121643 0.152759 0.157068
0.214324 0.186979 0.195325
0.314073 0.224067 0.234040
0.411050 0.265362 0.272851
0.497513 0.311442 0.311321
0.566062 0.361353 0.348291
0.624822 0.408978 0.377211
0.683584 0.457866 0.396391
0.175104 0.260205 0.239375
0.247799 0.314765 0.294790
0.343461 0.355628 0.342212
0.444147 0.392769 0.385914
0.535564 0.433022 0.428550
0.605538 0.476276 0.467914
0.664776 0.520820 0.498704
0.725036 0.568685 0.518067
0.221217 0.348639 0.306771
0.297667 0.409787 0.372253
0.383019 0.457802 0.428339
0.475054 0.496745 0.477033
0.568145 0.530853 0.520178
0.639061 0.567019 0.558989
0.698646 0.606484 0.588171
0.759990 0.650675 0.605265
0.264916 0.422422 0.363350
0.353065 0.484272 0.435660
0.432281 0.536772 0.497855
0.512234 0.578579 0.550006
0.596479 0.610421 0.592982
0.667495 0.639558 0.629353
0.727142 0.672753 0.654982
0.789004 0.711568 0.668641
0.310419 0.485252 0.412584
0.406735 0.547201 0.490912
0.488729 0.598451 0.555500
0.559775 0.640836 0.608693
0.624250 0.675373 0.652348
0.692226 0.698701 0.685461
0.751019 0.725260 0.706814
0.812506 0.757815 0.716957
0.362544 0.538267 0.456226
0.460271 0.598309 0.538044
0.541423 0.647903 0.603879
0.609524 0.688482 0.656676
0.667642 0.721180 0.698805
0.716888 0.744900 0.729558
0.770659 0.765866 0.746598
0.829395 0.791939 0.754192
0.416961 0.586099 0.500326
0.511776 0.642506 0.581068
0.589442 0.689198 0.645533
0.653365 0.727543 0.696795
0.706349 0.758675 0.737378
0.748251 0.781909 0.766934
0.793439 0.800953 0.780870
0.844479 0.822152 0.786216
0.474126 0.630525 0.545171
0.564059 0.682280 0.623158
0.636901 0.725458 0.684977
0.695916 0.761266 0.733789
0.743879 0.790711 0.772265
0.781017 0.813222 0.800607
0.820450 0.832069 0.813087
0.862981 0.849621 0.817018
0.124322 0.155296 0.159486
0.239293 0.201048 0.208099
0.351747 0.244411 0.252586
0.453702 0.289210 0.294398
0.539320 0.338089 0.334685
0.603283 0.391824 0.373857
0.649259 0.441082 0.408093
0.689416 0.484492 0.432923
0.193755 0.299364 0.269646
0.276205 0.353851 0.328358
0.379932 0.400849 0.382908
0.485137 0.444957 0.434049
0.576606 0.489495 0.482081
0.643293 0.535143 0.524945
0.689869 0.577910 0.561918
0.732950 0.618546 0.588287
0.246431 0.400804 0.347537
0.333489 0.461952 0.418147
0.424359 0.512681 0.479487
0.517941 0.556484 0.534266
0.609679 0.596405 0.584233
0.677314 0.634988 0.627381
0.723587 0.671413 0.663919
0.768163 0.708113 0.689070
0.291887 0.473426 0.404511
0.395507 0.539091 0.486211
0.480252 0.592288 0.552576
0.559501 0.635619 0.607874
0.639967 0.671803 0.655567
0.706643 0.704337 0.696577
0.751908 0.734819 0.730718
0.796925 0.767007 0.753126
0.338226 0.529121 0.450331
0.452421 0.596912 0.540311
0.541955 0.650418 0.610625
0.612452 0.692680 0.665271
0.670981 0.726523 0.708425
0.732772 0.753969 0.745344
0.776022 0.779077 0.775989
0.820570 0.806612 0.795115
0.393883 0.576715 0.492820
0.509418 0.642547 0.586610
0.597510 0.694023 0.657441
0.664864 0.734232 0.710825
0.717354 0.765763 0.751388
0.758304 0.789026 0.780536
0.795751 0.809427 0.806431
0.838021 0.832287 0.822311
0.456654 0.619709 0.534527
0.566562 0.681827 0.628413
0.649037 0.730304 0.697916
0.710767 0.767934 0.748959
0.757308 0.797024 0.786494
0.790142 0.817598 0.811978
0.816677 0.833237 0.831109
0.850606 0.850718 0.842514
0.519451 0.659352 0.576149
0.621448 0.717221 0.668092
0.697037 0.762536 0.735183
0.752569 0.797640 0.783372
0.793365 0.824499 0.817746
0.821016 0.843036 0.840351
0.840072 0.855788 0.855193
0.864943 0.868103 0.861986
