filters/luts/Foreshadowing 03.cube
# Created by: Adobe Photoshop Export Color Lookup Plugin
# LUT by SparkleStock. Enhanced with VOXCOLOR algorithms.
LUT_3D_SIZE 5
DOMAIN_MIN 0.000000 0.000000 0.000000
DOMAIN_MAX 0.903226 0.903226 0.903226
0.093773 0.113309 0.097680
0.197322 0.128812 0.084564
0.372012 0.174201 0.091701
0.574343 0.242625 0.115782
0.712308 0.303194 0.145370
0.109866 0.151719 0.117256
0.248346 0.197430 0.109871
0.440412 0.254654 0.117617
0.626566 0.326065 0.141311
0.744486 0.389553 0.169849
0.136965 0.217968 0.150750
0.288738 0.280132 0.155290
0.503169 0.357458 0.163277
0.685467 0.438971 0.189659
0.789925 0.509953 0.224966
0.163638 0.279326 0.187443
0.330181 0.364329 0.213383
0.557449 0.458113 0.225944
0.742952 0.547271 0.270033
0.836244 0.618726 0.313990
0.175218 0.305794 0.205199
0.384913 0.440116 0.276770
0.617471 0.542630 0.299153
0.794780 0.630887 0.346863
0.883420 0.706950 0.439551
0.100295 0.122652 0.126125
0.201094 0.156810 0.150671
0.376539 0.206297 0.159190
0.580045 0.271622 0.166256
0.718717 0.328513 0.174451
0.129070 0.190019 0.165317
0.243102 0.256708 0.221249
0.441073 0.310665 0.230058
0.641810 0.379290 0.240024
0.766859 0.444625 0.262709
0.171139 0.285142 0.222796
0.286653 0.356896 0.284169
0.488519 0.426236 0.295423
0.690910 0.494439 0.305530
0.809534 0.561385 0.337128
0.214148 0.374146 0.288699
0.337415 0.448667 0.356892
0.540342 0.529151 0.374791
0.736163 0.602528 0.386017
0.849665 0.664437 0.422125
0.249461 0.437611 0.353430
0.387794 0.515497 0.425587
0.602020 0.611533 0.461557
0.790718 0.688776 0.479883
0.888250 0.742573 0.525000
0.112427 0.138265 0.146701
0.227925 0.182233 0.190026
0.386636 0.244738 0.234651
0.562802 0.315642 0.256329
0.709596 0.385665 0.254243
0.158131 0.236216 0.215745
0.273412 0.312731 0.292518
0.446650 0.368899 0.342475
0.631714 0.437257 0.360777
0.770983 0.510371 0.368418
0.210356 0.338910 0.285353
0.334307 0.426306 0.381888
0.486650 0.491852 0.443470
0.679780 0.548602 0.452593
0.814754 0.614635 0.468566
0.267719 0.441428 0.364952
0.395875 0.520977 0.456648
0.537636 0.591502 0.524603
0.722830 0.656815 0.533744
0.852141 0.710098 0.550468
0.319404 0.509148 0.434298
0.459975 0.588647 0.526512
0.602935 0.664000 0.599642
0.780430 0.735102 0.614645
0.888023 0.781844 0.632065
0.123605 0.153003 0.161535
0.275526 0.212206 0.220564
0.439187 0.285744 0.282101
0.567810 0.365886 0.338491
0.692464 0.451008 0.361541
0.190303 0.294714 0.268303
0.320036 0.382454 0.358682
0.492549 0.445794 0.428959
0.631081 0.509198 0.486897
0.761783 0.589757 0.506521
0.256299 0.408483 0.356389
0.399820 0.501287 0.461616
0.538672 0.572146 0.543851
0.676396 0.621512 0.597842
0.811792 0.685405 0.605635
0.336560 0.497207 0.426976
0.486852 0.590238 0.542627
0.610347 0.661581 0.629173
0.710745 0.708845 0.685111
0.842751 0.754141 0.682912
0.415401 0.571949 0.501369
0.563586 0.656845 0.609317
0.676407 0.724508 0.692435
0.765628 0.776732 0.751448
0.878079 0.818637 0.748203
0.128229 0.159203 0.167403
0.338597 0.247973 0.251604
0.513442 0.331120 0.319284
0.627192 0.420990 0.383226
0.693034 0.495431 0.429413
0.225211 0.370796 0.329819
0.381787 0.463701 0.434456
0.560584 0.542756 0.523333
0.689794 0.613478 0.596286
0.764899 0.676967 0.646348
0.296920 0.478566 0.418143
0.482106 0.585531 0.546992
0.617110 0.660418 0.636983
0.737235 0.718730 0.706292
0.814771 0.770521 0.750903
0.391273 0.554866 0.487583
0.583441 0.664246 0.627931
0.701351 0.735838 0.716428
0.775921 0.782068 0.772567
0.847790 0.821705 0.807505
0.503108 0.623003 0.553510
0.675095 0.724437 0.693325
0.774323 0.790007 0.776923
0.831196 0.830182 0.825625
0.870300 0.853275 0.844328
