filters/luts/Foreshadowing 02.cube
# LUT by SparkleStock. Enhanced with VOXCOLOR algorithms.
LUT_3D_SIZE 5
DOMAIN_MIN 0.000000 0.000000 0.000000
DOMAIN_MAX 0.903226 0.903226 0.903226
0.105495 0.078144 0.050794
0.235031 0.097255 0.033889
0.403009 0.150979 0.048627
0.576927 0.231620 0.093025
0.699437 0.298263 0.139478
0.139580 0.127961 0.071598
0.287044 0.177286 0.066985
0.465000 0.235728 0.084680
0.625572 0.312847 0.128066
0.732175 0.380462 0.172862
0.196305 0.214305 0.114483
0.342103 0.280121 0.128777
0.527713 0.350125 0.145258
0.684027 0.430335 0.189190
0.780696 0.504111 0.240051
0.246367 0.293915 0.159746
0.397330 0.378826 0.200847
0.587422 0.464637 0.228975
0.742092 0.550328 0.280151
0.827972 0.621530 0.334390
0.267856 0.329048 0.181567
0.456846 0.460462 0.272882
0.647203 0.554619 0.310045
0.791376 0.640291 0.363113
0.874644 0.724216 0.457868
0.118469 0.092765 0.085439
0.232749 0.137434 0.117612
0.406035 0.195547 0.133341
0.584266 0.265609 0.151712
0.705989 0.322276 0.168914
0.170170 0.173619 0.130243
0.287493 0.248015 0.196029
0.469642 0.302801 0.210167
0.642801 0.372644 0.229331
0.753848 0.438295 0.259869
0.247019 0.292952 0.198033
0.350347 0.367302 0.266618
0.521240 0.432125 0.286390
0.691054 0.494359 0.303938
0.798411 0.561539 0.341769
0.314222 0.397531 0.274085
0.415533 0.474004 0.351449
0.580173 0.546304 0.377189
0.737752 0.612084 0.396512
0.839453 0.673058 0.435302
0.362125 0.470685 0.347908
0.470462 0.550786 0.431328
0.641254 0.636789 0.472226
0.790450 0.705664 0.496165
0.877730 0.760950 0.543761
0.140455 0.114254 0.113309
0.264406 0.170606 0.165742
0.414294 0.245194 0.222833
0.569624 0.316634 0.247727
0.699418 0.379537 0.249241
0.218559 0.233388 0.194542
0.326898 0.315551 0.277538
0.477203 0.372416 0.336517
0.636194 0.439070 0.354772
0.760479 0.508733 0.364135
0.290555 0.349744 0.267101
0.402528 0.446947 0.378624
0.520069 0.508798 0.451004
0.684065 0.556196 0.455712
0.803288 0.619335 0.473411
0.370667 0.470971 0.358563
0.472786 0.552454 0.458542
0.581066 0.619344 0.538986
0.729242 0.671819 0.546408
0.841104 0.721370 0.562218
0.426783 0.546675 0.435021
0.534522 0.626717 0.537094
0.641139 0.697164 0.622318
0.784352 0.756386 0.633696
0.877390 0.799564 0.652863
0.162236 0.132766 0.134160
0.317891 0.209057 0.204583
0.466037 0.290706 0.273006
0.577219 0.371583 0.330416
0.683621 0.446922 0.356939
0.270002 0.305135 0.257156
0.384150 0.398854 0.355228
0.528829 0.460030 0.430609
0.641191 0.523120 0.489288
0.752058 0.597163 0.511872
0.353978 0.436252 0.352705
0.470603 0.531705 0.467889
0.578380 0.601289 0.557481
0.689324 0.642024 0.608183
0.801878 0.698726 0.617512
0.431974 0.533833 0.429621
0.548840 0.624913 0.552912
0.645522 0.691816 0.645076
0.729429 0.733134 0.697318
0.834020 0.770544 0.697423
0.504062 0.613711 0.508977
0.616423 0.693121 0.626098
0.704691 0.755731 0.714383
0.780479 0.802128 0.768603
0.869330 0.835680 0.769816
0.173587 0.140163 0.143574
0.380447 0.253115 0.243116
0.531437 0.339299 0.315219
0.625953 0.423489 0.377175
0.684937 0.493477 0.424054
0.323530 0.395106 0.327051
0.450911 0.492120 0.441564
0.595436 0.568703 0.537350
0.694506 0.634700 0.612138
0.757238 0.695291 0.665299
0.405527 0.516002 0.420325
0.548547 0.623499 0.563154
0.650208 0.694784 0.659784
0.743603 0.744951 0.729772
0.806310 0.791539 0.775670
0.485629 0.596177 0.494550
0.630945 0.699519 0.647305
0.722957 0.765283 0.740169
0.783638 0.805873 0.795995
0.838457 0.839102 0.830114
0.572886 0.667232 0.568427
0.703156 0.757032 0.716202
0.782817 0.815423 0.801111
0.828379 0.849162 0.846667
0.861086 0.868542 0.865382
