filters/luts/Foreshadowing 01.cube
# LUT by SparkleStock. Enhanced with VOXCOLOR algorithms.
LUT_3D_SIZE 32
0.085958 0.097680 0.089866
0.097593 0.098728 0.086281
0.109228 0.099775 0.082697
0.120863 0.100823 0.079113
0.132498 0.101871 0.075529
0.147914 0.104904 0.073615
0.166166 0.109425 0.072953
0.184418 0.113947 0.072291
0.202670 0.118469 0.071629
0.221962 0.123471 0.071204
0.247493 0.131356 0.072197
0.273024 0.139241 0.073189
0.298554 0.147127 0.074182
0.324085 0.155012 0.075174
0.353161 0.164788 0.077112
0.383654 0.175320 0.079428
0.414148 0.185852 0.081744
0.444641 0.196384 0.084060
0.475119 0.207168 0.086660
0.505558 0.218583 0.089968
0.535996 0.229997 0.093277
0.566434 0.241412 0.096585
0.596873 0.252826 0.099894
0.621876 0.262917 0.103580
0.645973 0.272787 0.107330
0.670070 0.282658 0.111080
0.694167 0.292528 0.114829
0.712828 0.300343 0.118130
0.724243 0.305416 0.120832
0.735657 0.310489 0.123534
0.747072 0.315562 0.126236
0.758486 0.320635 0.128938
0.088054 0.100989 0.091906
0.100199 0.103020 0.088533
0.112345 0.105051 0.085161
0.124490 0.107083 0.081788
0.136636 0.109114 0.078416
0.152811 0.112725 0.076507
0.172010 0.117521 0.075696
0.191208 0.122316 0.074885
0.210406 0.127112 0.074073
0.230563 0.132366 0.073515
0.256467 0.140376 0.074470
0.282371 0.148386 0.075425
0.308275 0.156396 0.076380
0.334180 0.164406 0.077335
0.363202 0.174208 0.079236
0.393471 0.184728 0.081515
0.423741 0.195248 0.083793
0.454010 0.205767 0.086072
0.484161 0.216525 0.088638
0.514014 0.227877 0.091921
0.543867 0.239229 0.095205
0.573720 0.250581 0.098488
0.603573 0.261933 0.101772
0.627938 0.271973 0.105423
0.651387 0.281793 0.109135
0.674837 0.291614 0.112848
0.698286 0.301435 0.116560
0.716429 0.309253 0.119834
0.727494 0.314400 0.122523
0.738560 0.319548 0.125213
0.749626 0.324696 0.127902
0.760692 0.329844 0.130592
0.090149 0.104297 0.093946
0.102805 0.107312 0.090785
0.115461 0.110327 0.087624
0.128117 0.113342 0.084464
0.140773 0.116357 0.081303
0.157708 0.120546 0.079399
0.177853 0.125616 0.078439
0.197998 0.130685 0.077478
0.218142 0.135755 0.076518
0.239163 0.141262 0.075825
0.265441 0.149396 0.076743
0.291719 0.157531 0.077661
0.317996 0.165665 0.078579
0.344274 0.173799 0.079497
0.373243 0.183629 0.081360
0.403288 0.194136 0.083601
0.433334 0.204643 0.085842
0.463379 0.215150 0.088084
0.493202 0.225881 0.090616
0.522470 0.237171 0.093874
0.551738 0.248461 0.097133
0.581006 0.259751 0.100392
0.610274 0.271041 0.103650
0.634000 0.281028 0.107266
0.656802 0.290799 0.110941
0.679604 0.300570 0.114616
0.702406 0.310341 0.118291
0.720029 0.318162 0.121538
0.730746 0.323385 0.124215
0.741463 0.328607 0.126892
0.752180 0.333830 0.129569
0.762897 0.339052 0.132246
0.092245 0.107606 0.095986
0.105411 0.111604 0.093037
0.118578 0.115603 0.090088
0.131744 0.119602 0.087139
0.144911 0.123600 0.084190
0.162605 0.128368 0.082291
0.183696 0.133711 0.081181
0.204787 0.139054 0.080072
0.225878 0.144398 0.078962
0.247763 0.150158 0.078136
0.274415 0.158417 0.079016
0.301066 0.166675 0.079897
0.327717 0.174934 0.080777
0.354369 0.183193 0.081658
0.383284 0.193049 0.083484
0.413105 0.203544 0.085688
0.442927 0.214039 0.087892
0.472748 0.224533 0.090095
0.502244 0.235238 0.092594
0.530926 0.246465 0.095827
0.559609 0.257693 0.099061
0.588292 0.268920 0.102295
0.616975 0.280148 0.105529
0.640062 0.290084 0.109109
0.662216 0.299805 0.112746
0.684371 0.309526 0.116384
0.706526 0.319247 0.120021
0.723629 0.327072 0.123242
0.733998 0.332369 0.125907
0.744366 0.337667 0.128571
0.754735 0.342964 0.131236
0.765103 0.348261 0.133901
0.094340 0.110914 0.098027
0.108017 0.115897 0.095289
0.121694 0.120879 0.092552
0.135371 0.125861 0.089814
0.149048 0.130844 0.087077
0.167502 0.136189 0.085184
0.189540 0.141806 0.083924
0.211577 0.147424 0.082665
0.233614 0.153041 0.081406
0.256364 0.159053 0.080447
0.283389 0.167437 0.081290
0.310414 0.175820 0.082133
0.337438 0.184203 0.082976
0.364463 0.192587 0.083819
0.393326 0.202469 0.085608
0.422923 0.212952 0.087774
0.452520 0.223434 0.089941
0.482117 0.233916 0.092107
0.511285 0.244594 0.094572
0.539383 0.255759 0.097780
0.567480 0.266925 0.100989
0.595578 0.278090 0.104198
0.623675 0.289255 0.107407
0.646124 0.299140 0.110952
0.667631 0.308811 0.114552
0.689138 0.318482 0.118152
0.710645 0.328154 0.121752
0.727229 0.335982 0.124946
0.737249 0.341354 0.127598
0.747269 0.346726 0.130250
0.757289 0.352098 0.132903
0.767309 0.357470 0.135555
0.097349 0.116428 0.101138
0.111345 0.122060 0.098605
0.125340 0.127692 0.096072
0.139335 0.133323 0.093539
0.153331 0.138955 0.091006
0.172397 0.144881 0.089067
0.195267 0.151029 0.087573
0.218137 0.157176 0.086079
0.241006 0.163323 0.084585
0.264540 0.169828 0.083415
0.292060 0.178479 0.084192
0.319579 0.187129 0.084969
0.347099 0.195779 0.085747
0.374618 0.204429 0.086524
0.403558 0.214486 0.088298
0.433066 0.225105 0.090469
0.462574 0.235724 0.092641
0.492082 0.246344 0.094813
0.521046 0.257142 0.097289
0.548651 0.268387 0.100522
0.576256 0.279633 0.103756
0.603861 0.290878 0.106990
0.631465 0.302123 0.110224
0.653368 0.312123 0.113813
0.674320 0.321915 0.117461
0.695272 0.331708 0.121109
0.716225 0.341500 0.124758
0.732382 0.349506 0.128019
0.742145 0.355130 0.130766
0.751909 0.360755 0.133512
0.761673 0.366379 0.136259
0.771436 0.372004 0.139005
0.101044 0.123597 0.105053
0.115213 0.129627 0.102720
0.129383 0.135657 0.100386
0.143553 0.141687 0.098052
0.157723 0.147717 0.095718
0.177291 0.154227 0.093694
0.200907 0.161096 0.091901
0.224524 0.167966 0.090108
0.248141 0.174836 0.088315
0.272399 0.182013 0.086876
0.300504 0.191037 0.087566
0.328608 0.200060 0.088257
0.356713 0.209084 0.088947
0.384817 0.218108 0.089637
0.413933 0.228449 0.091412
0.443454 0.239318 0.093621
0.472974 0.250186 0.095831
0.502495 0.261054 0.098040
0.531347 0.272084 0.100560
0.558529 0.283516 0.103856
0.585710 0.294948 0.107152
0.612892 0.306380 0.110448
0.640073 0.317812 0.113744
0.661499 0.328052 0.117438
0.681965 0.338093 0.121198
0.702432 0.348135 0.124959
0.722899 0.358176 0.128719
0.738698 0.366489 0.132119
0.748275 0.372500 0.135040
0.757852 0.378510 0.137961
0.767429 0.384521 0.140882
0.777006 0.390531 0.143802
0.104738 0.130765 0.108968
0.119082 0.137194 0.106834
0.133426 0.143622 0.104699
0.147770 0.150051 0.102565
0.162114 0.156479 0.100430
0.182184 0.163572 0.098320
0.206548 0.171164 0.096228
0.230912 0.178756 0.094137
0.255276 0.186348 0.092045
0.280258 0.194198 0.090338
0.308947 0.203595 0.090941
0.337637 0.212992 0.091544
0.366327 0.222389 0.092147
0.395017 0.231787 0.092750
0.424309 0.242413 0.094527
0.453842 0.253530 0.096773
0.483375 0.264647 0.099020
0.512908 0.275765 0.101267
0.541648 0.287025 0.103831
0.568406 0.298644 0.107189
0.595164 0.310263 0.110547
0.621922 0.321882 0.113906
0.648680 0.333501 0.117264
0.669630 0.343981 0.121063
0.689611 0.354271 0.124935
0.709592 0.364561 0.128808
0.729572 0.374852 0.132680
0.745015 0.383473 0.136220
0.754405 0.389870 0.139315
0.763795 0.396266 0.142410
0.773185 0.402663 0.145505
0.782575 0.409059 0.148600
0.108433 0.137934 0.112884
0.122951 0.144761 0.110948
0.137469 0.151588 0.109013
0.151988 0.158415 0.107078
0.166506 0.165241 0.105142
0.187077 0.172918 0.102947
0.212188 0.181232 0.100556
0.237299 0.189546 0.098165
0.262410 0.197860 0.095775
0.288116 0.206382 0.093799
0.317391 0.216153 0.094315
0.346666 0.225924 0.094831
0.375941 0.235695 0.095347
0.405216 0.245465 0.095863
0.434685 0.256376 0.097641
0.464230 0.267742 0.099925
0.493775 0.279109 0.102209
0.523321 0.290475 0.104493
0.551949 0.301967 0.107102
0.578284 0.313773 0.110523
0.604618 0.325578 0.113943
0.630953 0.337384 0.117364
0.657288 0.349190 0.120784
0.677760 0.359910 0.124688
0.697256 0.370449 0.128673
0.716751 0.380988 0.132657
0.736246 0.391528 0.136642
0.751331 0.400457 0.140320
0.760534 0.407239 0.143589
0.769738 0.414022 0.146858
0.778941 0.420804 0.150128
0.788144 0.427587 0.153397
0.112261 0.145457 0.117043
0.126941 0.152670 0.115319
0.141622 0.159883 0.113596
0.156302 0.167095 0.111872
0.170982 0.174308 0.110148
0.192040 0.182562 0.107898
0.217883 0.191597 0.105253
0.243725 0.200631 0.102608
0.269567 0.209665 0.099963
0.295979 0.218859 0.097752
0.325810 0.229009 0.098141
0.355642 0.239158 0.098531
0.385474 0.249308 0.098920
0.415306 0.259458 0.099310
0.444955 0.270661 0.101074
0.474530 0.282285 0.103388
0.504106 0.293909 0.105702
0.533682 0.305534 0.108017
0.562218 0.317266 0.110667
0.588154 0.329267 0.114159
0.614090 0.341268 0.117651
0.640026 0.353270 0.121142
0.665963 0.365271 0.124634
0.685974 0.376237 0.128656
0.704998 0.387031 0.132767
0.724022 0.397825 0.136878
0.743046 0.408618 0.140989
0.757785 0.417860 0.144821
0.766811 0.425034 0.148283
0.775836 0.432208 0.151744
0.784862 0.439382 0.155206
0.793887 0.446556 0.158667
0.116893 0.155107 0.122667
0.131661 0.162631 0.121230
0.146428 0.170155 0.119793
0.161195 0.177679 0.118356
0.175963 0.185203 0.116918
0.197421 0.193996 0.114798
0.223898 0.203740 0.112165
0.250375 0.213484 0.109533
0.276852 0.223229 0.106900
0.303864 0.233089 0.104648
0.334082 0.243650 0.104676
0.364299 0.254210 0.104705
0.394517 0.264771 0.104733
0.424735 0.275332 0.104762
0.454592 0.286874 0.106414
0.484305 0.298810 0.108716
0.514017 0.310745 0.111017
0.543730 0.322681 0.113319
0.572293 0.334707 0.115996
0.597980 0.346957 0.119613
0.623667 0.359207 0.123229
0.649354 0.371458 0.126845
0.675042 0.383708 0.130461
0.694687 0.394955 0.134683
0.713325 0.406035 0.139005
0.731963 0.417115 0.143328
0.750601 0.428195 0.147650
0.765066 0.437783 0.151732
0.773967 0.445380 0.155492
0.782868 0.452977 0.159252
0.791769 0.460574 0.163013
0.800670 0.468171 0.166773
0.121525 0.164756 0.128292
0.136380 0.172592 0.127141
0.151234 0.180427 0.125990
0.166089 0.188263 0.124839
0.180943 0.196098 0.123688
0.202802 0.205430 0.121698
0.229914 0.215884 0.119078
0.257026 0.226338 0.116458
0.284138 0.236792 0.113837
0.311749 0.247319 0.111544
0.342353 0.258291 0.111211
0.372957 0.269262 0.110879
0.403561 0.280234 0.110546
0.434164 0.291205 0.110214
0.464229 0.303088 0.111754
0.494079 0.315335 0.114043
0.523929 0.327582 0.116332
0.553778 0.339828 0.118622
0.582368 0.352147 0.121326
0.607806 0.364647 0.125066
0.633244 0.377146 0.128807
0.658682 0.389646 0.132548
0.684121 0.402145 0.136289
0.703399 0.413673 0.140709
0.721651 0.425040 0.145243
0.739903 0.436406 0.149778
0.758155 0.447773 0.154312
0.772346 0.457705 0.158642
0.781123 0.465725 0.162701
0.789899 0.473746 0.166761
0.798676 0.481766 0.170820
0.807452 0.489787 0.174879
0.126157 0.174406 0.133916
0.141099 0.182553 0.133052
0.156040 0.190700 0.132187
0.170982 0.198847 0.131323
0.185924 0.206993 0.130458
0.208183 0.216864 0.128598
0.235930 0.228028 0.125990
0.263677 0.239191 0.123382
0.291424 0.250355 0.120775
0.319634 0.261550 0.118440
0.350624 0.272932 0.117747
0.381614 0.284314 0.117053
0.412604 0.295697 0.116359
0.443594 0.307079 0.115666
0.473867 0.319301 0.117094
0.503853 0.331859 0.119370
0.533840 0.344418 0.121647
0.563827 0.356976 0.123924
0.592442 0.369588 0.126655
0.617632 0.382337 0.130520
0.642821 0.395085 0.134385
0.668010 0.407834 0.138251
0.693199 0.420582 0.142116
0.712112 0.432391 0.146736
0.729978 0.444044 0.151482
0.747844 0.455697 0.156227
0.765710 0.467350 0.160973
0.779627 0.477627 0.165553
0.788279 0.486071 0.169911
0.796931 0.494515 0.174269
0.805583 0.502959 0.178627
0.814235 0.511403 0.182985
0.130789 0.184056 0.139541
0.145818 0.192514 0.138963
0.160847 0.200972 0.138385
0.175876 0.209430 0.137806
0.190904 0.217888 0.137228
0.213564 0.228298 0.135498
0.241946 0.240171 0.132902
0.270328 0.252045 0.130307
0.298710 0.263918 0.127712
0.327520 0.275780 0.125337
0.358896 0.287573 0.124282
0.390271 0.299366 0.123227
0.421647 0.311160 0.122172
0.453023 0.322953 0.121117
0.483504 0.335515 0.122434
0.513628 0.348384 0.124698
0.543751 0.361254 0.126962
0.573875 0.374123 0.129227
0.602517 0.387029 0.131984
0.627458 0.400027 0.135974
0.652398 0.413024 0.139964
0.677338 0.426022 0.143953
0.702278 0.439019 0.147943
0.720824 0.451110 0.152762
0.738304 0.463049 0.157720
0.755784 0.474988 0.162677
0.773264 0.486927 0.167635
0.786907 0.497549 0.172463
0.795435 0.506417 0.177120
0.803962 0.515284 0.181777
0.812490 0.524151 0.186434
0.821017 0.533018 0.191091
0.135421 0.193863 0.145598
0.150670 0.202766 0.145413
0.165920 0.211669 0.145229
0.181169 0.220572 0.145044
0.196419 0.229475 0.144859
0.219403 0.240379 0.143339
0.248189 0.252784 0.140818
0.276975 0.265189 0.138298
0.305761 0.277594 0.135777
0.335001 0.290002 0.133443
0.366967 0.302429 0.132222
0.398934 0.314855 0.131002
0.430900 0.327282 0.129782
0.462866 0.339708 0.128562
0.493475 0.352591 0.129891
0.523539 0.365656 0.132241
0.553604 0.378721 0.134591
0.583669 0.391786 0.136941
0.612206 0.404875 0.139777
0.636924 0.418024 0.143829
0.661642 0.431173 0.147881
0.686360 0.444321 0.151933
0.711078 0.457470 0.155985
0.729291 0.469713 0.160995
0.746421 0.481805 0.166164
0.763550 0.493897 0.171333
0.780680 0.505990 0.176502
0.794066 0.516824 0.181591
0.802460 0.525981 0.186573
0.810854 0.535138 0.191556
0.819248 0.544295 0.196538
0.827642 0.553452 0.201520
0.140053 0.203734 0.151830
0.155576 0.213135 0.152080
0.171099 0.222536 0.152331
0.186623 0.231936 0.152582
0.202146 0.241337 0.152833
0.225426 0.252718 0.151557
0.254523 0.265584 0.149136
0.283620 0.278450 0.146715
0.312718 0.291316 0.144294
0.342321 0.304222 0.142032
0.374959 0.317371 0.140725
0.407598 0.330519 0.139418
0.440237 0.343668 0.138110
0.472876 0.356817 0.136803
0.503578 0.370012 0.138197
0.533506 0.383227 0.140671
0.563434 0.396441 0.143145
0.593362 0.409656 0.145619
0.621740 0.422884 0.148555
0.646247 0.436144 0.152644
0.670753 0.449405 0.156734
0.695259 0.462666 0.160823
0.719765 0.475927 0.164913
0.737660 0.488271 0.170109
0.754454 0.500463 0.175490
0.771247 0.512655 0.180871
0.788041 0.524846 0.186251
0.801176 0.535839 0.191605
0.809433 0.545233 0.196924
0.817690 0.554626 0.202243
0.825947 0.564020 0.207561
0.834204 0.573414 0.212880
0.144685 0.213604 0.158061
0.160482 0.223503 0.158747
0.176279 0.233402 0.159434
0.192077 0.243301 0.160120
0.207874 0.253200 0.160807
0.231449 0.265057 0.159775
0.260857 0.278384 0.157454
0.290266 0.291711 0.155132
0.319674 0.305037 0.152811
0.349640 0.318441 0.150622
0.382951 0.332312 0.149227
0.416263 0.346183 0.147833
0.449574 0.360054 0.146438
0.482885 0.373925 0.145044
0.513681 0.387434 0.146502
0.543472 0.400798 0.149100
0.573263 0.414162 0.151699
0.603054 0.427526 0.154298
0.631275 0.440892 0.157333
0.655569 0.454265 0.161460
0.679864 0.467638 0.165587
0.704158 0.481010 0.169714
0.728453 0.494383 0.173840
0.746029 0.506829 0.179223
0.762487 0.519120 0.184816
0.778944 0.531412 0.190408
0.795401 0.543703 0.196001
0.808285 0.554854 0.201620
0.816405 0.564484 0.207275
0.824525 0.574115 0.212929
0.832646 0.583745 0.218584
0.840766 0.593375 0.224239
0.149317 0.223475 0.164292
0.165388 0.233872 0.165414
0.181459 0.244269 0.166536
0.197530 0.254666 0.167659
0.213602 0.265062 0.168781
0.237472 0.277397 0.167993
0.267192 0.291184 0.165771
0.296911 0.304971 0.163549
0.326631 0.318759 0.161328
0.356960 0.332661 0.159212
0.390943 0.347254 0.157730
0.424927 0.361847 0.156248
0.458910 0.376440 0.154767
0.492894 0.391033 0.153285
0.523785 0.404855 0.154807
0.553439 0.418368 0.157530
0.583093 0.431882 0.160253
0.612747 0.445395 0.162977
0.640809 0.458900 0.166112
0.664892 0.472385 0.170276
0.688975 0.485870 0.174440
0.713057 0.499355 0.178604
0.737140 0.512840 0.182768
0.754399 0.525387 0.188338
0.770520 0.537778 0.194142
0.786641 0.550169 0.199946
0.802762 0.562560 0.205750
0.815395 0.573869 0.211634
0.823378 0.583736 0.217625
0.831361 0.593603 0.223616
0.839344 0.603470 0.229607
0.847328 0.613336 0.235598
0.153681 0.232762 0.170255
0.170143 0.243767 0.171888
0.186606 0.254773 0.173521
0.203068 0.265778 0.175154
0.219531 0.276783 0.176786
0.243747 0.289640 0.176290
0.273778 0.303884 0.174196
0.303809 0.318128 0.172103
0.333840 0.332373 0.170009
0.364511 0.346755 0.167997
0.399021 0.361963 0.166470
0.433531 0.377172 0.164944
0.468041 0.392380 0.163418
0.502551 0.407589 0.161892
0.533594 0.421752 0.163437
0.563249 0.435496 0.166210
0.592905 0.449241 0.168983
0.622561 0.462986 0.171756
0.650549 0.476685 0.175022
0.674371 0.490271 0.179523
0.698192 0.503858 0.184023
0.722013 0.517444 0.188523
0.745835 0.531030 0.193024
0.762746 0.543604 0.198783
0.778506 0.556009 0.204753
0.794266 0.568414 0.210722
0.810026 0.580819 0.216692
0.822384 0.592196 0.222804
0.830205 0.602199 0.229106
0.838026 0.612203 0.235409
0.845848 0.622207 0.241711
0.853669 0.632211 0.248013
0.157375 0.240592 0.175548
0.174523 0.252482 0.177879
0.191670 0.264371 0.180209
0.208817 0.276260 0.182539
0.225965 0.288150 0.184869
0.250652 0.301641 0.184785
0.280994 0.316334 0.182891
0.311337 0.331026 0.180997
0.341679 0.345719 0.179102
0.372640 0.360535 0.177269
0.407312 0.376092 0.175805
0.441984 0.391649 0.174341
0.476655 0.407207 0.172878
0.511327 0.422764 0.171414
0.542665 0.437337 0.172878
0.572670 0.451518 0.175514
0.602674 0.465698 0.178151
0.632678 0.479879 0.180787
0.660806 0.493911 0.184265
0.684241 0.507572 0.189849
0.707677 0.521233 0.195432
0.731112 0.534894 0.201016
0.754547 0.548555 0.206599
0.771041 0.560968 0.212556
0.786377 0.573174 0.218576
0.801714 0.585380 0.224595
0.817051 0.597586 0.230614
0.829070 0.608800 0.236862
0.836667 0.618692 0.243413
0.844265 0.628584 0.249964
0.851862 0.638476 0.256515
0.859459 0.648367 0.263067
0.161070 0.248423 0.180842
0.178902 0.261196 0.183870
0.196734 0.273969 0.186897
0.214566 0.286743 0.189925
0.232399 0.299516 0.192952
0.257557 0.313642 0.193281
0.288211 0.328783 0.191586
0.318865 0.343924 0.189890
0.349518 0.359065 0.188195
0.380769 0.374315 0.186542
0.415603 0.390221 0.185140
0.450436 0.406127 0.183739
0.485270 0.422033 0.182337
0.520104 0.437938 0.180935
0.551737 0.452923 0.182320
0.582090 0.467539 0.184819
0.612443 0.482155 0.187318
0.642796 0.496772 0.189818
0.671062 0.511136 0.193507
0.694112 0.524872 0.200174
0.717161 0.538608 0.206841
0.740210 0.552343 0.213508
0.763260 0.566079 0.220175
0.779335 0.578333 0.226329
0.794248 0.590339 0.232399
0.809162 0.602346 0.238468
0.824075 0.614353 0.244537
0.835757 0.625405 0.250919
0.843130 0.635185 0.257720
0.850503 0.644965 0.264520
0.857876 0.654744 0.271320
0.865249 0.664524 0.278120
0.164764 0.256253 0.186136
0.183281 0.269910 0.189860
0.201798 0.283568 0.193585
0.220315 0.297225 0.197310
0.238832 0.310882 0.201035
0.264463 0.325644 0.201776
0.295427 0.341233 0.200280
0.326392 0.356822 0.198784
0.357357 0.372411 0.197288
0.388898 0.388095 0.195815
0.423894 0.404350 0.194475
0.458889 0.420604 0.193136
0.493885 0.436859 0.191797
0.528880 0.453113 0.190457
0.560809 0.468509 0.191762
0.591510 0.483561 0.194124
0.622212 0.498613 0.196486
0.652914 0.513665 0.198848
0.681319 0.528362 0.202750
0.703982 0.542172 0.210500
0.726645 0.555983 0.218250
0.749309 0.569793 0.226000
0.771972 0.583604 0.233750
0.787630 0.595697 0.240102
0.802120 0.607505 0.246221
0.816609 0.619312 0.252340
0.831099 0.631120 0.258459
0.842443 0.642010 0.264977
0.849592 0.651678 0.272026
0.856741 0.661345 0.279076
0.863890 0.671013 0.286125
0.871039 0.680681 0.293174
0.168459 0.264083 0.191429
0.187661 0.278624 0.195851
0.206863 0.293166 0.200273
0.226064 0.307707 0.204695
0.245266 0.322249 0.209117
0.271368 0.337645 0.210272
0.302644 0.353683 0.208975
0.333920 0.369720 0.207678
0.365196 0.385757 0.206381
0.397027 0.401876 0.205088
0.432184 0.418479 0.203810
0.467342 0.435082 0.202533
0.502499 0.451685 0.201256
0.537657 0.468288 0.199979
0.569881 0.484094 0.201203
0.600931 0.499582 0.203429
0.631981 0.515070 0.205654
0.663031 0.530558 0.207879
0.691575 0.545588 0.211992
0.713852 0.559473 0.220826
0.736130 0.573358 0.229659
0.758407 0.587243 0.238493
0.780685 0.601128 0.247326
0.795924 0.613062 0.253876
0.809991 0.624670 0.260044
0.824057 0.636278 0.266213
0.838124 0.647886 0.272382
0.849129 0.658615 0.279035
0.856054 0.668170 0.286333
0.862979 0.677726 0.293631
0.869904 0.687282 0.300930
0.876829 0.696837 0.308228
0.170735 0.268935 0.194738
0.191177 0.284895 0.200284
0.211619 0.300854 0.205830
0.232060 0.316813 0.211377
0.252502 0.332772 0.216923
0.279423 0.349075 0.218715
0.311202 0.365635 0.217692
0.342982 0.382195 0.216670
0.374761 0.398756 0.215647
0.407025 0.415348 0.214603
0.442195 0.432129 0.213431
0.477365 0.448910 0.212258
0.512535 0.465691 0.211086
0.547705 0.482472 0.209914
0.579792 0.498389 0.211223
0.610647 0.513960 0.213525
0.641502 0.529531 0.215827
0.672356 0.545103 0.218128
0.700693 0.560180 0.222301
0.722733 0.574023 0.231150
0.744774 0.587865 0.240000
0.766815 0.601707 0.248849
0.788856 0.615550 0.257698
0.803891 0.627682 0.266003
0.817758 0.639528 0.274218
0.831625 0.651375 0.282432
0.845493 0.663221 0.290647
0.856215 0.673896 0.298502
0.862745 0.683009 0.305878
0.869275 0.692122 0.313255
0.875805 0.701234 0.320632
0.882335 0.710347 0.328008
0.172776 0.273292 0.197716
0.194550 0.290757 0.204457
0.216324 0.308223 0.211199
0.238098 0.325689 0.217940
0.259871 0.343155 0.224682
0.287669 0.360409 0.227150
0.319984 0.377505 0.226414
0.352299 0.394601 0.225677
0.384614 0.411696 0.224941
0.417335 0.428769 0.224158
0.452492 0.445699 0.223098
0.487650 0.462629 0.222038
0.522807 0.479560 0.220978
0.557965 0.496490 0.219918
0.589844 0.512468 0.221339
0.620412 0.528064 0.223753
0.650981 0.543660 0.226167
0.681549 0.559256 0.228580
0.709620 0.574334 0.232787
0.731449 0.588114 0.241474
0.753278 0.601894 0.250162
0.775108 0.615674 0.258849
0.796937 0.629454 0.267537
0.811803 0.641844 0.277857
0.825508 0.654002 0.288450
0.839214 0.666160 0.299042
0.852919 0.678318 0.309635
0.863368 0.688957 0.318871
0.869474 0.697572 0.326297
0.875581 0.706186 0.333723
0.881687 0.714801 0.341150
0.887794 0.723416 0.348576
0.174816 0.277648 0.200693
0.197922 0.296620 0.208630
0.221028 0.315593 0.216567
0.244135 0.334565 0.224504
0.267241 0.353537 0.232441
0.295915 0.371743 0.235585
0.328766 0.389375 0.235135
0.361616 0.407006 0.234685
0.394466 0.424637 0.234235
0.427645 0.442189 0.233714
0.462790 0.459269 0.232766
0.497935 0.476349 0.231818
0.533080 0.493429 0.230870
0.568225 0.510509 0.229922
0.599896 0.526547 0.231455
0.630178 0.542168 0.233981
0.660460 0.557789 0.236507
0.690742 0.573410 0.239032
0.718548 0.588488 0.243272
0.740165 0.602205 0.251798
0.761783 0.615923 0.260324
0.783400 0.629641 0.268849
0.805018 0.643359 0.277375
0.819715 0.656007 0.289711
0.833258 0.668476 0.302682
0.846802 0.680945 0.315653
0.860345 0.693414 0.328623
0.870520 0.704018 0.339239
0.876203 0.712135 0.346716
0.881887 0.720251 0.354192
0.887570 0.728368 0.361668
0.893253 0.736484 0.369144
0.176856 0.282004 0.203671
0.201295 0.302483 0.212803
0.225733 0.322962 0.221935
0.250172 0.343441 0.231068
0.274610 0.363920 0.240200
0.304162 0.383078 0.244020
0.337548 0.401244 0.243856
0.370933 0.419411 0.243693
0.404319 0.437578 0.243529
0.437954 0.455610 0.243269
0.473087 0.472840 0.242433
0.508220 0.490069 0.241597
0.543352 0.507298 0.240761
0.578485 0.524527 0.239925
0.609948 0.540626 0.241571
0.639943 0.556272 0.244209
0.669939 0.571918 0.246847
0.699934 0.587564 0.249484
0.727476 0.602641 0.253758
0.748881 0.616297 0.262122
0.770287 0.629953 0.270486
0.791693 0.643608 0.278850
0.813099 0.657264 0.287214
0.827627 0.670169 0.301565
0.841008 0.682950 0.316914
0.854390 0.695730 0.332263
0.867772 0.708511 0.347612
0.877673 0.719079 0.359608
0.882933 0.726697 0.367134
0.888192 0.734316 0.374660
0.893452 0.741934 0.382186
0.898712 0.749553 0.389712
0.178211 0.284966 0.205561
0.204291 0.307272 0.216172
0.230372 0.329578 0.226782
0.256452 0.351883 0.237393
0.282533 0.374189 0.248003
0.313179 0.394491 0.252651
0.347249 0.413289 0.252827
0.381320 0.432087 0.253003
0.415391 0.450885 0.253179
0.449612 0.469472 0.253224
0.484737 0.486792 0.252478
0.519863 0.504112 0.251733
0.554988 0.521432 0.250988
0.590114 0.538751 0.250242
0.621287 0.554802 0.252005
0.650878 0.570345 0.254771
0.680470 0.585888 0.257537
0.710062 0.601431 0.260303
0.737185 0.616377 0.264670
0.758139 0.629832 0.273037
0.779093 0.643286 0.281404
0.800047 0.656741 0.289772
