filters/luts/Foreshadowing 01.cube
# LUT by SparkleStock. Enhanced with VOXCOLOR algorithms.
LUT_3D_SIZE 8
DOMAIN_MIN 0.000000 0.000000 0.000000
DOMAIN_MAX 0.903226 0.903226 0.903226
0.085958 0.097680 0.089866
0.132498 0.101871 0.075529
0.202670 0.118469 0.071629
0.298554 0.147127 0.074182
0.414148 0.185852 0.081744
0.535996 0.229997 0.093277
0.645973 0.272787 0.107330
0.724243 0.305416 0.120832
0.094340 0.110914 0.098027
0.149048 0.130844 0.087077
0.233614 0.153041 0.081406
0.337438 0.184203 0.082976
0.452520 0.223434 0.089941
0.567480 0.266925 0.100989
0.667631 0.308811 0.114552
0.737249 0.341354 0.127598
0.108433 0.137934 0.112884
0.166506 0.165241 0.105142
0.262410 0.197860 0.095775
0.375941 0.235695 0.095347
0.493775 0.279109 0.102209
0.604618 0.325578 0.113943
0.697256 0.370449 0.128673
0.760534 0.407239 0.143589
0.126157 0.174406 0.133916
0.185924 0.206993 0.130458
0.291424 0.250355 0.120775
0.412604 0.295697 0.116359
0.533840 0.344418 0.121647
0.642821 0.395085 0.134385
0.729978 0.444044 0.151482
0.788279 0.486071 0.169911
0.144685 0.213604 0.158061
0.207874 0.253200 0.160807
0.319674 0.305037 0.152811
0.449574 0.360054 0.146438
0.573263 0.414162 0.151699
0.679864 0.467638 0.165587
0.762487 0.519120 0.184816
0.816405 0.564484 0.207275
0.161070 0.248423 0.180842
0.232399 0.299516 0.192952
0.349518 0.359065 0.188195
0.485270 0.422033 0.182337
0.612443 0.482155 0.187318
0.717161 0.538608 0.206841
0.794248 0.590339 0.232399
0.843130 0.635185 0.257720
0.172776 0.273292 0.197716
0.259871 0.343155 0.224682
0.384614 0.411696 0.224941
0.522807 0.479560 0.220978
0.650981 0.543660 0.226167
0.753278 0.601894 0.250162
0.825508 0.654002 0.288450
0.869474 0.697572 0.326297
0.178652 0.286069 0.206003
0.291192 0.384307 0.255865
0.428088 0.464681 0.263304
0.568443 0.535918 0.261660
0.692404 0.599647 0.268695
0.788302 0.655693 0.293331
0.854412 0.706211 0.342209
0.894152 0.749562 0.403064
0.088605 0.100547 0.107952
0.127575 0.114500 0.116327
0.200849 0.132144 0.110770
0.302838 0.161741 0.108896
0.423924 0.200580 0.110724
0.548362 0.243302 0.115084
0.656916 0.283254 0.121368
0.730561 0.312652 0.128381
0.098979 0.123942 0.119899
0.146297 0.158852 0.148394
0.235912 0.181208 0.143180
0.347435 0.212539 0.138988
0.469326 0.252564 0.139884
0.587931 0.296611 0.145663
0.687725 0.338846 0.155768
0.754428 0.372246 0.168083
0.120578 0.164857 0.143343
0.168388 0.203688 0.172343
0.262929 0.240100 0.167193
0.381931 0.275358 0.160940
0.506028 0.315635 0.160682
0.621247 0.360096 0.167120
0.715462 0.404388 0.179399
0.778085 0.442783 0.195177
0.145375 0.213326 0.171975
0.194184 0.254634 0.203188
0.290925 0.298826 0.198843
0.413829 0.343073 0.189157
0.540628 0.387196 0.186687
0.654497 0.432805 0.193226
0.744420 0.478751 0.207417
0.803645 0.520679 0.226811
0.170947 0.263880 0.204778
0.223056 0.309002 0.240814
0.321855 0.357868 0.238382
0.448091 0.410268 0.227873
0.574804 0.459616 0.223331
0.686477 0.506954 0.228841
0.773094 0.553396 0.244306
0.829190 0.596626 0.267274
0.195756 0.312444 0.239997
0.253563 0.362072 0.281592
0.356249 0.416019 0.282955
0.484946 0.473898 0.273980
0.611672 0.528400 0.269044
0.719252 0.577238 0.275537
0.800481 0.622256 0.292892
0.853234 0.663987 0.318168
0.218675 0.355720 0.274758
0.282931 0.408733 0.320367
0.393584 0.470689 0.329269
0.524812 0.532997 0.323891
0.651044 0.590641 0.320583
0.754074 0.640237 0.329190
0.828509 0.683081 0.351200
0.875970 0.720922 0.381708
0.238967 0.392205 0.306126
0.307266 0.444069 0.351098
0.431877 0.519492 0.373850
0.568442 0.587819 0.375532
0.692508 0.646148 0.375562
0.790219 0.694667 0.386219
0.857378 0.734616 0.413487
0.898051 0.767936 0.453324
0.094403 0.106566 0.122494
0.134696 0.122276 0.135081
0.206467 0.147414 0.147801
0.304002 0.178585 0.151653
0.422221 0.217443 0.152886
0.546148 0.260292 0.153073
0.655896 0.300625 0.152540
0.732299 0.331634 0.152555
0.111216 0.140654 0.143918
0.157948 0.179487 0.177133
0.244341 0.206115 0.193010
0.352051 0.238146 0.195687
0.472450 0.278481 0.195555
0.591851 0.323372 0.196217
0.693706 0.367122 0.198831
0.763096 0.403650 0.204147
0.131587 0.185199 0.168937
0.188912 0.238944 0.217004
0.268562 0.278448 0.243790
0.383523 0.310512 0.243665
0.509495 0.348528 0.239761
0.627807 0.392670 0.240813
0.724661 0.437490 0.247734
0.789020 0.476800 0.259966
0.163481 0.246680 0.206972
0.221250 0.299102 0.253886
0.298383 0.343531 0.284673
0.413416 0.386100 0.282282
0.541336 0.426026 0.275740
0.658963 0.467787 0.276437
0.752336 0.511760 0.285358
0.814024 0.553212 0.301552
0.196287 0.308329 0.247989
0.255232 0.358858 0.294007
0.333327 0.406333 0.328536
0.446976 0.455479 0.326084
0.572520 0.501151 0.316615
0.687889 0.543635 0.315356
0.778499 0.585481 0.324824
0.837791 0.626388 0.343699
0.226726 0.363983 0.288937
0.290831 0.416019 0.337856
0.372056 0.467150 0.377414
0.485501 0.519039 0.376438
0.607994 0.569116 0.366046
0.717827 0.613253 0.363802
0.803280 0.652970 0.373173
0.859902 0.690882 0.393476
0.255115 0.413487 0.329667
0.326495 0.467575 0.381905
0.412185 0.522136 0.426287
0.527807 0.577224 0.428972
0.648345 0.629225 0.420515
0.751746 0.673842 0.419162
0.829295 0.711260 0.429998
0.880454 0.744398 0.452394
0.281602 0.457467 0.368769
0.359081 0.510112 0.420923
0.448353 0.566070 0.467996
0.570105 0.627189 0.478747
0.690822 0.681561 0.475446
0.789030 0.725500 0.476627
0.858085 0.759897 0.490625
0.901060 0.787764 0.517135
0.102139 0.115042 0.135224
0.147796 0.132332 0.150116
0.223560 0.161069 0.169982
0.315397 0.196810 0.188226
0.423456 0.238185 0.199592
0.540106 0.283046 0.203345
0.648690 0.326764 0.201376
0.730200 0.363699 0.197195
0.124985 0.160671 0.166182
0.174216 0.204862 0.203091
0.262745 0.233567 0.226791
0.364375 0.267593 0.245913
0.476067 0.309347 0.256548
0.590153 0.355866 0.259935
0.692185 0.402561 0.259653
0.766774 0.444465 0.259312
0.152762 0.217621 0.202209
0.212681 0.273376 0.252362
0.290889 0.316850 0.290944
0.397500 0.349033 0.311136
0.514859 0.385764 0.316969
0.628857 0.429409 0.317484
0.726432 0.475251 0.318635
0.795529 0.517841 0.323099
0.184758 0.277522 0.239801
0.253598 0.339678 0.298105
0.331315 0.390903 0.346065
0.425996 0.429798 0.371070
0.542776 0.463997 0.373151
0.659035 0.502445 0.369868
0.754348 0.545516 0.372396
0.819775 0.587504 0.382263
0.222909 0.346110 0.286290
0.294226 0.405287 0.343255
0.371525 0.456676 0.393231
0.459294 0.500076 0.422081
0.571769 0.540094 0.421995
0.686360 0.577888 0.415827
0.779445 0.616140 0.418627
0.842300 0.655427 0.431080
0.260475 0.409774 0.333257
0.334786 0.465819 0.388766
0.412302 0.516742 0.440055
0.499069 0.562602 0.472385
0.606722 0.607149 0.472137
0.714832 0.646767 0.464060
0.802934 0.682142 0.465865
0.863239 0.716676 0.478870
0.294378 0.462072 0.376218
0.375438 0.518730 0.433728
0.455334 0.570395 0.487512
0.542852 0.618598 0.523726
0.647475 0.664154 0.525184
0.748311 0.704470 0.516863
0.827876 0.738096 0.518663
0.882401 0.767346 0.532426
0.326218 0.507029 0.416638
0.414694 0.563538 0.475317
0.496133 0.614078 0.529476
0.584591 0.663667 0.568840
0.689610 0.711460 0.574499
0.786327 0.751949 0.569008
0.856790 0.783043 0.572851
0.902155 0.807671 0.588864
0.110150 0.124235 0.146378
0.165363 0.144940 0.164472
0.249424 0.176781 0.187400
0.342811 0.216757 0.213558
0.438797 0.261638 0.237871
0.540863 0.310115 0.254424
0.641945 0.359013 0.259987
0.725524 0.404021 0.257461
0.140126 0.184998 0.188457
0.194754 0.236679 0.231582
0.288490 0.268023 0.259705
0.390753 0.303861 0.287527
0.490600 0.345946 0.312404
0.591730 0.394026 0.328622
0.688396 0.444503 0.334427
0.766103 0.492511 0.333764
0.175680 0.254426 0.235465
0.239673 0.312530 0.287808
0.320875 0.360604 0.332686
0.425625 0.394700 0.363995
0.530064 0.429977 0.386027
0.631648 0.472738 0.397765
0.725034 0.519950 0.400911
0.797882 0.566418 0.401251
0.213149 0.320544 0.279767
0.288908 0.384392 0.341358
0.369187 0.438761 0.394689
0.456789 0.479046 0.434609
0.557680 0.510489 0.455653
0.661742 0.545534 0.461431
0.753781 0.587093 0.461505
0.822791 0.629957 0.463940
0.255763 0.385853 0.325250
0.337611 0.450695 0.390563
0.418860 0.505759 0.447186
0.497488 0.549562 0.492523
0.586369 0.583512 0.514953
0.685969 0.614528 0.517051
0.777461 0.649130 0.514216
0.843527 0.687425 0.518656
0.299623 0.450796 0.373707
0.384200 0.512014 0.437730
0.464535 0.564869 0.494308
0.540250 0.608980 0.541831
0.620238 0.646022 0.566518
0.712289 0.678589 0.567341
0.799818 0.709676 0.562406
0.862890 0.741562 0.567389
0.341302 0.507643 0.420094
0.429733 0.565919 0.483086
0.509631 0.616399 0.539104
0.583099 0.660326 0.588084
0.659799 0.698806 0.615136
0.745256 0.733450 0.616175
0.824335 0.763134 0.610492
0.881281 0.789047 0.615380
0.381586 0.553391 0.461203
0.475025 0.610337 0.524503
0.555076 0.659008 0.580266
0.626169 0.701832 0.629462
0.700803 0.741200 0.658674
0.782275 0.776256 0.661619
0.853198 0.804510 0.656966
0.900585 0.826527 0.662988
0.116704 0.132112 0.155201
0.186603 0.159164 0.178133
0.281919 0.195217 0.204273
0.381409 0.239104 0.233739
0.473050 0.288058 0.265667
0.558272 0.339699 0.295028
0.642358 0.392601 0.314679
0.720663 0.444837 0.321900
0.156840 0.214619 0.212535
0.219625 0.273932 0.262889
0.320336 0.309993 0.296913
0.427236 0.348579 0.329474
0.522526 0.391677 0.362855
0.607259 0.439006 0.392721
0.688524 0.490419 0.412295
0.763112 0.543296 0.419361
0.198641 0.294483 0.268115
0.271743 0.358130 0.326841
0.356688 0.411024 0.378404
0.462776 0.448316 0.415529
0.561141 0.483894 0.447771
0.646179 0.523957 0.474221
0.725297 0.569724 0.489500
0.796791 0.618752 0.493689
0.242626 0.367981 0.320164
0.327951 0.433768 0.385733
0.410484 0.489898 0.443060
0.497709 0.533589 0.488907
0.589991 0.565964 0.522454
0.675925 0.597634 0.544077
0.754126 0.635684 0.553423
0.823071 0.678552 0.554270
0.290701 0.432597 0.367440
0.383850 0.500005 0.438628
0.467822 0.555916 0.498801
0.545020 0.601420 0.548458
0.620248 0.634325 0.585149
0.698579 0.660881 0.604120
0.776593 0.690838 0.607923
0.843269 0.727001 0.606787
0.343169 0.493925 0.414628
0.437775 0.558709 0.486616
0.520277 0.612396 0.547263
0.593144 0.656024 0.597114
0.656355 0.689581 0.635936
0.723679 0.715793 0.654485
0.796445 0.740882 0.655130
0.860237 0.769627 0.652554
0.395018 0.550629 0.461374
0.489378 0.610621 0.531455
0.568910 0.660495 0.590493
0.637162 0.701898 0.639692
0.695532 0.735387 0.679380
0.754908 0.763019 0.698569
0.818896 0.786636 0.698485
0.876714 0.809382 0.694939
0.446062 0.599234 0.504839
0.540782 0.654921 0.573088
0.617264 0.701024 0.630099
0.680665 0.739887 0.677836
0.734051 0.772624 0.717413
0.789044 0.800836 0.737433
0.846639 0.824535 0.737990
0.895568 0.843960 0.734740
0.121092 0.137414 0.160857
0.211190 0.174654 0.191324
0.319921 0.216208 0.221200
0.426131 0.263993 0.253269
0.518896 0.317093 0.288302
0.594001 0.371971 0.324447
0.658210 0.425879 0.355643
0.719169 0.479052 0.375600
0.175864 0.250878 0.239899
0.248424 0.314898 0.296483
0.357801 0.358265 0.338200
0.469898 0.401732 0.377030
0.566345 0.447578 0.415162
0.640933 0.494328 0.452684
0.702868 0.542601 0.484746
0.762230 0.593517 0.504451
0.223775 0.340844 0.303262
0.309845 0.410206 0.370425
0.399366 0.466902 0.427995
0.506195 0.508933 0.472040
0.603513 0.547422 0.510068
0.677676 0.585857 0.545629
0.737696 0.626726 0.574310
0.795519 0.672075 0.589748
0.271215 0.415702 0.357895
0.372178 0.487475 0.432788
0.459240 0.545913 0.495375
0.544840 0.591832 0.545915
0.633288 0.627074 0.584861
0.706511 0.657921 0.617386
0.765222 0.690978 0.641079
0.821700 0.729252 0.650912
0.323868 0.480647 0.407831
0.433121 0.552510 0.487748
0.521035 0.608841 0.551415
0.595525 0.654245 0.603293
0.665678 0.688806 0.643527
0.729386 0.715198 0.674176
0.786718 0.740951 0.692769
0.841815 0.771949 0.697465
0.384297 0.538427 0.454626
0.493118 0.607207 0.536124
0.578247 0.660698 0.599782
0.647647 0.703010 0.650420
0.704684 0.735897 0.690086
0.754321 0.759720 0.719476
0.804269 0.780129 0.734389
0.857041 0.804312 0.735225
0.446994 0.591518 0.499763
0.550557 0.654617 0.579723
0.630243 0.704004 0.641830
0.693503 0.743087 0.690729
0.743908 0.773438 0.728594
0.783327 0.795953 0.757043
0.823544 0.813776 0.770087
0.870555 0.832396 0.768547
0.510634 0.641131 0.544342
0.607479 0.697076 0.620725
0.680156 0.741214 0.679703
0.736123 0.776606 0.725997
0.779779 0.804770 0.761976
0.813844 0.826828 0.789607
0.848143 0.844268 0.801907
0.886875 0.859348 0.799413
0.123707 0.139998 0.163441
0.239662 0.191981 0.204893
0.362763 0.240158 0.239161
0.474071 0.291155 0.273232
0.565958 0.347381 0.310178
0.637301 0.406108 0.348725
0.688624 0.460539 0.384418
0.727368 0.507212 0.411052
0.198843 0.295911 0.272622
0.280088 0.357527 0.331658
0.399883 0.411201 0.382957
0.516905 0.462062 0.429980
0.613195 0.511969 0.474208
0.684425 0.560582 0.515583
0.733354 0.605401 0.552994
0.771728 0.646657 0.581218
0.253446 0.396828 0.344068
0.353912 0.468250 0.418930
0.447916 0.525666 0.480506
0.554789 0.574226 0.532444
0.649614 0.618062 0.578278
0.719680 0.658373 0.618703
0.766276 0.694851 0.654093
0.803500 0.730079 0.679881
0.302069 0.467923 0.396948
0.422745 0.546187 0.483968
0.515488 0.605147 0.551226
0.598416 0.651575 0.604588
0.680667 0.690361 0.649081
0.747616 0.723976 0.686730
0.791959 0.753706 0.718925
0.827939 0.783232 0.740949
0.356106 0.525515 0.443508
0.486801 0.605559 0.537491
0.581304 0.663559 0.606712
0.652952 0.707569 0.659580
0.715366 0.741828 0.700870
0.770838 0.769996 0.734539
0.812381 0.794422 0.763088
0.846972 0.818967 0.781306
0.420602 0.578531 0.489355
0.549936 0.654801 0.585081
0.640138 0.709295 0.653276
0.705951 0.749932 0.703917
0.754968 0.780442 0.741821
0.795757 0.803856 0.770920
0.829060 0.823380 0.794832
0.861447 0.843514 0.809312
0.492436 0.628682 0.534196
0.611521 0.697509 0.627905
0.693007 0.746965 0.693483
0.750826 0.783659 0.741006
0.792679 0.810898 0.775800
0.822879 0.830584 0.801011
0.845843 0.845351 0.819949
0.872423 0.860325 0.830215
0.564629 0.674898 0.576443
0.669997 0.735146 0.666458
0.741220 0.779175 0.728908
0.790414 0.812045 0.773414
0.824961 0.836380 0.805261
0.849111 0.853867 0.827763
0.865526 0.865599 0.843141
0.883919 0.875301 0.849377
