filters/luts/Foreshadowing 05_S.cube
# Created by: Adobe Photoshop Export Color Lookup Plugin
# LUT by SparkleStock. Enhanced with VOXCOLOR algorithms.
LUT_3D_SIZE 5
DOMAIN_MIN 0.000000 0.000000 0.000000
DOMAIN_MAX 0.903226 0.903226 0.903226
0.070330 0.101587 0.093773
0.179999 0.114971 0.084832
0.351176 0.152814 0.100146
0.543212 0.210422 0.133971
0.674796 0.262626 0.168916
0.093040 0.137666 0.110229
0.231790 0.191248 0.100747
0.419458 0.236294 0.102113
0.602633 0.287272 0.133046
0.714322 0.342797 0.184031
0.125716 0.203899 0.142763
0.274290 0.276514 0.152444
0.475566 0.354905 0.149334
0.654610 0.413052 0.174064
0.758903 0.468970 0.232028
0.155154 0.271535 0.179920
0.318946 0.360816 0.221611
0.534072 0.452229 0.234980
0.703863 0.535356 0.256588
0.799093 0.590035 0.306947
0.169184 0.300248 0.199590
0.375653 0.435820 0.292783
0.596483 0.532019 0.317501
0.759457 0.612484 0.343732
0.840087 0.684271 0.406854
0.079657 0.109417 0.118910
0.186382 0.133411 0.147643
0.366003 0.164086 0.168372
0.559656 0.217391 0.184744
0.684817 0.278921 0.195256
0.113166 0.177145 0.156714
0.230342 0.239673 0.220237
0.424657 0.269653 0.233067
0.625686 0.308529 0.244499
0.754713 0.370893 0.264602
0.163004 0.273389 0.216885
0.276915 0.354584 0.278863
0.462411 0.419265 0.278336
0.663454 0.455169 0.279806
0.803055 0.503245 0.308299
0.211611 0.367362 0.286930
0.333537 0.454111 0.356497
0.517344 0.537763 0.362929
0.694872 0.603638 0.344779
0.833377 0.641890 0.365786
0.253378 0.435325 0.353789
0.390031 0.524137 0.430721
0.586368 0.617670 0.458969
0.755844 0.687583 0.449844
0.855410 0.737670 0.462900
0.094104 0.121706 0.136350
0.211803 0.160060 0.179397
0.375758 0.207874 0.235073
0.552344 0.262907 0.263833
0.685768 0.335703 0.261247
0.144542 0.222330 0.206797
0.261642 0.295208 0.296763
0.433251 0.327353 0.359520
0.624450 0.363666 0.375977
0.766169 0.431373 0.370420
0.204937 0.331737 0.281044
0.327587 0.422778 0.383970
0.469200 0.474747 0.443000
0.664234 0.492053 0.444597
0.825820 0.531038 0.446225
0.270075 0.441797 0.367414
0.396838 0.530891 0.460724
0.524431 0.602217 0.517876
0.687714 0.655063 0.493298
0.853910 0.676134 0.488800
0.329998 0.517246 0.440036
0.466903 0.605245 0.534325
0.596505 0.679826 0.598767
0.750145 0.743450 0.580744
0.866037 0.785512 0.561693
0.107078 0.133680 0.148529
0.259049 0.189572 0.205419
0.426089 0.255731 0.269372
0.560290 0.329911 0.329846
0.681548 0.410935 0.348432
0.180860 0.281518 0.260531
0.312318 0.373378 0.360770
0.480415 0.425355 0.437597
0.619867 0.471708 0.499997
0.755452 0.538131 0.500884
0.255069 0.405535 0.357239
0.397133 0.503860 0.468489
0.526192 0.564666 0.552448
0.659082 0.583823 0.606787
0.816535 0.612718 0.597341
0.343069 0.507902 0.434917
0.486788 0.602418 0.549386
0.597427 0.666461 0.627970
0.685499 0.696186 0.669954
0.848498 0.701824 0.652453
0.430749 0.593832 0.514574
0.567980 0.676595 0.616801
0.668023 0.737869 0.687857
0.743452 0.782270 0.731030
0.858815 0.814552 0.694033
0.112742 0.139525 0.154303
0.322311 0.224506 0.236623
0.501210 0.301556 0.304989
0.621147 0.388857 0.364213
0.690523 0.465354 0.405150
0.222826 0.362197 0.328355
0.378846 0.464269 0.437799
0.551656 0.541935 0.526936
0.677539 0.607153 0.595337
0.750586 0.665204 0.635998
0.303983 0.481717 0.425490
0.483004 0.596232 0.556009
0.608503 0.667490 0.641163
0.720337 0.714186 0.702950
0.798663 0.748283 0.734950
0.404286 0.573319 0.501899
0.582370 0.680532 0.635781
0.688551 0.744270 0.712025
0.753601 0.779638 0.756379
0.830359 0.795608 0.779625
0.521346 0.654499 0.572045
0.670821 0.740898 0.694562
0.756502 0.794798 0.759256
0.804214 0.824968 0.792972
0.845206 0.839208 0.801713
