filters/luts/Foreshadowing 01.cube
# LUT by SparkleStock. Enhanced with VOXCOLOR algorithms.
LUT_3D_SIZE 5
DOMAIN_MIN 0.000000 0.000000 0.000000
DOMAIN_MAX 0.903226 0.903226 0.903226
0.085958 0.097680 0.089866
0.184418 0.113947 0.072291
0.353161 0.164788 0.077112
0.566434 0.241412 0.096585
0.724243 0.305416 0.120832
0.104738 0.130765 0.108968
0.230912 0.178756 0.094137
0.424309 0.242413 0.094527
0.621922 0.321882 0.113906
0.754405 0.389870 0.139315
0.135421 0.193863 0.145598
0.276975 0.265189 0.138298
0.493475 0.352591 0.129891
0.686360 0.444321 0.151933
0.802460 0.525981 0.186573
0.164764 0.256253 0.186136
0.326392 0.356822 0.198784
0.560809 0.468509 0.191762
0.749309 0.569793 0.226000
0.849592 0.651678 0.272026
0.178652 0.286069 0.206003
0.393133 0.445123 0.262717
0.634341 0.569109 0.262865
0.808484 0.668762 0.301922
0.894152 0.749562 0.403064
0.092859 0.104967 0.118965
0.185790 0.137554 0.136854
0.360079 0.192256 0.141231
0.577862 0.266806 0.143320
0.732002 0.326536 0.146013
0.123458 0.168948 0.156297
0.238830 0.242946 0.210371
0.437156 0.301920 0.210396
0.645965 0.378907 0.213412
0.780276 0.450103 0.231380
0.174825 0.268611 0.217661
0.291030 0.351908 0.278079
0.492936 0.434020 0.273104
0.699812 0.507955 0.273984
0.823904 0.583020 0.301968
0.226149 0.364340 0.287023
0.354971 0.456015 0.359197
0.557444 0.549915 0.358412
0.750336 0.631169 0.355965
0.863765 0.699240 0.387824
0.271473 0.442378 0.354232
0.418397 0.539051 0.435049
0.632994 0.647249 0.452532
0.810485 0.728050 0.456286
0.900334 0.782763 0.500776
0.106180 0.119603 0.141085
0.214388 0.160450 0.173348
0.374904 0.227236 0.213654
0.567225 0.307852 0.230331
0.728260 0.382658 0.224821
0.156239 0.219519 0.208645
0.276192 0.305335 0.284862
0.455397 0.366139 0.331748
0.646948 0.442737 0.341536
0.790156 0.522791 0.342213
0.215954 0.328154 0.279301
0.353769 0.436575 0.385198
0.500601 0.508481 0.449779
0.699953 0.567719 0.442858
0.832818 0.638984 0.452200
0.288680 0.446153 0.365795
0.428300 0.542630 0.465552
0.567603 0.620749 0.538840
0.745457 0.687174 0.526190
0.868635 0.743014 0.535017
0.351621 0.530271 0.439039
0.504918 0.625210 0.541838
0.641547 0.704153 0.620793
0.805862 0.772914 0.613604
0.901885 0.817342 0.625765
0.118083 0.133822 0.157076
0.265424 0.190553 0.201628
0.440172 0.269253 0.254616
0.584125 0.360489 0.311039
0.719562 0.454682 0.337852
0.193660 0.284644 0.262111
0.333869 0.387294 0.358048
0.516170 0.456131 0.424464
0.660599 0.527299 0.478955
0.787932 0.613820 0.499771
0.273532 0.414033 0.354881
0.430486 0.524149 0.470184
0.570405 0.603604 0.555905
0.711797 0.651811 0.600185
0.834030 0.716624 0.605294
0.368950 0.520021 0.436847
0.527188 0.624068 0.556536
0.650191 0.698054 0.643238
0.750754 0.743450 0.688044
0.863105 0.786442 0.683461
0.463034 0.610620 0.515618
0.614897 0.700261 0.628630
0.721790 0.766052 0.710821
0.804756 0.813208 0.757357
0.893861 0.848142 0.752173
0.123707 0.139998 0.163441
0.331774 0.228228 0.230810
0.523797 0.318241 0.291067
0.652703 0.420874 0.358423
0.727368 0.507212 0.411052
0.240411 0.373249 0.327338
0.410086 0.484987 0.443057
0.597100 0.571156 0.532082
0.725617 0.645844 0.604433
0.795934 0.710904 0.657360
0.327578 0.498417 0.420818
0.527315 0.623422 0.564662
0.659124 0.702448 0.657799
0.773394 0.757089 0.721839
0.838360 0.803704 0.764159
0.438121 0.591565 0.500905
0.633218 0.706852 0.648015
0.744412 0.775680 0.734605
0.811005 0.815959 0.785037
0.864551 0.848530 0.815135
0.564629 0.674898 0.576443
0.724439 0.768654 0.714123
0.809999 0.825639 0.791390
0.854065 0.857489 0.832406
0.883919 0.875301 0.849377
