filters/luts/Foreshadowing 03_S.cube
# Created by: Adobe Photoshop Export Color Lookup Plugin
# LUT by SparkleStock. Enhanced with VOXCOLOR algorithms.
LUT_3D_SIZE 5
DOMAIN_MIN 0.000000 0.000000 0.000000
DOMAIN_MAX 0.903226 0.903226 0.903226
0.093773 0.113309 0.097680
0.197912 0.127457 0.083556
0.373926 0.169538 0.089228
0.575990 0.237654 0.113419
0.712734 0.301635 0.144661
0.109780 0.151893 0.117256
0.244778 0.204421 0.096571
0.435975 0.253139 0.090393
0.627401 0.313156 0.113326
0.747473 0.382056 0.158300
0.136201 0.219670 0.150230
0.284276 0.288993 0.144838
0.490516 0.372538 0.135497
0.677229 0.438789 0.155684
0.791336 0.505395 0.209488
0.162401 0.284060 0.185427
0.327563 0.370337 0.207879
0.550066 0.468328 0.212834
0.731362 0.559438 0.248565
0.835195 0.619781 0.302148
0.174367 0.309339 0.203498
0.383769 0.442993 0.274725
0.615751 0.545425 0.295965
0.792316 0.633688 0.342085
0.881145 0.707498 0.433851
0.100295 0.122652 0.126125
0.203862 0.149043 0.156151
0.383592 0.183557 0.168533
0.586246 0.246384 0.173381
0.720670 0.320101 0.176431
0.128902 0.190106 0.165515
0.241978 0.249378 0.223969
0.435213 0.279779 0.232266
0.642043 0.325787 0.238822
0.781794 0.402066 0.257217
0.170512 0.286018 0.222771
0.282217 0.360309 0.278510
0.471230 0.426160 0.275032
0.677398 0.468070 0.276792
0.826684 0.526652 0.306767
0.212169 0.376966 0.288271
0.333611 0.454268 0.351596
0.527010 0.541001 0.355887
0.714206 0.615634 0.348612
0.859616 0.660070 0.376330
0.248226 0.439779 0.352831
0.386324 0.518025 0.423505
0.598040 0.616890 0.455061
0.783800 0.698876 0.463960
0.890508 0.754507 0.495734
0.112427 0.138265 0.146701
0.228946 0.179094 0.193536
0.390996 0.230864 0.245918
0.569569 0.292920 0.267786
0.712007 0.377089 0.257807
0.157497 0.236303 0.216673
0.271171 0.303224 0.301820
0.441939 0.335391 0.364008
0.635290 0.377372 0.380866
0.788110 0.457252 0.376747
0.209187 0.339428 0.286023
0.330021 0.422792 0.383611
0.475808 0.474080 0.442008
0.673377 0.497114 0.448942
0.843169 0.545857 0.456418
0.265070 0.443760 0.365869
0.391805 0.523476 0.455124
0.527473 0.594772 0.513974
0.701463 0.657860 0.501148
0.872266 0.686024 0.505789
0.317584 0.511032 0.434659
0.458221 0.590448 0.525703
0.599173 0.667262 0.595425
0.771632 0.746114 0.597305
0.894183 0.797049 0.593959
0.123605 0.153003 0.161535
0.275608 0.211647 0.221122
0.439751 0.283127 0.285065
0.569912 0.358952 0.345905
0.693942 0.446832 0.364134
0.189529 0.294785 0.269456
0.318452 0.378038 0.363736
0.489185 0.430794 0.442310
0.628608 0.478457 0.508113
0.771845 0.553411 0.517995
0.253561 0.408885 0.359154
0.396151 0.498014 0.465879
0.531612 0.558475 0.551379
0.669117 0.582219 0.613007
0.833383 0.620220 0.616393
0.333505 0.498506 0.428807
0.482414 0.589962 0.544096
0.602117 0.656242 0.628515
0.698530 0.692763 0.677868
0.865683 0.707226 0.673082
0.413247 0.573491 0.502398
0.561526 0.658037 0.609620
0.673322 0.725431 0.691167
0.759947 0.778216 0.746049
0.884218 0.822984 0.726443
0.128229 0.159203 0.167403
0.338597 0.247923 0.251654
0.513543 0.330978 0.319627
0.627343 0.420396 0.383962
0.693198 0.494854 0.430071
0.224011 0.370295 0.332505
0.380605 0.461907 0.436571
0.559312 0.538978 0.526638
0.688955 0.606501 0.601073
0.766753 0.667119 0.650718
0.294007 0.478475 0.422822
0.479254 0.583768 0.550616
0.613941 0.655980 0.640716
0.734962 0.707935 0.712121
0.820031 0.749022 0.757902
0.387241 0.555888 0.491764
0.579401 0.664049 0.631077
0.697470 0.733559 0.718793
0.771339 0.776187 0.774463
0.854488 0.801097 0.811789
0.500912 0.623982 0.555129
0.672905 0.724899 0.694395
0.772077 0.789743 0.777434
0.828637 0.828909 0.825286
0.873242 0.849220 0.842381
