filters/luts/Foreshadowing 03_S.cube
# Created by: Adobe Photoshop Export Color Lookup Plugin
# LUT by SparkleStock. Enhanced with VOXCOLOR algorithms.
LUT_3D_SIZE 32
0.093773 0.113309 0.097680
0.106298 0.114538 0.095081
0.118823 0.115767 0.092481
0.131348 0.116996 0.089881
0.143873 0.118224 0.087282
0.156398 0.119453 0.084682
0.176407 0.123203 0.083934
0.197912 0.127457 0.083556
0.219418 0.131711 0.083178
0.240923 0.135964 0.082800
0.262429 0.140218 0.082422
0.288566 0.146709 0.083556
0.317019 0.154319 0.085446
0.345472 0.161928 0.087337
0.373926 0.169538 0.089228
0.402379 0.177148 0.091118
0.431281 0.186104 0.093978
0.460633 0.196408 0.097806
0.489984 0.206712 0.101635
0.519335 0.217015 0.105463
0.548686 0.227319 0.109291
0.575990 0.237654 0.113419
0.599197 0.248052 0.118146
0.622403 0.258451 0.122872
0.645610 0.268849 0.127599
0.668817 0.279247 0.132325
0.690047 0.288968 0.136910
0.701390 0.295301 0.140785
0.712734 0.301635 0.144661
0.724077 0.307968 0.148537
0.735421 0.314301 0.152412
0.746764 0.320635 0.156288
0.095663 0.117657 0.100043
0.108984 0.120066 0.097215
0.122305 0.122475 0.094387
0.135626 0.124884 0.091559
0.148947 0.127293 0.088730
0.162268 0.129702 0.085902
0.182920 0.133694 0.084879
0.205039 0.138003 0.084218
0.227157 0.142312 0.083556
0.249275 0.146620 0.082894
0.271394 0.150929 0.082232
0.297747 0.157322 0.083144
0.326219 0.164758 0.084843
0.354691 0.172194 0.086541
0.383162 0.179630 0.088240
0.411634 0.187066 0.089938
0.440376 0.195816 0.092702
0.469389 0.205882 0.096530
0.498402 0.215948 0.100358
0.527414 0.226014 0.104187
0.556427 0.236080 0.108015
0.583364 0.246256 0.112222
0.606150 0.256654 0.117187
0.628937 0.267053 0.122151
0.651723 0.277451 0.127115
0.674509 0.287849 0.132080
0.695325 0.297641 0.136931
0.706294 0.304405 0.141218
0.717262 0.311168 0.145506
0.728231 0.317932 0.149793
0.739199 0.324695 0.154080
0.750167 0.331459 0.158368
0.097554 0.122006 0.102407
0.111671 0.125595 0.099350
0.125788 0.129184 0.096293
0.139905 0.132773 0.093236
0.154021 0.136362 0.090179
0.168138 0.139951 0.087122
0.189434 0.144185 0.085825
0.212165 0.148549 0.084879
0.234896 0.152913 0.083934
0.257627 0.157276 0.082989
0.280359 0.161640 0.082043
0.306929 0.167936 0.082733
0.335419 0.175198 0.084239
0.363909 0.182460 0.085745
0.392399 0.189721 0.087252
0.420888 0.196983 0.088758
0.449470 0.205528 0.091425
0.478145 0.215356 0.095254
0.506819 0.225184 0.099082
0.535494 0.235012 0.102911
0.564168 0.244840 0.106739
0.590739 0.254858 0.111025
0.613104 0.265257 0.116228
0.635470 0.275655 0.121430
0.657835 0.286053 0.126632
0.680200 0.296451 0.131834
0.700604 0.306315 0.136952
0.711197 0.313509 0.141651
0.721790 0.320702 0.146350
0.732384 0.327895 0.151049
0.742977 0.335089 0.155748
0.753570 0.342282 0.160447
0.099445 0.126354 0.104770
0.114357 0.131123 0.101484
0.129270 0.135892 0.098198
0.144183 0.140661 0.094913
0.159096 0.145431 0.091627
0.174008 0.150200 0.088342
0.195947 0.154677 0.086770
0.219291 0.159095 0.085541
0.242635 0.163514 0.084312
0.265980 0.167932 0.083083
0.289324 0.172350 0.081854
0.316110 0.178549 0.082321
0.344619 0.185637 0.083635
0.373127 0.192725 0.084949
0.401635 0.199813 0.086264
0.430143 0.206901 0.087578
0.458565 0.215241 0.090149
0.486901 0.224831 0.093978
0.515237 0.234421 0.097806
0.543573 0.244011 0.101635
0.571909 0.253601 0.105463
0.598114 0.263461 0.109829
0.620058 0.273859 0.115269
0.642003 0.284257 0.120709
0.663947 0.294655 0.126149
0.685892 0.305053 0.131589
0.705882 0.314989 0.136974
0.716100 0.322612 0.142084
0.726319 0.330236 0.147195
0.736537 0.337859 0.152306
0.746755 0.345482 0.157416
0.756973 0.353106 0.162527
0.101335 0.130702 0.107133
0.117044 0.136652 0.103619
0.132752 0.142601 0.100104
0.148461 0.148550 0.096590
0.164170 0.154499 0.093076
0.179878 0.160448 0.089561
0.202461 0.165168 0.087715
0.226418 0.169641 0.086203
0.250375 0.174115 0.084690
0.274332 0.178588 0.083178
0.298289 0.183061 0.081665
0.325292 0.189162 0.081909
0.353818 0.196076 0.083031
0.382345 0.202991 0.084154
0.410871 0.209905 0.085276
0.439398 0.216819 0.086398
0.467660 0.224953 0.088873
0.495657 0.234305 0.092702
0.523655 0.243657 0.096530
0.551652 0.253009 0.100358
0.579649 0.262362 0.104187
0.605489 0.272063 0.108632
0.627012 0.282461 0.114310
0.648536 0.292859 0.119987
0.670060 0.303257 0.125665
0.691583 0.313656 0.131343
0.711160 0.323663 0.136995
0.721004 0.331716 0.142517
0.730847 0.339769 0.148040
0.740690 0.347823 0.153562
0.750533 0.355876 0.159084
0.760377 0.363929 0.164607
0.103226 0.135051 0.109496
0.119730 0.142180 0.105753
0.136235 0.149309 0.102010
0.152739 0.156439 0.098267
0.169244 0.163568 0.094524
0.185748 0.170697 0.090781
0.208974 0.175659 0.088660
0.233544 0.180187 0.086864
0.258114 0.184716 0.085068
0.282684 0.189244 0.083272
0.307254 0.193772 0.081476
0.334474 0.199775 0.081498
0.363018 0.206516 0.082428
0.391563 0.213256 0.083358
0.420108 0.219997 0.084288
0.448653 0.226737 0.085218
0.476754 0.234665 0.087597
0.504413 0.243779 0.091425
0.532072 0.252894 0.095254
0.559731 0.262008 0.099082
0.587390 0.271122 0.102911
0.612864 0.280665 0.107435
0.633966 0.291063 0.113351
0.655069 0.301461 0.119266
0.676172 0.311859 0.125182
0.697275 0.322258 0.131098
0.716439 0.332337 0.137016
0.725907 0.340820 0.142950
0.735375 0.349303 0.148884
0.744843 0.357786 0.154818
0.754311 0.366270 0.160752
0.763780 0.374753 0.166686
0.106377 0.143101 0.113238
0.123189 0.150603 0.109769
0.140002 0.158104 0.106301
0.156814 0.165605 0.102832
0.173627 0.173107 0.099364
0.190439 0.180608 0.095895
0.214176 0.186542 0.093508
0.239298 0.192161 0.091336
0.264420 0.197781 0.089165
0.289542 0.203401 0.086994
0.314664 0.209021 0.084823
0.342151 0.215455 0.084622
0.370820 0.222296 0.085406
0.399490 0.229138 0.086189
0.428160 0.235979 0.086973
0.456830 0.242820 0.087757
0.484909 0.250744 0.090066
0.512397 0.259750 0.093902
0.539885 0.268756 0.097739
0.567373 0.277762 0.101575
0.594861 0.286768 0.105411
0.620142 0.296216 0.110004
0.641007 0.306545 0.116112
0.661872 0.316875 0.122220
0.682737 0.327204 0.128327
0.703602 0.337534 0.134435
0.722551 0.347597 0.140580
0.731918 0.356327 0.146910
0.741286 0.365058 0.153241
0.750653 0.373788 0.159571
0.760021 0.382518 0.165902
0.769388 0.391248 0.172232
0.109780 0.151893 0.117256
0.126803 0.159604 0.114162
0.143826 0.167316 0.111068
0.160848 0.175028 0.107975
0.177871 0.182740 0.104881
0.194894 0.190451 0.101788
0.219116 0.197502 0.099135
0.244778 0.204421 0.096571
0.270439 0.211340 0.094006
0.296101 0.218259 0.091442
0.321762 0.225178 0.088877
0.349527 0.232149 0.088453
0.378343 0.239145 0.089100
0.407159 0.246142 0.089746
0.435975 0.253139 0.090393
0.464792 0.260136 0.091039
0.492875 0.268096 0.093285
0.520226 0.277020 0.097130
0.547577 0.285943 0.100975
0.574928 0.294867 0.104821
0.602279 0.303791 0.108666
0.627401 0.313156 0.113326
0.648065 0.323403 0.119617
0.668728 0.333651 0.125908
0.689392 0.343898 0.132198
0.710056 0.354145 0.138489
0.728829 0.364175 0.144852
0.738151 0.373115 0.151576
0.747473 0.382056 0.158300
0.756795 0.390997 0.165023
0.766116 0.399937 0.171747
0.775438 0.408878 0.178471
0.113183 0.160684 0.121273
0.130416 0.168606 0.118555
0.147649 0.176528 0.115836
0.164883 0.184450 0.113118
0.182116 0.192372 0.110399
0.199349 0.200295 0.107681
0.224056 0.208463 0.104763
0.250257 0.216681 0.101805
0.276459 0.224899 0.098847
0.302660 0.233117 0.095889
0.328861 0.241335 0.092931
0.356903 0.248842 0.092285
0.385866 0.255995 0.092794
0.414828 0.263147 0.093303
0.443791 0.270299 0.093813
0.472753 0.277451 0.094322
0.500841 0.285448 0.096504
0.528055 0.294290 0.100358
0.555269 0.303131 0.104212
0.582483 0.311973 0.108067
0.609696 0.320814 0.111921
0.634660 0.330097 0.116648
0.655122 0.340262 0.123122
0.675585 0.350427 0.129596
0.696047 0.360592 0.136070
0.716510 0.370756 0.142543
0.735108 0.380752 0.149124
0.744384 0.389903 0.156241
0.753660 0.399054 0.163359
0.762936 0.408205 0.170476
0.772212 0.417357 0.177593
0.781488 0.426508 0.184710
0.116586 0.169475 0.125290
0.134030 0.177608 0.122947
0.151473 0.185740 0.120604
0.168917 0.193873 0.118260
0.186361 0.202005 0.115917
0.203804 0.210138 0.113573
0.228996 0.219424 0.110390
0.255737 0.228941 0.107039
0.282478 0.238458 0.103688
0.309219 0.247975 0.100337
0.335960 0.257492 0.096985
0.364280 0.265536 0.096116
0.393389 0.272844 0.096488
0.422497 0.280151 0.096860
0.451606 0.287459 0.097232
0.480715 0.294767 0.097604
0.508808 0.302800 0.099722
0.535884 0.311559 0.103586
0.562961 0.320319 0.107449
0.590037 0.329078 0.111313
0.617114 0.337837 0.115176
0.641919 0.347037 0.119971
0.662180 0.357120 0.126627
0.682441 0.367202 0.133284
0.702702 0.377285 0.139941
0.722964 0.387368 0.146597
0.741386 0.397330 0.153396
0.750617 0.406691 0.160907
0.759847 0.416053 0.168417
0.769077 0.425414 0.175928
0.778308 0.434776 0.183438
0.787538 0.444137 0.190949
0.119989 0.178266 0.129308
0.137643 0.186609 0.127340
0.155297 0.194952 0.125371
0.172951 0.203295 0.123403
0.190605 0.211638 0.121435
0.208259 0.219981 0.119466
0.233936 0.230385 0.116018
0.261217 0.241201 0.112273
0.288497 0.252017 0.108529
0.315778 0.262833 0.104784
0.343059 0.273649 0.101039
0.371656 0.282229 0.099948
0.400911 0.289693 0.100183
0.430166 0.297156 0.100417
0.459422 0.304619 0.100652
0.488677 0.312082 0.100887
0.516774 0.320152 0.102941
0.543713 0.328829 0.106813
0.570653 0.337506 0.110686
0.597592 0.346183 0.114559
0.624531 0.354860 0.118431
0.649178 0.363978 0.123293
0.669238 0.373978 0.130133
0.689297 0.383978 0.136972
0.709357 0.393979 0.143812
0.729417 0.403979 0.150651
0.747665 0.413908 0.157668
0.756849 0.423480 0.165572
0.766034 0.433051 0.173476
0.775219 0.442623 0.181380
0.784403 0.452195 0.189284
0.793588 0.461767 0.197188
0.123865 0.188192 0.134208
0.141686 0.196702 0.132675
0.159508 0.205213 0.131143
0.177330 0.213724 0.129611
0.195152 0.222234 0.128079
0.212974 0.230745 0.126546
0.239107 0.241741 0.123259
0.266903 0.253234 0.119622
0.294700 0.264727 0.115984
0.322496 0.276220 0.112346
0.350292 0.287713 0.108708
0.379130 0.297017 0.107573
0.408489 0.305227 0.107688
0.437848 0.313438 0.107804
0.467207 0.321648 0.107920
0.496566 0.329858 0.108036
0.524637 0.338313 0.109998
0.551421 0.347011 0.113807
0.578204 0.355709 0.117616
0.604988 0.364407 0.121424
0.631772 0.373105 0.125233
0.656258 0.382200 0.130088
0.676147 0.392088 0.137038
0.696036 0.401975 0.143987
0.715925 0.411862 0.150937
0.735814 0.421750 0.157886
0.753922 0.431593 0.165041
0.763122 0.441217 0.173222
0.772322 0.450841 0.181403
0.781522 0.460464 0.189585
0.790721 0.470088 0.197766
0.799921 0.479712 0.205947
0.127977 0.198684 0.139549
0.145945 0.207342 0.138483
0.163913 0.215999 0.137417
0.181881 0.224656 0.136351
0.199849 0.233313 0.135286
0.217817 0.241970 0.134220
0.244395 0.253295 0.131308
0.272694 0.265154 0.128027
0.300993 0.277013 0.124746
0.329293 0.288871 0.121465
0.357592 0.300730 0.118184
0.386653 0.310852 0.117094
0.416094 0.320105 0.117100
0.445535 0.329358 0.117106
0.474976 0.338611 0.117112
0.504418 0.347865 0.117119
0.532448 0.356877 0.118976
0.559067 0.365648 0.122684
0.585686 0.374420 0.126392
0.612305 0.383191 0.130100
0.638924 0.391962 0.133808
0.663248 0.401063 0.138620
0.682982 0.410823 0.145643
0.702716 0.420582 0.152666
0.722449 0.430341 0.159688
0.742183 0.440101 0.166711
0.760169 0.449833 0.173963
0.769414 0.459429 0.182364
0.778660 0.469025 0.190765
0.787905 0.478622 0.199166
0.797151 0.488218 0.207567
0.806396 0.497814 0.215968
0.132089 0.209177 0.144890
0.150203 0.217981 0.144290
0.168318 0.226784 0.143691
0.186432 0.235587 0.143092
0.204547 0.244391 0.142493
0.222661 0.253194 0.141894
0.249682 0.264849 0.139357
0.278485 0.277074 0.136432
0.307287 0.289298 0.133508
0.336090 0.301523 0.130584
0.364892 0.313748 0.127660
0.394175 0.324687 0.126616
0.423699 0.334983 0.126512
0.453222 0.345279 0.126408
0.482746 0.355575 0.126305
0.512270 0.365871 0.126201
0.540259 0.375441 0.127953
0.566713 0.384286 0.131560
0.593167 0.393130 0.135168
0.619622 0.401975 0.138775
0.646076 0.410820 0.142382
0.670239 0.419926 0.147152
0.689817 0.429558 0.154248
0.709395 0.439189 0.161344
0.728973 0.448820 0.168440
0.748552 0.458452 0.175536
0.766415 0.468072 0.182885
0.775707 0.477641 0.191506
0.784998 0.487210 0.200126
0.794289 0.496779 0.208747
0.803580 0.506348 0.217367
0.812872 0.515916 0.225988
0.136201 0.219670 0.150230
0.154462 0.228620 0.150098
0.172723 0.237569 0.149965
0.190983 0.246519 0.149832
0.209244 0.255469 0.149700
0.227505 0.264419 0.149567
0.254970 0.276403 0.147405
0.284276 0.288993 0.144838
0.313581 0.301584 0.142270
0.342887 0.314175 0.139703
0.372192 0.326765 0.137135
0.401698 0.338522 0.136137
0.431304 0.349860 0.135924
0.460910 0.361199 0.135710
0.490516 0.372538 0.135497
0.520122 0.383877 0.135283
0.548069 0.394006 0.136930
0.574359 0.402923 0.140437
0.600649 0.411841 0.143943
0.626939 0.420759 0.147450
0.653229 0.429677 0.150957
0.677229 0.438789 0.155684
0.696652 0.448293 0.162853
0.716075 0.457796 0.170022
0.735497 0.467299 0.177191
0.754920 0.476802 0.184360
0.772662 0.486312 0.191808
0.781999 0.495853 0.200648
0.791336 0.505395 0.209488
0.800673 0.514936 0.218328
0.810010 0.524477 0.227168
0.819347 0.534019 0.236008
0.140313 0.230163 0.155571
0.158720 0.239259 0.155905
0.177127 0.248355 0.156239
0.195535 0.257451 0.156573
0.213942 0.266547 0.156907
0.232349 0.275643 0.157241
0.260257 0.287957 0.155454
0.290066 0.300913 0.153243
0.319875 0.313870 0.151033
0.349684 0.326826 0.148822
0.379492 0.339783 0.146611
0.409221 0.352356 0.145659
0.438909 0.364738 0.145335
0.468597 0.377120 0.145012
0.498285 0.389502 0.144689
0.527974 0.401883 0.144366
0.555880 0.412570 0.145907
0.582005 0.421561 0.149313
0.608131 0.430552 0.152719
0.634256 0.439543 0.156126
0.660381 0.448534 0.159532
0.684220 0.457653 0.164216
0.703487 0.467028 0.171459
0.722754 0.476403 0.178701
0.742021 0.485778 0.185943
0.761289 0.495153 0.193185
0.778908 0.504552 0.200730
0.788291 0.514065 0.209790
0.797674 0.523579 0.218849
0.807057 0.533093 0.227909
0.816439 0.542607 0.236968
0.825822 0.552121 0.246028
0.144236 0.239946 0.160770
0.162908 0.249340 0.161662
0.181581 0.258733 0.162554
0.200253 0.268127 0.163446
0.218926 0.277520 0.164338
0.237598 0.286914 0.165230
0.265875 0.299475 0.163857
0.296073 0.312669 0.162030
0.326270 0.325863 0.160203
0.356468 0.339058 0.158377
0.386665 0.352252 0.156550
0.416694 0.365338 0.155781
0.446638 0.378369 0.155540
0.476583 0.391401 0.155299
0.506527 0.404432 0.155058
0.536471 0.417463 0.154817
0.564399 0.428682 0.156507
0.590309 0.438090 0.160129
0.616219 0.447497 0.163750
0.642129 0.456904 0.167371
0.668039 0.466311 0.170992
0.691656 0.475662 0.175806
0.710685 0.484900 0.183007
0.729714 0.494138 0.190208
0.748744 0.503376 0.197409
0.767773 0.512614 0.204610
0.785194 0.521877 0.212142
0.794572 0.531267 0.221330
0.803950 0.540658 0.230517
0.813328 0.550048 0.239705
0.822707 0.559439 0.248893
0.832085 0.568829 0.258080
0.147970 0.249021 0.165828
0.167026 0.258863 0.167369
0.186083 0.268705 0.168911
0.205140 0.278546 0.170452
0.224197 0.288388 0.171993
0.243253 0.298230 0.173535
0.271823 0.310957 0.172613
0.302295 0.324261 0.171198
0.332767 0.337565 0.169783
0.363239 0.350870 0.168368
0.393711 0.364174 0.166953
0.424117 0.377467 0.166504
0.454492 0.390754 0.166537
0.484866 0.404042 0.166571
0.515240 0.417329 0.166605
0.545615 0.430617 0.166638
0.573624 0.442343 0.168731
0.599269 0.452510 0.172882
0.624914 0.462676 0.177034
0.650559 0.472843 0.181186
0.676204 0.483009 0.185337
0.699537 0.492817 0.190454
0.718246 0.501909 0.197499
0.736955 0.511001 0.204545
0.755664 0.520092 0.211590
0.774373 0.529184 0.218635
0.791518 0.538288 0.226044
0.800841 0.547459 0.235268
0.810165 0.556630 0.244492
0.819488 0.565801 0.253717
0.828811 0.574972 0.262941
0.838135 0.584143 0.272165
0.151703 0.258096 0.170885
0.171144 0.268386 0.173076
0.190585 0.278676 0.175267
0.210026 0.288966 0.177458
0.229467 0.299256 0.179649
0.248908 0.309546 0.181840
0.277771 0.322439 0.181369
0.308517 0.335853 0.180366
0.339263 0.349267 0.179362
0.370010 0.362681 0.178359
0.400756 0.376095 0.177356
0.431541 0.389595 0.177227
0.462345 0.403139 0.177535
0.493150 0.416683 0.177843
0.523954 0.430226 0.178151
0.554758 0.443770 0.178459
0.582850 0.456004 0.180954
0.608230 0.466930 0.185636
0.633609 0.477856 0.190318
0.658989 0.488782 0.195001
0.684368 0.499707 0.199683
0.707418 0.509973 0.205101
0.725807 0.518918 0.211991
0.744196 0.527863 0.218881
0.762585 0.536809 0.225771
0.780973 0.545754 0.232661
0.797842 0.554700 0.239946
0.807111 0.563651 0.249207
0.816379 0.572603 0.258468
0.825648 0.581554 0.267728
0.834916 0.590505 0.276989
0.844184 0.599456 0.286250
0.155437 0.267171 0.175942
0.175263 0.277909 0.178783
0.195088 0.288647 0.181623
0.214913 0.299385 0.184464
0.234738 0.310124 0.187304
0.254563 0.320862 0.190145
0.283718 0.333921 0.190125
0.314739 0.347445 0.189533
0.345760 0.360969 0.188942
0.376781 0.374493 0.188350
0.407801 0.388016 0.187759
0.438965 0.401724 0.187950
0.470199 0.415524 0.188532
0.501433 0.429324 0.189115
0.532667 0.443123 0.189697
0.563902 0.456923 0.190280
0.592076 0.469665 0.193177
0.617190 0.481350 0.198390
0.642304 0.493035 0.203603
0.667419 0.504720 0.208816
0.692533 0.516406 0.214028
0.715299 0.527128 0.219748
0.733367 0.535927 0.226483
0.751436 0.544726 0.233217
0.769505 0.553525 0.239952
0.787574 0.562324 0.246686
0.804167 0.571111 0.253848
0.813380 0.579843 0.263145
0.822594 0.588575 0.272443
0.831807 0.597307 0.281740
0.841021 0.606038 0.291037
0.850234 0.614770 0.300335
0.159171 0.276246 0.181000
0.179381 0.287432 0.184490
0.199590 0.298619 0.187980
0.219800 0.309805 0.191470
0.240009 0.320991 0.194959
0.260218 0.332178 0.198449
0.289666 0.345404 0.198881
0.320961 0.359037 0.198701
0.352256 0.372671 0.198521
0.383552 0.386304 0.198341
0.414847 0.399938 0.198162
0.446388 0.413853 0.198673
0.478052 0.427909 0.199530
0.509717 0.441965 0.200387
0.541381 0.456020 0.201243
0.573045 0.470076 0.202100
0.601302 0.483326 0.205400
0.626151 0.495771 0.211144
0.650999 0.508215 0.216887
0.675848 0.520659 0.222631
0.700697 0.533104 0.228374
0.723180 0.544284 0.234396
0.740928 0.552936 0.240975
0.758677 0.561589 0.247554
0.776425 0.570241 0.254133
0.794174 0.578894 0.260712
0.810491 0.587523 0.267750
0.819650 0.596035 0.277084
0.828808 0.604547 0.286418
0.837967 0.613060 0.295752
0.847126 0.621572 0.305086
0.856284 0.630084 0.314420
0.162401 0.284060 0.185427
0.183159 0.295875 0.189691
0.203918 0.307689 0.193956
0.224676 0.319504 0.198220
0.245434 0.331318 0.202485
0.266192 0.343133 0.206749
0.295976 0.356573 0.207651
0.327563 0.370337 0.207879
0.359151 0.384102 0.208108
0.390739 0.397867 0.208337
0.422327 0.411631 0.208565
0.454167 0.425694 0.209404
0.486134 0.439905 0.210547
0.518100 0.454117 0.211691
0.550066 0.468328 0.212834
0.582032 0.482539 0.213978
0.610357 0.496116 0.217618
0.635041 0.509057 0.223755
0.659726 0.521998 0.229892
0.684410 0.534940 0.236028
0.709094 0.547881 0.242165
0.731362 0.559438 0.248565
0.748796 0.568224 0.255492
0.766231 0.577011 0.262418
0.783666 0.585798 0.269345
0.801100 0.594584 0.276271
0.817134 0.603281 0.283590
0.826164 0.611531 0.292869
0.835195 0.619781 0.302148
0.844226 0.628031 0.311427
0.853256 0.636281 0.320706
0.862287 0.644531 0.329985
0.164622 0.289354 0.188593
0.186259 0.302156 0.193883
0.207895 0.314959 0.199172
0.229532 0.327761 0.204461
0.251168 0.340564 0.209750
0.272805 0.353367 0.215039
0.303009 0.367116 0.216446
0.334926 0.381054 0.217077
0.366843 0.394993 0.217709
0.398761 0.408931 0.218340
0.430678 0.422870 0.218971
0.462658 0.436960 0.220151
0.494670 0.451125 0.221606
0.526682 0.465291 0.223060
0.558694 0.479457 0.224515
0.590706 0.493622 0.225969
0.619072 0.507162 0.229824
0.643793 0.520076 0.236080
0.668514 0.532990 0.242336
0.693235 0.545904 0.248592
0.717956 0.558818 0.254847
0.740147 0.570587 0.261778
0.757280 0.580069 0.270058
0.774412 0.589551 0.278339
0.791545 0.599033 0.286619
0.808678 0.608515 0.294900
0.824414 0.617734 0.303307
0.833170 0.625636 0.312348
0.841926 0.633538 0.321389
0.850683 0.641441 0.330431
0.859439 0.649343 0.339472
0.868195 0.657245 0.348513
0.166844 0.294647 0.191760
0.189359 0.308438 0.198074
0.211873 0.322228 0.204387
0.234388 0.336019 0.210701
0.256903 0.349810 0.217015
0.279417 0.363600 0.223328
0.310042 0.377659 0.225242
0.342289 0.391771 0.226276
0.374535 0.405883 0.227310
0.406782 0.419996 0.228343
0.439029 0.434108 0.229377
0.471149 0.448225 0.230899
0.503207 0.462345 0.232664
0.535264 0.476465 0.234430
0.567322 0.490585 0.236195
0.599379 0.504705 0.237961
0.627787 0.518208 0.242031
0.652544 0.531095 0.248406
0.677302 0.543981 0.254780
0.702059 0.556868 0.261155
0.726817 0.569754 0.267529
0.748932 0.581737 0.274991
0.765763 0.591914 0.284625
0.782594 0.602092 0.294259
0.799424 0.612269 0.303894
0.816255 0.622446 0.313528
0.831694 0.632186 0.323024
0.840176 0.639741 0.331827
0.848658 0.647295 0.340631
0.857140 0.654850 0.349434
0.865621 0.662405 0.358237
0.874103 0.669959 0.367041
0.169065 0.299941 0.194927
0.192458 0.314719 0.202265
0.215851 0.329498 0.209603
0.239244 0.344277 0.216942
0.262637 0.359055 0.224280
0.286030 0.373834 0.231618
0.317075 0.388202 0.234038
0.349651 0.402488 0.235474
0.382227 0.416774 0.236910
0.414803 0.431060 0.238347
0.447379 0.445346 0.239783
0.479640 0.459491 0.241646
0.511743 0.473565 0.243723
0.543847 0.487639 0.245799
0.575950 0.501714 0.247876
0.608053 0.515788 0.249952
0.636502 0.529254 0.254237
0.661296 0.542113 0.260731
0.686090 0.554972 0.267224
0.710884 0.567831 0.273718
0.735678 0.580690 0.280212
0.757717 0.592887 0.288203
0.774246 0.603760 0.299192
0.790775 0.614632 0.310180
0.807304 0.625504 0.321168
0.823833 0.636377 0.332156
0.838975 0.646638 0.342741
0.847182 0.653845 0.351306
0.855389 0.661052 0.359872
0.863597 0.668259 0.368437
0.871804 0.675467 0.377003
0.880011 0.682674 0.385569
0.171287 0.305235 0.198094
0.195558 0.321001 0.206456
0.219829 0.336768 0.214819
0.244100 0.352534 0.223182
0.268371 0.368301 0.231545
0.292642 0.384067 0.239908
0.324109 0.398745 0.242834
0.357014 0.413205 0.244672
0.389919 0.427665 0.246511
0.422824 0.442125 0.248350
0.455730 0.456585 0.250189
0.488131 0.470757 0.252393
0.520280 0.484785 0.254781
0.552429 0.498814 0.257169
0.584578 0.512842 0.259556
0.616727 0.526871 0.261944
0.645217 0.540301 0.266444
0.670048 0.553132 0.273056
0.694878 0.565964 0.279669
0.719709 0.578795 0.286281
0.744540 0.591627 0.292894
0.766502 0.604037 0.301416
0.782729 0.615605 0.313758
0.798956 0.627172 0.326100
0.815183 0.638740 0.338442
0.831410 0.650308 0.350785
0.846255 0.661090 0.362458
0.854188 0.667950 0.370785
0.862121 0.674809 0.379113
0.870053 0.681669 0.387441
0.877986 0.688528 0.395769
0.885919 0.695388 0.404096
0.173233 0.309622 0.200945
0.198490 0.326502 0.210430
0.223748 0.343381 0.219915
0.249005 0.360261 0.229400
0.274263 0.377140 0.238885
0.299520 0.394020 0.248370
0.331460 0.409064 0.251818
0.364736 0.423740 0.254060
0.398011 0.438416 0.256301
0.431287 0.453093 0.258542
0.464563 0.467769 0.260783
0.497102 0.481979 0.263314
0.529272 0.495956 0.265990
0.561443 0.509932 0.268666
0.593613 0.523909 0.271342
0.625783 0.537885 0.274018
0.654263 0.551260 0.278730
0.679053 0.564032 0.285478
0.703842 0.576804 0.292226
0.728632 0.589576 0.298974
0.753421 0.602348 0.305722
0.775246 0.614895 0.314708
0.791140 0.626990 0.328169
0.807035 0.639085 0.341631
0.822930 0.651180 0.355092
0.838824 0.663275 0.368553
0.853354 0.674474 0.381183
0.861058 0.681190 0.389654
0.868762 0.687906 0.398125
0.876466 0.694622 0.406596
0.884170 0.701339 0.415067
0.891874 0.708055 0.423538
0.173800 0.309480 0.202221
0.200585 0.328098 0.213316
0.227370 0.346716 0.224411
0.254156 0.365333 0.235506
0.280941 0.383951 0.246601
0.307726 0.402569 0.257696
0.340400 0.418260 0.261749
0.374253 0.433367 0.264392
0.408105 0.448473 0.267036
0.441957 0.463579 0.269680
0.475809 0.478686 0.272324
0.508473 0.492984 0.275105
0.540542 0.506878 0.277954
0.572612 0.520773 0.280804
0.604682 0.534667 0.283653
0.636752 0.548561 0.286503
0.664966 0.561785 0.291412
0.689326 0.574337 0.298379
0.713686 0.586890 0.305347
0.738045 0.599442 0.312315
