filters/luts/Foreshadowing 01_S.cube
# Created by: Adobe Photoshop Export Color Lookup Plugin
# LUT by SparkleStock. Enhanced with VOXCOLOR algorithms.
LUT_3D_SIZE 32
0.085958 0.097680 0.089866
0.098625 0.099193 0.086652
0.111292 0.100705 0.083438
0.123959 0.102217 0.080224
0.136626 0.103730 0.077010
0.149293 0.105242 0.073796
0.168419 0.109709 0.072906
0.188838 0.114766 0.072480
0.209256 0.119824 0.072055
0.229674 0.124881 0.071629
0.250093 0.129938 0.071204
0.275426 0.137359 0.071976
0.303218 0.145961 0.073347
0.331009 0.154563 0.074717
0.358801 0.163165 0.076088
0.386593 0.171767 0.077459
0.415731 0.181551 0.079586
0.446217 0.192516 0.082469
0.476703 0.203482 0.085352
0.507188 0.214447 0.088235
0.537674 0.225413 0.091118
0.566568 0.236315 0.094348
0.592280 0.247091 0.098271
0.617992 0.257868 0.102194
0.643704 0.268644 0.106117
0.669416 0.279420 0.110040
0.693025 0.289440 0.113813
0.706117 0.295679 0.116838
0.719209 0.301918 0.119863
0.732301 0.308157 0.122888
0.745394 0.314396 0.125913
0.758486 0.320635 0.128938
0.088274 0.101556 0.092182
0.101509 0.104239 0.088821
0.114743 0.106923 0.085461
0.127977 0.109606 0.082101
0.141211 0.112289 0.078740
0.154445 0.114973 0.075380
0.174276 0.119711 0.074138
0.195426 0.124860 0.073319
0.216576 0.130008 0.072500
0.237726 0.135157 0.071681
0.258876 0.140306 0.070863
0.284558 0.147635 0.071381
0.312505 0.156054 0.072569
0.340452 0.164473 0.073757
0.368399 0.172893 0.074945
0.396346 0.181312 0.076132
0.425393 0.190894 0.078181
0.455540 0.201640 0.081092
0.485687 0.212386 0.084003
0.515835 0.223132 0.086913
0.545982 0.233878 0.089824
0.574471 0.244627 0.093139
0.599643 0.255385 0.097263
0.624815 0.266143 0.101387
0.649987 0.276901 0.105512
0.675159 0.287660 0.109636
0.698239 0.297733 0.113647
0.710855 0.304384 0.117093
0.723472 0.311034 0.120538
0.736089 0.317685 0.123984
0.748705 0.324335 0.127430
0.761322 0.330986 0.130876
0.090590 0.105431 0.094498
0.104392 0.109286 0.090991
0.118193 0.113140 0.087484
0.131994 0.116995 0.083977
0.145795 0.120849 0.080471
0.159597 0.124703 0.076964
0.180132 0.129713 0.075369
0.202014 0.134953 0.074157
0.223896 0.140193 0.072945
0.245778 0.145433 0.071733
0.267660 0.150674 0.070521
0.293689 0.157911 0.070787
0.321791 0.166147 0.071792
0.349894 0.174384 0.072796
0.377997 0.182620 0.073801
0.406099 0.190856 0.074806
0.435055 0.200237 0.076777
0.464863 0.210764 0.079715
0.494672 0.221290 0.082653
0.524481 0.231816 0.085591
0.554290 0.242342 0.088529
0.582373 0.252940 0.091930
0.607005 0.263680 0.096255
0.631638 0.274419 0.100581
0.656270 0.285159 0.104906
0.680903 0.295899 0.109232
0.703453 0.306026 0.113481
0.715594 0.313088 0.117347
0.727735 0.320150 0.121214
0.739876 0.327212 0.125080
0.752017 0.334275 0.128947
0.764158 0.341337 0.132813
0.092906 0.109307 0.096814
0.107275 0.114332 0.093160
0.121643 0.119358 0.089507
0.136012 0.124383 0.085854
0.150380 0.129408 0.082201
0.164749 0.134434 0.078548
0.185988 0.139714 0.076601
0.208602 0.145046 0.074996
0.231216 0.150378 0.073390
0.253830 0.155710 0.071785
0.276443 0.161041 0.070179
0.302820 0.168187 0.070192
0.331078 0.176241 0.071014
0.359336 0.184294 0.071836
0.387594 0.192347 0.072658
0.415852 0.200400 0.073479
0.444717 0.209580 0.075373
0.474187 0.219887 0.078338
0.503657 0.230194 0.081304
0.533127 0.240501 0.084269
0.562597 0.250807 0.087235
0.590275 0.261252 0.090721
0.614368 0.271974 0.095247
0.638461 0.282695 0.099774
0.662553 0.293417 0.104301
0.686646 0.304138 0.108828
0.708668 0.314318 0.113315
0.720333 0.321792 0.117602
0.731998 0.329266 0.121889
0.743663 0.336740 0.126177
0.755328 0.344214 0.130464
0.766994 0.351688 0.134751
0.095222 0.113183 0.099130
0.110158 0.119379 0.095330
0.125094 0.125575 0.091531
0.140029 0.131772 0.087731
0.154965 0.137968 0.083932
0.169900 0.144164 0.080132
0.191844 0.149716 0.077833
0.215190 0.155139 0.075834
0.238536 0.160563 0.073836
0.261881 0.165986 0.071837
0.285227 0.171409 0.069838
0.311951 0.178464 0.069598
0.340365 0.186334 0.070236
0.368778 0.194204 0.070875
0.397192 0.202075 0.071514
0.425606 0.209945 0.072153
0.454378 0.218924 0.073969
0.483510 0.229011 0.076962
0.512642 0.239098 0.079955
0.541774 0.249185 0.082948
0.570905 0.259272 0.085940
0.598178 0.269565 0.089512
0.621731 0.280268 0.094240
0.645284 0.290971 0.098968
0.668837 0.301674 0.103696
0.692390 0.312377 0.108424
0.713882 0.322611 0.113148
0.725071 0.330496 0.117856
0.736261 0.338382 0.122565
0.747450 0.346268 0.127273
0.758640 0.354153 0.131981
0.769829 0.362039 0.136689
0.097538 0.117059 0.101446
0.113041 0.124426 0.097500
0.128544 0.131793 0.093554
0.144047 0.139160 0.089608
0.159549 0.146527 0.085662
0.175052 0.153894 0.081716
0.197701 0.159718 0.079065
0.221778 0.165233 0.076673
0.245856 0.170747 0.074281
0.269933 0.176262 0.071889
0.294010 0.181777 0.069496
0.321082 0.188740 0.069003
0.349652 0.196427 0.069459
0.378221 0.204115 0.069915
0.406790 0.211802 0.070371
0.435359 0.219489 0.070826
0.464040 0.228267 0.072565
0.492833 0.238134 0.075585
0.521627 0.248002 0.078605
0.550420 0.257870 0.081626
0.579213 0.267737 0.084646
0.606080 0.277877 0.088303
0.629093 0.288562 0.093232
0.652106 0.299247 0.098161
0.675120 0.309932 0.103090
0.698133 0.320617 0.108020
0.719096 0.330904 0.112982
0.729810 0.339201 0.118111
0.740524 0.347498 0.123240
0.751238 0.355795 0.128369
0.761952 0.364092 0.133498
0.772665 0.372390 0.138627
0.101154 0.124322 0.105455
0.116904 0.132196 0.101691
0.132654 0.140071 0.097926
0.148403 0.147946 0.094162
0.164153 0.155821 0.090398
0.179903 0.163696 0.086633
0.203050 0.170544 0.083653
0.227676 0.177187 0.080829
0.252303 0.183830 0.078005
0.276929 0.190473 0.075182
0.301555 0.197116 0.072358
0.328934 0.204532 0.071609
0.357689 0.212333 0.071897
0.386444 0.220135 0.072185
0.415200 0.227937 0.072473
0.443955 0.235738 0.072762
0.472651 0.244536 0.074422
0.501289 0.254329 0.077454
0.529927 0.264121 0.080487
0.558564 0.273914 0.083520
0.587202 0.283707 0.086552
0.613869 0.293802 0.090281
0.636594 0.304499 0.095404
0.659319 0.315196 0.100527
0.682044 0.325893 0.105650
0.704770 0.336590 0.110773
0.725467 0.346943 0.115959
0.736025 0.355575 0.121463
0.746583 0.364208 0.126967
0.757142 0.372841 0.132471
0.767700 0.381473 0.137975
0.778258 0.390106 0.143479
0.105030 0.132262 0.109803
0.120962 0.140512 0.106286
0.136895 0.148762 0.102769
0.152828 0.157012 0.099251
0.168761 0.165262 0.095734
0.184693 0.173512 0.092216
0.208298 0.181536 0.088911
0.233436 0.189514 0.085648
0.258575 0.197493 0.082386
0.283714 0.205471 0.079123
0.308852 0.213450 0.075860
0.336530 0.221426 0.074855
0.365477 0.229402 0.074978
0.394425 0.237377 0.075102
0.423372 0.245353 0.075225
0.452319 0.253328 0.075349
0.481052 0.262190 0.076931
0.509571 0.271937 0.079973
0.538090 0.281684 0.083015
0.566609 0.291431 0.086057
0.595127 0.301178 0.089098
0.621636 0.311248 0.092898
0.644123 0.321964 0.098213
0.666610 0.332679 0.103528
0.689098 0.343394 0.108843
0.711585 0.354110 0.114158
0.732069 0.364531 0.119565
0.742535 0.373484 0.125435
0.753002 0.382437 0.131305
0.763469 0.391390 0.137175
0.773936 0.400343 0.143045
0.784403 0.409295 0.148915
0.108905 0.140202 0.114152
0.125021 0.148827 0.110881
0.141137 0.157452 0.107611
0.157253 0.166078 0.104341
0.173368 0.174703 0.101070
0.189484 0.183328 0.097800
0.213546 0.192527 0.094170
0.239197 0.201841 0.090468
0.264847 0.211155 0.086766
0.290498 0.220469 0.083064
0.316149 0.229784 0.079362
0.344126 0.238321 0.078101
0.373265 0.246470 0.078060
0.402405 0.254620 0.078019
0.431544 0.262769 0.077977
0.460683 0.270918 0.077936
0.489453 0.279844 0.079441
0.517853 0.289545 0.082492
0.546253 0.299247 0.085543
0.574653 0.308948 0.088594
0.603053 0.318650 0.091644
0.629402 0.328695 0.095514
0.651652 0.339429 0.101021
0.673901 0.350162 0.106528
0.696151 0.360896 0.112035
0.718400 0.371630 0.117542
0.738670 0.382120 0.123171
0.749046 0.391393 0.129407
0.759421 0.400666 0.135643
0.769796 0.409939 0.141879
0.780172 0.419212 0.148114
0.790547 0.428485 0.154350
0.112781 0.148143 0.118500
0.129080 0.157143 0.115477
0.145378 0.166143 0.112453
0.161677 0.175143 0.109430
0.177976 0.184143 0.106407
0.194274 0.193143 0.103383
0.218794 0.203518 0.099428
0.244957 0.214168 0.095287
0.271120 0.224818 0.091146
0.297283 0.235467 0.087005
0.323446 0.246117 0.082864
0.351722 0.255216 0.081347
0.381053 0.263539 0.081141
0.410385 0.271862 0.080935
0.439716 0.280185 0.080729
0.469048 0.288508 0.080524
0.497854 0.297498 0.081951
0.526135 0.307154 0.085011
0.554416 0.316809 0.088071
0.582697 0.326465 0.091131
0.610978 0.336121 0.094191
0.637169 0.346142 0.098130
0.659181 0.356894 0.103830
0.681192 0.367646 0.109529
0.703204 0.378398 0.115228
0.725215 0.389149 0.120927
0.745272 0.399708 0.126777
0.755556 0.409301 0.133379
0.765840 0.418895 0.139980
0.776124 0.428488 0.146582
0.786408 0.438081 0.153184
0.796691 0.447674 0.159786
0.116657 0.156083 0.122848
0.133138 0.165458 0.120072
0.149620 0.174834 0.117296
0.166102 0.184209 0.114519
0.182583 0.193584 0.111743
0.199065 0.202959 0.108966
0.224041 0.214509 0.104687
0.250717 0.226495 0.100107
0.277392 0.238480 0.095527
0.304068 0.250466 0.090947
0.330743 0.262451 0.086367
0.359318 0.272111 0.084593
0.388841 0.280608 0.084222
0.418365 0.289105 0.083852
0.447888 0.297602 0.083481
0.477412 0.306099 0.083111
0.506255 0.315152 0.084460
0.534417 0.324762 0.087529
0.562579 0.334372 0.090599
0.590741 0.343982 0.093668
0.618903 0.353592 0.096737
0.644936 0.363588 0.100747
0.666709 0.374359 0.106638
0.688483 0.385129 0.112529
0.710257 0.395899 0.118421
0.732031 0.406669 0.124312
0.751874 0.417297 0.130383
0.762066 0.427210 0.137350
0.772259 0.437124 0.144318
0.782451 0.447037 0.151286
0.792643 0.456950 0.158253
0.802836 0.466864 0.165221
0.120974 0.165442 0.128111
0.137644 0.175125 0.125691
0.154315 0.184808 0.123271
0.170986 0.194491 0.120852
0.187656 0.204174 0.118432
0.204327 0.213857 0.116012
0.229792 0.226115 0.111767
0.257017 0.238887 0.107156
0.284241 0.251659 0.102546
0.311466 0.264431 0.097935
0.338690 0.277203 0.093325
0.367518 0.287676 0.091415
0.397149 0.296999 0.090855
0.426779 0.306323 0.090296
0.456409 0.315646 0.089736
0.486040 0.324969 0.089177
0.514852 0.334456 0.090412
0.542846 0.344105 0.093441
0.570841 0.353755 0.096471
0.598835 0.363405 0.099500
0.626829 0.373054 0.102530
0.652677 0.383073 0.106559
0.674231 0.393831 0.112587
0.695785 0.404589 0.118616
0.717339 0.415347 0.124644
0.738894 0.426105 0.130673
0.758551 0.436753 0.136907
0.768725 0.446846 0.144167
0.778899 0.456939 0.151428
0.789073 0.467032 0.158688
0.799247 0.477126 0.165948
0.809421 0.487219 0.173209
0.125511 0.175509 0.133830
0.142374 0.185467 0.131822
0.159237 0.195424 0.129814
0.176099 0.205382 0.127806
0.192962 0.215339 0.125798
0.209825 0.225297 0.123790
0.235795 0.238027 0.119758
0.263587 0.251311 0.115321
0.291378 0.264596 0.110884
0.319170 0.277880 0.106447
0.346961 0.291164 0.102011
0.376021 0.302577 0.100025
0.405716 0.313053 0.099264
0.435410 0.323528 0.098503
0.465104 0.334004 0.097742
0.494799 0.344480 0.096981
0.523547 0.354584 0.098084
0.551349 0.364316 0.101049
0.579151 0.374048 0.104015
0.606954 0.383780 0.106980
0.634756 0.393512 0.109946
0.660405 0.403577 0.113969
0.681749 0.414307 0.120107
0.703093 0.425038 0.126245
0.724437 0.435769 0.132383
0.745780 0.446499 0.138522
0.765266 0.457142 0.144890
0.775458 0.467345 0.152406
0.785650 0.477548 0.159923
0.795843 0.487751 0.167440
0.806035 0.497954 0.174956
0.816228 0.508157 0.182473
0.130048 0.185576 0.139549
0.147103 0.195808 0.137952
0.164158 0.206040 0.136356
0.181213 0.216272 0.134760
0.198268 0.226504 0.133163
0.215323 0.236737 0.131567
0.241798 0.249939 0.127748
0.270156 0.263736 0.123486
0.298515 0.277532 0.119223
0.326874 0.291329 0.114960
0.355233 0.305126 0.110697
0.384524 0.317477 0.108634
0.414283 0.329106 0.107672
0.444041 0.340734 0.106710
0.473800 0.352363 0.105748
0.503558 0.363992 0.104786
0.532242 0.374713 0.105756
0.559852 0.384527 0.108657
0.587462 0.394341 0.111559
0.615073 0.404156 0.114460
0.642683 0.413970 0.117361
0.668134 0.424081 0.121378
0.689267 0.434784 0.127627
0.710401 0.445487 0.133875
0.731534 0.456190 0.140123
0.752667 0.466893 0.146371
0.771980 0.477531 0.152873
0.782191 0.487844 0.160646
0.792402 0.498157 0.168418
0.802612 0.508470 0.176191
0.812823 0.518782 0.183964
0.823034 0.529095 0.191737
0.134586 0.195644 0.145268
0.151833 0.206150 0.144083
0.169080 0.216657 0.142898
0.186327 0.227163 0.141714
0.203574 0.237670 0.140529
0.220821 0.248176 0.139344
0.247800 0.261851 0.135739
0.276726 0.276160 0.131650
0.305652 0.290469 0.127561
0.334578 0.304778 0.123472
0.363504 0.319087 0.119383
0.393027 0.332378 0.117244
0.422850 0.345159 0.116081
0.452672 0.357940 0.114917
0.482495 0.370721 0.113754
0.512317 0.383503 0.112591
0.540937 0.394842 0.113428
0.568355 0.404738 0.116265
0.595773 0.414635 0.119103
0.623191 0.424531 0.121940
0.650609 0.434428 0.124777
0.675862 0.444584 0.128788
0.696785 0.455260 0.135146
0.717708 0.465936 0.141504
0.738631 0.476611 0.147862
0.759554 0.487287 0.154220
0.778695 0.497920 0.160856
0.788924 0.508343 0.168885
0.799153 0.518766 0.176914
0.809382 0.529188 0.184943
0.819611 0.539611 0.192972
0.829840 0.550033 0.201000
0.139123 0.205711 0.150987
0.156562 0.216492 0.150214
0.174001 0.227273 0.149441
0.191441 0.238054 0.148668
0.208880 0.248835 0.147895
0.226319 0.259616 0.147122
0.253803 0.273763 0.143730
0.283296 0.288585 0.139815
0.312789 0.303406 0.135899
0.342282 0.318227 0.131984
0.371775 0.333048 0.128069
0.401531 0.347278 0.125854
0.431417 0.361212 0.124489
0.461303 0.375146 0.123125
0.491190 0.389080 0.121760
0.521076 0.403014 0.120396
0.549632 0.414970 0.121100
0.576858 0.424949 0.123873
0.604084 0.434928 0.126647
0.631310 0.444907 0.129420
0.658536 0.454886 0.132193
0.683591 0.465088 0.136198
0.704303 0.475736 0.142666
0.725016 0.486384 0.149133
0.745729 0.497033 0.155601
0.766441 0.507681 0.162069
0.785409 0.518310 0.168839
0.795657 0.528842 0.177124
0.805904 0.539375 0.185409
0.816151 0.549907 0.193694
0.826399 0.560439 0.201979
0.836646 0.570972 0.210264
0.143377 0.215353 0.156587
0.161164 0.226550 0.156322
0.178950 0.237747 0.156057
0.196737 0.248944 0.155792
0.214524 0.260142 0.155526
0.232311 0.271339 0.155261
0.260230 0.285869 0.152152
0.290176 0.301065 0.148475
0.320122 0.316261 0.144797
0.350068 0.331457 0.141120
0.380014 0.346654 0.137442
0.410109 0.361518 0.135282
0.440279 0.376216 0.133881
0.470449 0.390913 0.132480
0.500619 0.405611 0.131079
0.530789 0.420309 0.129678
0.559338 0.432880 0.130471
0.586267 0.443326 0.133460
0.613196 0.453771 0.136448
0.640124 0.464217 0.139436
0.667053 0.474662 0.142425
0.691804 0.485145 0.146576
0.712201 0.495702 0.153053
0.732598 0.506258 0.159529
0.752995 0.516815 0.166006
0.773392 0.527372 0.172483
0.792090 0.537922 0.179288
0.802291 0.548436 0.187738
0.812493 0.558950 0.196188
0.822694 0.569464 0.204638
0.832896 0.579978 0.213087
0.843097 0.590492 0.221537
0.147347 0.224570 0.162070
0.165637 0.236325 0.162409
0.183927 0.248080 0.162747
0.202217 0.259835 0.163086
0.220507 0.271590 0.163424
0.238797 0.283345 0.163763
0.267082 0.298166 0.161006
0.297366 0.313601 0.157630
0.327651 0.329035 0.154255
0.357935 0.344469 0.150879
0.388219 0.359903 0.147504
0.418763 0.375096 0.145530
0.449436 0.390169 0.144257
0.480109 0.405242 0.142983
0.510783 0.420315 0.141710
0.541456 0.435388 0.140437
0.570055 0.448572 0.141542
0.596581 0.459868 0.145024
0.623108 0.471165 0.148507
0.649634 0.482461 0.151989
0.676160 0.493757 0.155471
0.700503 0.504755 0.159921
0.720479 0.515156 0.166306
0.740455 0.525558 0.172692
0.760431 0.535959 0.179077
0.780407 0.546360 0.185462
0.798736 0.556756 0.192204
0.808828 0.567123 0.200727
0.818919 0.577491 0.209250
0.829011 0.587859 0.217772
0.839103 0.598227 0.226295
0.849195 0.608594 0.234818
0.151317 0.233786 0.167553
0.170110 0.246099 0.168495
0.188904 0.258413 0.169437
0.207697 0.270726 0.170380
0.226490 0.283039 0.171322
0.245283 0.295352 0.172264
0.273934 0.310464 0.169860
0.304557 0.326136 0.166786
0.335179 0.341808 0.163712
0.365802 0.357480 0.160639
0.396425 0.373152 0.157565
0.427417 0.388675 0.155777
0.458593 0.404123 0.154632
0.489770 0.419571 0.153487
0.520946 0.435019 0.152342
0.552122 0.450467 0.151197
0.580772 0.464264 0.152612
0.606896 0.476411 0.156589
0.633019 0.488558 0.160565
0.659143 0.500705 0.164541
0.685267 0.512852 0.168518
0.709201 0.524365 0.173267
0.728756 0.534611 0.179560
0.748311 0.544857 0.185854
0.767867 0.555102 0.192148
0.787422 0.565348 0.198442
0.805382 0.575590 0.205119
0.815364 0.585811 0.213715
0.825346 0.596033 0.222311
0.835328 0.606254 0.230907
0.845310 0.616475 0.239504
0.855292 0.626697 0.248100
0.155288 0.243003 0.173036
0.174584 0.255874 0.174582
0.193880 0.268745 0.176128
0.213176 0.281616 0.177674
0.232472 0.294488 0.179220
0.251768 0.307359 0.180766
0.280786 0.322762 0.178713
0.311747 0.338672 0.175942
0.342708 0.354582 0.173170
0.373670 0.370492 0.170398
0.404631 0.386402 0.167626
0.436071 0.402254 0.166024
0.467750 0.418077 0.165007
0.499430 0.433900 0.163990
0.531109 0.449723 0.162973
0.562789 0.465546 0.161956
0.591489 0.479956 0.163683
0.617210 0.492954 0.168153
0.642931 0.505951 0.172624
0.668652 0.518949 0.177094
0.694373 0.531947 0.181564
0.717899 0.543975 0.186612
0.737033 0.554066 0.192814
0.756168 0.564156 0.199017
0.775302 0.574246 0.205219
0.794437 0.584336 0.211421
0.812028 0.594424 0.218035
0.821900 0.604499 0.226704
0.831772 0.614574 0.235373
0.841644 0.624649 0.244042
0.851517 0.634724 0.252712
0.861389 0.644799 0.261381
0.159258 0.252219 0.178518
0.179057 0.265649 0.180668
0.198857 0.279078 0.182818
0.218656 0.292507 0.184968
0.238455 0.305936 0.187117
0.258254 0.319366 0.189267
0.287637 0.335060 0.187567
0.318937 0.351208 0.185097
0.350237 0.367356 0.182627
0.381537 0.383503 0.180157
0.412837 0.399651 0.177687
0.444725 0.415832 0.176271
0.476908 0.432030 0.175383
0.509090 0.448228 0.174494
0.541273 0.464426 0.173605
0.573455 0.480624 0.172716
0.602206 0.495648 0.174754
0.627524 0.509496 0.179718
0.652843 0.523345 0.184682
0.678162 0.537193 0.189647
0.703480 0.551042 0.194611
0.726597 0.563586 0.199957
0.745311 0.573520 0.206068
0.764025 0.583455 0.212179
0.782738 0.593390 0.218290
0.801452 0.603325 0.224401
0.818674 0.613258 0.230950
0.828436 0.623187 0.239693
0.838199 0.633115 0.248435
0.847961 0.643044 0.257177
0.857723 0.652973 0.265920
0.867486 0.662901 0.274662
0.162740 0.260223 0.183339
0.183222 0.274411 0.186215
0.203704 0.288600 0.189090
0.224187 0.302788 0.191966
0.244669 0.316977 0.194841
0.265151 0.331166 0.197717
0.294948 0.347198 0.196402
0.326608 0.363598 0.194249
0.358267 0.379999 0.192096
0.389927 0.396400 0.189944
0.421587 0.412801 0.187791
0.453829 0.429237 0.186590
0.486362 0.445691 0.185866
0.518895 0.462146 0.185142
0.551429 0.478600 0.184418
0.583962 0.495054 0.183693
0.612754 0.510492 0.185987
0.637804 0.524914 0.191299
0.662854 0.539335 0.196611
0.687904 0.553757 0.201923
0.712954 0.568179 0.207235
0.735744 0.581140 0.212967
0.754013 0.591178 0.219538
0.772281 0.601216 0.226109
0.790550 0.611255 0.232681
0.808818 0.621293 0.239252
0.825635 0.631273 0.246182
0.835193 0.640957 0.254906
0.844751 0.650642 0.263630
0.854309 0.660327 0.272354
0.863867 0.670011 0.281079
0.873425 0.679696 0.289803
0.165245 0.265800 0.186837
0.186770 0.281150 0.190682
0.208295 0.296501 0.194527
0.229820 0.311851 0.198372
0.251346 0.327201 0.202218
0.272871 0.342552 0.206063
0.303177 0.359014 0.205199
0.335239 0.375698 0.203394
0.367301 0.392383 0.201589
0.399363 0.409067 0.199784
0.431425 0.425751 0.197979
0.463832 0.442294 0.197053
0.496411 0.458767 0.196566
0.528990 0.475239 0.196080
0.561569 0.491712 0.195593
0.594148 0.508184 0.195107
0.622963 0.523641 0.197547
0.648013 0.538081 0.202914
0.673063 0.552521 0.208281
0.698113 0.566961 0.213648
0.723164 0.581401 0.219015
0.745789 0.594581 0.225304
0.763563 0.605242 0.233440
0.781338 0.615902 0.241576
0.799112 0.626562 0.249711
0.816887 0.637223 0.257847
0.833226 0.647648 0.266047
0.842391 0.656893 0.274570
0.851556 0.666139 0.283093
0.860720 0.675384 0.291615
0.869885 0.684630 0.300138
0.879050 0.693875 0.308661
0.167750 0.271377 0.190334
0.190318 0.287889 0.195149
0.212886 0.304402 0.199964
0.235454 0.320914 0.204779
0.258022 0.337426 0.209594
0.280590 0.353938 0.214409
0.311405 0.370830 0.213997
0.343870 0.387798 0.212539
0.376335 0.404766 0.211082
0.408799 0.421734 0.209624
0.441264 0.438702 0.208166
0.473835 0.455352 0.207515
0.506460 0.471842 0.207266
0.539085 0.488333 0.207018
0.571710 0.504824 0.206769
0.604334 0.521315 0.206521
0.633172 0.536789 0.209107
0.658222 0.551248 0.214529
0.683272 0.565706 0.219951
0.708323 0.580164 0.225372
0.733373 0.594623 0.230794
0.755833 0.608023 0.237642
0.773114 0.619305 0.247342
0.790394 0.630588 0.257042
0.807675 0.641870 0.266742
0.824955 0.653153 0.276442
0.840818 0.664022 0.285912
0.849589 0.672829 0.294233
0.858360 0.681635 0.302555
0.867132 0.690442 0.310877
0.875903 0.699248 0.319198
0.884674 0.708055 0.327520
0.170255 0.276955 0.193832
0.193866 0.294628 0.199617
0.217477 0.312302 0.205401
0.241088 0.329976 0.211186
0.264699 0.347650 0.216970
0.288310 0.365324 0.222755
0.319634 0.382646 0.222794
0.352501 0.399898 0.221684
0.385368 0.417149 0.220574
0.418235 0.434401 0.219464
0.451103 0.451652 0.218354
0.483839 0.468409 0.217977
0.516509 0.484918 0.217966
0.549180 0.501427 0.217956
0.581850 0.517936 0.217945
0.614521 0.534445 0.217934
0.643381 0.549938 0.220667
0.668431 0.564415 0.226144
0.693481 0.578891 0.231621
0.718532 0.593368 0.237097
0.743582 0.607845 0.242574
0.765878 0.621464 0.249979
0.782664 0.633369 0.261244
0.799451 0.645273 0.272508
0.816237 0.657178 0.283772
0.833024 0.669082 0.295036
0.848409 0.680397 0.305777
0.856787 0.688765 0.313897
0.865165 0.697132 0.322017
0.873543 0.705499 0.330138
0.881921 0.713867 0.338258
0.890299 0.722234 0.346378
0.172760 0.282532 0.197330
0.197414 0.301367 0.204084
0.222067 0.320203 0.210838
0.246721 0.339039 0.217592
0.271375 0.357875 0.224347
0.296029 0.376710 0.231101
0.327863 0.394462 0.231591
0.361132 0.411997 0.230829
0.394402 0.429532 0.230067
0.427672 0.447068 0.229304
0.460941 0.464603 0.228542
0.493842 0.481466 0.228439
0.526558 0.497993 0.228666
0.559274 0.514521 0.228894
0.591991 0.531048 0.229121
0.624707 0.547575 0.229348
0.653590 0.563087 0.232227
0.678640 0.577582 0.237759
0.703691 0.592077 0.243290
0.728741 0.606572 0.248822
0.753791 0.621067 0.254353
0.775922 0.634905 0.262317
0.792215 0.647432 0.275146
0.808507 0.659959 0.287974
0.824800 0.672485 0.300803
0.841092 0.685012 0.313631
0.856000 0.696772 0.325641
0.863985 0.704700 0.333561
0.871969 0.712629 0.341480
0.879954 0.720557 0.349399
0.887939 0.728485 0.357318
0.895923 0.736413 0.365237
0.175013 0.287250 0.200473
0.200833 0.307382 0.208297
0.226653 0.327514 0.216122
0.252473 0.347645 0.223946
0.278293 0.367777 0.231771
0.304114 0.387909 0.239596
0.336509 0.406147 0.240550
0.370219 0.424007 0.240131
0.403930 0.441867 0.239712
0.437640 0.459727 0.239292
0.471350 0.477587 0.238873
0.504405 0.494560 0.239032
0.537132 0.511091 0.239480
0.569859 0.527621 0.239929
0.602586 0.544152 0.240377
0.635312 0.560682 0.240825
0.664151 0.576178 0.243857
0.689103 0.590639 0.249472
0.714054 0.605101 0.255088
0.739005 0.619562 0.260703
0.763956 0.634024 0.266318
0.785848 0.647989 0.274771
0.801622 0.660962 0.288897
0.817396 0.673936 0.303023
0.833171 0.686909 0.317149
0.848945 0.699882 0.331275
0.863368 0.711972 0.344422
0.871035 0.719643 0.352676
0.878703 0.727313 0.360931
0.886370 0.734984 0.369186
0.894038 0.742654 0.377440
0.901705 0.750325 0.385695
0.176005 0.287676 0.201843
0.203609 0.309774 0.211241
0.231213 0.331873 0.220639
0.258817 0.353971 0.230037
0.286421 0.376070 0.239435
0.314026 0.398168 0.248833
0.347244 0.417177 0.250317
0.381586 0.435567 0.250218
0.415927 0.453958 0.250119
0.450269 0.472348 0.250020
0.484610 0.490739 0.249921
0.517766 0.507840 0.250278
0.550328 0.524297 0.250864
0.582890 0.540755 0.251449
0.615452 0.557212 0.252034
0.648014 0.573669 0.252620
0.676474 0.588982 0.255835
0.700830 0.603151 0.261679
0.725187 0.617319 0.267523
0.749543 0.631488 0.273367
