filters/luts/Foreshadowing 05_S.cube
# Created by: Adobe Photoshop Export Color Lookup Plugin
# LUT by SparkleStock. Enhanced with VOXCOLOR algorithms.
LUT_3D_SIZE 32
0.070330 0.101587 0.093773
0.083942 0.102769 0.091741
0.097554 0.103951 0.089708
0.111166 0.105132 0.087676
0.124778 0.106314 0.085643
0.138391 0.107495 0.083611
0.158541 0.111001 0.083981
0.179999 0.114971 0.084832
0.201457 0.118941 0.085683
0.222915 0.122911 0.086534
0.244374 0.126882 0.087384
0.269644 0.132680 0.089937
0.296821 0.139391 0.093340
0.323999 0.146103 0.096743
0.351176 0.152814 0.100146
0.378353 0.159526 0.103549
0.405861 0.167206 0.107850
0.433700 0.175856 0.113049
0.461538 0.184505 0.118248
0.489377 0.193155 0.123447
0.517216 0.201804 0.128646
0.543212 0.210422 0.133971
0.565521 0.218977 0.139549
0.587829 0.227532 0.145126
0.610138 0.236086 0.150703
0.632447 0.244641 0.156280
0.652865 0.252605 0.161542
0.663831 0.257616 0.165229
0.674796 0.262626 0.168916
0.685762 0.267636 0.172602
0.696727 0.272646 0.176289
0.707692 0.277656 0.179976
0.073166 0.105652 0.095616
0.087546 0.108041 0.093575
0.101927 0.110430 0.091533
0.116307 0.112819 0.089492
0.130688 0.115209 0.087450
0.145069 0.117598 0.085409
0.165850 0.121365 0.085480
0.187912 0.125409 0.085974
0.209974 0.129452 0.086468
0.232036 0.133496 0.086962
0.254098 0.137539 0.087456
0.279631 0.143264 0.089725
0.306899 0.149829 0.092881
0.334168 0.156394 0.096037
0.361437 0.162959 0.099193
0.388705 0.169525 0.102349
0.416108 0.177031 0.106513
0.443645 0.185479 0.111684
0.471182 0.193928 0.116856
0.498719 0.202376 0.122028
0.526256 0.210824 0.127199
0.551888 0.219298 0.132598
0.573713 0.227826 0.138449
0.595537 0.236353 0.144301
0.617361 0.244881 0.150153
0.639185 0.253408 0.156004
0.659120 0.261403 0.161584
0.669609 0.266733 0.165801
0.680099 0.272063 0.170018
0.690589 0.277393 0.174235
0.701078 0.282724 0.178452
0.711568 0.288054 0.182670
0.076001 0.109717 0.097460
0.091150 0.113313 0.095409
0.106300 0.116910 0.093358
0.121449 0.120507 0.091308
0.136598 0.124104 0.089257
0.151747 0.127700 0.087206
0.173160 0.131730 0.086979
0.195825 0.135847 0.087116
0.218491 0.139963 0.087253
0.241157 0.144080 0.087390
0.263822 0.148197 0.087528
0.289617 0.153848 0.089513
0.316978 0.160267 0.092422
0.344338 0.166686 0.095331
0.371698 0.173104 0.098240
0.399058 0.179523 0.101149
0.426355 0.186856 0.105176
0.453590 0.195103 0.110320
0.480825 0.203350 0.115464
0.508061 0.211597 0.120608
0.535296 0.219844 0.125752
0.560565 0.228175 0.131224
0.581905 0.236675 0.137350
0.603244 0.245175 0.143476
0.624583 0.253675 0.149602
0.645922 0.262175 0.155728
0.665374 0.270200 0.161625
0.675388 0.275850 0.166373
0.685402 0.281501 0.171120
0.695416 0.287151 0.175868
0.705430 0.292802 0.180616
0.715444 0.298452 0.185364
0.078837 0.113782 0.099303
0.094755 0.118586 0.097243
0.110672 0.123390 0.095183
0.126590 0.128194 0.093123
0.142507 0.132998 0.091064
0.158425 0.137803 0.089004
0.180469 0.142095 0.088477
0.203738 0.146285 0.088258
0.227008 0.150474 0.088038
0.250277 0.154664 0.087819
0.273546 0.158854 0.087599
0.299604 0.164432 0.089301
0.327056 0.170705 0.091963
0.354507 0.176977 0.094625
0.381959 0.183250 0.097287
0.409410 0.189522 0.099949
0.436603 0.196681 0.103838
0.463536 0.204727 0.108955
0.490469 0.212772 0.114072
0.517402 0.220818 0.119189
0.544335 0.228864 0.124306
0.569242 0.237052 0.129850
0.590097 0.245524 0.136251
0.610951 0.253997 0.142651
0.631805 0.262469 0.149052
0.652660 0.270942 0.155452
0.671628 0.278997 0.161666
0.681166 0.284968 0.166944
0.690705 0.290939 0.172223
0.700243 0.296909 0.177501
0.709781 0.302880 0.182779
0.719319 0.308850 0.188058
0.081673 0.117846 0.101146
0.098359 0.123858 0.099077
0.115045 0.129870 0.097008
0.131731 0.135882 0.094939
0.148417 0.141893 0.092870
0.165103 0.147905 0.090801
0.187778 0.152459 0.089976
0.211651 0.156722 0.089400
0.235524 0.160985 0.088824
0.259398 0.165248 0.088247
0.283271 0.169511 0.087671
0.309591 0.175016 0.089089
0.337134 0.181142 0.091504
0.364677 0.187269 0.093919
0.392220 0.193395 0.096334
0.419763 0.199521 0.098749
0.446850 0.206506 0.102501
0.473481 0.214350 0.107591
0.500112 0.222195 0.112680
0.526744 0.230039 0.117769
0.553375 0.237884 0.122859
0.577919 0.245928 0.128477
0.598289 0.254373 0.135151
0.618658 0.262818 0.141826
0.639028 0.271264 0.148501
0.659397 0.279709 0.155176
0.677882 0.287795 0.161707
0.686945 0.294085 0.167516
0.696007 0.300376 0.173325
0.705070 0.306667 0.179134
0.714132 0.312958 0.184943
0.723195 0.319248 0.190752
0.084509 0.121911 0.102989
0.101963 0.129130 0.100911
0.119418 0.136350 0.098833
0.136872 0.143569 0.096755
0.154326 0.150788 0.094677
0.171781 0.158007 0.092599
0.195087 0.162824 0.091475
0.219564 0.167160 0.090542
0.244041 0.171496 0.089609
0.268518 0.175833 0.088676
0.292995 0.180169 0.087743
0.319577 0.185601 0.088877
0.347212 0.191580 0.091045
0.374846 0.197560 0.093213
0.402481 0.203540 0.095381
0.430115 0.209519 0.097549
0.457097 0.216331 0.101164
0.483427 0.223974 0.106226
0.509756 0.231617 0.111288
0.536085 0.239260 0.116350
0.562415 0.246903 0.121412
0.586596 0.254805 0.127103
0.606481 0.263222 0.134052
0.626365 0.271640 0.141002
0.646250 0.280058 0.147951
0.666135 0.288475 0.154900
0.684136 0.296592 0.161748
0.692723 0.303203 0.168088
0.701310 0.309814 0.174427
0.709897 0.316425 0.180767
0.718484 0.323036 0.187106
0.727071 0.329647 0.193446
0.088645 0.129442 0.106448
0.106326 0.137137 0.104734
0.124008 0.144832 0.103020
0.141689 0.152527 0.101307
0.159371 0.160222 0.099593
0.177052 0.167917 0.097879
0.200836 0.173680 0.096544
0.225841 0.179058 0.095285
0.250845 0.184435 0.094025
0.275850 0.189813 0.092766
0.300854 0.195190 0.091506
0.327724 0.201050 0.092408
0.355526 0.207150 0.094390
0.383328 0.213250 0.096372
0.411131 0.219350 0.098354
0.438933 0.225450 0.100336
0.465928 0.232282 0.103841
0.492115 0.239846 0.108868
0.518303 0.247410 0.113894
0.544491 0.254974 0.118921
0.570678 0.262538 0.123948
0.594674 0.270370 0.129679
0.614288 0.278737 0.136819
0.633901 0.287104 0.143959
0.653514 0.295472 0.151099
0.673127 0.303839 0.158239
0.690875 0.311954 0.165320
0.699291 0.318809 0.172107
0.707707 0.325664 0.178893
0.716123 0.332519 0.185679
0.724539 0.339374 0.192465
0.732955 0.346229 0.199252
0.093040 0.137666 0.110229
0.110841 0.145690 0.108954
0.128641 0.153715 0.107680
0.146442 0.161739 0.106405
0.164242 0.169763 0.105130
0.182043 0.177787 0.103856
0.206273 0.184635 0.102327
0.231790 0.191248 0.100747
0.257307 0.197860 0.099168
0.282824 0.204473 0.097588
0.308340 0.211085 0.096009
0.335503 0.217472 0.096688
0.363488 0.223746 0.098496
0.391473 0.230020 0.100304
0.419458 0.236294 0.102113
0.447443 0.242568 0.103921
0.474475 0.249459 0.107320
0.500553 0.256968 0.112310
0.526631 0.264477 0.117300
0.552709 0.271986 0.122291
0.578786 0.279495 0.127281
0.602633 0.287272 0.133046
0.622018 0.295584 0.140359
0.641402 0.303897 0.147673
0.660787 0.312209 0.154987
0.680171 0.320522 0.162301
0.697710 0.328629 0.169598
0.706016 0.335713 0.176815
0.714322 0.342797 0.184031
0.722629 0.349880 0.191247
0.730935 0.356964 0.198463
0.739241 0.364047 0.205680
0.097436 0.145890 0.114010
0.115355 0.154244 0.113174
0.133275 0.162597 0.112339
0.151194 0.170951 0.111503
0.169113 0.179304 0.110668
0.187033 0.187658 0.109832
0.211710 0.195590 0.108110
0.237739 0.203437 0.106210
0.263768 0.211285 0.104311
0.289797 0.219132 0.102411
0.315826 0.226980 0.100511
0.343282 0.233894 0.100968
0.371450 0.240342 0.102602
0.399618 0.246790 0.104236
0.427786 0.253237 0.105871
0.455954 0.259685 0.107505
0.483022 0.266636 0.110799
0.508990 0.274090 0.115753
0.534958 0.281544 0.120707
0.560926 0.288998 0.125660
0.586895 0.296452 0.130614
0.610592 0.304174 0.136412
0.629748 0.312432 0.143900
0.648904 0.320690 0.151387
0.668059 0.328947 0.158875
0.687215 0.337205 0.166363
0.704545 0.345305 0.173877
0.712741 0.352617 0.181523
0.720938 0.359929 0.189169
0.729134 0.367242 0.196815
0.737331 0.374554 0.204461
0.745528 0.381866 0.212108
0.101832 0.154114 0.117791
0.119870 0.162797 0.117395
0.137908 0.171480 0.116998
0.155946 0.180163 0.116602
0.173985 0.188846 0.116206
0.192023 0.197529 0.115809
0.217147 0.206545 0.113893
0.243688 0.215627 0.111673
0.270230 0.224709 0.109453
0.296771 0.233792 0.107233
0.323312 0.242874 0.105013
0.351060 0.250316 0.105247
0.379411 0.256938 0.106708
0.407763 0.263559 0.108169
0.436114 0.270181 0.109629
0.464465 0.276803 0.111090
0.491570 0.283813 0.114279
0.517428 0.291212 0.119196
0.543286 0.298611 0.124113
0.569144 0.306011 0.129030
0.595003 0.313410 0.133947
0.618551 0.321077 0.139779
0.637478 0.329280 0.147440
0.656405 0.337482 0.155101
0.675332 0.345685 0.162763
0.694259 0.353888 0.170424
0.711380 0.361980 0.178155
0.719467 0.369521 0.186231
0.727553 0.377062 0.194307
0.735640 0.384603 0.202383
0.743727 0.392144 0.210459
0.751814 0.399685 0.218536
0.106227 0.162338 0.121572
0.124384 0.171350 0.121615
0.142542 0.180363 0.121658
0.160699 0.189375 0.121700
0.178856 0.198387 0.121743
0.197013 0.207399 0.121786
0.222584 0.217499 0.119676
0.249638 0.227817 0.117136
0.276691 0.238134 0.114596
0.303745 0.248452 0.112056
0.330799 0.258769 0.109516
0.358839 0.266738 0.109527
0.387373 0.273534 0.110814
0.415907 0.280329 0.112101
0.444441 0.287125 0.113387
0.472975 0.293920 0.114674
0.500117 0.300990 0.117758
0.525865 0.308334 0.122638
0.551614 0.315678 0.127519
0.577362 0.323023 0.132399
0.603111 0.330367 0.137280
0.626509 0.337979 0.143145
0.645208 0.346127 0.150980
0.663906 0.354275 0.158816
0.682605 0.362423 0.166651
0.701303 0.370570 0.174486
0.718215 0.378655 0.182433
0.726192 0.386425 0.190939
0.734169 0.394195 0.199445
0.742146 0.401964 0.207951
0.750123 0.409734 0.216457
0.758100 0.417504 0.224964
0.110969 0.172138 0.126456
0.129215 0.181375 0.126999
0.147461 0.190613 0.127542
0.165706 0.199851 0.128085
0.183952 0.209089 0.128627
0.202198 0.218327 0.129170
0.228195 0.229016 0.127345
0.255742 0.239995 0.125046
0.283290 0.250974 0.122746
0.310838 0.261953 0.120447
0.338385 0.272933 0.118148
0.366623 0.281588 0.118030
0.395206 0.289082 0.119003
0.423789 0.296575 0.119976
0.452372 0.304069 0.120948
0.480955 0.311563 0.121921
0.508056 0.319009 0.124793
0.533677 0.326409 0.129563
0.559297 0.333808 0.134334
0.584918 0.341207 0.139105
0.610538 0.348606 0.143875
0.633789 0.356239 0.149685
0.652302 0.364338 0.157572
0.670814 0.372437 0.165459
0.689326 0.380536 0.173346
0.707839 0.388635 0.181233
0.724589 0.396698 0.189265
0.732530 0.404580 0.198018
0.740470 0.412463 0.206771
0.748411 0.420345 0.215524
0.756351 0.428228 0.224277
0.764292 0.436110 0.233030
0.115885 0.182725 0.131892
0.134204 0.192137 0.132965
0.152522 0.201548 0.134038
0.170841 0.210960 0.135112
0.189160 0.220372 0.136185
0.207479 0.229784 0.137259
0.233893 0.240814 0.135956
0.261925 0.252168 0.134178
0.289957 0.263522 0.132400
0.317990 0.274876 0.130623
0.346022 0.286231 0.128845
0.374410 0.295652 0.128645
0.402974 0.304106 0.129233
0.431539 0.312560 0.129822
0.460103 0.321014 0.130410
0.488668 0.329469 0.130999
0.515692 0.337450 0.133605
0.541175 0.344959 0.138230
0.566658 0.352468 0.142854
0.592141 0.359977 0.147478
0.617625 0.367486 0.152102
0.640729 0.375176 0.157811
0.659077 0.383230 0.165689
0.677425 0.391283 0.173567
0.695773 0.399336 0.181445
0.714121 0.407390 0.189323
0.730734 0.415423 0.197373
0.738674 0.423361 0.206281
0.746615 0.431298 0.215190
0.754555 0.439236 0.224099
0.762496 0.447173 0.233007
0.770436 0.455110 0.241916
0.120800 0.193312 0.137327
0.139192 0.202898 0.138931
0.157584 0.212483 0.140535
0.175976 0.222069 0.142139
0.194368 0.231654 0.143743
0.212760 0.241240 0.145347
0.239590 0.252612 0.144567
0.268107 0.264341 0.143311
0.296625 0.276070 0.142055
0.325142 0.287800 0.140798
0.353659 0.299529 0.139542
0.382196 0.309715 0.139259
0.410742 0.319130 0.139464
0.439289 0.328545 0.139668
0.467835 0.337959 0.139872
0.496381 0.347374 0.140077
0.523327 0.355891 0.142418
0.548673 0.363510 0.146896
0.574019 0.371128 0.151374
0.599365 0.378747 0.155852
0.624711 0.386366 0.160330
0.647670 0.394114 0.165938
0.665853 0.402122 0.173807
0.684036 0.410129 0.181675
0.702219 0.418137 0.189544
0.720402 0.426144 0.197413
0.736878 0.434149 0.205481
0.744819 0.442142 0.214545
0.752759 0.450134 0.223609
0.760700 0.458126 0.232673
0.768640 0.466119 0.241737
0.776580 0.474111 0.250802
0.125716 0.203899 0.142763
0.144181 0.213659 0.144897
0.162646 0.223418 0.147032
0.181111 0.233177 0.149166
0.199577 0.242937 0.151301
0.218042 0.252696 0.153435
0.245288 0.264410 0.153179
0.274290 0.276514 0.152444
0.303292 0.288618 0.151709
0.332294 0.300723 0.150974
0.361296 0.312827 0.150239
0.389982 0.323779 0.149874
0.418510 0.334154 0.149694
0.447038 0.344529 0.149514
0.475566 0.354905 0.149334
0.504094 0.365280 0.149155
0.530963 0.374332 0.151230
0.556172 0.382060 0.155562
0.581380 0.389789 0.159893
0.606589 0.397517 0.164225
0.631798 0.405246 0.168557
0.654610 0.413052 0.174064
0.672628 0.421014 0.181924
0.690647 0.428976 0.189783
0.708665 0.436938 0.197643
0.726684 0.444899 0.205503
0.743023 0.452875 0.213589
0.750963 0.460922 0.222809
0.758903 0.468970 0.232028
0.766844 0.477017 0.241248
0.774784 0.485064 0.250468
0.782725 0.493111 0.259687
0.130631 0.214487 0.148198
0.149170 0.224420 0.150863
0.167708 0.234353 0.153528
0.186247 0.244286 0.156193
0.204785 0.254219 0.158858
0.223323 0.264152 0.161524
0.250986 0.276208 0.161790
0.280472 0.288687 0.161576
0.309959 0.301166 0.161363
0.339446 0.313646 0.161150
0.368933 0.326125 0.160936
0.397769 0.337842 0.160489
0.426279 0.349178 0.159925
0.454788 0.360514 0.159361
0.483298 0.371850 0.158796
0.511808 0.383186 0.158232
0.538598 0.392773 0.160043
0.563670 0.400611 0.164228
0.588741 0.408449 0.168413
0.613813 0.416287 0.172598
0.638885 0.424126 0.176784
0.661550 0.431990 0.182191
0.679404 0.439906 0.190041
0.697258 0.447822 0.197892
0.715112 0.455738 0.205742
0.732965 0.463654 0.213593
0.749167 0.471601 0.221697
0.757107 0.479703 0.231072
0.765048 0.487805 0.240448
0.772988 0.495907 0.249823
0.780929 0.504009 0.259198
0.788869 0.512112 0.268573
0.135145 0.224601 0.153610
0.153903 0.234836 0.156911
0.172661 0.245071 0.160212
0.191419 0.255306 0.163513
0.210177 0.265541 0.166813
0.228935 0.275777 0.170114
0.256919 0.288084 0.170902
0.286750 0.300806 0.171187
0.316580 0.313527 0.171472
0.346410 0.326249 0.171757
0.376240 0.338971 0.172043
0.405321 0.351156 0.171758
0.434027 0.363073 0.171190
0.462733 0.374990 0.170621
0.491440 0.386906 0.170052
0.520146 0.398823 0.169484
0.546900 0.408920 0.171219
0.571702 0.417198 0.175258
0.596503 0.425475 0.179296
0.621305 0.433752 0.183335
0.646107 0.442030 0.187374
0.668519 0.450173 0.192636
0.686154 0.458048 0.200345
0.703788 0.465923 0.208054
0.721422 0.473798 0.215762
0.739056 0.481673 0.223471
0.755073 0.489581 0.231458
0.762999 0.497655 0.240838
0.770926 0.505730 0.250218
0.778853 0.513805 0.259597
0.786780 0.521879 0.268977
0.794706 0.529954 0.278357
0.139257 0.234243 0.158998
0.158381 0.244908 0.163040
0.177505 0.255573 0.167082
0.196629 0.266238 0.171124
0.215753 0.276903 0.175166
0.234876 0.287568 0.179207
0.263090 0.300039 0.180515
0.293121 0.312870 0.181276
0.323152 0.325702 0.182037
0.353184 0.338533 0.182797
0.383215 0.351365 0.183558
0.412637 0.363721 0.183683
0.441755 0.375839 0.183489
0.470873 0.387957 0.183296
0.499991 0.400075 0.183102
0.529110 0.412193 0.182908
0.555868 0.422775 0.184758
0.580267 0.431821 0.188650
0.604666 0.440867 0.192543
0.629066 0.449912 0.196435
0.653465 0.458958 0.200328
0.675518 0.467602 0.205401
0.692877 0.475440 0.212835
0.710237 0.483278 0.220269
0.727597 0.491116 0.227703
0.744957 0.498955 0.235138
0.760740 0.506814 0.242872
0.768639 0.514779 0.252105
0.776538 0.522744 0.261338
0.784438 0.530709 0.270572
0.792337 0.538673 0.279805
0.800236 0.546638 0.289039
0.143369 0.243885 0.164386
0.162859 0.254980 0.169169
0.182349 0.266075 0.173952
0.201838 0.277170 0.178735
0.221328 0.288265 0.183518
0.240818 0.299360 0.188300
0.269260 0.311994 0.190128
0.299493 0.324935 0.191365
0.329725 0.337876 0.192601
0.359958 0.350818 0.193838
0.390190 0.363759 0.195074
0.419954 0.376286 0.195607
0.449484 0.388605 0.195789
0.479014 0.400924 0.195970
0.508543 0.413243 0.196151
0.538073 0.425563 0.196333
0.564836 0.436630 0.198297
0.588833 0.446444 0.202043
0.612830 0.456258 0.205789
0.636826 0.466072 0.209535
0.660823 0.475887 0.213281
0.682516 0.485030 0.218165
0.699601 0.492832 0.225325
0.716687 0.500633 0.232485
0.733772 0.508435 0.239645
0.750857 0.516237 0.246804
0.766407 0.524047 0.254285
0.774279 0.531902 0.263372
0.782151 0.539758 0.272459
0.790023 0.547613 0.281546
0.797894 0.555468 0.290633
0.805766 0.563323 0.299720
0.147481 0.253527 0.169774
0.167337 0.265052 0.175298
0.187193 0.276577 0.180822
0.207048 0.288102 0.186346
0.226904 0.299627 0.191870
0.246760 0.311152 0.197394
0.275430 0.323949 0.199741
0.305864 0.337000 0.201453
0.336298 0.350051 0.203165
0.366732 0.363102 0.204878
0.397166 0.376153 0.206590
0.427271 0.388850 0.207532
0.457212 0.401371 0.208088
0.487154 0.413891 0.208645
0.517095 0.426412 0.209201
0.547036 0.438933 0.209758
0.573804 0.450484 0.211836
0.597398 0.461067 0.215435
0.620993 0.471650 0.219035
0.644587 0.482232 0.222635
0.668181 0.492815 0.226235
0.689514 0.502458 0.230930
0.706325 0.510224 0.237815
0.723136 0.517989 0.244700
0.739947 0.525754 0.251586
0.756758 0.533519 0.258471
0.772074 0.541281 0.265699
0.779919 0.549026 0.274640
0.787763 0.556771 0.283580
0.795607 0.564517 0.292521
0.803452 0.572262 0.301462
0.811296 0.580007 0.310402
0.151593 0.263169 0.175162
0.171815 0.275124 0.181427
0.192036 0.287079 0.187692
0.212258 0.299034 0.193957
0.232480 0.310989 0.200222
0.252701 0.322944 0.206487
0.281601 0.335903 0.209354
0.312236 0.349064 0.211542
0.342871 0.362225 0.213730
0.373506 0.375386 0.215918
0.404141 0.388547 0.218106
0.434588 0.401415 0.219456
0.464941 0.414137 0.220388
0.495294 0.426859 0.221319
0.525647 0.439581 0.222251
0.556000 0.452302 0.223182
0.582772 0.464339 0.225375
0.605964 0.475690 0.228828
0.629156 0.487041 0.232281
0.652347 0.498392 0.235735
0.675539 0.509743 0.239188
0.696512 0.519887 0.243694
0.713049 0.527615 0.250305
0.729585 0.535344 0.256916
0.746122 0.543072 0.263527
0.762658 0.550801 0.270138
0.777741 0.558514 0.277113
0.785558 0.566149 0.285907
0.793375 0.573785 0.294701
0.801192 0.581420 0.303495
0.809009 0.589056 0.312290
0.816826 0.596691 0.321084
0.155154 0.271535 0.179920
0.175906 0.284100 0.187057
0.196658 0.296664 0.194194
0.217410 0.309229 0.201331
0.238163 0.321794 0.208468
0.258915 0.334359 0.215605
0.288088 0.347527 0.218984
0.318946 0.360816 0.221611
0.349804 0.374105 0.224238
0.380661 0.387394 0.226865
0.411519 0.400683 0.229492
0.442217 0.413679 0.231206
0.472835 0.426529 0.232464
0.503453 0.439379 0.233722
0.534072 0.452229 0.234980
0.564690 0.465078 0.236237
0.591462 0.477426 0.238563
0.614389 0.489271 0.241955
0.637315 0.501116 0.245347
0.660241 0.512961 0.248740
0.683168 0.524806 0.252132
0.703863 0.535356 0.256588
0.720094 0.543313 0.263172
0.736326 0.551270 0.269755
0.752557 0.559227 0.276339
0.768789 0.567184 0.282922
0.783606 0.575063 0.289834
0.791350 0.582549 0.298391
0.799093 0.590035 0.306947
0.806837 0.597521 0.315504
0.814581 0.605008 0.324060
0.822325 0.612494 0.332616
0.157612 0.277348 0.183418
0.179224 0.290883 0.191689
0.200836 0.304417 0.199961
0.222448 0.317952 0.208232
0.244060 0.331486 0.216503
0.265672 0.345021 0.224775
0.295210 0.358488 0.228647
0.326333 0.371941 0.231640
0.357456 0.385395 0.234633
0.388579 0.398849 0.237626
0.419702 0.412302 0.240619
0.450470 0.425341 0.242607
0.481061 0.438173 0.244094
0.511652 0.451004 0.245581
0.542242 0.463836 0.247067
0.572833 0.476667 0.248554
0.599596 0.488978 0.251048
0.622532 0.500769 0.254550
0.645467 0.512559 0.258052
0.668403 0.524349 0.261554
0.691339 0.536139 0.265057
0.711917 0.546905 0.269741
0.727783 0.555621 0.276791
0.743649 0.564338 0.283841
0.759514 0.573054 0.290892
0.775380 0.581771 0.297942
0.789865 0.590244 0.305173
0.797444 0.597502 0.313308
0.805023 0.604759 0.321444
0.812602 0.612016 0.329579
0.820181 0.619274 0.337715
0.827760 0.626531 0.345851
0.160069 0.283162 0.186916
0.182541 0.297666 0.196321
0.205013 0.312170 0.205727
0.227485 0.326674 0.215133
0.249957 0.341178 0.224538
0.272429 0.355683 0.233944
0.302332 0.369449 0.238310
0.333720 0.383067 0.241669
0.365108 0.396685 0.245028
0.396496 0.410303 0.248387
0.427885 0.423922 0.251746
0.458723 0.437003 0.254009
0.489286 0.449817 0.255724
0.519850 0.462630 0.257439
0.550413 0.475443 0.259155
0.580977 0.488256 0.260870
0.607731 0.500531 0.263533
0.630675 0.512266 0.267145
0.653620 0.524001 0.270757
0.676565 0.535737 0.274369
0.699509 0.547472 0.277981
0.719972 0.558454 0.282895
0.735472 0.567930 0.290411
0.750972 0.577406 0.297928
0.766471 0.586882 0.305444
0.781971 0.596357 0.312961
0.796123 0.605425 0.320511
0.803538 0.612454 0.328225
0.810952 0.619483 0.335940
0.818367 0.626511 0.343655
0.825781 0.633540 0.351370
0.833195 0.640569 0.359085
0.162527 0.288976 0.190413
0.185859 0.304449 0.200953
0.209191 0.319923 0.211493
0.232523 0.335397 0.222033
0.255855 0.350871 0.232573
0.279187 0.366345 0.243113
0.309453 0.380409 0.247974
0.341107 0.394192 0.251699
0.372760 0.407975 0.255423
0.404414 0.421758 0.259148
0.436067 0.435541 0.262873
0.466976 0.448665 0.265410
0.497512 0.461460 0.267354
0.528048 0.474255 0.269298
0.558584 0.487050 0.271242
0.589120 0.499845 0.273186
0.615865 0.512083 0.276019
0.638818 0.523764 0.279741
0.661772 0.535444 0.283462
0.684726 0.547124 0.287184
0.707680 0.558805 0.290906
0.728027 0.570004 0.296048
0.743161 0.580239 0.304031
0.758295 0.590474 0.312014
0.773428 0.600709 0.319997
0.788562 0.610944 0.327980
0.802382 0.620606 0.335849
0.809632 0.627406 0.343143
0.816882 0.634206 0.350437
0.824131 0.641006 0.357731
0.831381 0.647806 0.365025
0.838631 0.654606 0.372319
0.164985 0.294789 0.193911
0.189177 0.311233 0.205585
0.213369 0.327676 0.217259
0.237560 0.344120 0.228934
0.261752 0.360563 0.240608
0.285944 0.377007 0.252282
0.316575 0.391370 0.257637
0.348494 0.405318 0.261728
0.380413 0.419265 0.265818
0.412331 0.433213 0.269909
0.444250 0.447161 0.274000
0.475229 0.460328 0.276812
0.505737 0.473104 0.278984
0.536246 0.485881 0.281157
0.566754 0.498658 0.283330
0.597263 0.511434 0.285502
0.623999 0.523635 0.288504
0.646962 0.535261 0.292336
0.669925 0.546887 0.296167
0.692888 0.558512 0.299999
0.715851 0.570138 0.303830
0.736082 0.581553 0.309201
0.750850 0.592547 0.317651
0.765618 0.603542 0.326101
0.780385 0.614536 0.334550
0.795153 0.625530 0.343000
0.808641 0.635787 0.351187
0.815726 0.642359 0.358060
0.822811 0.648930 0.364933
0.829896 0.655501 0.371806
0.836981 0.662073 0.378680
0.844066 0.668644 0.385553
0.167198 0.299681 0.197038
0.192360 0.317215 0.209938
0.217521 0.334748 0.222838
0.242683 0.352282 0.235739
0.267844 0.369815 0.248639
0.293006 0.387349 0.261539
0.324048 0.402067 0.267390
0.356265 0.416222 0.271831
0.388483 0.430377 0.276273
0.420701 0.444532 0.280714
0.452918 0.458687 0.285155
0.483961 0.471905 0.288203
0.514416 0.484654 0.290554
0.544871 0.497403 0.292905
0.575326 0.510153 0.295256
0.605782 0.522902 0.297607
0.632455 0.535052 0.300743
0.655346 0.546603 0.304663
0.678237 0.558154 0.308583
0.701129 0.569704 0.312503
0.724020 0.581255 0.316423
0.744076 0.592816 0.321975
0.758461 0.604398 0.330794
0.772846 0.615979 0.339613
0.787231 0.627560 0.348431
0.801617 0.639142 0.357250
0.814766 0.649884 0.365730
0.821733 0.656429 0.372520
0.828701 0.662974 0.379309
0.835669 0.669520 0.386098
0.842636 0.676065 0.392888
0.849604 0.682611 0.399677
0.168191 0.299965 0.198314
0.194871 0.319191 0.212898
0.221551 0.338417 0.227481
0.248231 0.357643 0.242064
0.274911 0.376869 0.256648
0.301591 0.396095 0.271231
0.333275 0.411445 0.277592
0.365959 0.426021 0.282307
0.398643 0.440597 0.287023
0.431328 0.455173 0.291739
0.464012 0.469749 0.296455
0.495088 0.483058 0.299545
0.525360 0.495734 0.301823
0.555632 0.508410 0.304101
0.585904 0.521086 0.306379
0.616177 0.533762 0.308657
0.642521 0.545789 0.311746
0.664936 0.557166 0.315648
0.687352 0.568543 0.319550
0.709767 0.579920 0.323451
