filters/luts/Foreshadowing 03_S.cube
# Created by: Adobe Photoshop Export Color Lookup Plugin
# LUT by SparkleStock. Enhanced with VOXCOLOR algorithms.
LUT_3D_SIZE 8
DOMAIN_MIN 0.000000 0.000000 0.000000
DOMAIN_MAX 0.903226 0.903226 0.903226
0.093773 0.113309 0.097680
0.143873 0.118224 0.087282
0.219418 0.131711 0.083178
0.317019 0.154319 0.085446
0.431281 0.186104 0.093978
0.548686 0.227319 0.109291
0.645610 0.268849 0.127599
0.712734 0.301635 0.144661
0.101335 0.130702 0.107133
0.164170 0.154499 0.093076
0.250375 0.174115 0.084690
0.353818 0.196076 0.083031
0.467660 0.224953 0.088873
0.579649 0.262362 0.104187
0.670060 0.303257 0.125665
0.730847 0.339769 0.148040
0.113183 0.160684 0.121273
0.182116 0.192372 0.110399
0.276459 0.224899 0.098847
0.385866 0.255995 0.092794
0.500841 0.285448 0.096504
0.609696 0.320814 0.111921
0.696047 0.360592 0.136070
0.753660 0.399054 0.163359
0.127977 0.198684 0.139549
0.199849 0.233313 0.135286
0.300993 0.277013 0.124746
0.416094 0.320105 0.117100
0.532448 0.356877 0.118976
0.638924 0.391962 0.133808
0.722449 0.430341 0.159688
0.778660 0.469025 0.190765
0.144236 0.239946 0.160770
0.218926 0.277520 0.164338
0.326270 0.325863 0.160203
0.446638 0.378369 0.155540
0.564399 0.428682 0.156507
0.668039 0.466311 0.170992
0.748744 0.503376 0.197409
0.803950 0.540658 0.230517
0.159171 0.276246 0.181000
0.240009 0.320991 0.194959
0.352256 0.372671 0.198521
0.478052 0.427909 0.199530
0.601302 0.483326 0.205400
0.700697 0.533104 0.228374
0.776425 0.570241 0.254133
0.828808 0.604547 0.286418
0.169065 0.299941 0.194927
0.262637 0.359055 0.224280
0.382227 0.416774 0.236910
0.511743 0.473565 0.243723
0.636502 0.529254 0.254237
0.735678 0.580690 0.280212
0.807304 0.625504 0.321168
0.855389 0.661052 0.359872
0.174367 0.309339 0.203498
0.287619 0.390762 0.254318
0.418198 0.458530 0.277771
0.551813 0.517801 0.289918
0.675670 0.572309 0.304094
0.771388 0.621641 0.332843
0.837091 0.668107 0.382139
0.881145 0.707498 0.433851
0.096609 0.117657 0.115073
0.144367 0.129452 0.127070
0.221924 0.141212 0.129704
0.323209 0.159222 0.130314
0.440691 0.187641 0.133906
0.559268 0.227538 0.140437
0.654923 0.270800 0.148743
0.719339 0.307117 0.156907
0.107245 0.144125 0.129210
0.161278 0.174122 0.153071
0.247933 0.190689 0.157558
0.355844 0.206230 0.156224
0.474492 0.229629 0.158712
0.591619 0.263908 0.166830
0.686143 0.305667 0.179421
0.749950 0.347301 0.193426
0.124551 0.185670 0.151144
0.179267 0.222396 0.177018
0.269447 0.252346 0.178124
0.380908 0.276589 0.172659
0.501143 0.297933 0.173398
0.617335 0.327553 0.182002
0.711684 0.365987 0.197842
0.776859 0.408241 0.217455
0.145175 0.234612 0.178190
0.199403 0.273201 0.204140
0.291338 0.314980 0.203335
0.404593 0.351920 0.194665
0.525153 0.380067 0.191940
0.640062 0.406933 0.199940
0.734239 0.441289 0.217690
0.801484 0.480921 0.241614
0.166447 0.284656 0.208194
0.222246 0.324987 0.237527
0.316867 0.371178 0.240255
0.431567 0.418953 0.231659
0.550947 0.463249 0.224512
0.662950 0.491312 0.231130
0.755888 0.522100 0.249198
0.824654 0.557265 0.275319
0.186652 0.330761 0.240279
0.247352 0.373392 0.275358
0.346031 0.421899 0.284187
0.464535 0.473398 0.280733
0.586259 0.524428 0.276663
0.689484 0.566566 0.282705
0.777540 0.597370 0.298886
0.845117 0.627939 0.324156
0.204133 0.367679 0.271184
0.271599 0.413195 0.311345
0.377271 0.465663 0.328603
0.501027 0.520384 0.333163
0.624905 0.573278 0.334258
0.726588 0.619379 0.343112
0.804246 0.656607 0.364592
0.864788 0.687590 0.390823
0.219466 0.394153 0.300216
0.293194 0.441991 0.342910
0.408620 0.501777 0.370880
0.540080 0.562423 0.386300
0.666192 0.616260 0.393521
0.766009 0.662207 0.406920
0.835409 0.701466 0.433371
0.886791 0.734097 0.465442
0.101855 0.124684 0.129387
0.151108 0.140559 0.149573
0.228124 0.157561 0.167142
0.326786 0.177426 0.179018
0.440244 0.202531 0.183955
0.557192 0.240800 0.185541
0.653358 0.285483 0.185520
0.720345 0.326311 0.185132
0.117949 0.161678 0.152562
0.169025 0.193710 0.189944
0.252683 0.211241 0.214515
0.358173 0.225611 0.227098
0.475546 0.245732 0.230201
0.593646 0.278576 0.232712
0.690961 0.321958 0.236045
0.759006 0.368404 0.240194
0.137811 0.208159 0.179521
0.191675 0.250024 0.224721
0.273712 0.278361 0.249963
0.378965 0.297590 0.259974
0.500253 0.313302 0.260550
0.619960 0.339059 0.263786
0.719917 0.376539 0.271289
0.791918 0.421003 0.281857
0.161691 0.263143 0.212528
0.217017 0.308296 0.258327
0.295748 0.347166 0.282248
0.398159 0.377314 0.288691
0.519992 0.398696 0.284318
0.640186 0.418829 0.287251
0.742392 0.449175 0.297569
0.819181 0.487891 0.313461
0.188650 0.323369 0.251755
0.243688 0.366561 0.294181
0.321996 0.409417 0.318232
0.422510 0.451901 0.322475
0.540626 0.491292 0.311282
0.658244 0.511338 0.312001
0.760617 0.536230 0.322341
0.841169 0.568372 0.340465
0.212983 0.375238 0.290512
0.272399 0.418345 0.334680
0.353619 0.463508 0.362968
0.455890 0.510639 0.371150
0.573467 0.557962 0.360985
0.679862 0.595614 0.355353
0.777728 0.620332 0.362727
0.858383 0.646343 0.379794
0.235269 0.417705 0.328806
0.300753 0.460790 0.374808
0.387368 0.508205 0.408747
0.493961 0.558448 0.423672
0.613979 0.609149 0.419083
0.717457 0.652800 0.415553
0.800839 0.685421 0.422352
0.872709 0.712231 0.437155
0.256738 0.451173 0.366143
0.326637 0.492386 0.410831
0.418950 0.542311 0.449991
0.531710 0.596711 0.473532
0.656942 0.651055 0.478051
0.759533 0.696295 0.480161
0.832830 0.732675 0.490171
0.891637 0.761407 0.507232
0.108645 0.133444 0.141408
0.163167 0.152734 0.164363
0.241047 0.176737 0.193582
0.334940 0.202396 0.219206
0.438730 0.229093 0.234564
0.549116 0.265850 0.238577
0.644575 0.311663 0.235088
0.716141 0.357295 0.229241
0.130997 0.182050 0.175475
0.183102 0.216402 0.216334
0.265457 0.237818 0.255304
0.365944 0.255152 0.284298
0.475049 0.275851 0.298751
0.588863 0.307919 0.301536
0.686786 0.352554 0.299334
0.759813 0.402801 0.295934
0.154282 0.234553 0.209922
0.211557 0.279689 0.262304
0.288408 0.308857 0.306159
0.385430 0.327074 0.335444
0.499900 0.340577 0.347785
0.617803 0.363960 0.349905
0.720210 0.400704 0.351109
0.798263 0.446414 0.353301
0.181185 0.292672 0.247613
0.243662 0.342352 0.303707
0.314453 0.380367 0.348992
0.404528 0.406454 0.376321
0.517854 0.422453 0.383779
0.638507 0.437654 0.384481
0.745056 0.464652 0.388422
0.829305 0.501854 0.396063
0.212318 0.355613 0.289932
0.275967 0.403482 0.342567
0.345950 0.445539 0.387401
0.430694 0.483049 0.412060
0.534678 0.514896 0.412487
0.654236 0.528193 0.409514
0.762470 0.547710 0.413496
0.851921 0.576301 0.423990
0.241347 0.412984 0.334385
0.308297 0.458463 0.384173
0.379406 0.501920 0.429618
0.463685 0.544417 0.456167
0.564885 0.585734 0.456840
0.672247 0.620028 0.444042
0.776450 0.639031 0.444313
0.867091 0.660266 0.453561
0.268176 0.457618 0.375346
0.341385 0.502951 0.425778
0.416028 0.547408 0.473626
0.502694 0.592541 0.504430
0.605470 0.638561 0.510339
0.708974 0.680647 0.498599
0.796655 0.710173 0.494802
0.877668 0.733180 0.499872
0.295229 0.492883 0.414229
0.374146 0.537766 0.464761
0.451262 0.581643 0.513269
0.540782 0.628217 0.548256
0.648212 0.678493 0.562665
0.752185 0.724183 0.557384
0.828906 0.759893 0.555691
0.894232 0.786391 0.561287
0.116042 0.142920 0.151688
0.179694 0.166583 0.178229
0.262465 0.196034 0.209855
0.353148 0.229071 0.244238
0.444689 0.264000 0.277057
0.541865 0.300390 0.292431
0.632606 0.347073 0.292895
0.707507 0.397012 0.287089
0.144633 0.204498 0.197135
0.200513 0.244158 0.241566
0.286298 0.271395 0.282818
0.383138 0.294620 0.322532
0.479137 0.320235 0.358524
0.581611 0.351796 0.370688
0.676545 0.396567 0.370077
0.754029 0.448976 0.364550
0.174079 0.268094 0.243701
0.233699 0.314385 0.296671
0.312128 0.347582 0.344639
0.403864 0.369821 0.388246
0.504464 0.385247 0.424674
0.612597 0.407540 0.433396
0.713115 0.443507 0.432939
0.795873 0.489650 0.429776
0.205168 0.328513 0.286344
0.272941 0.378625 0.345152
0.345618 0.419390 0.397816
0.427644 0.446352 0.442865
0.522503 0.459300 0.476639
0.635361 0.471713 0.481314
0.741272 0.496303 0.481520
0.830324 0.531966 0.482078
0.238413 0.384279 0.324478
0.313088 0.438398 0.388954
0.387803 0.483535 0.444227
0.461064 0.517707 0.488195
0.537617 0.539700 0.517351
0.651639 0.547670 0.516462
0.760875 0.562473 0.516746
0.855571 0.587205 0.521010
0.274102 0.446754 0.373999
0.350123 0.495933 0.431704
0.423840 0.540283 0.483022
0.494669 0.578747 0.526446
0.566880 0.611340 0.556488
0.667743 0.641015 0.544442
0.773307 0.654573 0.540627
0.869985 0.671244 0.543632
0.306996 0.493169 0.416491
0.387558 0.541045 0.472616
0.463219 0.585533 0.523773
0.534473 0.626474 0.569180
0.605964 0.664519 0.602892
0.702549 0.703355 0.591033
0.791382 0.729882 0.580834
0.878394 0.749372 0.578395
0.341531 0.529114 0.454790
0.426498 0.576506 0.510850
0.503927 0.620736 0.562329
0.575289 0.662149 0.609055
0.646421 0.702096 0.645793
0.744997 0.746597 0.640703
0.823209 0.781833 0.631448
0.893290 0.806708 0.628300
0.122281 0.151239 0.159817
0.200570 0.181195 0.191481
0.292379 0.216111 0.226053
0.386318 0.255064 0.262119
0.473615 0.296798 0.298103
0.548104 0.338458 0.330603
0.625184 0.385775 0.346118
0.696316 0.437641 0.349954
0.158776 0.230527 0.219462
0.222153 0.276820 0.268110
0.314012 0.310986 0.311641
0.414184 0.341250 0.352661
0.507213 0.373233 0.392314
0.583714 0.406550 0.426362
0.666516 0.450331 0.439235
0.742418 0.502070 0.440947
0.193326 0.303332 0.275249
0.259967 0.354671 0.331369
0.342310 0.394219 0.382382
0.435849 0.423905 0.428536
0.533400 0.446644 0.469732
0.612674 0.469829 0.503252
0.702256 0.504159 0.513467
0.784875 0.548112 0.514060
0.228611 0.368910 0.325918
0.305010 0.421265 0.386175
0.380685 0.465905 0.441771
0.462956 0.498929 0.490889
0.553626 0.519111 0.532213
0.635520 0.532124 0.563650
0.731460 0.554429 0.571094
0.821145 0.586730 0.571308
0.267107 0.427092 0.370785
0.351032 0.481101 0.435662
0.429127 0.526859 0.492597
0.502030 0.563738 0.541546
0.572540 0.590092 0.582090
0.653643 0.596495 0.610003
0.753596 0.607637 0.614311
0.849079 0.627888 0.614474
0.313042 0.478150 0.409621
0.398539 0.532207 0.476793
0.476183 0.578871 0.534826
0.546533 0.617597 0.583655
0.610745 0.647724 0.622365
0.671778 0.665633 0.643540
0.767756 0.672980 0.643165
0.864583 0.685378 0.642384
0.353986 0.525833 0.453260
0.441512 0.577529 0.517718
0.518978 0.623194 0.573787
0.587496 0.662880 0.621752
0.648503 0.696671 0.660881
0.704010 0.723458 0.683735
0.784686 0.744845 0.675823
0.872564 0.760789 0.669054
0.398987 0.564870 0.493248
0.487367 0.614553 0.555757
0.563973 0.658992 0.610525
0.630496 0.698631 0.658039
0.689042 0.733998 0.697927
0.743051 0.765326 0.724283
0.814678 0.797257 0.715866
0.886442 0.820031 0.706987
0.126157 0.156406 0.164796
0.224205 0.195950 0.204632
0.327929 0.236772 0.243212
0.426721 0.280299 0.281001
0.512517 0.326995 0.318245
0.578590 0.374534 0.354331
0.634122 0.419740 0.381116
0.689363 0.468599 0.397456
0.173361 0.260846 0.244615
0.246998 0.311778 0.297223
0.346650 0.353042 0.344404
0.451246 0.390759 0.388210
0.544381 0.429093 0.429936
0.613806 0.467515 0.468269
0.673033 0.507625 0.495834
0.733515 0.554003 0.510865
0.213056 0.343301 0.309207
0.290263 0.398893 0.369730
0.378331 0.444310 0.423980
0.474117 0.481488 0.472691
0.570953 0.512727 0.516518
0.643356 0.542088 0.555116
0.706243 0.574090 0.581798
0.773004 0.612867 0.595046
0.251083 0.409872 0.362768
0.341338 0.467350 0.428988
0.422591 0.516242 0.487769
0.505351 0.555043 0.539145
0.593461 0.583613 0.583478
0.667927 0.604823 0.621067
0.733947 0.627451 0.645843
0.806963 0.655904 0.657159
0.292513 0.465727 0.408787
0.391873 0.524869 0.480138
0.476693 0.574077 0.540681
0.549922 0.614256 0.592113
0.616197 0.645326 0.635844
0.688721 0.661040 0.671359
0.756312 0.674844 0.693563
0.834433 0.692554 0.702961
0.343815 0.513540 0.448648
0.444690 0.572805 0.523332
0.528722 0.621845 0.584941
0.599204 0.661779 0.635639
0.659021 0.693241 0.677037
0.709000 0.713379 0.707494
0.772267 0.722459 0.725783
0.851839 0.732516 0.732889
0.397587 0.557959 0.488168
0.496358 0.614954 0.562546
0.577313 0.662638 0.623474
0.643919 0.702068 0.673073
0.698924 0.734023 0.712992
0.741455 0.756981 0.741915
0.790736 0.772259 0.753065
0.861334 0.783011 0.754862
0.455400 0.597440 0.527066
0.550405 0.651667 0.599885
0.627288 0.697570 0.659533
0.689512 0.736133 0.708053
0.739981 0.768159 0.747138
0.778689 0.792759 0.776107
0.819436 0.813858 0.785238
0.874477 0.829573 0.783523
0.128229 0.159203 0.167403
0.250549 0.211767 0.218321
0.367164 0.259281 0.261735
0.470057 0.306327 0.300880
0.553702 0.355971 0.338298
0.614054 0.408004 0.375183
0.656410 0.453868 0.407646
0.693198 0.494854 0.430071
0.188685 0.295990 0.273508
0.273616 0.347307 0.328273
0.382100 0.395512 0.380549
0.491389 0.441424 0.429362
0.584359 0.485798 0.474121
0.650269 0.529285 0.514367
0.695668 0.568893 0.549421
0.737981 0.607396 0.573308
0.233663 0.389063 0.347805
0.323139 0.445178 0.411833
0.417930 0.494560 0.469363
0.515988 0.538656 0.521764
0.611779 0.578711 0.569778
0.681122 0.615134 0.611145
0.728344 0.648251 0.646618
0.775322 0.681791 0.670154
0.273375 0.453592 0.401376
0.381055 0.515946 0.475596
0.469281 0.567126 0.537200
0.552354 0.609826 0.590122
0.637344 0.646272 0.637253
0.707759 0.676971 0.678028
0.755772 0.703797 0.712531
0.806551 0.731024 0.734776
0.316472 0.502496 0.443725
0.435825 0.569112 0.525785
0.529688 0.622329 0.591480
0.603585 0.664566 0.644109
0.664962 0.698104 0.687201
0.731514 0.724288 0.725530
0.778917 0.745410 0.758081
0.832423 0.766035 0.778658
0.372403 0.545369 0.482275
0.493097 0.612675 0.568452
0.585682 0.665481 0.635384
0.656737 0.706879 0.687523
0.712054 0.739315 0.728561
0.754781 0.762297 0.759222
0.796939 0.778920 0.787812
0.850682 0.794149 0.805959
0.436892 0.586251 0.519346
0.552191 0.651649 0.606972
0.639067 0.702815 0.673812
0.704301 0.742667 0.724579
0.753511 0.773533 0.763170
0.787960 0.794943 0.790177
0.816462 0.809253 0.810766
0.861361 0.821462 0.823306
0.500912 0.623982 0.555129
0.609554 0.686564 0.642600
0.690176 0.735852 0.708731
0.749386 0.774289 0.758206
0.792780 0.803905 0.794974
0.822261 0.824468 0.819929
0.841800 0.838033 0.836059
0.873242 0.849220 0.842381
