filters/luts/Foreshadowing 01_S.cube
# Created by: Adobe Photoshop Export Color Lookup Plugin
# LUT by SparkleStock. Enhanced with VOXCOLOR algorithms.
LUT_3D_SIZE 5
DOMAIN_MIN 0.000000 0.000000 0.000000
DOMAIN_MAX 0.903226 0.903226 0.903226
0.085958 0.097680 0.089866
0.188838 0.114766 0.072480
0.358801 0.163165 0.076088
0.566568 0.236315 0.094348
0.719209 0.301918 0.119863
0.105030 0.132262 0.109803
0.233436 0.189514 0.085648
0.423372 0.245353 0.075225
0.621636 0.311248 0.092898
0.753002 0.382437 0.131305
0.134586 0.195644 0.145268
0.276726 0.276160 0.131650
0.482495 0.370721 0.113754
0.675862 0.444584 0.128788
0.799153 0.518766 0.176914
0.162740 0.260223 0.183339
0.326608 0.363598 0.194249
0.551429 0.478600 0.184418
0.735744 0.581140 0.212967
0.844751 0.650642 0.263630
0.176998 0.288101 0.203214
0.392952 0.447127 0.260305
0.628319 0.570272 0.263692
0.804516 0.670578 0.300836
0.891458 0.748561 0.399725
0.093143 0.105368 0.118729
0.193604 0.132228 0.142928
0.372615 0.172420 0.152402
0.582589 0.242258 0.153770
0.728158 0.318343 0.151568
0.125615 0.172719 0.158821
0.240216 0.237951 0.217124
0.429961 0.273528 0.221710
0.639557 0.324057 0.223873
0.787268 0.402925 0.234740
0.174887 0.269213 0.218230
0.289517 0.354790 0.274163
0.471877 0.426722 0.263600
0.677650 0.472395 0.260573
0.831695 0.535563 0.284151
0.225142 0.366334 0.286012
0.352633 0.459200 0.351476
0.539702 0.555426 0.343185
0.720092 0.633591 0.327465
0.865996 0.681467 0.352348
0.270630 0.442033 0.351536
0.416629 0.536268 0.426969
0.623651 0.646260 0.444734
0.799461 0.732040 0.442240
0.898438 0.787404 0.476659
0.106109 0.119674 0.140659
0.219471 0.159654 0.177268
0.383178 0.216247 0.223919
0.573557 0.286343 0.244818
0.726027 0.374733 0.232307
0.156847 0.221116 0.210198
0.276235 0.297229 0.297139
0.446102 0.333418 0.355183
0.641679 0.379893 0.369116
0.797889 0.463193 0.358491
0.220015 0.332045 0.283074
0.347699 0.428242 0.384599
0.488337 0.480887 0.440415
0.679273 0.503119 0.442335
0.848568 0.552959 0.443411
0.289105 0.448045 0.366417
0.423446 0.541658 0.462642
0.552678 0.615443 0.518096
0.711133 0.673581 0.494674
0.877081 0.699803 0.494828
0.353148 0.531397 0.438928
0.501625 0.622797 0.538256
0.636490 0.701830 0.605655
0.791060 0.775871 0.594244
0.900897 0.821324 0.588022
0.118020 0.133696 0.156910
0.266567 0.191725 0.202925
0.438791 0.268540 0.258634
0.581405 0.354234 0.320506
0.718396 0.450064 0.339470
0.193739 0.284322 0.263365
0.332975 0.380827 0.362938
0.505700 0.438710 0.437676
0.648199 0.491659 0.502726
0.791805 0.570761 0.509332
0.273342 0.412745 0.357391
0.424964 0.515885 0.472124
0.558015 0.578595 0.557525
0.689200 0.599333 0.615089
0.845192 0.635808 0.612590
0.368476 0.517947 0.436757
0.521305 0.619040 0.555974
0.634871 0.684449 0.639178
0.718132 0.711893 0.682438
0.873850 0.720244 0.671462
0.462133 0.610961 0.516146
0.610028 0.698503 0.626681
0.712801 0.762099 0.705511
0.786238 0.807558 0.754452
0.893707 0.842736 0.727206
0.123613 0.139667 0.163110
0.330266 0.229146 0.231244
0.518748 0.319756 0.292366
0.650761 0.420069 0.358699
0.726955 0.505200 0.408536
0.239050 0.370004 0.328666
0.406788 0.477531 0.441950
0.588850 0.561221 0.530802
0.721014 0.633638 0.605169
0.796375 0.696102 0.654542
0.326906 0.495705 0.425002
0.519410 0.614854 0.563664
0.652065 0.688881 0.654506
0.765621 0.738394 0.722035
0.841140 0.774802 0.763187
0.434763 0.590829 0.504274
0.624969 0.702632 0.647973
0.734022 0.768422 0.732562
0.798543 0.804429 0.783257
0.868756 0.820928 0.814212
0.560538 0.673299 0.576158
0.717772 0.765665 0.711787
0.802579 0.821746 0.787985
0.848286 0.853678 0.829808
0.886006 0.867881 0.843458
