filters/luts/Foreshadowing 04.cube
# Created by: Adobe Photoshop Export Color Lookup Plugin
# LUT by SparkleStock. Enhanced with VOXCOLOR algorithms.
LUT_3D_SIZE 5
DOMAIN_MIN 0.000000 0.000000 0.000000
DOMAIN_MAX 0.903226 0.903226 0.903226
0.082051 0.113309 0.097680
0.192052 0.131325 0.081894
0.364426 0.173453 0.090543
0.563283 0.232809 0.115507
0.704069 0.283154 0.143306
0.102493 0.148663 0.113230
0.239367 0.194452 0.105686
0.428368 0.249598 0.113295
0.614747 0.314797 0.138193
0.737168 0.372572 0.167116
0.137044 0.207318 0.143542
0.283076 0.272296 0.145561
0.489121 0.352966 0.153514
0.673736 0.432879 0.182038
0.783685 0.503438 0.220280
0.169609 0.263602 0.175273
0.329718 0.354117 0.197573
0.548550 0.455860 0.211088
0.731014 0.552403 0.258897
0.829497 0.627189 0.308915
0.182890 0.289314 0.189854
0.385835 0.433168 0.257364
0.611915 0.546918 0.281320
0.786335 0.645048 0.336657
0.875157 0.729188 0.442204
0.089165 0.123282 0.120950
0.190544 0.154104 0.144157
0.366629 0.199427 0.154285
0.568363 0.258298 0.163244
0.709433 0.309491 0.172080
0.123036 0.187502 0.159002
0.237687 0.253292 0.216211
0.431884 0.305518 0.226150
0.631748 0.370195 0.237757
0.759614 0.431692 0.260461
0.174382 0.279825 0.214586
0.288071 0.355169 0.278719
0.481081 0.426226 0.290184
0.680130 0.494071 0.301890
0.801679 0.561576 0.336363
0.224705 0.372345 0.281605
0.344227 0.453122 0.354128
0.536966 0.535111 0.370170
0.726249 0.614380 0.383806
0.841211 0.679448 0.425554
0.264863 0.447984 0.351784
0.397025 0.530496 0.429434
0.601078 0.626017 0.462963
0.782906 0.708304 0.485051
0.879706 0.768063 0.540373
0.103659 0.137051 0.139761
0.216563 0.175693 0.181212
0.373065 0.232979 0.227399
0.550692 0.299678 0.251232
0.701674 0.366467 0.250265
0.155820 0.234426 0.210200
0.270729 0.312323 0.290376
0.437732 0.365309 0.342729
0.622151 0.431548 0.363935
0.763873 0.504523 0.371557
0.215467 0.341881 0.281117
0.338295 0.434061 0.385267
0.484812 0.498741 0.450034
0.671600 0.553566 0.460869
0.806984 0.620834 0.478691
0.281388 0.452775 0.365153
0.405837 0.537248 0.465080
0.540688 0.606779 0.535427
0.715672 0.671824 0.545815
0.843274 0.727760 0.566295
0.337805 0.533702 0.442432
0.472123 0.615557 0.543031
0.607204 0.687518 0.618797
0.774474 0.755608 0.633970
0.879541 0.805566 0.658230
0.118098 0.149781 0.153949
0.263453 0.201372 0.211237
0.424330 0.270217 0.274927
0.556180 0.350412 0.335084
0.686182 0.435485 0.359845
0.193416 0.295359 0.264942
0.321360 0.387194 0.361717
0.486155 0.446648 0.435398
0.622426 0.510828 0.499264
0.755061 0.594195 0.520377
0.266827 0.420576 0.358915
0.407171 0.517300 0.473394
0.539969 0.586598 0.559016
0.670374 0.632622 0.616460
0.804328 0.698674 0.625749
0.349966 0.518893 0.434886
0.495748 0.613646 0.560361
0.613672 0.683301 0.650471
0.709034 0.727826 0.705768
0.835347 0.772271 0.706629
0.432787 0.604938 0.518019
0.573918 0.686908 0.633207
0.680335 0.749931 0.717130
0.763935 0.797442 0.774524
0.870571 0.837834 0.774723
0.124322 0.155296 0.159486
0.323893 0.233816 0.241889
0.498058 0.313302 0.314621
0.617475 0.404810 0.383156
0.689416 0.484492 0.432923
0.234987 0.379832 0.331386
0.386673 0.477888 0.444590
0.557483 0.553768 0.538787
0.684207 0.624338 0.616992
0.760216 0.690301 0.669493
0.314391 0.501852 0.427659
0.491909 0.610401 0.567066
0.620410 0.683126 0.660493
0.734009 0.737457 0.731063
0.809190 0.787805 0.775177
0.408508 0.588153 0.503364
0.592036 0.692945 0.653246
0.703809 0.759918 0.742283
0.774418 0.802418 0.795552
0.841897 0.837981 0.828411
0.519451 0.659352 0.576149
0.680858 0.752499 0.720968
0.773906 0.811664 0.801399
0.827069 0.847092 0.845226
0.864943 0.868103 0.861986
