filters/luts/Foreshadowing 04_S.cube
# LUT by SparkleStock. Enhanced with VOXCOLOR algorithms.
LUT_3D_SIZE 5
DOMAIN_MIN 0.000000 0.000000 0.000000
DOMAIN_MAX 0.903226 0.903226 0.903226
0.082051 0.113309 0.097680
0.189649 0.128733 0.080066
0.363685 0.167167 0.086455
0.566206 0.227689 0.112781
0.709339 0.283296 0.143117
0.101965 0.147820 0.112253
0.234825 0.199834 0.090630
0.427087 0.247365 0.083340
0.620379 0.302734 0.108547
0.745757 0.365535 0.154078
0.136508 0.208563 0.142778
0.277757 0.280535 0.133948
0.481064 0.370671 0.121027
0.670895 0.434587 0.145693
0.790580 0.500508 0.201682
0.168238 0.269203 0.174280
0.325292 0.359757 0.191648
0.545188 0.466980 0.195779
0.725473 0.563350 0.236768
0.832564 0.628985 0.295873
0.182394 0.294773 0.189216
0.383845 0.437087 0.254964
0.614178 0.551014 0.274707
0.786003 0.648427 0.330224
0.877628 0.733348 0.438823
0.088708 0.123077 0.121068
0.190547 0.144822 0.149612
0.373113 0.173045 0.164464
0.578550 0.231447 0.169565
0.717252 0.300112 0.171497
0.120834 0.184215 0.156440
0.233617 0.244784 0.218637
0.428941 0.272214 0.227603
0.638535 0.315067 0.234568
0.782297 0.385056 0.251604
0.173451 0.280522 0.213441
0.278751 0.358406 0.271570
0.464775 0.429212 0.265406
0.673357 0.466588 0.269334
0.827521 0.522213 0.299627
0.222057 0.375794 0.281466
0.337046 0.459315 0.350629
0.525016 0.546832 0.349839
0.710756 0.622562 0.344148
0.857974 0.669675 0.373017
0.262934 0.453242 0.353591
0.394627 0.537498 0.433028
0.600274 0.633917 0.457485
0.778337 0.719224 0.466690
0.884528 0.780221 0.504989
0.103525 0.137028 0.140116
0.214496 0.170835 0.183568
0.376809 0.216800 0.242025
0.560195 0.274798 0.262789
0.708823 0.356332 0.250788
0.154092 0.232870 0.210656
0.264895 0.300580 0.299036
0.435220 0.327311 0.370032
0.632670 0.367838 0.383069
0.789498 0.445244 0.375589
0.210405 0.339450 0.278370
0.331454 0.432618 0.389985
0.468513 0.478871 0.454488
0.671960 0.495130 0.454226
0.846255 0.538474 0.460626
0.276458 0.455665 0.366143
0.399419 0.541059 0.464464
0.526726 0.609649 0.531339
0.700054 0.665115 0.508555
0.871398 0.694255 0.508911
0.332743 0.537067 0.443733
0.470149 0.620583 0.544584
0.600996 0.693718 0.622969
0.767803 0.767643 0.613002
0.887724 0.820219 0.607986
0.118311 0.149884 0.154153
0.263235 0.199508 0.211506
0.427903 0.265202 0.277717
0.563385 0.341814 0.339935
0.689192 0.431331 0.363882
0.192079 0.295537 0.266248
0.317914 0.383816 0.366932
0.487102 0.431858 0.450176
0.628601 0.480775 0.516855
0.769238 0.556751 0.532160
0.262495 0.422493 0.362127
0.403185 0.517425 0.479194
0.532079 0.577469 0.569972
0.672840 0.592965 0.626152
0.832514 0.626832 0.632644
0.344641 0.523464 0.439428
0.490850 0.616376 0.563067
0.606835 0.680544 0.650387
0.706437 0.710435 0.690303
0.863178 0.720407 0.684577
0.428803 0.607872 0.519813
0.572801 0.690356 0.635518
0.680639 0.753833 0.719113
0.766615 0.802151 0.763098
0.877978 0.841266 0.744684
0.124700 0.155626 0.159699
0.325812 0.232943 0.242163
0.502982 0.311461 0.315009
0.619279 0.404481 0.383968
0.689587 0.485487 0.436428
0.234148 0.381778 0.335779
0.386143 0.481076 0.449893
0.561339 0.554595 0.546158
0.685724 0.621437 0.624980
0.761840 0.684011 0.679755
0.309582 0.503937 0.433646
0.491799 0.614208 0.575075
0.618504 0.685798 0.670029
0.734763 0.730402 0.740488
0.814237 0.767536 0.786875
0.403529 0.589948 0.508520
0.590924 0.695123 0.659005
0.704060 0.760970 0.748079
0.774786 0.797916 0.799959
0.847205 0.814450 0.833450
0.517507 0.661990 0.579369
0.681784 0.755632 0.725492
0.775614 0.814286 0.805721
0.826084 0.846812 0.846205
0.866192 0.862820 0.860724
