filters/luts/Foreshadowing 02_S.cube
# LUT by SparkleStock. Enhanced with VOXCOLOR algorithms.
LUT_3D_SIZE 5
DOMAIN_MIN 0.000000 0.000000 0.000000
DOMAIN_MAX 0.903226 0.903226 0.903226
0.105495 0.078144 0.050794
0.237008 0.097562 0.035196
0.404908 0.149443 0.049833
0.577069 0.227177 0.091362
0.695750 0.294529 0.137776
0.140415 0.129607 0.072520
0.281129 0.186946 0.059861
0.455639 0.238215 0.066189
0.624660 0.302460 0.104670
0.732648 0.372887 0.162425
0.194990 0.215487 0.114333
0.334747 0.288448 0.121339
0.508486 0.366757 0.126147
0.672824 0.430439 0.160612
0.779360 0.497865 0.226103
0.243263 0.297215 0.158068
0.393730 0.384151 0.196379
0.575092 0.473987 0.218767
0.727062 0.561807 0.261626
0.824210 0.621199 0.323224
0.265020 0.330655 0.179771
0.454827 0.461803 0.270385
0.642019 0.556542 0.308739
0.787572 0.642529 0.360170
0.870770 0.722150 0.451607
0.118981 0.093111 0.085210
0.235536 0.131319 0.123651
0.409968 0.174222 0.144474
0.587084 0.240792 0.160846
0.703407 0.313816 0.173156
0.172134 0.176977 0.132846
0.275102 0.239167 0.200418
0.451517 0.271436 0.215294
0.639270 0.318690 0.229577
0.767590 0.394032 0.255082
0.245246 0.292076 0.198315
0.336325 0.366013 0.261825
0.489225 0.424379 0.266640
0.673534 0.463124 0.274948
0.815586 0.520947 0.310541
0.311198 0.398457 0.273162
0.407826 0.475810 0.343676
0.557627 0.552454 0.356825
0.710262 0.618890 0.355251
0.849459 0.662148 0.385998
0.359242 0.469883 0.344807
0.467218 0.548195 0.423624
0.632931 0.637302 0.463202
0.781651 0.712048 0.478336
0.878579 0.768944 0.512333
0.140439 0.114175 0.112907
0.266019 0.168845 0.169321
0.415521 0.231395 0.230372
0.572795 0.293646 0.260175
0.698134 0.371315 0.255283
0.217421 0.233828 0.195023
0.317283 0.304249 0.287978
0.460237 0.335853 0.354305
0.633862 0.375976 0.374895
0.775523 0.452312 0.374390
0.292094 0.352447 0.270621
0.388091 0.436794 0.376905
0.497011 0.479891 0.439118
0.670862 0.496170 0.446292
0.832926 0.541700 0.454530
0.368033 0.471791 0.358804
0.464139 0.550847 0.455524
0.562331 0.613331 0.517978
0.699879 0.663398 0.505556
0.862689 0.687344 0.509140
0.425488 0.547098 0.434507
0.530960 0.625016 0.533891
0.637277 0.695264 0.608474
0.773145 0.761975 0.611414
0.882521 0.808762 0.608687
0.162047 0.132569 0.133901
0.316890 0.209110 0.205147
0.462367 0.288323 0.275360
0.573492 0.365120 0.338284
0.683735 0.442335 0.358143
0.267939 0.303760 0.257723
0.379351 0.390893 0.359279
0.516394 0.441470 0.441782
0.629699 0.487535 0.509879
0.761402 0.556193 0.519530
0.350178 0.433495 0.354254
0.461688 0.522625 0.469430
0.563108 0.576576 0.558500
0.670221 0.591443 0.619777
0.823849 0.623071 0.620133
0.428203 0.530224 0.427864
0.540640 0.619633 0.552206
0.628962 0.678940 0.640571
0.700633 0.705172 0.688789
0.857449 0.711232 0.678141
0.501725 0.614006 0.509436
0.612176 0.691831 0.624373
0.697423 0.752550 0.709151
0.765251 0.798128 0.763619
0.874659 0.833834 0.740716
0.173233 0.139809 0.143149
0.377735 0.252726 0.242283
0.526881 0.339412 0.314890
0.624632 0.422539 0.377259
0.685174 0.491711 0.421863
0.319642 0.390467 0.327231
0.446101 0.483669 0.440004
0.588505 0.559127 0.535662
0.691406 0.623258 0.612748
0.759689 0.681083 0.662549
0.401039 0.512141 0.423532
0.540988 0.615058 0.562240
0.644395 0.681968 0.656991
0.738220 0.727077 0.729636
0.812547 0.763561 0.773788
0.480364 0.595278 0.497828
0.623829 0.695885 0.647314
0.714827 0.758986 0.738272
0.773741 0.795616 0.793525
0.846826 0.812633 0.827408
0.569116 0.666060 0.568783
0.697925 0.754716 0.713951
0.776889 0.811950 0.797648
0.824003 0.845865 0.843887
0.865522 0.861790 0.858366
