filters/luts/Foreshadowing 02.cube
# LUT by SparkleStock. Enhanced with VOXCOLOR algorithms.
LUT_3D_SIZE 32
0.105495 0.078144 0.050794
0.122258 0.079578 0.047265
0.139021 0.081011 0.043735
0.155784 0.082445 0.040206
0.172547 0.083879 0.036677
0.192020 0.087329 0.034881
0.213526 0.092292 0.034385
0.235031 0.097255 0.033889
0.256536 0.102217 0.033392
0.278506 0.107653 0.033345
0.303265 0.115924 0.035992
0.328024 0.124196 0.038639
0.352783 0.132467 0.041286
0.377541 0.140738 0.043932
0.403009 0.150979 0.048627
0.428760 0.162007 0.054142
0.454512 0.173036 0.059656
0.480263 0.184064 0.065170
0.505463 0.195392 0.071188
0.529284 0.207468 0.078467
0.553106 0.219544 0.085746
0.576927 0.231620 0.093025
0.600748 0.243696 0.100303
0.620032 0.254307 0.107535
0.638560 0.264674 0.114758
0.657088 0.275040 0.121982
0.675615 0.285407 0.129206
0.690173 0.293411 0.135177
0.699437 0.298263 0.139478
0.708701 0.303116 0.143779
0.717964 0.307968 0.148080
0.727228 0.312821 0.152381
0.109189 0.083438 0.052834
0.126512 0.085980 0.049604
0.143836 0.088521 0.046373
0.161159 0.091063 0.043143
0.178483 0.093605 0.039913
0.198481 0.097573 0.038323
0.220484 0.102611 0.037964
0.242488 0.107648 0.037605
0.264491 0.112686 0.037245
0.286902 0.118187 0.037328
0.311761 0.126471 0.040062
0.336619 0.134754 0.042796
0.361477 0.143038 0.045530
0.386336 0.151322 0.048264
0.411654 0.161477 0.052975
0.437156 0.172381 0.058476
0.462659 0.183285 0.063978
0.488161 0.194189 0.069480
0.513058 0.205385 0.075464
0.536444 0.217312 0.082656
0.559829 0.229238 0.089848
0.583215 0.241165 0.097039
0.606601 0.253092 0.104231
0.625459 0.263617 0.111343
0.643564 0.273909 0.118442
0.661668 0.284201 0.125541
0.679772 0.294493 0.132640
0.694013 0.302507 0.138514
0.703103 0.307484 0.142752
0.712192 0.312461 0.146991
0.721282 0.317438 0.151230
0.730371 0.322415 0.155469
0.112884 0.088731 0.054874
0.130767 0.092381 0.051943
0.148651 0.096031 0.049011
0.166535 0.099681 0.046080
0.184419 0.103332 0.043148
0.204941 0.107817 0.041765
0.227443 0.112929 0.041543
0.249944 0.118041 0.041320
0.272446 0.123154 0.041098
0.295298 0.128721 0.041310
0.320256 0.137017 0.044132
0.345214 0.145313 0.046953
0.370172 0.153609 0.049774
0.395130 0.161906 0.052595
0.420299 0.171975 0.057322
0.445552 0.182755 0.062811
0.470805 0.193534 0.068301
0.496059 0.204314 0.073790
0.520654 0.215378 0.079741
0.543603 0.227155 0.086845
0.566553 0.238933 0.093950
0.589503 0.250710 0.101054
0.612453 0.262487 0.108158
0.630886 0.272927 0.115151
0.648567 0.283144 0.122126
0.666248 0.293362 0.129101
0.683929 0.303579 0.136075
0.697854 0.311604 0.141851
0.706769 0.316705 0.146027
0.715684 0.321807 0.150204
0.724599 0.326908 0.154380
0.733515 0.332010 0.158557
0.116578 0.094025 0.056914
0.135022 0.098783 0.054282
0.153466 0.103541 0.051649
0.171910 0.108300 0.049017
0.190354 0.113058 0.046384
0.211402 0.118061 0.045207
0.234401 0.123248 0.045122
0.257401 0.128435 0.045036
0.280400 0.133622 0.044951
0.303694 0.139255 0.045293
0.328751 0.147563 0.048201
0.353809 0.155872 0.051110
0.378867 0.164181 0.054018
0.403924 0.172489 0.056926
0.428944 0.182474 0.061669
0.453948 0.193129 0.067146
0.478952 0.203783 0.072623
0.503956 0.214438 0.078100
0.528249 0.225371 0.084017
0.550763 0.236999 0.091034
0.573277 0.248627 0.098051
0.595791 0.260255 0.105069
0.618305 0.271883 0.112086
0.636313 0.282237 0.118960
0.653571 0.292380 0.125810
0.670829 0.302522 0.132660
0.688086 0.312665 0.139510
0.701694 0.320700 0.145188
0.710435 0.325927 0.149302
0.719176 0.331153 0.153416
0.727917 0.336379 0.157531
0.736658 0.341605 0.161645
0.120273 0.099319 0.058955
0.139277 0.105185 0.056621
0.158281 0.111051 0.054287
0.177286 0.116918 0.051953
0.196290 0.122784 0.049620
0.217862 0.128305 0.048649
0.241360 0.133567 0.048701
0.264857 0.138828 0.048752
0.288355 0.144090 0.048804
0.312090 0.149789 0.049276
0.337247 0.158110 0.052271
0.362404 0.166431 0.055267
0.387561 0.174752 0.058262
0.412718 0.183073 0.061258
0.437589 0.192972 0.066017
0.462344 0.203502 0.071481
0.487099 0.214033 0.076945
0.511854 0.224563 0.082410
0.535844 0.235364 0.088293
0.557923 0.246843 0.095223
0.580001 0.258321 0.102153
0.602079 0.269800 0.109083
0.624157 0.281278 0.116013
0.641740 0.291547 0.122768
0.658575 0.301615 0.129494
0.675409 0.311683 0.136219
0.692243 0.321751 0.142945
0.705534 0.329797 0.148525
0.714101 0.335148 0.152577
0.722668 0.340498 0.156629
0.731234 0.345849 0.160681
0.739801 0.351199 0.164733
0.125795 0.107448 0.062444
0.145004 0.114003 0.060516
0.164213 0.120558 0.058588
0.183422 0.127112 0.056660
0.202631 0.133667 0.054732
0.224510 0.139668 0.053936
0.248392 0.145253 0.053989
0.272273 0.150839 0.054042
0.296155 0.156424 0.054096
0.320250 0.162413 0.054579
0.345620 0.170825 0.057640
0.370991 0.179237 0.060701
0.396362 0.187649 0.063763
0.421732 0.196061 0.066824
0.446562 0.205973 0.071613
0.471175 0.216485 0.077094
0.495787 0.226998 0.082574
0.520400 0.237511 0.088054
0.544191 0.248283 0.093940
0.565926 0.259704 0.100840
0.587661 0.271126 0.107740
0.609395 0.282547 0.114640
0.631130 0.293969 0.121540
0.648369 0.304251 0.128281
0.664858 0.314344 0.134996
0.681347 0.324437 0.141711
0.697837 0.334530 0.148426
0.710883 0.342695 0.154037
0.719339 0.348291 0.158176
0.727796 0.353887 0.162315
0.736252 0.359483 0.166454
0.744708 0.365079 0.170594
0.132687 0.117705 0.067021
0.151834 0.124633 0.065579
0.170981 0.131561 0.064136
0.190128 0.138489 0.062693
0.209274 0.145418 0.061251
0.231298 0.151870 0.060606
0.255478 0.157966 0.060560
0.279659 0.164062 0.060514
0.303839 0.170158 0.060467
0.328233 0.176606 0.060872
0.353902 0.185167 0.063983
0.379572 0.193729 0.067094
0.405241 0.202290 0.070205
0.430911 0.210851 0.073316
0.455781 0.220851 0.078147
0.480332 0.231425 0.083664
0.504882 0.242000 0.089182
0.529433 0.252575 0.094700
0.553101 0.263395 0.100616
0.574562 0.274829 0.107528
0.596023 0.286263 0.114441
0.617484 0.297697 0.121353
0.638944 0.309131 0.128265
0.655898 0.319501 0.135072
0.672101 0.329693 0.141862
0.688304 0.339886 0.148652
0.704507 0.350078 0.155441
0.717363 0.358445 0.161180
0.725757 0.364377 0.165519
0.734151 0.370309 0.169857
0.742545 0.376241 0.174196
0.750939 0.382173 0.178534
0.139580 0.127961 0.071598
0.158665 0.135263 0.070641
0.177749 0.142565 0.069684
0.196834 0.149867 0.068727
0.215918 0.157168 0.067770
0.238085 0.164073 0.067277
0.262565 0.170679 0.067131
0.287044 0.177286 0.066985
0.311524 0.183892 0.066839
0.336216 0.190799 0.067165
0.362184 0.199510 0.070326
0.388153 0.208220 0.073487
0.414121 0.216931 0.076648
0.440089 0.225642 0.079809
0.465000 0.235728 0.084680
0.489489 0.246365 0.090235
0.513977 0.257002 0.095790
0.538466 0.267639 0.101345
0.562011 0.278508 0.107292
0.583198 0.289954 0.114217
0.604385 0.301401 0.121141
0.625572 0.312847 0.128066
0.646759 0.324293 0.134991
0.663428 0.334750 0.141864
0.679344 0.345042 0.148728
0.695261 0.355334 0.155592
0.711177 0.365626 0.162457
0.723843 0.374194 0.168324
0.732175 0.380462 0.172862
0.740507 0.386731 0.177399
0.748839 0.392999 0.181937
0.757170 0.399267 0.186474
0.146473 0.138217 0.076175
0.165495 0.145893 0.075703
0.184517 0.153568 0.075232
0.203540 0.161244 0.074761
0.222562 0.168919 0.074289
0.244873 0.176275 0.073947
0.269651 0.183392 0.073701
0.294430 0.190509 0.073456
0.319208 0.197626 0.073211
0.344199 0.204992 0.073459
0.370466 0.213852 0.076669
0.396733 0.222712 0.079880
0.423001 0.231572 0.083091
0.449268 0.240432 0.086302
0.474220 0.250606 0.091213
0.498646 0.261305 0.096806
0.523072 0.272005 0.102398
0.547498 0.282704 0.107991
0.570921 0.293620 0.113968
0.591834 0.305079 0.120905
0.612747 0.316538 0.127842
0.633660 0.327997 0.134779
0.654573 0.339456 0.141716
0.670958 0.350000 0.148655
0.686588 0.360391 0.155594
0.702218 0.370783 0.162533
0.717848 0.381174 0.169472
0.730323 0.389943 0.175467
0.738593 0.396548 0.180204
0.746862 0.403152 0.184941
0.755132 0.409757 0.189678
0.763401 0.416361 0.194415
0.153610 0.148883 0.081043
0.172538 0.156900 0.081048
0.191466 0.164917 0.081054
0.210394 0.172934 0.081059
0.229322 0.180951 0.081064
0.251762 0.188752 0.080912
0.276838 0.196390 0.080642
0.301913 0.204028 0.080371
0.326988 0.211666 0.080101
0.352271 0.219498 0.080328
0.378800 0.228495 0.083537
0.405329 0.237492 0.086745
0.431857 0.246489 0.089954
0.458386 0.255486 0.093163
0.483381 0.265750 0.098096
0.507763 0.276520 0.103719
0.532144 0.287291 0.109342
0.556526 0.298061 0.114964
0.579842 0.309034 0.120968
0.600496 0.320510 0.127923
0.621149 0.331987 0.134878
0.641802 0.343463 0.141833
0.662456 0.354940 0.148788
0.678564 0.365574 0.155799
0.693915 0.376067 0.162820
0.709266 0.386560 0.169841
0.724617 0.397053 0.176862
0.736907 0.406021 0.182994
0.745116 0.412956 0.187943
0.753325 0.419892 0.192892
0.761534 0.426827 0.197840
0.769743 0.433763 0.202789
0.162212 0.162007 0.087660
0.180854 0.170174 0.088089
0.199495 0.178340 0.088517
0.218137 0.186506 0.088946
0.236778 0.194673 0.089375
0.259260 0.202871 0.089646
0.284622 0.211095 0.089799
0.309983 0.219318 0.089952
0.335345 0.227541 0.090105
0.360879 0.235884 0.090650
0.387445 0.244943 0.093547
0.414011 0.254003 0.096445
0.440577 0.263062 0.099343
0.467143 0.272121 0.102240
0.492193 0.282492 0.107076
0.516637 0.293387 0.112686
0.541081 0.304282 0.118296
0.565525 0.315177 0.123906
0.588836 0.326252 0.129915
0.609315 0.337778 0.136920
0.629794 0.349305 0.143925
0.650273 0.360831 0.150929
0.670752 0.372358 0.157934
0.686633 0.383095 0.165060
0.701747 0.393700 0.172205
0.716861 0.404305 0.179350
0.731975 0.414910 0.186496
0.744109 0.424070 0.192822
0.752268 0.431304 0.198057
0.760427 0.438539 0.203292
0.768587 0.445773 0.208527
0.776746 0.453007 0.213762
0.170814 0.175131 0.094277
0.189169 0.183447 0.095129
0.207524 0.191762 0.095981
0.225880 0.200078 0.096833
0.244235 0.208394 0.097685
0.266757 0.216991 0.098380
0.292406 0.225800 0.098956
0.318054 0.234608 0.099532
0.343702 0.243417 0.100109
0.369486 0.252270 0.100972
0.396090 0.261392 0.103558
0.422693 0.270513 0.106145
0.449296 0.279635 0.108731
0.475900 0.288756 0.111317
0.501005 0.299233 0.116055
0.525511 0.310253 0.121653
0.550017 0.321272 0.127250
0.574524 0.332292 0.132848
0.597829 0.343471 0.138862
0.618134 0.355047 0.145917
0.638439 0.366623 0.152972
0.658743 0.378199 0.160026
0.679048 0.389776 0.167081
0.694701 0.400615 0.174320
0.709579 0.411333 0.181590
0.724456 0.422050 0.188860
0.739334 0.432767 0.196129
0.751311 0.442119 0.202650
0.759421 0.449652 0.208171
0.767530 0.457186 0.213692
0.775639 0.464719 0.219214
0.783749 0.472252 0.224735
0.179416 0.188255 0.100894
0.197485 0.196720 0.102169
0.215554 0.205185 0.103445
0.233623 0.213650 0.104720
0.251691 0.222115 0.105996
0.274255 0.231111 0.107113
0.300189 0.240505 0.108113
0.326124 0.249899 0.109113
0.352058 0.259292 0.110112
0.378094 0.268656 0.111294
0.404735 0.277840 0.113569
0.431375 0.287024 0.115844
0.458016 0.296208 0.118119
0.484657 0.305391 0.120395
0.509817 0.315975 0.125034
0.534386 0.327119 0.130619
0.558954 0.338263 0.136205
0.583522 0.349407 0.141790
0.606823 0.360689 0.147810
0.626953 0.372315 0.154914
0.647084 0.383941 0.162018
0.667214 0.395567 0.169123
0.687344 0.407193 0.176227
0.702770 0.418136 0.183580
0.717411 0.428966 0.190975
0.732052 0.439795 0.198369
0.746693 0.450624 0.205763
0.758513 0.460169 0.212478
0.766573 0.468000 0.218285
0.774633 0.475832 0.224093
0.782692 0.483664 0.229901
0.790752 0.491496 0.235708
0.188018 0.201379 0.107511
0.205801 0.209993 0.109210
0.223583 0.218608 0.110909
0.241366 0.227222 0.112607
0.259148 0.235837 0.114306
0.281752 0.245231 0.115847
0.307973 0.255210 0.117270
0.334194 0.265189 0.118693
0.360415 0.275168 0.120116
0.386701 0.285042 0.121617
0.413379 0.294288 0.123580
0.440057 0.303534 0.125544
0.466736 0.312780 0.127508
0.493414 0.322026 0.129472
0.518629 0.332717 0.134013
0.543260 0.343986 0.139586
0.567891 0.355254 0.145159
0.592521 0.366523 0.150732
0.615816 0.377908 0.156757
0.635772 0.389584 0.163911
0.655728 0.401259 0.171065
0.675685 0.412935 0.178219
0.695641 0.424611 0.185374
0.710838 0.435657 0.192840
0.725243 0.446599 0.200359
0.739647 0.457540 0.207878
0.754052 0.468481 0.215397
0.765716 0.478218 0.222305
0.773725 0.486349 0.228399
0.781735 0.494479 0.234493
0.789745 0.502610 0.240588
0.797755 0.510741 0.246682
0.196305 0.214305 0.114483
0.213970 0.223167 0.116685
0.231635 0.232029 0.118887
0.249300 0.240891 0.121089
0.266966 0.249753 0.123291
0.289551 0.259455 0.125244
0.315827 0.269788 0.127011
0.342103 0.280121 0.128777
0.368379 0.290454 0.130543
0.394749 0.300690 0.132356
0.421677 0.310345 0.134444
0.448606 0.320000 0.136532
0.475535 0.329656 0.138620
0.502464 0.339311 0.140709
0.527713 0.350125 0.145258
0.552290 0.361402 0.150792
0.576868 0.372680 0.156326
0.601445 0.383957 0.161859
0.624655 0.395345 0.167845
0.644445 0.407008 0.174960
0.664236 0.418672 0.182075
0.684027 0.430335 0.189190
0.703817 0.441998 0.196305
0.718789 0.453063 0.203835
0.732956 0.464027 0.211434
0.747124 0.474991 0.219033
0.761292 0.485956 0.226632
0.772781 0.495788 0.233697
0.780696 0.504111 0.240051
0.788612 0.512434 0.246405
0.796527 0.520757 0.252758
0.804443 0.529080 0.259112
0.204467 0.227153 0.121596
0.222082 0.236302 0.124333
0.239697 0.245450 0.127071
0.257312 0.254598 0.129809
0.274927 0.263746 0.132546
0.297470 0.273721 0.134907
0.323709 0.284315 0.136984
0.349948 0.294910 0.139062
0.376186 0.305504 0.141139
0.402572 0.316043 0.143261
0.429837 0.326246 0.145648
0.457102 0.336449 0.148035
0.484367 0.346652 0.150423
0.511632 0.356855 0.152810
0.536906 0.367799 0.157409
0.561384 0.379039 0.162893
0.585861 0.390279 0.168377
0.610339 0.401519 0.173861
0.633431 0.412869 0.179789
0.653060 0.424495 0.186830
0.672689 0.436121 0.193870
0.692318 0.447747 0.200910
0.711946 0.459373 0.207951
0.726692 0.470422 0.215523
0.740623 0.481374 0.223185
0.754554 0.492325 0.230846
0.768486 0.503277 0.238507
0.779791 0.513167 0.245714
0.787594 0.521639 0.252317
0.795398 0.530111 0.258920
0.803201 0.538584 0.265523
0.811005 0.547056 0.272126
0.212628 0.240002 0.128709
0.230193 0.249436 0.131982
0.247758 0.258871 0.135255
0.265324 0.268305 0.138528
0.282889 0.277740 0.141801
0.305389 0.287987 0.144569
0.331591 0.298843 0.146958
0.357792 0.309699 0.149347
0.383993 0.320554 0.151736
0.410395 0.331395 0.154167
0.437996 0.342146 0.156853
0.465597 0.352897 0.159539
0.493198 0.363648 0.162225
0.520800 0.374399 0.164911
0.546099 0.385472 0.169560
0.570477 0.396675 0.174994
0.594855 0.407878 0.180428
0.619233 0.419081 0.185862
0.642208 0.430394 0.191734
0.661675 0.441982 0.198699
0.681142 0.453571 0.205665
0.700608 0.465160 0.212631
0.720075 0.476749 0.219596
0.734595 0.487781 0.227212
0.748290 0.498720 0.234935
0.761984 0.509660 0.242659
0.775679 0.520599 0.250382
0.786801 0.530545 0.257732
0.794492 0.539167 0.264584
0.802184 0.547789 0.271436
0.809875 0.556410 0.278287
0.817567 0.565032 0.285139
0.220789 0.252850 0.135823
0.238304 0.262571 0.139631
0.255820 0.272292 0.143439
0.273335 0.282013 0.147248
0.290851 0.291734 0.151056
0.313308 0.302253 0.154231
0.339472 0.313370 0.156931
0.365636 0.324487 0.159631
0.391800 0.335605 0.162332
0.418218 0.346748 0.165073
0.446155 0.358047 0.168057
0.474093 0.369345 0.171042
0.502030 0.380644 0.174027
0.529967 0.391943 0.177012
0.555291 0.403146 0.181710
0.579570 0.414312 0.187095
0.603848 0.425477 0.192479
0.628127 0.436642 0.197863
0.650984 0.447918 0.203678
0.670289 0.459469 0.210569
0.689594 0.471021 0.217460
0.708899 0.482572 0.224351
0.728204 0.494124 0.231242
0.742498 0.505140 0.238900
0.755956 0.516067 0.246686
0.769414 0.526994 0.254471
0.782872 0.537921 0.262257
0.793811 0.547924 0.269749
0.801390 0.556695 0.276850
0.808970 0.565466 0.283951
0.816549 0.574237 0.291052
0.824129 0.583008 0.298153
0.228335 0.264800 0.142542
0.245940 0.274917 0.146978
0.263544 0.285035 0.151415
0.281149 0.295153 0.155851
0.298753 0.305270 0.160287
0.321234 0.316107 0.163907
0.347371 0.327482 0.166915
0.373508 0.338857 0.169923
0.399646 0.350232 0.172931
0.426072 0.361661 0.175974
0.454232 0.373408 0.179225
0.482391 0.385155 0.182477
0.510551 0.396902 0.185728
0.538711 0.408649 0.188980
0.564080 0.420020 0.193745
0.588334 0.431240 0.199115
0.612588 0.442461 0.204485
0.636841 0.453681 0.209855
0.659646 0.465011 0.215705
0.678828 0.476614 0.222752
0.698010 0.488217 0.229800
0.717193 0.499820 0.236847
0.736375 0.511423 0.243895
0.750430 0.522378 0.251579
0.763630 0.533225 0.259370
0.776830 0.544072 0.267161
0.790031 0.554919 0.274952
0.800762 0.564911 0.282539
0.808201 0.573764 0.289853
0.815639 0.582617 0.297168
0.823078 0.591470 0.304482
0.830517 0.600323 0.311796
0.234346 0.274505 0.148277
0.252386 0.285295 0.153572
0.270426 0.296085 0.158868
0.288467 0.306875 0.164163
0.306507 0.317665 0.169458
0.329174 0.328932 0.173617
0.355311 0.340556 0.176924
0.381449 0.352180 0.180231
0.407586 0.363804 0.183538
0.434003 0.375475 0.186863
0.462101 0.387421 0.190302
0.490198 0.399367 0.193740
0.518296 0.411314 0.197178
0.546393 0.423260 0.200617
0.571861 0.434892 0.205488
0.596276 0.446399 0.210933
0.620692 0.457906 0.216378
0.645107 0.469413 0.221823
0.668020 0.481025 0.227935
0.687178 0.492902 0.235718
0.706335 0.504779 0.243500
0.725492 0.516656 0.251282
0.744650 0.528533 0.259064
0.758434 0.539314 0.266736
0.771323 0.549912 0.274390
0.784212 0.560509 0.282044
0.797101 0.571107 0.289698
0.807564 0.580920 0.297260
0.814791 0.589686 0.304699
0.822018 0.598452 0.312138
0.829245 0.607218 0.319577
0.836472 0.615983 0.327016
0.240356 0.284210 0.154012
0.258832 0.295672 0.160166
0.277308 0.307135 0.166321
0.295784 0.318597 0.172475
0.314261 0.330059 0.178630
0.337114 0.341757 0.183328
0.363252 0.353630 0.186933
0.389389 0.365503 0.190539
0.415526 0.377377 0.194145
0.441935 0.389289 0.197753
0.469970 0.401434 0.201378
0.498005 0.413580 0.205003
0.526041 0.425725 0.208628
0.554076 0.437871 0.212253
0.579641 0.449765 0.217232
0.604218 0.461558 0.222751
0.628796 0.473351 0.228271
0.653373 0.485144 0.233790
0.676395 0.497040 0.240166
0.695527 0.509191 0.248683
0.714660 0.521341 0.257200
0.733792 0.533492 0.265717
0.752925 0.545643 0.274233
0.766439 0.556249 0.281893
0.779017 0.566598 0.289410
0.791594 0.576947 0.296927
0.804172 0.587296 0.304445
0.814366 0.596929 0.311981
0.821381 0.605608 0.319545
0.828397 0.614286 0.327108
0.835412 0.622965 0.334671
0.842428 0.631644 0.342235
0.246367 0.293915 0.159746
0.265278 0.306049 0.166760
0.284190 0.318184 0.173774
0.303102 0.330319 0.180787
0.322014 0.342454 0.187801
0.345055 0.354582 0.193038
0.371192 0.366704 0.196943
0.397330 0.378826 0.200847
0.423467 0.390949 0.204751
0.449866 0.403103 0.208643
0.477839 0.415447 0.212454
0.505812 0.427792 0.216266
0.533785 0.440137 0.220078
0.561758 0.452481 0.223890
0.587422 0.464637 0.228975
0.612161 0.476716 0.234569
0.636900 0.488796 0.240164
0.661639 0.500876 0.245758
0.684769 0.513054 0.252397
0.703877 0.525479 0.261648
0.722984 0.537904 0.270900
0.742092 0.550328 0.280151
0.761200 0.562753 0.289403
0.774443 0.573185 0.297050
0.786710 0.583285 0.304430
0.798976 0.593385 0.311810
0.811243 0.603485 0.319191
0.821168 0.612938 0.326703
0.827972 0.621530 0.334390
0.834776 0.630121 0.342078
0.841579 0.638712 0.349766
0.848383 0.647304 0.357454
0.252377 0.303620 0.165481
0.271725 0.316427 0.173354
0.291072 0.329234 0.181227
0.310420 0.342041 0.189100
0.329768 0.354848 0.196973
0.352995 0.367407 0.202748
0.379133 0.379778 0.206952
0.405270 0.392149 0.211155
0.431407 0.404521 0.215358
0.457798 0.416917 0.219532
0.485709 0.429461 0.223531
0.513619 0.442004 0.227530
0.541530 0.454548 0.231528
0.569441 0.467092 0.235527
0.595202 0.479509 0.240719
0.620103 0.491875 0.246388
0.645004 0.504241 0.252057
0.669905 0.516607 0.257726
0.693144 0.529068 0.264628
0.712226 0.541767 0.274614
0.731309 0.554466 0.284600
0.750392 0.567164 0.294586
0.769474 0.579863 0.304572
0.782448 0.590121 0.312207
0.794403 0.599972 0.319450
0.806358 0.609822 0.326693
0.818313 0.619673 0.333937
0.827970 0.628947 0.341424
0.834562 0.637451 0.349236
0.841154 0.645956 0.357048
0.847746 0.654460 0.364861
0.854338 0.662964 0.372673
0.255882 0.309354 0.169042
0.276178 0.323314 0.178179
0.296474 0.337274 0.187317
0.316770 0.351234 0.196454
0.337066 0.365194 0.205592
0.360840 0.378455 0.212129
0.387223 0.391193 0.216717
0.413605 0.403931 0.221304
0.439988 0.416669 0.225892
0.466573 0.429392 0.230413
0.494368 0.442028 0.234534
0.522163 0.454665 0.238656
0.549958 0.467301 0.242777
0.577753 0.479938 0.246898
0.603337 0.492425 0.252179
0.628038 0.504854 0.257922
0.652738 0.517282 0.263666
0.677438 0.529710 0.269410
0.700489 0.542206 0.276353
0.719419 0.554869 0.286294
0.738348 0.567532 0.296236
0.757278 0.580195 0.306177
0.776208 0.592858 0.316119
0.789313 0.603711 0.325140
0.801448 0.614263 0.334007
0.813583 0.624815 0.342874
0.825718 0.635366 0.351741
0.835336 0.644884 0.360109
0.841599 0.653024 0.367811
0.847862 0.661164 0.375513
0.854125 0.669303 0.383215
0.860388 0.677443 0.390917
0.258970 0.314428 0.172240
0.280300 0.329620 0.182710
0.301629 0.344813 0.193180
0.322958 0.360005 0.203650
0.344288 0.375198 0.214119
0.368668 0.389208 0.221456
0.395337 0.402332 0.226441
0.422006 0.415456 0.231427
0.448676 0.428579 0.236413
0.475488 0.441644 0.241292
0.503158 0.454355 0.245525
0.530829 0.467066 0.249759
0.558500 0.479778 0.253992
0.586170 0.492489 0.258226
0.611532 0.505016 0.263591
0.635971 0.517469 0.269410
0.660409 0.529922 0.275228
0.684848 0.542375 0.281046
0.707663 0.554863 0.287993
0.726418 0.567439 0.297760
0.745174 0.580015 0.307527
0.763929 0.592591 0.317295
0.782684 0.605167 0.327062
0.795989 0.616744 0.337701
0.808385 0.628155 0.348486
0.820782 0.639566 0.359271
0.833178 0.650977 0.370055
0.842796 0.660810 0.379455
0.848711 0.668538 0.387008
0.854625 0.676267 0.394560
0.860540 0.683996 0.402113
0.866454 0.691725 0.409666
0.262058 0.319501 0.175438
0.284421 0.335926 0.187240
0.306784 0.352351 0.199043
0.329147 0.368776 0.210845
0.351509 0.385201 0.222647
0.376497 0.399961 0.230782
0.403452 0.413470 0.236166
0.430408 0.426980 0.241550
0.457363 0.440490 0.246935
0.484403 0.453896 0.252171
0.511949 0.466682 0.256516
0.539495 0.479468 0.260862
0.567041 0.492254 0.265207
0.594587 0.505040 0.269553
0.619727 0.517606 0.275004
0.643904 0.530084 0.280897
0.668081 0.542562 0.286790
0.692258 0.555040 0.292683
0.714837 0.567521 0.299633
0.733418 0.580010 0.309226
0.751999 0.592499 0.318819
0.770580 0.604987 0.328412
0.789161 0.617476 0.338005
0.802665 0.629777 0.350263
0.815323 0.642047 0.362965
0.827980 0.654317 0.375667
0.840638 0.666587 0.388370
0.850256 0.676735 0.398801
0.855822 0.684053 0.406204
0.861388 0.691371 0.413607
0.866954 0.698689 0.421011
0.872520 0.706007 0.428414
0.265146 0.324574 0.178636
0.288543 0.342232 0.191771
0.311939 0.359889 0.204905
0.335335 0.377547 0.218040
0.358731 0.395205 0.231174
0.384325 0.410713 0.240108
0.411567 0.424609 0.245891
0.438809 0.438505 0.251673
0.466051 0.452401 0.257456
0.493318 0.466149 0.263050
0.520740 0.479009 0.267507
0.548161 0.491870 0.271965
0.575583 0.504730 0.276422
0.603005 0.517591 0.280880
0.627922 0.530196 0.286416
0.651838 0.542699 0.292384
0.675753 0.555202 0.298352
0.699669 0.567705 0.304320
0.722010 0.580179 0.311273
0.740417 0.592580 0.320692
0.758824 0.604982 0.330111
0.777231 0.617384 0.339529
0.795637 0.629785 0.348948
0.809341 0.642811 0.362825
0.822260 0.655940 0.377444
0.835179 0.669069 0.392064
0.848098 0.682198 0.406684
0.857717 0.692660 0.418147
0.862934 0.699567 0.425401
0.868151 0.706474 0.432654
0.873368 0.713381 0.439908
0.878585 0.720288 0.447162
0.267194 0.327945 0.180795
0.291859 0.347103 0.195534
0.316523 0.366260 0.210273
0.341188 0.385417 0.225012
0.365852 0.404575 0.239751
0.392236 0.420989 0.249627
0.419908 0.435345 0.255856
0.447580 0.449702 0.262085
0.475253 0.464058 0.268315
0.502880 0.478212 0.274303
0.530236 0.491147 0.278846
0.557591 0.504082 0.283389
0.584947 0.517017 0.287932
0.612303 0.529953 0.292475
0.636984 0.542559 0.298070
0.660596 0.555033 0.304086
0.684207 0.567508 0.310102
0.707819 0.579982 0.316117
0.729854 0.592399 0.323078
0.747947 0.604671 0.332403
0.766041 0.616943 0.341727
0.784135 0.629214 0.351051
