filters/luts/Foreshadowing 05.cube
# Created by: Adobe Photoshop Export Color Lookup Plugin
# LUT by SparkleStock. Enhanced with VOXCOLOR algorithms.
LUT_3D_SIZE 8
DOMAIN_MIN 0.000000 0.000000 0.000000
DOMAIN_MAX 0.903226 0.903226 0.903226
0.070330 0.101587 0.093773
0.124400 0.106692 0.085832
0.200165 0.120635 0.086730
0.294553 0.142707 0.095443
0.402930 0.171846 0.110780
0.514286 0.206444 0.131577
0.608153 0.239151 0.152688
0.673945 0.263902 0.169766
0.081673 0.117846 0.101146
0.149063 0.136856 0.099207
0.235141 0.156513 0.102477
0.334578 0.180440 0.111641
0.441584 0.210603 0.126704
0.546060 0.245201 0.146329
0.631950 0.278274 0.166148
0.691686 0.304336 0.182385
0.097570 0.145756 0.114144
0.170400 0.173072 0.118206
0.266402 0.200042 0.122820
0.373671 0.229305 0.131934
0.482090 0.262475 0.147591
0.581657 0.299146 0.167186
0.660762 0.334486 0.187025
0.715367 0.363894 0.204161
0.116287 0.182008 0.132294
0.190702 0.214776 0.142600
0.294649 0.249600 0.149935
0.409797 0.285566 0.159148
0.521441 0.322347 0.173531
0.617946 0.361946 0.193687
0.691490 0.400182 0.214310
0.741717 0.433492 0.233273
0.135972 0.222632 0.154413
0.211669 0.260614 0.171782
0.320693 0.302934 0.184365
0.441812 0.345390 0.194405
0.557666 0.385819 0.205075
0.652635 0.428217 0.225762
0.721729 0.468841 0.247343
0.768135 0.505268 0.268280
0.153177 0.259120 0.176533
0.233996 0.306031 0.204294
0.345862 0.354480 0.222189
0.470347 0.402583 0.234656
0.590813 0.449013 0.246369
0.684756 0.493314 0.266178
0.750021 0.534255 0.287734
0.792828 0.571079 0.309611
0.164394 0.283635 0.192036
0.257533 0.345695 0.235800
0.375031 0.402173 0.260643
0.500911 0.454420 0.275080
0.620635 0.503451 0.286784
0.713432 0.548922 0.304982
0.777184 0.594124 0.334422
0.817613 0.631467 0.360598
0.170318 0.296845 0.200583
0.283003 0.380848 0.266308
0.409952 0.447917 0.300006
0.537763 0.503840 0.315964
0.654457 0.553237 0.326418
0.742436 0.597830 0.342939
0.801757 0.642942 0.375119
0.840801 0.683714 0.411405
0.074867 0.105368 0.109276
0.123522 0.118962 0.117582
0.200611 0.135485 0.121456
0.299035 0.157704 0.127071
0.411017 0.186769 0.138182
0.523543 0.219757 0.152830
0.616020 0.250122 0.167307
0.679434 0.272861 0.178841
0.087967 0.131873 0.121625
0.142123 0.162998 0.147605
0.230053 0.185330 0.156051
0.337399 0.208421 0.160464
0.451677 0.238270 0.169998
0.560497 0.272504 0.184156
0.647037 0.305048 0.199530
0.705410 0.331024 0.212961
0.109456 0.171999 0.143228
0.165326 0.209357 0.175081
0.259218 0.240163 0.186531
0.372348 0.268651 0.191228
0.488869 0.298347 0.199009
0.594026 0.332771 0.212211
0.675500 0.367134 0.227856
0.730365 0.397034 0.242919
0.134796 0.219631 0.171172
0.191251 0.259013 0.205134
0.287678 0.297189 0.219381
0.404009 0.332293 0.224815
0.522855 0.364164 0.230203
0.625545 0.398625 0.242097
0.702831 0.434160 0.257617
0.754986 0.467309 0.274162
0.160428 0.269439 0.203044
0.218461 0.311699 0.240852
0.315548 0.354109 0.258527
0.433136 0.394743 0.264691
0.554149 0.432422 0.267405
0.655812 0.467431 0.277520
0.729713 0.503314 0.292587
0.779445 0.538043 0.310419
0.184219 0.315880 0.237605
0.246582 0.362649 0.280706
0.345075 0.408936 0.301885
0.462961 0.453811 0.310306
0.584037 0.496131 0.313935
0.683203 0.532476 0.320566
0.754256 0.567826 0.334229
0.801924 0.601862 0.352358
0.204462 0.354007 0.270672
0.273157 0.405557 0.318256
0.376272 0.457692 0.344708
0.495734 0.507262 0.356582
0.614981 0.551945 0.360464
0.711433 0.589933 0.365994
0.778713 0.625247 0.381567
0.823558 0.657487 0.400795
0.221803 0.384416 0.300107
0.296267 0.438862 0.349788
0.407416 0.499454 0.383910
0.531624 0.556084 0.401860
0.649286 0.602430 0.406190
0.741175 0.640404 0.410870
0.803468 0.674458 0.426841
0.845252 0.706126 0.450212
0.081547 0.111024 0.121698
0.131007 0.128131 0.136610
0.206827 0.150115 0.151370
0.302766 0.176049 0.164228
0.412002 0.205222 0.174572
0.523522 0.238051 0.185355
0.616492 0.268649 0.194181
0.682469 0.293129 0.200504
0.100032 0.148190 0.143275
0.151107 0.184688 0.178461
0.236261 0.211093 0.198827
0.341635 0.236221 0.210316
0.455120 0.266038 0.218141
0.564742 0.300477 0.227507
0.652851 0.333850 0.236880
0.713876 0.362166 0.245240
0.123692 0.195217 0.170464
0.179134 0.241445 0.217051
0.263272 0.276854 0.245085
0.369739 0.305802 0.257914
0.489407 0.332832 0.260736
0.598432 0.366116 0.267639
0.683092 0.400448 0.277295
0.740720 0.431451 0.287886
0.152485 0.250531 0.205213
0.210882 0.299228 0.255238
0.291560 0.341548 0.288741
0.396009 0.376272 0.303544
0.518886 0.404401 0.302388
0.627732 0.435087 0.306119
0.709593 0.468780 0.315199
0.764966 0.501326 0.327313
0.184983 0.310704 0.247264
0.243309 0.357743 0.295241
0.323378 0.401556 0.330117
0.426299 0.441752 0.346302
0.546878 0.477676 0.344198
0.654866 0.506115 0.344364
0.734058 0.537976 0.351706
0.787913 0.570772 0.364112
0.214012 0.363469 0.288979
0.276036 0.412124 0.338755
0.357601 0.458517 0.376192
0.459269 0.501567 0.394358
0.575937 0.540231 0.392440
0.679472 0.571847 0.389003
0.756250 0.601857 0.393844
0.808796 0.632434 0.405614
0.240033 0.407864 0.329743
0.307312 0.458208 0.380842
0.392414 0.507966 0.421304
0.494926 0.554282 0.441934
0.609290 0.595039 0.440523
0.707928 0.628235 0.436242
0.779106 0.656912 0.440632
0.828375 0.684649 0.451949
0.264319 0.445812 0.367880
0.335013 0.494998 0.417273
0.424236 0.547880 0.460373
0.529989 0.598797 0.484854
0.645177 0.643280 0.486079
0.739169 0.676899 0.481579
0.804505 0.704344 0.485765
0.849231 0.729828 0.498855
0.089661 0.117925 0.131908
0.144500 0.137288 0.150124
0.221206 0.164121 0.174687
0.313051 0.194862 0.197853
0.414212 0.227093 0.214657
0.520475 0.261580 0.226233
0.612935 0.294793 0.232314
0.683203 0.324033 0.235093
0.114781 0.166897 0.164767
0.168213 0.207163 0.202786
0.251820 0.237399 0.233331
0.352145 0.265457 0.255781
0.458412 0.296857 0.270347
0.564213 0.332530 0.278919
0.652877 0.368108 0.283953
0.718376 0.400666 0.287424
0.141984 0.221645 0.199929
0.201965 0.273592 0.252148
0.279286 0.313044 0.293427
0.376494 0.343735 0.318823
0.490664 0.370282 0.327569
0.598634 0.403250 0.331262
0.685299 0.438310 0.335070
0.747321 0.471502 0.339726
0.173899 0.282133 0.240019
0.240034 0.337700 0.298373
0.310640 0.384254 0.347779
0.400970 0.420064 0.377119
0.515767 0.446249 0.382414
0.626577 0.473979 0.379934
0.711977 0.506378 0.381794
0.771725 0.538783 0.387326
0.210898 0.346538 0.285953
0.278201 0.399854 0.342357
0.349134 0.447127 0.393303
0.434434 0.487930 0.425600
0.538830 0.521595 0.432668
0.650734 0.544315 0.423882
0.734702 0.572794 0.422836
0.793136 0.603643 0.428293
0.245709 0.405414 0.333803
0.315245 0.457182 0.388087
0.386793 0.504635 0.439188
0.470092 0.546641 0.472554
0.569464 0.582456 0.480264
0.674290 0.610903 0.469349
0.755697 0.636013 0.465032
0.812977 0.663010 0.468789
0.277064 0.452861 0.377582
0.351509 0.505326 0.432386
0.425185 0.553735 0.484239
0.508389 0.597220 0.518559
0.605511 0.634997 0.527133
0.703554 0.664693 0.515382
0.777922 0.688700 0.510165
0.831339 0.712470 0.512830
0.307308 0.493486 0.417964
0.385896 0.545710 0.472581
0.460508 0.593201 0.523299
0.544144 0.637592 0.557905
0.642163 0.678870 0.568972
0.736376 0.709631 0.557425
0.804251 0.733093 0.552199
0.851810 0.754233 0.556153
0.098334 0.125393 0.140510
0.162120 0.148452 0.163245
0.244753 0.177801 0.191627
0.334916 0.212646 0.222761
0.425406 0.251470 0.252810
0.520454 0.289654 0.271081
0.608818 0.327507 0.279102
0.682025 0.363620 0.281383
0.130059 0.188270 0.185554
0.188075 0.234087 0.228531
0.274832 0.267241 0.263145
0.372288 0.297859 0.294487
0.468177 0.332675 0.323919
0.564207 0.370628 0.338281
0.650421 0.409607 0.343475
0.719869 0.447626 0.344461
0.164514 0.254746 0.233394
0.227065 0.309083 0.286646
0.306281 0.351519 0.331117
0.398592 0.385064 0.367162
0.499391 0.413673 0.393689
0.598533 0.446832 0.400751
0.684042 0.483198 0.401372
0.750719 0.519715 0.400256
0.201029 0.319318 0.278893
0.271920 0.376882 0.339221
0.345093 0.427142 0.392529
0.426810 0.465770 0.434709
0.520656 0.492189 0.461209
0.624886 0.517679 0.458674
0.710768 0.549147 0.454393
0.775384 0.582319 0.451984
0.239405 0.379778 0.321115
0.317043 0.440224 0.387992
0.392395 0.492341 0.445491
0.464133 0.534369 0.492477
0.537212 0.565288 0.523936
0.645857 0.583723 0.511926
0.732260 0.609375 0.503341
0.795268 0.638413 0.500879
0.281644 0.444619 0.374619
0.359150 0.499961 0.435480
0.432500 0.548563 0.489299
0.501760 0.589964 0.535851
0.571649 0.623950 0.569754
0.669250 0.649401 0.557923
0.752479 0.670115 0.545449
0.814052 0.693816 0.540373
0.319772 0.494767 0.420469
0.399939 0.548586 0.479619
0.473529 0.596024 0.532236
0.541781 0.637599 0.578765
0.609533 0.673329 0.613744
0.699562 0.699844 0.601180
0.774791 0.720111 0.588019
0.831719 0.740385 0.581625
0.357580 0.537124 0.461401
0.440041 0.589690 0.519817
0.513571 0.635616 0.571252
0.580112 0.676108 0.616561
0.645282 0.711795 0.650693
0.733310 0.740305 0.638484
0.802034 0.760940 0.625578
0.852054 0.778718 0.620511
0.105518 0.132199 0.147127
0.183502 0.161259 0.176303
0.275771 0.194432 0.209155
0.370581 0.232144 0.243582
0.458821 0.274151 0.277509
0.533816 0.318336 0.307344
0.610422 0.362068 0.325586
0.680110 0.405383 0.333697
0.146025 0.214104 0.207686
0.211893 0.266488 0.257443
0.303947 0.304193 0.297589
0.404096 0.337621 0.333018
0.497890 0.374006 0.366811
0.573527 0.413767 0.396589
0.649910 0.456510 0.410851
0.717973 0.499664 0.415270
0.186464 0.290898 0.265546
0.255818 0.350444 0.324152
0.338276 0.397084 0.373510
0.431130 0.433663 0.413952
0.528154 0.464012 0.446405
0.605360 0.497275 0.472976
0.682496 0.535370 0.480418
0.749731 0.574987 0.479318
0.228357 0.361594 0.319229
0.306619 0.421883 0.382192
0.382022 0.474492 0.438068
0.462864 0.515616 0.483627
0.551556 0.544617 0.517148
0.630345 0.570334 0.538930
0.708836 0.601505 0.538280
0.775650 0.635490 0.531397
0.273137 0.425713 0.368002
0.357960 0.486617 0.435303
0.434897 0.538396 0.492659
0.505474 0.581322 0.540760
0.573076 0.615033 0.578725
0.650332 0.634191 0.596314
0.729804 0.657516 0.587767
0.796092 0.684894 0.576129
0.323572 0.482943 0.412431
0.408377 0.541236 0.480629
0.484228 0.591431 0.538327
0.552015 0.633305 0.586136
0.613155 0.666514 0.623697
0.670642 0.687928 0.644072
0.746525 0.704484 0.629993
0.810783 0.725338 0.616011
0.369775 0.535238 0.459817
0.454333 0.589968 0.524718
0.528050 0.636932 0.579414
0.592456 0.676589 0.625099
0.649296 0.709223 0.661904
0.700684 0.732985 0.683680
0.768906 0.749843 0.669632
0.827609 0.767105 0.654715
0.418011 0.581376 0.503537
0.500921 0.632153 0.565338
0.571639 0.675593 0.617025
0.632187 0.712614 0.660167
0.684881 0.743958 0.695256
0.733055 0.768893 0.716910
0.796009 0.787037 0.703018
0.847743 0.802086 0.689157
0.110339 0.136799 0.151223
0.207521 0.175032 0.189279
0.311749 0.213299 0.227399
0.412121 0.254111 0.264631
0.500245 0.298967 0.300212
0.568849 0.347323 0.333193
0.626114 0.393072 0.358831
0.681178 0.438594 0.375227
0.163288 0.245782 0.233518
0.238987 0.302523 0.289001
0.337912 0.346152 0.335662
0.441621 0.384748 0.376783
0.535243 0.424125 0.414646
0.605093 0.465376 0.448402
0.661936 0.507092 0.473755
0.717073 0.550297 0.487106
0.209825 0.333343 0.300966
0.289021 0.397258 0.365595
0.376123 0.448137 0.420254
0.469667 0.488979 0.465945
0.564291 0.523263 0.503962
0.635244 0.557421 0.535917
0.692029 0.593241 0.557773
0.747644 0.631698 0.565603
0.254994 0.405649 0.357782
0.345694 0.471388 0.427684
0.425393 0.526396 0.487241
0.505075 0.569747 0.535995
0.589199 0.602258 0.574268
0.660192 0.629819 0.603296
0.716991 0.658887 0.619972
0.773138 0.691167 0.621404
0.303082 0.467938 0.407570
0.400974 0.534022 0.481642
0.482635 0.587540 0.541894
0.552011 0.630849 0.590905
0.614249 0.665370 0.630289
0.681407 0.687705 0.656643
0.737502 0.710057 0.667812
0.793745 0.735626 0.663379
0.359153 0.523167 0.452438
0.456384 0.585922 0.527521
0.535915 0.636844 0.587210
0.601623 0.677654 0.634356
0.656866 0.709685 0.671268
0.702895 0.731595 0.697349
0.754009 0.748367 0.704254
0.808410 0.767649 0.696286
0.416764 0.574072 0.496746
0.508982 0.630925 0.568882
0.583789 0.677689 0.625626
0.644677 0.715529 0.670025
0.694495 0.745452 0.704607
0.732954 0.766697 0.729344
0.774840 0.781234 0.734597
0.821862 0.795973 0.725461
0.476374 0.621399 0.540504
0.561999 0.671830 0.608606
0.630802 0.713731 0.661587
0.686036 0.748062 0.702674
0.730429 0.775683 0.734542
0.764060 0.796108 0.757437
0.799738 0.810396 0.761569
0.838808 0.822291 0.752847
0.112742 0.139525 0.154303
0.233928 0.190498 0.203233
0.351239 0.235025 0.247052
0.456227 0.278700 0.286523
0.542937 0.325563 0.322458
0.606851 0.377091 0.355635
0.652337 0.424639 0.384192
0.690276 0.465848 0.404409
0.182352 0.283618 0.264414
0.268278 0.340270 0.322069
0.375201 0.390682 0.375604
0.482757 0.436874 0.424058
0.575273 0.480727 0.466846
0.641042 0.524365 0.503110
0.685810 0.565172 0.534094
0.725163 0.602699 0.554247
0.235918 0.383233 0.341539
0.325756 0.447586 0.410046
0.418156 0.501488 0.469032
0.512420 0.547566 0.520394
0.604203 0.588189 0.565319
0.670685 0.625131 0.601478
0.714645 0.659410 0.631528
0.754921 0.692315 0.648750
0.283220 0.454040 0.397808
0.389126 0.524768 0.476141
0.473943 0.580410 0.538455
0.552139 0.625032 0.589364
0.631243 0.662103 0.632276
0.696490 0.693430 0.666323
0.739316 0.721732 0.693525
0.780063 0.749651 0.706464
0.332541 0.509447 0.443550
0.447438 0.582650 0.528275
0.535815 0.638491 0.592898
0.604042 0.681166 0.642045
0.659888 0.714450 0.680048
0.719528 0.740948 0.710597
0.760268 0.764009 0.734142
0.800904 0.787027 0.742696
0.392625 0.559914 0.486875
0.505945 0.629410 0.572591
0.591156 0.682166 0.635992
0.655311 0.721984 0.682610
0.704568 0.752096 0.717110
0.742455 0.773508 0.741229
0.777273 0.791925 0.760653
0.816169 0.810417 0.765791
0.459219 0.608469 0.529443
0.563699 0.670544 0.612334
0.641605 0.718258 0.672351
0.699396 0.754440 0.715332
0.742445 0.781521 0.746152
0.772217 0.799941 0.766516
0.796197 0.813193 0.781091
0.827221 0.826681 0.783409
0.523683 0.653379 0.570508
0.618118 0.707569 0.649132
0.688012 0.749906 0.705052
0.739123 0.782386 0.744166
0.776298 0.806746 0.771447
0.800947 0.823020 0.788966
0.817579 0.833532 0.800340
0.840121 0.842618 0.800363
