filters/luts/Foreshadowing 04.cube
# Created by: Adobe Photoshop Export Color Lookup Plugin
# LUT by SparkleStock. Enhanced with VOXCOLOR algorithms.
LUT_3D_SIZE 32
0.082051 0.113309 0.097680
0.095711 0.115152 0.094608
0.109370 0.116996 0.091536
0.123030 0.118839 0.088464
0.136689 0.120682 0.085391
0.150349 0.122526 0.082319
0.170546 0.126693 0.081846
0.192052 0.131325 0.081894
0.213557 0.135957 0.081941
0.235062 0.140588 0.081988
0.256568 0.145220 0.082036
0.282043 0.151617 0.083595
0.309504 0.158896 0.085911
0.336965 0.166174 0.088227
0.364426 0.173453 0.090543
0.391886 0.180732 0.092859
0.420103 0.188790 0.095955
0.449076 0.197629 0.099831
0.478050 0.206467 0.103706
0.507023 0.215306 0.107582
0.535996 0.224144 0.111458
0.563283 0.232809 0.115507
0.587199 0.241128 0.119902
0.611115 0.249447 0.124298
0.635031 0.257765 0.128694
0.658947 0.266084 0.133089
0.680815 0.273796 0.137256
0.692442 0.278475 0.140281
0.704069 0.283154 0.143306
0.715696 0.287833 0.146331
0.727323 0.292513 0.149356
0.738950 0.297192 0.152381
0.084415 0.117468 0.099382
0.098751 0.120071 0.096556
0.113087 0.122673 0.093731
0.127424 0.125276 0.090906
0.141760 0.127879 0.088081
0.156097 0.130481 0.085256
0.176925 0.134965 0.084817
0.199053 0.139826 0.084855
0.221180 0.144687 0.084893
0.243308 0.149547 0.084931
0.265435 0.154408 0.084969
0.291136 0.160966 0.086513
0.318625 0.168373 0.088811
0.346113 0.175780 0.091109
0.373601 0.183187 0.093406
0.401089 0.190593 0.095704
0.429119 0.198739 0.098777
0.457689 0.207623 0.102625
0.486260 0.216507 0.106474
0.514831 0.225391 0.110322
0.543401 0.234276 0.114170
0.570249 0.242996 0.118189
0.593653 0.251388 0.122548
0.617057 0.259779 0.126907
0.640460 0.268171 0.131266
0.663864 0.276563 0.135625
0.685276 0.284363 0.139763
0.696729 0.289207 0.142797
0.708182 0.294051 0.145831
0.719636 0.298895 0.148865
0.731089 0.303739 0.151899
0.742542 0.308582 0.154933
0.086778 0.121627 0.101083
0.101791 0.124989 0.098505
0.116804 0.128351 0.095927
0.131818 0.131713 0.093349
0.146831 0.135075 0.090770
0.161845 0.138437 0.088192
0.183305 0.143238 0.087787
0.206054 0.148328 0.087816
0.228804 0.153417 0.087844
0.251553 0.158506 0.087873
0.274303 0.163596 0.087902
0.300230 0.170315 0.089432
0.327745 0.177850 0.091711
0.355261 0.185385 0.093990
0.382776 0.192920 0.096270
0.410292 0.200455 0.098549
0.438134 0.208687 0.101599
0.466302 0.217617 0.105420
0.494470 0.226547 0.109241
0.522638 0.235477 0.113062
0.550806 0.244407 0.116882
0.577216 0.253182 0.120870
0.600107 0.261647 0.125193
0.622998 0.270112 0.129515
0.645890 0.278577 0.133838
0.668781 0.287042 0.138160
0.689737 0.294931 0.142269
0.701016 0.299939 0.145313
0.712296 0.304948 0.148356
0.723575 0.309956 0.151399
0.734855 0.314965 0.154442
0.746134 0.319973 0.157486
0.089141 0.125787 0.102785
0.104831 0.129908 0.100453
0.120522 0.134029 0.098122
0.136212 0.138150 0.095791
0.151902 0.142271 0.093460
0.167593 0.146393 0.091129
0.189684 0.151511 0.090757
0.213055 0.156829 0.090776
0.236427 0.162147 0.090796
0.259799 0.167465 0.090816
0.283170 0.172783 0.090836
0.309323 0.179665 0.092350
0.336866 0.187328 0.094611
0.364409 0.194990 0.096872
0.391952 0.202653 0.099133
0.419495 0.210316 0.101394
0.447149 0.218636 0.104421
0.474915 0.227611 0.108215
0.502680 0.236587 0.112008
0.530446 0.245563 0.115801
0.558212 0.254538 0.119595
0.584182 0.263368 0.123552
0.606561 0.271906 0.127838
0.628940 0.280445 0.132124
0.651319 0.288983 0.136410
0.673698 0.297521 0.140696
0.694198 0.305498 0.144776
0.705304 0.310671 0.147828
0.716409 0.315844 0.150881
0.727515 0.321018 0.153933
0.738621 0.326191 0.156985
0.749726 0.331364 0.160038
0.091504 0.129946 0.104486
0.107871 0.134826 0.102402
0.124239 0.139707 0.100318
0.140606 0.144587 0.098234
0.156973 0.149468 0.096149
0.173340 0.154348 0.094065
0.196063 0.159784 0.093727
0.220057 0.165331 0.093737
0.244050 0.170877 0.093748
0.268044 0.176424 0.093759
0.292038 0.181971 0.093769
0.318416 0.189014 0.095268
0.345986 0.196805 0.097511
0.373557 0.204596 0.099754
0.401127 0.212387 0.101996
0.428698 0.220178 0.104239
0.456165 0.228584 0.107244
0.483528 0.237606 0.111009
0.510891 0.246627 0.114775
0.538254 0.255648 0.118541
0.565617 0.264670 0.122307
0.591148 0.273555 0.126234
0.613015 0.282166 0.130483
0.634882 0.290777 0.134733
0.656748 0.299388 0.138982
0.678615 0.308000 0.143231
0.698659 0.316066 0.147282
0.709591 0.321403 0.150344
0.720523 0.326741 0.153406
0.731455 0.332079 0.156467
0.742387 0.337417 0.159529
0.753318 0.342755 0.162590
0.093867 0.134105 0.106188
0.110912 0.139745 0.104350
0.127956 0.145385 0.102513
0.145000 0.151025 0.100676
0.162044 0.156664 0.098839
0.179088 0.162304 0.097002
0.202442 0.168057 0.096697
0.227058 0.173832 0.096698
0.251674 0.179608 0.096700
0.276289 0.185383 0.096701
0.300905 0.191158 0.096703
0.327509 0.198363 0.098186
0.355107 0.206282 0.100411
0.382705 0.214201 0.102635
0.410303 0.222120 0.104860
0.437901 0.230039 0.107084
0.465180 0.238533 0.110066
0.492140 0.247600 0.113804
0.519101 0.256667 0.117543
0.546062 0.265734 0.121281
0.573022 0.274801 0.125020
0.598114 0.283741 0.128916
0.619469 0.292425 0.133129
0.640823 0.301110 0.137341
0.662178 0.309794 0.141554
0.683532 0.318479 0.145767
0.703120 0.326633 0.149789
0.713878 0.332135 0.152860
0.724636 0.337638 0.155930
0.735394 0.343140 0.159001
0.746152 0.348643 0.162072
0.756910 0.354145 0.165142
0.098003 0.141100 0.109544
0.115259 0.147134 0.107938
0.132515 0.153167 0.106333
0.149771 0.159200 0.104727
0.167028 0.165233 0.103122
0.184284 0.171266 0.101516
0.208128 0.177593 0.101160
0.233289 0.183978 0.101053
0.258451 0.190363 0.100946
0.283612 0.196748 0.100839
0.308774 0.203134 0.100733
0.335741 0.210759 0.102198
0.363610 0.219004 0.104450
0.391479 0.227250 0.106702
0.419348 0.235495 0.108954
0.447218 0.243741 0.111206
0.474523 0.252504 0.114230
0.501264 0.261784 0.118024
0.528005 0.271065 0.121819
0.554746 0.280345 0.125614
0.581487 0.289626 0.129409
0.606308 0.298783 0.133377
0.627287 0.307693 0.137690
0.648267 0.316603 0.142003
0.669246 0.325514 0.146317
0.690225 0.334424 0.150630
0.709477 0.342823 0.154764
0.720092 0.348665 0.158004
0.730707 0.354508 0.161244
0.741321 0.360350 0.164484
0.751936 0.366193 0.167724
0.762551 0.372035 0.170964
0.102493 0.148663 0.113230
0.119868 0.155016 0.111853
0.137243 0.161369 0.110477
0.154618 0.167723 0.109100
0.171993 0.174076 0.107723
0.189369 0.180429 0.106346
0.213674 0.187381 0.105921
0.239367 0.194452 0.105686
0.265059 0.201524 0.105452
0.290751 0.208595 0.105217
0.316443 0.215666 0.104982
0.343800 0.223764 0.106429
0.371989 0.232376 0.108718
0.400179 0.240987 0.111006
0.428368 0.249598 0.113295
0.456558 0.258210 0.115583
0.483932 0.267279 0.118662
0.510490 0.276807 0.122530
0.537048 0.286334 0.126398
0.563606 0.295862 0.130266
0.590164 0.305390 0.134134
0.614747 0.314797 0.138193
0.635379 0.323963 0.142635
0.656010 0.333129 0.147076
0.676642 0.342296 0.151517
0.697274 0.351462 0.155959
0.716213 0.360137 0.160233
0.726691 0.366354 0.163674
0.737168 0.372572 0.167116
0.747646 0.378789 0.170557
0.758123 0.385007 0.173998
0.768601 0.391225 0.177439
0.106983 0.156225 0.116917
0.124477 0.162899 0.115769
0.141971 0.169572 0.114621
0.159465 0.176245 0.113473
0.176959 0.182919 0.112324
0.194453 0.189592 0.111176
0.219221 0.197169 0.110683
0.245444 0.204927 0.110320
0.271667 0.212684 0.109957
0.297889 0.220442 0.109594
0.324112 0.228199 0.109231
0.351859 0.236770 0.110660
0.380369 0.245747 0.112985
0.408879 0.254724 0.115311
0.437388 0.263701 0.117636
0.465898 0.272679 0.119961
0.493340 0.282055 0.123094
0.519716 0.291829 0.127035
0.546091 0.301604 0.130976
0.572466 0.311378 0.134918
0.598841 0.321153 0.138859
0.623186 0.330810 0.143010
0.643470 0.340233 0.147579
0.663754 0.349655 0.152148
0.684038 0.359078 0.156718
0.704322 0.368500 0.161287
0.722949 0.377451 0.165702
0.733289 0.384043 0.169345
0.743630 0.390636 0.172987
0.753970 0.397229 0.176629
0.764310 0.403821 0.180272
0.774650 0.410414 0.183914
0.111473 0.163787 0.120603
0.129086 0.170781 0.119684
0.146699 0.177775 0.118765
0.164312 0.184768 0.117845
0.181925 0.191762 0.116926
0.199538 0.198756 0.116007
0.224768 0.206958 0.115444
0.251521 0.215401 0.114953
0.278274 0.223845 0.114462
0.305028 0.232288 0.113971
0.331781 0.240732 0.113480
0.359919 0.249775 0.114891
0.388748 0.259118 0.117253
0.417578 0.268461 0.119615
0.446408 0.277805 0.121976
0.475238 0.287148 0.124338
0.502749 0.296830 0.127526
0.528941 0.306852 0.131541
0.555133 0.316873 0.135555
0.581326 0.326895 0.139569
0.607518 0.336917 0.143584
0.631625 0.346824 0.147826
0.651561 0.356502 0.152524
0.671498 0.366181 0.157221
0.691434 0.375859 0.161918
0.711371 0.385538 0.166616
0.729685 0.394765 0.171171
0.739888 0.401733 0.175015
0.750091 0.408700 0.178859
0.760294 0.415668 0.182702
0.770497 0.422636 0.186546
0.780700 0.429603 0.190390
0.115964 0.171350 0.124290
0.133695 0.178664 0.123599
0.151427 0.185977 0.122909
0.169159 0.193291 0.122218
0.186891 0.200605 0.121527
0.204623 0.207919 0.120837
0.230315 0.216746 0.120206
0.257598 0.225876 0.119587
0.284882 0.235005 0.118968
0.312166 0.244135 0.118349
0.339450 0.253265 0.117730
0.367978 0.262781 0.119122
0.397128 0.272490 0.121520
0.426278 0.282199 0.123919
0.455428 0.291908 0.126317
0.484578 0.301617 0.128715
0.512158 0.311606 0.131958
0.538167 0.321874 0.136046
0.564176 0.332143 0.140134
0.590185 0.342411 0.144221
0.616195 0.352680 0.148309
0.640064 0.362837 0.152642
0.659653 0.372772 0.157468
0.679242 0.382707 0.162294
0.698830 0.392641 0.167119
0.718419 0.402576 0.171945
0.736421 0.412079 0.176640
0.746487 0.419422 0.180685
0.756553 0.426764 0.184730
0.766619 0.434107 0.188775
0.776684 0.441450 0.192820
0.786750 0.448793 0.196865
0.121021 0.179952 0.128796
0.138829 0.187568 0.128377
0.156637 0.195183 0.127957
0.174445 0.202799 0.127538
0.192253 0.210415 0.127119
0.210061 0.218030 0.126700
0.236147 0.227424 0.126149
0.263888 0.237172 0.125573
0.291629 0.246921 0.124997
0.319371 0.256670 0.124420
0.347112 0.266418 0.123844
0.375933 0.276429 0.125251
0.405293 0.286571 0.127649
0.434654 0.296713 0.130047
0.464014 0.306856 0.132446
0.493374 0.316998 0.134844
0.521023 0.327342 0.138133
0.546959 0.337888 0.142312
0.572895 0.348434 0.146491
0.598831 0.358980 0.150670
0.624767 0.369526 0.154849
0.648488 0.379939 0.159301
0.667778 0.390088 0.164297
0.687068 0.400236 0.169293
0.706358 0.410384 0.174290
0.725648 0.420532 0.179286
0.743379 0.430269 0.184168
0.753313 0.437950 0.188482
0.763248 0.445632 0.192795
0.773183 0.453313 0.197108
0.783117 0.460994 0.201421
0.793052 0.468675 0.205735
0.126362 0.189074 0.133711
0.144225 0.196982 0.133585
0.162088 0.204891 0.133458
0.179951 0.212799 0.133332
0.197814 0.220708 0.133205
0.215677 0.228616 0.133079
0.242122 0.238546 0.132684
0.270284 0.248880 0.132236
0.298446 0.259214 0.131788
0.326608 0.269549 0.131339
0.354770 0.279883 0.130891
0.383835 0.290400 0.132328
0.413351 0.301008 0.134708
0.442867 0.311617 0.137088
0.472383 0.322226 0.139468
0.501899 0.332834 0.141848
0.529616 0.343558 0.145178
0.555533 0.354397 0.149458
0.581451 0.365236 0.153738
0.607369 0.376074 0.158017
0.633287 0.386913 0.162297
0.656904 0.397586 0.166880
0.675919 0.407926 0.172068
0.694935 0.418266 0.177257
0.713951 0.428607 0.182445
0.732966 0.438947 0.187633
0.750447 0.448897 0.192726
0.760254 0.456899 0.197341
0.770060 0.464900 0.201957
0.779867 0.472902 0.206572
0.789673 0.480903 0.211187
0.799480 0.488905 0.215802
0.131703 0.198196 0.138627
0.149621 0.206397 0.138793
0.167538 0.214598 0.138959
0.185456 0.222800 0.139126
0.203374 0.231001 0.139292
0.221292 0.239202 0.139458
0.248097 0.249668 0.139219
0.276680 0.260588 0.138899
0.305263 0.271508 0.138578
0.333846 0.282427 0.138258
0.362429 0.293347 0.137938
0.391737 0.304370 0.139406
0.421409 0.315445 0.141768
0.451080 0.326521 0.144129
0.480752 0.337596 0.146491
0.510423 0.348671 0.148853
0.538209 0.359774 0.152224
0.564108 0.370906 0.156604
0.590008 0.382037 0.160984
0.615907 0.393169 0.165365
0.641807 0.404301 0.169745
0.665320 0.415232 0.174459
0.684061 0.425765 0.179839
0.702802 0.436297 0.185220
0.721543 0.446830 0.190600
0.740285 0.457362 0.195981
0.757515 0.467526 0.201284
0.767194 0.475847 0.206201
0.776872 0.484169 0.211118
0.786551 0.492491 0.216035
0.796230 0.500812 0.220952
0.805908 0.509134 0.225869
0.137044 0.207318 0.143542
0.155016 0.215812 0.144001
0.172989 0.224306 0.144460
0.190962 0.232800 0.144919
0.208935 0.241294 0.145378
0.226907 0.249788 0.145837
0.254072 0.260791 0.145753
0.283076 0.272296 0.145561
0.312080 0.283801 0.145369
0.341083 0.295306 0.145177
0.370087 0.306811 0.144985
0.399640 0.318341 0.146483
0.429467 0.329883 0.148827
0.459294 0.341424 0.151170
0.489121 0.352966 0.153514
0.518948 0.364508 0.155857
0.546802 0.375991 0.159269
0.572683 0.387415 0.163750
0.598564 0.398839 0.168231
0.624445 0.410264 0.172712
0.650326 0.421688 0.177193
0.673736 0.432879 0.182038
0.692203 0.443603 0.187611
0.710669 0.454328 0.193183
0.729136 0.465052 0.198756
0.747603 0.475777 0.204329
0.764584 0.486154 0.209842
0.774134 0.494796 0.215061
0.783685 0.503438 0.220280
0.793235 0.512080 0.225499
0.802786 0.520721 0.230718
0.812336 0.529363 0.235937
0.142384 0.216440 0.148458
0.160412 0.225227 0.149210
0.178440 0.234013 0.149961
0.196467 0.242800 0.150713
0.214495 0.251587 0.151465
0.232523 0.260373 0.152216
0.260048 0.271913 0.152288
0.289472 0.284004 0.152224
0.318897 0.296094 0.152160
0.348321 0.308185 0.152096
0.377746 0.320276 0.152032
0.407542 0.332311 0.153561
0.437525 0.344320 0.155886
0.467507 0.356328 0.158211
0.497490 0.368336 0.160536
0.527472 0.380344 0.162861
0.555395 0.392207 0.166315
0.581258 0.403924 0.170896
0.607120 0.415641 0.175478
0.632983 0.427358 0.180059
0.658846 0.439075 0.184641
0.682152 0.450525 0.189617
0.700344 0.461442 0.195382
0.718537 0.472358 0.201147
0.736729 0.483275 0.206911
0.754921 0.494192 0.212676
0.771652 0.504782 0.218400
0.781074 0.513744 0.223921
0.790497 0.522706 0.229442
0.799919 0.531668 0.234963
0.809342 0.540630 0.240483
0.818764 0.549592 0.246004
0.147347 0.224971 0.153184
0.165572 0.234206 0.154348
0.183796 0.243441 0.155511
0.202020 0.252676 0.156674
0.220244 0.261911 0.157838
0.238469 0.271146 0.159001
0.266282 0.283153 0.159271
0.296013 0.295715 0.159363
0.325744 0.308277 0.159454
0.355475 0.320838 0.159546
0.385206 0.333400 0.159637
0.415266 0.345904 0.161236
0.445491 0.358378 0.163588
0.475716 0.370853 0.165941
0.505941 0.383328 0.168294
0.536166 0.395803 0.170646
0.564166 0.408059 0.174301
0.589942 0.420096 0.179257
0.615718 0.432133 0.184214
0.641494 0.444171 0.189171
0.667270 0.456208 0.194128
0.690428 0.467908 0.199407
0.708350 0.478934 0.205332
0.726273 0.489961 0.211257
0.744195 0.500987 0.217181
0.762118 0.512013 0.223106
0.778598 0.522726 0.229013
0.787864 0.531871 0.234831
0.797131 0.541016 0.240650
0.806398 0.550161 0.246468
0.815665 0.559306 0.252286
0.824932 0.568451 0.258104
0.151932 0.232912 0.157722
0.170495 0.242751 0.159416
0.189057 0.252589 0.161110
0.207620 0.262428 0.162804
0.226183 0.272267 0.164497
0.244746 0.282105 0.166191
0.272775 0.294510 0.166702
0.302699 0.307429 0.166977
0.332622 0.320347 0.167251
0.362545 0.333266 0.167526
0.392468 0.346184 0.167800
0.422812 0.359118 0.169509
0.453366 0.372059 0.171935
0.483920 0.385001 0.174360
0.514474 0.397942 0.176786
0.545029 0.410883 0.179212
0.573116 0.423546 0.183228
0.598736 0.435931 0.188834
0.624357 0.448316 0.194440
0.649977 0.460701 0.200046
0.675598 0.473086 0.205652
0.698564 0.485027 0.211408
0.716221 0.496081 0.217460
0.733878 0.507135 0.223513
0.751535 0.518188 0.229566
0.769192 0.529242 0.235619
0.785420 0.539985 0.241682
0.794504 0.549176 0.247793
0.803588 0.558367 0.253903
0.812672 0.567557 0.260014
0.821756 0.576748 0.266125
0.830840 0.585939 0.272236
0.156517 0.240852 0.162259
0.175418 0.251295 0.164484
0.194319 0.261737 0.166708
0.213220 0.272180 0.168933
0.232122 0.282622 0.171157
0.251023 0.293064 0.173382
0.279269 0.305868 0.174134
0.309384 0.319143 0.174591
0.339499 0.332418 0.175048
0.369614 0.345693 0.175506
0.399730 0.358969 0.175963
0.430357 0.372332 0.177782
0.461241 0.385740 0.180281
0.492124 0.399148 0.182779
0.523008 0.412556 0.185278
0.553891 0.425964 0.187777
0.582066 0.439034 0.192155
0.607531 0.451766 0.198410
0.632995 0.464499 0.204666
0.658460 0.477231 0.210922
0.683925 0.489964 0.217177
0.706699 0.502146 0.223408
0.724091 0.513227 0.229589
0.741483 0.524308 0.235770
0.758875 0.535390 0.241951
0.776267 0.546471 0.248132
0.792243 0.557245 0.254350
0.801144 0.566481 0.260754
0.810045 0.575717 0.267157
0.818946 0.584954 0.273561
0.827847 0.594190 0.279965
0.836748 0.603427 0.286368
0.161101 0.248793 0.166797
0.180341 0.259839 0.169552
0.199581 0.270885 0.172307
0.218820 0.281931 0.175062
0.238060 0.292978 0.177817
0.257300 0.304024 0.180572
0.285763 0.317225 0.181565
0.316070 0.330857 0.182205
0.346377 0.344489 0.182846
0.376684 0.358121 0.183486
0.406992 0.371753 0.184126
0.437903 0.385546 0.186054
0.469116 0.399421 0.188627
0.500328 0.413295 0.191199
0.531541 0.427170 0.193771
0.562754 0.441044 0.196343
0.591015 0.454521 0.201081
0.616325 0.467602 0.207987
0.641634 0.480682 0.214892
0.666944 0.493762 0.221797
0.692253 0.506842 0.228702
0.714835 0.519265 0.235409
0.731961 0.530373 0.241718
0.749088 0.541482 0.248027
0.766214 0.552591 0.254336
0.783341 0.563700 0.260645
0.799066 0.574504 0.267019
0.807784 0.583786 0.273715
0.816502 0.593068 0.280411
0.825220 0.602350 0.287108
0.833938 0.611632 0.293804
0.842656 0.620915 0.300500
0.165686 0.256733 0.171334
0.185264 0.268383 0.174620
0.204842 0.280033 0.177905
0.224421 0.291683 0.181191
0.243999 0.303333 0.184477
0.263577 0.314983 0.187762
0.292256 0.328582 0.188996
0.322755 0.342571 0.189819
0.353255 0.356560 0.190643
0.383754 0.370548 0.191466
0.414254 0.384537 0.192289
0.445448 0.398761 0.194327
0.476990 0.413102 0.196973
0.508533 0.427443 0.199618
0.540075 0.441784 0.202263
0.571617 0.456125 0.204908
0.599965 0.470009 0.210008
0.625119 0.483437 0.217563
0.650273 0.496864 0.225118
0.675427 0.510292 0.232673
0.700581 0.523720 0.240227
0.722970 0.536384 0.247409
0.739832 0.547520 0.253847
0.756693 0.558656 0.260284
0.773554 0.569792 0.266721
0.790415 0.580928 0.273158
0.805889 0.591763 0.279687
0.814424 0.601091 0.286676
0.822959 0.610419 0.293665
0.831494 0.619747 0.300654
0.840029 0.629075 0.307643
0.848564 0.638402 0.314632
0.169609 0.263602 0.175273
0.189696 0.276030 0.179223
0.209784 0.288457 0.183174
0.229871 0.300885 0.187124
0.249959 0.313312 0.191074
0.270046 0.325740 0.195025
0.298996 0.339768 0.196542
0.329718 0.354117 0.197573
0.360440 0.368466 0.198603
0.391162 0.382814 0.199634
0.421883 0.397163 0.200665
0.453293 0.411748 0.202841
0.485045 0.426452 0.205590
0.516798 0.441156 0.208339
0.548550 0.455860 0.211088
0.580303 0.470564 0.213837
0.608691 0.484759 0.219210
0.633714 0.498446 0.227207
0.658736 0.512133 0.235203
0.683759 0.525820 0.243200
0.708782 0.539507 0.251197
0.731014 0.552403 0.258897
0.747665 0.563719 0.266002
0.764316 0.575035 0.273107
0.780967 0.586351 0.280212
0.797617 0.597668 0.287316
0.812878 0.608643 0.294443
0.821187 0.617916 0.301679
0.829497 0.627189 0.308915
0.837806 0.636462 0.316151
0.846116 0.645735 0.323387
0.854425 0.655008 0.330623
0.172208 0.268329 0.178014
0.193147 0.281882 0.182898
0.214085 0.295434 0.187781
0.235023 0.308987 0.192665
0.255961 0.322540 0.197548
0.276899 0.336092 0.202432
0.306227 0.350613 0.204318
0.337233 0.365328 0.205605
0.368238 0.380042 0.206891
0.399244 0.394757 0.208178
0.430249 0.409471 0.209465
0.461735 0.424283 0.211836
0.493460 0.439142 0.214750
0.525185 0.454001 0.217664
0.556910 0.468861 0.220577
0.588635 0.483720 0.223491
0.616968 0.498034 0.228960
0.641909 0.511804 0.236984
0.666849 0.525573 0.245009
0.691790 0.539342 0.253033
0.716730 0.553111 0.261057
0.738874 0.566224 0.269357
0.755424 0.578025 0.278210
0.771974 0.589826 0.287062
0.788524 0.601627 0.295914
0.805075 0.613428 0.304766
0.820200 0.624765 0.313375
0.828198 0.633782 0.320767
0.836196 0.642799 0.328158
0.844195 0.651815 0.335550
0.852193 0.660832 0.342941
0.860191 0.669849 0.350333
0.174808 0.273055 0.180755
0.196597 0.287733 0.186572
0.218386 0.302411 0.192389
0.240175 0.317089 0.198205
0.261964 0.331767 0.204022
0.283753 0.346445 0.209838
0.313459 0.361458 0.212094
0.344748 0.376539 0.213637
0.376037 0.391619 0.215180
0.407326 0.406700 0.216723
0.438615 0.421780 0.218265
0.470177 0.436817 0.220832
0.501874 0.451832 0.223910
0.533572 0.466847 0.226989
0.565270 0.481861 0.230067
0.596968 0.496876 0.233145
0.625246 0.511310 0.238710
0.650104 0.525161 0.246762
0.674962 0.539013 0.254814
0.699820 0.552864 0.262865
0.724678 0.566716 0.270917
0.746733 0.580045 0.279818
0.763183 0.592331 0.290418
0.779633 0.604617 0.301017
0.796082 0.616903 0.311617
0.812532 0.629188 0.322216
0.827521 0.640887 0.332307
0.835208 0.649647 0.339854
0.842896 0.658408 0.347401
0.850583 0.667169 0.354948
0.858270 0.675930 0.362495
0.865958 0.684690 0.370042
0.177408 0.277782 0.183497
0.200047 0.293585 0.190246
0.222687 0.309388 0.196996
0.245327 0.325191 0.203746
0.267966 0.340994 0.210496
0.290606 0.356797 0.217245
0.320690 0.372303 0.219869
0.352263 0.387750 0.221669
0.383836 0.403196 0.223468
0.415408 0.418642 0.225267
0.446981 0.434089 0.227066
0.478619 0.449351 0.229827
0.510289 0.464521 0.233070
0.541959 0.479692 0.236313
0.573630 0.494862 0.239556
0.605300 0.510033 0.242799
0.633523 0.524585 0.248460
0.658299 0.538519 0.256540
0.683075 0.552453 0.264619
0.707850 0.566387 0.272698
0.732626 0.580320 0.280777
0.754593 0.593867 0.290279
0.770942 0.606637 0.302626
0.787291 0.619408 0.314972
0.803640 0.632178 0.327319
0.819989 0.644949 0.339666
0.834842 0.657008 0.351238
0.842219 0.665513 0.358941
0.849595 0.674018 0.366644
0.856971 0.682522 0.374346
0.864348 0.691027 0.382049
0.871724 0.699531 0.389751
0.180007 0.282508 0.186238
0.203498 0.299437 0.193921
0.226988 0.316365 0.201604
0.250479 0.333293 0.209286
0.273969 0.350222 0.216969
0.297460 0.367150 0.224652
0.327922 0.383148 0.227645
0.359778 0.398960 0.229700
0.391634 0.414773 0.231756
0.423490 0.430585 0.233811
0.455347 0.446397 0.235866
0.487061 0.461885 0.238823
0.518704 0.477211 0.242231
0.550347 0.492537 0.245638
0.581989 0.507863 0.249046
0.613632 0.523189 0.252454
0.641800 0.537860 0.258211
0.666494 0.551876 0.266317
0.691187 0.565893 0.274424
0.715881 0.579909 0.282531
0.740574 0.593925 0.290637
0.762453 0.607688 0.300740
0.778701 0.620943 0.314834
0.794949 0.634198 0.328928
0.811198 0.647454 0.343022
0.827446 0.660709 0.357116
0.842164 0.673130 0.370170
0.849229 0.681379 0.378028
0.856294 0.689627 0.385886
0.863360 0.697876 0.393745
0.870425 0.706124 0.401603
0.877490 0.714372 0.409461
0.182229 0.286667 0.188625
0.206680 0.304832 0.197358
0.231131 0.322997 0.206092
0.255582 0.341162 0.214825
0.280033 0.359327 0.223558
0.304484 0.377492 0.232291
0.335379 0.394017 0.235683
0.367563 0.410215 0.238007
0.399747 0.426414 0.240330
0.431931 0.442612 0.242654
0.464115 0.458810 0.244978
0.495912 0.474511 0.248130
0.527515 0.489963 0.251696
0.559119 0.505415 0.255262
0.590722 0.520868 0.258828
0.622325 0.536320 0.262394
0.650403 0.551074 0.268260
0.674954 0.565128 0.276427
0.699506 0.579183 0.284593
0.724058 0.593237 0.292759
0.748609 0.607291 0.300925
0.770336 0.621193 0.311549
0.786412 0.634790 0.327090
0.802488 0.648387 0.342631
0.818564 0.661984 0.358172
0.834640 0.675581 0.373713
0.849180 0.688278 0.388076
0.856039 0.696478 0.396548
0.862899 0.704678 0.405021
0.869758 0.712877 0.413493
0.876618 0.721077 0.421966
0.883477 0.729276 0.430438
0.182559 0.287991 0.189239
0.208520 0.307949 0.199610
0.234480 0.327907 0.209981
0.260441 0.347864 0.220352
0.286401 0.367822 0.230722
0.312362 0.387780 0.241093
0.343966 0.405009 0.245032
0.376699 0.421692 0.247685
0.409432 0.438375 0.250338
0.442165 0.455057 0.252991
0.474898 0.471740 0.255644
0.506811 0.487591 0.258991
0.538313 0.503025 0.262686
0.569816 0.518459 0.266380
0.601318 0.533893 0.270074
0.632821 0.549327 0.273768
0.660628 0.563980 0.279808
0.684741 0.577851 0.288194
0.708854 0.591723 0.296580
0.732966 0.605594 0.304965
