filters/luts/Foreshadowing 04_S.cube
# LUT by SparkleStock. Enhanced with VOXCOLOR algorithms.
LUT_3D_SIZE 32
0.082051 0.113309 0.097680
0.094789 0.114743 0.094151
0.107527 0.116176 0.090622
0.120265 0.117610 0.087093
0.133002 0.119044 0.083564
0.149837 0.121675 0.081610
0.169743 0.125204 0.080838
0.189649 0.128733 0.080066
0.209555 0.132262 0.079294
0.230360 0.136130 0.078814
0.256552 0.142030 0.080082
0.282744 0.147930 0.081350
0.308937 0.153830 0.082618
0.335129 0.159731 0.083887
0.363685 0.167167 0.086455
0.393186 0.175218 0.089543
0.422687 0.183268 0.092631
0.452188 0.191319 0.095719
0.481342 0.199732 0.099216
0.509630 0.209051 0.103738
0.537918 0.218370 0.108259
0.566206 0.227689 0.112781
0.594494 0.237008 0.117303
0.617252 0.245760 0.121966
0.639088 0.254417 0.126653
0.660924 0.263075 0.131340
0.682760 0.271732 0.136027
0.699468 0.278664 0.140029
0.709339 0.283296 0.143117
0.719209 0.287928 0.146205
0.729080 0.292560 0.149293
0.738950 0.297192 0.152381
0.084147 0.117003 0.099114
0.097557 0.119545 0.095597
0.110967 0.122087 0.092081
0.124377 0.124629 0.088564
0.137787 0.127171 0.085047
0.155351 0.130369 0.082864
0.176029 0.134060 0.081681
0.196707 0.137751 0.080498
0.217385 0.141442 0.079316
0.238894 0.145433 0.078444
0.265385 0.151221 0.079438
0.291877 0.157009 0.080432
0.318368 0.162797 0.081427
0.344859 0.168585 0.082421
0.373403 0.175847 0.084822
0.402767 0.183699 0.087785
0.432131 0.191550 0.090749
0.461495 0.199402 0.093712
0.490434 0.207637 0.097139
0.518311 0.216832 0.101722
0.546188 0.226026 0.106306
0.574064 0.235220 0.110890
0.601941 0.244415 0.115474
0.624192 0.253256 0.120424
0.645506 0.262038 0.125435
0.666819 0.270819 0.130446
0.688132 0.279601 0.135456
0.704381 0.286813 0.139862
0.713878 0.291930 0.143460
0.723375 0.297048 0.147059
0.732872 0.302165 0.150657
0.742369 0.307283 0.154256
0.086242 0.120698 0.100547
0.100325 0.124348 0.097043
0.114407 0.127998 0.093539
0.128490 0.131648 0.090035
0.142572 0.135298 0.086531
0.160865 0.139064 0.084118
0.182315 0.142917 0.082524
0.203765 0.146770 0.080931
0.225216 0.150623 0.079337
0.247429 0.154736 0.078074
0.274219 0.160412 0.078794
0.301009 0.166088 0.079514
0.327799 0.171764 0.080235
0.354589 0.177440 0.080955
0.383120 0.184528 0.083189
0.412347 0.192180 0.086028
0.441574 0.199832 0.088867
0.470801 0.207485 0.091706
0.499525 0.215542 0.095061
0.526991 0.224612 0.099707
0.554457 0.233682 0.104353
0.581923 0.242752 0.108999
0.609389 0.251822 0.113646
0.631133 0.260751 0.118882
0.651923 0.269658 0.124216
0.672714 0.278564 0.129551
0.693504 0.287470 0.134885
0.709294 0.294961 0.139695
0.718418 0.300564 0.143804
0.727541 0.306167 0.147913
0.736664 0.311771 0.152022
0.745788 0.317374 0.156131
0.088337 0.124392 0.101981
0.103092 0.129151 0.098489
0.117847 0.133909 0.094998
0.132602 0.138667 0.091506
0.147357 0.143425 0.088014
0.166379 0.147759 0.085372
0.188601 0.151773 0.083368
0.210824 0.155788 0.081363
0.233046 0.159803 0.079358
0.255963 0.164039 0.077704
0.283052 0.169603 0.078150
0.310141 0.175167 0.078597
0.337230 0.180731 0.079043
0.364319 0.186295 0.079490
0.392837 0.193208 0.081556
0.421927 0.200661 0.084270
0.451018 0.208114 0.086985
0.480108 0.215567 0.089699
0.508616 0.223447 0.092983
0.535671 0.232392 0.097692
0.562727 0.241338 0.102400
0.589782 0.250283 0.107109
0.616837 0.259229 0.111817
0.638074 0.268247 0.117340
0.658341 0.277278 0.122998
0.678609 0.286309 0.128656
0.698876 0.295340 0.134314
0.714207 0.303110 0.139528
0.722957 0.309198 0.144147
0.731707 0.315287 0.148766
0.740457 0.321376 0.153386
0.749206 0.327465 0.158005
0.090433 0.128087 0.103415
0.105860 0.133953 0.099936
0.121287 0.139820 0.096456
0.136715 0.145686 0.092977
0.152142 0.151553 0.089498
0.171893 0.156453 0.086626
0.194888 0.160630 0.084211
0.217882 0.164806 0.081795
0.240876 0.168983 0.079380
0.264498 0.173342 0.077334
0.291886 0.178794 0.077506
0.319273 0.184246 0.077679
0.346661 0.189698 0.077851
0.374049 0.195150 0.078024
0.402555 0.201889 0.079923
0.431508 0.209142 0.082513
0.460461 0.216396 0.085103
0.489414 0.223650 0.087693
0.517708 0.231352 0.090906
0.544352 0.240173 0.095676
0.570996 0.248994 0.100447
0.597640 0.257814 0.105218
0.624285 0.266635 0.109988
0.645015 0.275743 0.115797
0.664759 0.284898 0.121779
0.684503 0.294054 0.127761
0.704248 0.303209 0.133743
0.719120 0.311258 0.139360
0.727496 0.317833 0.144490
0.735873 0.324407 0.149620
0.744249 0.330981 0.154750
0.752625 0.337556 0.159880
0.093694 0.133704 0.105857
0.109438 0.140223 0.102532
0.125182 0.146742 0.099208
0.140926 0.153261 0.095883
0.156670 0.159780 0.092559
0.176880 0.165468 0.089527
0.200440 0.170532 0.086715
0.224000 0.175596 0.083902
0.247560 0.180661 0.081090
0.271716 0.185800 0.078669
0.299453 0.191389 0.078596
0.327189 0.196978 0.078523
0.354925 0.202567 0.078451
0.382662 0.208155 0.078378
0.411246 0.214888 0.080138
0.440169 0.222078 0.082632
0.469091 0.229267 0.085126
0.498014 0.236457 0.087620
0.526207 0.244090 0.090786
0.552576 0.252829 0.095633
0.578944 0.261568 0.100480
0.605313 0.270307 0.105327
0.631681 0.279046 0.110174
0.652082 0.288230 0.116254
0.671489 0.297489 0.122538
0.690895 0.306748 0.128822
0.710302 0.316006 0.135107
0.724894 0.324301 0.141109
0.733068 0.331311 0.146735
0.741241 0.338321 0.152362
0.749414 0.345331 0.157988
0.757588 0.352342 0.163614
0.097830 0.140762 0.109055
0.113624 0.147592 0.105992
0.129417 0.154423 0.102929
0.145211 0.161253 0.099866
0.161005 0.168084 0.096803
0.181471 0.174723 0.093663
0.205442 0.181219 0.090464
0.229413 0.187715 0.087266
0.253383 0.194211 0.084068
0.277947 0.200624 0.081284
0.306070 0.206537 0.080987
0.334192 0.212449 0.080690
0.362314 0.218362 0.080393
0.390437 0.224275 0.080096
0.419167 0.231126 0.081739
0.448139 0.238353 0.084158
0.477112 0.245581 0.086577
0.506085 0.252808 0.088996
0.534263 0.260453 0.092134
0.560458 0.269142 0.097068
0.586652 0.277831 0.102003
0.612846 0.286521 0.106937
0.639040 0.295210 0.111871
0.659246 0.304462 0.118208
0.678453 0.313807 0.124779
0.697660 0.323153 0.131350
0.716867 0.332499 0.137921
0.731314 0.341014 0.144295
0.739412 0.348423 0.150407
0.747511 0.355832 0.156519
0.755610 0.363240 0.162631
0.763709 0.370649 0.168742
0.101965 0.147820 0.112253
0.117809 0.154962 0.109452
0.133652 0.162103 0.106650
0.149496 0.169245 0.103849
0.165340 0.176387 0.101047
0.186062 0.183978 0.097798
0.210444 0.191906 0.094214
0.234825 0.199834 0.090630
0.259207 0.207762 0.087046
0.284178 0.215448 0.083899
0.312687 0.221685 0.083378
0.341195 0.227921 0.082857
0.369703 0.234158 0.082335
0.398212 0.240394 0.081814
0.427087 0.247365 0.083340
0.456110 0.254629 0.085684
0.485132 0.261894 0.088029
0.514155 0.269158 0.090373
0.542319 0.276816 0.093482
0.568339 0.285455 0.098504
0.594359 0.294095 0.103525
0.620379 0.302734 0.108547
0.646399 0.311374 0.113568
0.666409 0.320693 0.120163
0.685417 0.330126 0.127020
0.704425 0.339559 0.133878
0.723433 0.348992 0.140735
0.737733 0.357728 0.147481
0.745757 0.365535 0.154078
0.753781 0.373342 0.160676
0.761805 0.381149 0.167273
0.769829 0.388956 0.173871
0.106101 0.154878 0.115452
0.121994 0.162331 0.112911
0.137888 0.169784 0.110371
0.153781 0.177237 0.107831
0.169674 0.184690 0.105291
0.190653 0.193233 0.101934
0.215446 0.202593 0.097964
0.240238 0.211953 0.093993
0.265031 0.221313 0.090023
0.290409 0.230273 0.086514
0.319304 0.236833 0.085768
0.348198 0.243393 0.085023
0.377092 0.249953 0.084278
0.405987 0.256513 0.083532
0.435008 0.263603 0.084941
0.464081 0.270905 0.087210
0.493153 0.278207 0.089480
0.522225 0.285509 0.091750
0.550376 0.293179 0.094831
0.576221 0.301768 0.099939
0.602067 0.310358 0.105048
0.627912 0.318948 0.110157
0.653758 0.327537 0.115265
0.673572 0.336924 0.122118
0.692381 0.346444 0.129262
0.711189 0.355964 0.136405
0.729998 0.365484 0.143549
0.744153 0.374441 0.150666
0.752102 0.382647 0.157750
0.760052 0.390852 0.164833
0.768001 0.399058 0.171916
0.775950 0.407263 0.178999
0.110394 0.162243 0.118870
0.126329 0.169985 0.116604
0.142263 0.177726 0.114338
0.158197 0.185467 0.112072
0.174131 0.193208 0.109806
0.195366 0.202622 0.106401
0.220577 0.213289 0.102143
0.245787 0.223956 0.097884
0.270998 0.234624 0.093626
0.296783 0.244772 0.089836
0.326011 0.251805 0.088854
0.355240 0.258838 0.087872
0.384469 0.265872 0.086890
0.413698 0.272905 0.085908
0.442849 0.280182 0.087193
0.471969 0.287557 0.089384
0.501090 0.294932 0.091576
0.530210 0.302306 0.093767
0.558347 0.310018 0.096816
0.584025 0.318570 0.102006
0.609704 0.327122 0.107197
0.635382 0.335675 0.112387
0.661060 0.344227 0.117577
0.680689 0.353673 0.124677
0.699309 0.363268 0.132094
0.717929 0.372862 0.139512
0.736550 0.382457 0.146929
0.750573 0.391616 0.154403
0.758467 0.400195 0.161952
0.766361 0.408774 0.169501
0.774256 0.417353 0.177051
0.782150 0.425932 0.184600
0.115633 0.171452 0.123613
0.131555 0.179343 0.121695
0.147476 0.187233 0.119778
0.163398 0.195124 0.117860
0.179320 0.203015 0.115943
0.200813 0.212812 0.112858
0.226484 0.224040 0.108899
0.252155 0.235267 0.104939
0.277827 0.246495 0.100979
0.304010 0.257319 0.097401
0.333263 0.265722 0.096108
0.362517 0.274125 0.094814
0.391771 0.282528 0.093521
0.421025 0.290931 0.092228
0.450210 0.298804 0.093353
0.479367 0.306465 0.095445
0.508525 0.314126 0.097537
0.537683 0.321788 0.099628
0.565811 0.329714 0.102620
0.591365 0.338304 0.107860
0.616918 0.346893 0.113100
0.642472 0.355483 0.118341
0.668026 0.364073 0.123581
0.687530 0.373524 0.130858
0.706026 0.383119 0.138475
0.724522 0.392713 0.146091
0.743017 0.402308 0.153708
0.756996 0.411564 0.161445
0.764953 0.420367 0.169343
0.772909 0.429170 0.177241
0.780865 0.437973 0.185139
0.788822 0.446776 0.193036
0.120871 0.180661 0.128355
0.136781 0.188701 0.126786
0.152690 0.196741 0.125217
0.168599 0.204781 0.123648
0.184509 0.212821 0.122079
0.206260 0.223003 0.119315
0.232391 0.234791 0.115654
0.258523 0.246579 0.111994
0.284655 0.258367 0.108333
0.311237 0.269867 0.104966
0.340516 0.279639 0.103362
0.369794 0.289412 0.101757
0.399073 0.299184 0.100153
0.428351 0.308957 0.098548
0.457570 0.317426 0.099513
0.486765 0.325374 0.101505
0.515960 0.333321 0.103497
0.545155 0.341269 0.105489
0.573274 0.349410 0.108424
0.598704 0.358037 0.113714
0.624133 0.366665 0.119004
0.649562 0.375292 0.124294
0.674992 0.383919 0.129584
0.694371 0.393375 0.137039
0.712743 0.402970 0.144855
0.731114 0.412564 0.152671
0.749485 0.422159 0.160487
0.763419 0.431511 0.168487
0.771438 0.440538 0.176734
0.779457 0.449565 0.184980
0.787475 0.458593 0.193227
0.795494 0.467620 0.201473
0.126110 0.189870 0.133097
0.142007 0.198059 0.131877
0.157904 0.206249 0.130657
0.173800 0.214438 0.129436
0.189697 0.222628 0.128216
0.211706 0.233193 0.125772
0.238299 0.245542 0.122410
0.264891 0.257890 0.119048
0.291484 0.270238 0.115686
0.318464 0.282414 0.112531
0.347768 0.293556 0.110615
0.377071 0.304699 0.108700
0.406375 0.315841 0.106784
0.435678 0.326983 0.104868
0.464931 0.336048 0.105673
0.494163 0.344282 0.107565
0.523396 0.352516 0.109458
0.552628 0.360750 0.111350
0.580738 0.369107 0.114228
0.606043 0.377771 0.119568
0.631348 0.386436 0.124908
0.656653 0.395100 0.130248
0.681958 0.403764 0.135588
0.701212 0.413226 0.143221
0.719459 0.422821 0.151236
0.737706 0.432416 0.159251
0.755952 0.442010 0.167266
0.769842 0.451458 0.175530
0.777923 0.460709 0.184125
0.786004 0.469961 0.192720
0.794085 0.479212 0.201315
0.802166 0.488464 0.209910
0.131348 0.199078 0.137839
0.147233 0.207417 0.136968
0.163117 0.215756 0.136096
0.179002 0.224095 0.135224
0.194886 0.232434 0.134353
0.217153 0.243384 0.132229
0.244206 0.256293 0.129166
0.271259 0.269201 0.126103
0.298313 0.282110 0.123040
0.325691 0.294962 0.120096
0.355020 0.307474 0.117869
0.384348 0.319985 0.115642
0.413676 0.332497 0.113415
0.443005 0.345009 0.111188
0.472291 0.354670 0.111833
0.501561 0.363190 0.113626
0.530831 0.371711 0.115419
0.560101 0.380231 0.117212
0.588202 0.388803 0.120032
0.613382 0.397505 0.125422
0.638563 0.406207 0.130812
0.663743 0.414908 0.136201
0.688923 0.423610 0.141591
0.708054 0.433077 0.149402
0.726176 0.442672 0.157616
0.744298 0.452267 0.165831
0.762420 0.461861 0.174045
0.776266 0.471405 0.182572
0.784409 0.480881 0.191516
0.792552 0.490356 0.200459
0.800695 0.499832 0.209403
0.808838 0.509307 0.218347
0.136508 0.208563 0.142778
0.152504 0.217149 0.142353
0.168501 0.225735 0.141928
0.184497 0.234321 0.141503
0.200494 0.242907 0.141078
0.222996 0.254131 0.139352
0.250376 0.267333 0.136650
0.277757 0.280535 0.133948
0.305138 0.293737 0.131246
0.332856 0.306953 0.128631
0.362601 0.320247 0.126537
0.392345 0.333542 0.124444
0.422090 0.346836 0.122350
0.451835 0.360131 0.120256
0.481064 0.370671 0.121027
0.510086 0.380109 0.122942
0.539109 0.389547 0.124858
0.568131 0.398985 0.126774
0.595995 0.408236 0.129668
0.620962 0.417020 0.135010
0.645928 0.425804 0.140352
0.670895 0.434587 0.145693
0.695862 0.443371 0.151035
0.714810 0.452804 0.158918
0.732754 0.462345 0.167225
0.750698 0.471887 0.175532
0.768643 0.481428 0.183839
0.782402 0.490969 0.192515
0.790580 0.500508 0.201682
0.798759 0.510048 0.210850
0.806938 0.519587 0.220018
0.815117 0.529127 0.229186
0.141636 0.218157 0.147796
0.157795 0.227030 0.147857
0.173953 0.235903 0.147917
0.190111 0.244775 0.147978
0.206270 0.253648 0.148038
0.228997 0.265101 0.146741
0.256652 0.278490 0.144425
0.284307 0.291878 0.142109
0.311961 0.305267 0.139793
0.339996 0.318721 0.137553
0.370314 0.332563 0.135771
0.400631 0.346406 0.133988
0.430948 0.360248 0.132206
0.461266 0.374091 0.130424
0.490400 0.385623 0.131434
0.519062 0.396232 0.133562
0.547723 0.406840 0.135689
0.576384 0.417449 0.137816
0.603919 0.427565 0.140837
0.628637 0.436448 0.146092
0.653355 0.445331 0.151346
0.678073 0.454214 0.156601
0.702791 0.463097 0.161855
0.721532 0.472481 0.169769
0.739277 0.481947 0.178125
0.757022 0.491414 0.186482
0.774767 0.500881 0.194839
0.788423 0.510379 0.203618
0.796626 0.519918 0.212960
0.804830 0.529458 0.222302
0.813034 0.538997 0.231644
0.821238 0.548537 0.240986
0.146764 0.227752 0.152814
0.163085 0.236911 0.153360
0.179405 0.246070 0.153906
0.195725 0.255229 0.154452
0.212045 0.264388 0.154999
0.234999 0.276071 0.154130
0.262927 0.289646 0.152200
0.290856 0.303222 0.150270
0.318784 0.316797 0.148340
0.347136 0.330489 0.146475
0.378026 0.344880 0.145004
0.408916 0.359270 0.143533
0.439807 0.373660 0.142062
0.470697 0.388050 0.140591
0.499737 0.400576 0.141842
0.528037 0.412355 0.144181
0.556338 0.424134 0.146520
0.584638 0.435913 0.148859
0.611844 0.446893 0.152006
0.636312 0.455876 0.157173
0.660781 0.464858 0.162341
0.685250 0.473841 0.167508
0.709719 0.482824 0.172675
0.728254 0.492158 0.180619
0.745799 0.501549 0.189026
0.763345 0.510941 0.197432
0.780891 0.520333 0.205839
0.794444 0.529788 0.214721
0.802672 0.539328 0.224237
0.810901 0.548868 0.233754
0.819130 0.558407 0.243270
0.827358 0.567947 0.252787
0.151893 0.237347 0.157832
0.168375 0.246792 0.158864
0.184857 0.256237 0.159896
0.201339 0.265683 0.160927
0.217821 0.275128 0.161959
0.241000 0.287040 0.161519
0.269203 0.300803 0.159975
0.297405 0.314565 0.158431
0.325608 0.328327 0.156887
0.354276 0.342258 0.155398
0.385739 0.357196 0.154238
0.417202 0.372134 0.153078
0.448665 0.387072 0.151918
0.480128 0.402010 0.150759
0.509074 0.415528 0.152249
0.537013 0.428477 0.154800
0.564952 0.441427 0.157351
0.592892 0.454376 0.159902
0.619768 0.466221 0.163175
0.643988 0.475303 0.168255
0.668208 0.484386 0.173335
0.692427 0.493468 0.178416
0.716647 0.502551 0.183496
0.734976 0.511834 0.191470
0.752322 0.521152 0.199926
0.769669 0.530469 0.208382
0.787015 0.539786 0.216839
0.800465 0.549198 0.225824
0.808719 0.558738 0.235515
0.816972 0.568278 0.245206
0.825226 0.577817 0.254896
0.833479 0.587357 0.264587
0.156658 0.246374 0.162535
0.173409 0.256231 0.164131
0.190160 0.266087 0.165726
0.206911 0.275943 0.167322
0.223661 0.285799 0.168917
0.247120 0.297994 0.168943
0.275611 0.311943 0.167793
0.304102 0.325892 0.166642
0.332592 0.339842 0.165491
0.361576 0.353993 0.164386
0.393515 0.369358 0.163559
0.425455 0.384723 0.162732
0.457395 0.400088 0.161905
0.489334 0.415453 0.161078
0.518303 0.429754 0.162822
0.546084 0.443628 0.165595
0.573865 0.457502 0.168368
0.601646 0.471377 0.171141
0.628315 0.483988 0.174642
0.652204 0.493440 0.179963
0.676093 0.502893 0.185283
0.699982 0.512345 0.190603
0.723871 0.521797 0.195924
0.741932 0.531049 0.203926
0.759023 0.540266 0.212375
0.776113 0.549484 0.220824
0.793204 0.558701 0.229273
0.806499 0.568030 0.238306
0.814735 0.577505 0.248118
0.822971 0.586981 0.257930
0.831207 0.596456 0.267742
0.839442 0.605932 0.277553
0.160518 0.253984 0.166450
0.177804 0.264562 0.168805
0.195091 0.275141 0.171160
0.212377 0.285719 0.173515
0.229663 0.296297 0.175870
0.253537 0.308909 0.176457
0.282351 0.323045 0.175717
0.311165 0.337181 0.174977
0.339980 0.351316 0.174237
0.369274 0.365646 0.173540
0.401450 0.381135 0.173099
0.433627 0.396625 0.172657
0.465803 0.412114 0.172216
0.497979 0.427604 0.171775
0.527265 0.442162 0.173808
0.555394 0.456348 0.176830
0.583524 0.470534 0.179852
0.611654 0.484719 0.182874
0.638418 0.497852 0.186855
0.661772 0.508350 0.193234
0.685126 0.518848 0.199613
0.708479 0.529347 0.205991
0.731833 0.539845 0.212370
0.749476 0.549107 0.220395
0.766168 0.558162 0.228695
0.782860 0.567218 0.236995
0.799552 0.576274 0.245295
0.812567 0.585414 0.254237
0.820678 0.594665 0.264036
0.828789 0.603916 0.273836
0.836900 0.613168 0.283635
0.845012 0.622419 0.293434
0.164378 0.261594 0.170365
0.182200 0.272894 0.173480
0.200021 0.284195 0.176594
0.217843 0.295495 0.179709
0.235664 0.306796 0.182824
0.259953 0.319823 0.183970
0.289091 0.334146 0.183641
0.318229 0.348469 0.183312
0.347367 0.362791 0.182983
0.376973 0.377299 0.182693
0.409386 0.392913 0.182638
0.441798 0.408527 0.182583
0.474211 0.424141 0.182528
0.506624 0.439755 0.182473
0.536226 0.454571 0.184794
0.564705 0.469068 0.188065
0.593183 0.483565 0.191336
0.621661 0.498062 0.194607
0.648522 0.511715 0.199068
0.671340 0.523260 0.206505
0.694158 0.534804 0.213943
0.716976 0.546348 0.221380
0.739794 0.557892 0.228817
0.757020 0.567165 0.236865
0.773314 0.576059 0.245015
0.789607 0.584953 0.253166
0.805901 0.593846 0.261316
0.818634 0.602798 0.270168
0.826621 0.611825 0.279955
0.834608 0.620852 0.289741
0.842594 0.629879 0.299528
0.850581 0.638907 0.309315
0.168238 0.269203 0.174280
0.186595 0.281226 0.178154
0.204952 0.293249 0.182029
0.223309 0.305271 0.185903
0.241666 0.317294 0.189777
0.266369 0.330738 0.191484
0.295830 0.345247 0.191566
0.325292 0.359757 0.191648
0.354754 0.374266 0.191729
0.384671 0.388951 0.191847
0.417321 0.404690 0.192178
0.449970 0.420428 0.192509
0.482619 0.436167 0.192839
0.515269 0.451906 0.193170
0.545188 0.466980 0.195779
0.574015 0.481788 0.199299
0.602841 0.496596 0.202820
0.631668 0.511405 0.206340
0.658625 0.525579 0.211281
0.680908 0.538169 0.219777
0.703191 0.550759 0.228272
0.725473 0.563350 0.236768
0.747756 0.575940 0.245263
0.764564 0.585223 0.253335
0.780459 0.593955 0.261336
0.796354 0.602687 0.269337
0.812249 0.611419 0.277338
0.824702 0.620181 0.286099
0.832564 0.628985 0.295873
0.840426 0.637788 0.305647
0.848288 0.646591 0.315422
0.856150 0.655394 0.325196
0.172098 0.276813 0.178195
0.190991 0.289558 0.182829
0.209883 0.302303 0.187463
0.228775 0.315048 0.192096
0.247668 0.327792 0.196730
0.272785 0.341652 0.198998
0.302570 0.356349 0.199490
0.332356 0.371045 0.199983
0.362141 0.385741 0.200476
0.392370 0.400604 0.201000
0.425256 0.416467 0.201717
0.458142 0.432330 0.202434
0.491028 0.448193 0.203151
0.523914 0.464056 0.203868
0.554149 0.479388 0.206765
0.583325 0.494508 0.210534
0.612500 0.509628 0.214303
0.641676 0.524747 0.218073
0.668729 0.539443 0.223495
0.690476 0.553079 0.233048
0.712223 0.566715 0.242602
0.733971 0.580351 0.252156
0.755718 0.593987 0.261710
0.772108 0.603281 0.269804
0.787604 0.611851 0.277656
0.803101 0.620421 0.285507
0.818598 0.628991 0.293359
0.830769 0.637565 0.302029
0.838507 0.646144 0.311791
0.846244 0.654723 0.321553
0.853982 0.663302 0.331315
0.861720 0.671882 0.341077
0.174398 0.281303 0.180551
0.194296 0.295325 0.186360
0.214193 0.309347 0.192170
0.234090 0.323369 0.197979
0.253988 0.337391 0.203789
0.279806 0.352009 0.206795
0.310065 0.367073 0.207698
0.340323 0.382138 0.208602
0.370582 0.397202 0.209506
0.401235 0.412385 0.210427
0.434251 0.428276 0.211455
0.467266 0.444168 0.212483
0.500282 0.460060 0.213511
0.533298 0.475951 0.214539
0.563545 0.491285 0.217749
0.592685 0.506396 0.221831
0.621825 0.521506 0.225914
0.650965 0.536617 0.229996
0.677940 0.551331 0.235712
0.699504 0.565052 0.245513
0.721068 0.578774 0.255314
0.742633 0.592495 0.265115
0.764197 0.606217 0.274916
0.780301 0.616335 0.284647
0.795495 0.625853 0.294366
0.810689 0.635372 0.304086
0.825884 0.644890 0.313805
0.837747 0.653850 0.323464
0.845168 0.662066 0.333043
0.852589 0.670282 0.342621
0.860010 0.678499 0.352200
0.867431 0.686715 0.361779
0.176439 0.285273 0.182646
0.197419 0.300665 0.189701
0.218400 0.316057 0.196755
0.239381 0.331448 0.203810
0.260361 0.346840 0.210864
0.286928 0.362272 0.214639
0.317685 0.377735 0.215954
0.348442 0.393198 0.217268
0.379199 0.408661 0.218583
0.410294 0.424187 0.219899
0.443422 0.440091 0.221226
0.476550 0.455995 0.222553
0.509678 0.471899 0.223880
0.542806 0.487803 0.225207
0.573014 0.503096 0.228733
0.602054 0.518144 0.233139
0.631094 0.533193 0.237545
0.660135 0.548241 0.241951
0.687003 0.562889 0.247931
0.708443 0.576536 0.257844
0.729882 0.590183 0.267757
0.751322 0.603829 0.277670
0.772761 0.617476 0.287583
0.788602 0.628555 0.299219
0.803510 0.639207 0.311142
0.818418 0.649858 0.323065
0.833326 0.660509 0.334988
0.844876 0.669952 0.345816
0.851948 0.677782 0.355183
0.859021 0.685612 0.364550
0.866093 0.693442 0.373917
0.873166 0.701272 0.383284
0.178479 0.289243 0.184741
0.200543 0.306005 0.193041
0.222607 0.322766 0.201341
0.244671 0.339528 0.209641
0.266735 0.356289 0.217940
0.294050 0.372536 0.222483
0.325305 0.388397 0.224209
0.356560 0.404259 0.225934
0.387815 0.420120 0.227660
0.419353 0.435989 0.229371
0.452593 0.451906 0.230997
0.485833 0.467822 0.232622
0.519073 0.483739 0.234248
0.552313 0.499655 0.235874
0.582482 0.514907 0.239717
0.611423 0.529893 0.244447
0.640363 0.544879 0.249176
0.669304 0.559866 0.253906
0.696066 0.574448 0.260149
0.717381 0.588020 0.270174
0.738696 0.601592 0.280199
0.760011 0.615164 0.290224
0.781326 0.628736 0.300250
0.796904 0.640776 0.313791
0.811525 0.652560 0.327918
0.826147 0.664344 0.342045
0.840768 0.676129 0.356172
0.852005 0.686053 0.368168
0.858729 0.693497 0.377323
0.865453 0.700941 0.386479
0.872177 0.708386 0.395634
0.878900 0.715830 0.404789
0.180519 0.293214 0.186837
0.203666 0.311345 0.196382
0.226813 0.329476 0.205927
0.249961 0.347607 0.215472
0.273108 0.365738 0.225016
0.301173 0.382800 0.230328
0.332925 0.399059 0.232464
0.364678 0.415319 0.234600
0.396431 0.431579 0.236737
0.428413 0.447791 0.238843
0.461765 0.463720 0.240767
0.495117 0.479649 0.242692
0.528469 0.495578 0.244617
0.561821 0.511507 0.246541
0.591951 0.526718 0.250701
0.620792 0.541642 0.255754
0.649633 0.556566 0.260808
0.678474 0.571490 0.265861
0.705129 0.586006 0.272367
0.726319 0.599503 0.282505
0.747510 0.613001 0.292642
0.768700 0.626498 0.302779
0.789891 0.639995 0.312916
0.805205 0.652996 0.328362
0.819541 0.665913 0.344693
0.833876 0.678831 0.361024
0.848211 0.691748 0.377355
0.859135 0.702154 0.390520
0.865510 0.709213 0.399464
0.871885 0.716271 0.408408
0.878260 0.723329 0.417351
0.884635 0.730387 0.426295
0.181898 0.295270 0.188389
0.206411 0.315101 0.199488
0.230924 0.334933 0.210588
0.255438 0.354764 0.221687
0.279951 0.374596 0.232787
0.308950 0.392690 0.239018
0.341313 0.409482 0.241597
0.373676 0.426274 0.244176
0.406039 0.443065 0.246755
0.438558 0.459738 0.249273
0.472017 0.475701 0.251422
0.505476 0.491664 0.253571
0.538934 0.507626 0.255719
0.572393 0.523589 0.257868
0.602406 0.538731 0.262296
0.631041 0.553545 0.267636
0.659676 0.568358 0.272976
0.688310 0.583172 0.278316
0.714729 0.597567 0.285078
0.735608 0.610915 0.295397
0.756488 0.624263 0.305716
0.777367 0.637611 0.316034
