filters/luts/Foreshadowing 05.cube
# Created by: Adobe Photoshop Export Color Lookup Plugin
# LUT by SparkleStock. Enhanced with VOXCOLOR algorithms.
LUT_3D_SIZE 5
DOMAIN_MIN 0.000000 0.000000 0.000000
DOMAIN_MAX 0.903226 0.903226 0.903226
0.070330 0.101587 0.093773
0.178991 0.116239 0.085596
0.348529 0.156887 0.102722
0.540376 0.214904 0.136807
0.673945 0.263902 0.169766
0.093127 0.137579 0.110315
0.233388 0.182214 0.115978
0.418397 0.231784 0.133858
0.595521 0.292945 0.166236
0.708836 0.347036 0.197774
0.126307 0.202615 0.143353
0.277792 0.266361 0.164794
0.484201 0.334697 0.181918
0.656956 0.405282 0.214324
0.755049 0.469806 0.250325
0.156879 0.267045 0.181401
0.321249 0.354396 0.228048
0.540183 0.440347 0.250124
0.712947 0.519486 0.281282
0.799010 0.586989 0.320909
0.170318 0.296845 0.200583
0.376746 0.432893 0.294878
0.598161 0.528882 0.320758
0.761565 0.609030 0.348636
0.840801 0.683714 0.411405
0.079657 0.109417 0.118910
0.182718 0.141031 0.141892
0.357097 0.185425 0.159364
0.550547 0.240900 0.178804
0.681963 0.286898 0.193793
0.113334 0.177089 0.156571
0.228738 0.245111 0.217791
0.423585 0.292758 0.232055
0.615243 0.349803 0.246405
0.732447 0.405335 0.266684
0.163692 0.272650 0.216860
0.280356 0.350441 0.286404
0.474849 0.414872 0.302568
0.665810 0.469518 0.308471
0.774596 0.528239 0.330775
0.213362 0.364608 0.287190
0.337123 0.448454 0.363015
0.528055 0.524897 0.384159
0.709901 0.585548 0.382220
0.812488 0.639438 0.402158
0.254613 0.433157 0.354205
0.391400 0.521646 0.432839
0.589622 0.612253 0.465548
0.760252 0.676436 0.463912
0.848285 0.723770 0.485682
0.094104 0.121706 0.136350
0.210488 0.163035 0.175882
0.370177 0.221489 0.223327
0.543798 0.284544 0.252103
0.682666 0.343671 0.257808
0.145288 0.222269 0.206026
0.262528 0.303823 0.287150
0.434448 0.356951 0.336667
0.614637 0.415269 0.352917
0.742534 0.478179 0.355594
0.206032 0.331239 0.280425
0.331182 0.426456 0.382737
0.476583 0.492770 0.445515
0.661670 0.535589 0.442201
0.784115 0.590181 0.441920
0.272484 0.439387 0.366670
0.401027 0.528684 0.462888
0.533771 0.600055 0.530331
0.701257 0.651856 0.522082
0.818557 0.691903 0.514539
0.331718 0.515261 0.439776
0.468810 0.603483 0.535213
0.600091 0.676809 0.603149
0.755548 0.731779 0.595037
0.852257 0.766556 0.588026
0.107078 0.133680 0.148529
0.258968 0.189901 0.204785
0.425212 0.258455 0.266346
0.557317 0.336844 0.322202
0.679929 0.414969 0.345697
0.181721 0.281540 0.259318
0.313731 0.377638 0.355647
0.483144 0.439310 0.423953
0.620607 0.500234 0.477646
0.742037 0.572022 0.485248
0.257716 0.405197 0.354545
0.400668 0.507091 0.464523
0.532137 0.578822 0.545085
0.662857 0.622516 0.590288
0.786171 0.673740 0.574554
0.346110 0.506345 0.433301
0.491364 0.603095 0.548139
0.605473 0.673244 0.628828
0.694148 0.714727 0.675895
0.813802 0.743872 0.645008
0.432912 0.592016 0.513554
0.570092 0.675454 0.616525
0.671040 0.737250 0.688989
0.748165 0.781234 0.735532
0.846203 0.807612 0.705822
0.112742 0.139525 0.154303
0.322311 0.224556 0.236623
0.501210 0.301798 0.304687
0.620987 0.389575 0.363467
0.690276 0.465848 0.404409
0.224178 0.362908 0.325653
0.380151 0.466005 0.435548
0.552874 0.545719 0.523587
0.678123 0.614090 0.590481
0.748010 0.674773 0.630821
0.307112 0.482097 0.420852
0.486055 0.598177 0.552430
0.611470 0.672203 0.637309
0.721762 0.725160 0.696851
0.790882 0.769338 0.725519
0.408297 0.572339 0.497631
0.586403 0.681068 0.632709
0.692222 0.746661 0.709544
0.757227 0.785809 0.753601
0.819564 0.815552 0.771017
0.523683 0.653379 0.570508
0.673064 0.740542 0.693409
0.758605 0.795144 0.758503
0.806308 0.826512 0.792731
0.840121 0.842618 0.800363
