filters/luts/Foreshadowing 02_S.cube
# LUT by SparkleStock. Enhanced with VOXCOLOR algorithms.
LUT_3D_SIZE 32
0.105495 0.078144 0.050794
0.122982 0.079940 0.047674
0.140470 0.081736 0.044555
0.157958 0.083532 0.041435
0.175446 0.085328 0.038316
0.192934 0.087124 0.035196
0.214557 0.092032 0.034913
0.237008 0.097562 0.035196
0.259459 0.103092 0.035480
0.281909 0.108622 0.035764
0.304360 0.114152 0.036047
0.328764 0.122076 0.038631
0.354145 0.131199 0.042365
0.379527 0.140321 0.046099
0.404908 0.149443 0.049833
0.430289 0.158565 0.053567
0.455315 0.168963 0.058671
0.479987 0.180637 0.065146
0.504659 0.192312 0.071622
0.529332 0.203986 0.078097
0.554004 0.215660 0.084572
0.577069 0.227177 0.091362
0.596920 0.238379 0.098783
0.616771 0.249581 0.106203
0.636622 0.260782 0.113624
0.656473 0.271984 0.121045
0.674765 0.282335 0.128040
0.685257 0.288432 0.132908
0.695750 0.294529 0.137776
0.706243 0.300626 0.142644
0.716736 0.306723 0.147513
0.727228 0.312821 0.152381
0.109654 0.084147 0.053204
0.127407 0.087159 0.050121
0.145160 0.090172 0.047038
0.162913 0.093185 0.043956
0.180667 0.096198 0.040873
0.198420 0.099210 0.037790
0.220354 0.104260 0.037375
0.243125 0.109717 0.037494
0.265896 0.115173 0.037613
0.288667 0.120630 0.037732
0.311438 0.126087 0.037851
0.335985 0.133786 0.040276
0.361421 0.142606 0.043854
0.386857 0.151426 0.047433
0.412293 0.160246 0.051011
0.437729 0.169067 0.054590
0.462724 0.179145 0.059584
0.487277 0.190481 0.065996
0.511830 0.201816 0.072407
0.536383 0.213152 0.078818
0.560936 0.224488 0.085229
0.583837 0.235758 0.092026
0.603432 0.246896 0.099593
0.623027 0.258033 0.107159
0.642622 0.269171 0.114726
0.662217 0.280309 0.122293
0.680237 0.290676 0.129479
0.690382 0.297194 0.134759
0.700527 0.303712 0.140039
0.710672 0.310230 0.145319
0.720817 0.316748 0.150599
0.730962 0.323266 0.155879
0.113813 0.090149 0.055615
0.131832 0.094379 0.052568
0.149850 0.098608 0.049522
0.167868 0.102838 0.046476
0.185887 0.107067 0.043430
0.203905 0.111296 0.040383
0.226151 0.116488 0.039837
0.249242 0.121871 0.039792
0.272333 0.127255 0.039746
0.295424 0.132638 0.039700
0.318515 0.138022 0.039654
0.343206 0.145495 0.041921
0.368697 0.154014 0.045344
0.394188 0.162532 0.048767
0.419679 0.171050 0.052190
0.445169 0.179568 0.055613
0.470132 0.189326 0.060498
0.494566 0.200324 0.066845
0.519000 0.211321 0.073192
0.543435 0.222319 0.079539
0.567869 0.233316 0.085886
0.590605 0.244339 0.092689
0.609944 0.255412 0.100402
0.629282 0.266486 0.108115
0.648621 0.277560 0.115829
0.667960 0.288633 0.123542
0.685709 0.299018 0.130918
0.695506 0.305956 0.136610
0.705304 0.312895 0.142301
0.715101 0.319834 0.147993
0.724899 0.326773 0.153685
0.734696 0.333711 0.159376
0.117972 0.096152 0.058025
0.136256 0.101598 0.055015
0.154540 0.107044 0.052006
0.172824 0.112490 0.048996
0.191107 0.117936 0.045986
0.209391 0.123382 0.042977
0.231948 0.128715 0.042300
0.255359 0.134026 0.042089
0.278770 0.139336 0.041879
0.302181 0.144647 0.041669
0.325593 0.149957 0.041458
0.350427 0.157205 0.043566
0.375973 0.165421 0.046834
0.401518 0.173638 0.050101
0.427064 0.181854 0.053368
0.452610 0.190070 0.056636
0.477540 0.199508 0.061411
0.501856 0.210167 0.067694
0.526171 0.220826 0.073977
0.550486 0.231485 0.080260
0.574802 0.242144 0.086543
0.597373 0.252920 0.093352
0.616455 0.263929 0.101212
0.635538 0.274939 0.109071
0.654621 0.285948 0.116931
0.673703 0.296958 0.124791
0.691181 0.307359 0.132358
0.700631 0.314719 0.138461
0.710080 0.322078 0.144564
0.719530 0.329438 0.150667
0.728980 0.336797 0.156770
0.738430 0.344157 0.162874
0.122132 0.102154 0.060436
0.140681 0.108817 0.057463
0.159230 0.115480 0.054489
0.177779 0.122143 0.051516
0.196328 0.128806 0.048543
0.214877 0.135468 0.045570
0.237745 0.140943 0.044762
0.261476 0.146180 0.044387
0.285207 0.151418 0.044012
0.308939 0.156655 0.043637
0.332670 0.161892 0.043262
0.357648 0.168914 0.045211
0.383248 0.176829 0.048323
0.408849 0.184743 0.051435
0.434450 0.192658 0.054547
0.460050 0.200572 0.057659
0.484949 0.209690 0.062324
0.509145 0.220010 0.068543
0.533341 0.230331 0.074762
0.557538 0.240651 0.080981
0.581734 0.250972 0.087201
0.604141 0.261500 0.094015
0.622967 0.272446 0.102021
0.641794 0.283391 0.110027
0.660620 0.294337 0.118033
0.679447 0.305283 0.126039
0.696653 0.315701 0.133797
0.705755 0.323481 0.140312
0.714857 0.331261 0.146827
0.723959 0.339042 0.153341
0.733062 0.346822 0.159856
0.742164 0.354602 0.166371
0.126291 0.108157 0.062846
0.145105 0.116037 0.059910
0.163920 0.123916 0.056973
0.182734 0.131795 0.054037
0.201548 0.139675 0.051100
0.220363 0.147554 0.048164
0.243541 0.153171 0.047224
0.267593 0.158335 0.046685
0.291644 0.163499 0.046145
0.315696 0.168663 0.045605
0.339748 0.173827 0.045065
0.364868 0.180624 0.046856
0.390524 0.188236 0.049813
0.416179 0.195849 0.052769
0.441835 0.203461 0.055725
0.467490 0.211074 0.058682
0.492357 0.219871 0.063237
0.516434 0.229853 0.069393
0.540512 0.239835 0.075548
0.564589 0.249817 0.081703
0.588667 0.259799 0.087858
0.610909 0.270081 0.094679
0.629479 0.280963 0.102831
0.648050 0.291844 0.110983
0.666620 0.302726 0.119136
0.685190 0.313607 0.127288
0.702125 0.324042 0.135236
0.710879 0.332243 0.142163
0.719634 0.340444 0.149089
0.728389 0.348646 0.156016
0.737143 0.356847 0.162942
0.745898 0.365048 0.169869
0.133089 0.118453 0.067462
0.151894 0.126764 0.064928
0.170700 0.135075 0.062394
0.189505 0.143386 0.059860
0.208310 0.151697 0.057326
0.227115 0.160008 0.054792
0.250273 0.166416 0.053694
0.274302 0.172445 0.052883
0.298331 0.178474 0.052072
0.322359 0.184502 0.051261
0.346388 0.190531 0.050450
0.371558 0.197577 0.052072
0.397299 0.205131 0.054911
0.423040 0.212686 0.057750
0.448781 0.220241 0.060589
0.474522 0.227795 0.063428
0.499413 0.236452 0.067912
0.523456 0.246209 0.074041
0.547498 0.255967 0.080170
0.571541 0.265725 0.086299
0.595583 0.275483 0.092428
0.617775 0.285579 0.099280
0.636264 0.296351 0.107579
0.654754 0.307122 0.115878
0.673243 0.317894 0.124177
0.691733 0.328666 0.132475
0.708590 0.339056 0.140619
0.717287 0.347541 0.147988
0.725984 0.356026 0.155357
0.734680 0.364511 0.162725
0.743377 0.372995 0.170094
0.752074 0.381480 0.177463
0.140415 0.129607 0.072520
0.159156 0.138193 0.070461
0.177897 0.146778 0.068403
0.196639 0.155363 0.066345
0.215380 0.163949 0.064286
0.234121 0.172534 0.062228
0.257192 0.179866 0.060965
0.281129 0.186946 0.059861
0.305067 0.194027 0.058757
0.329004 0.201107 0.057654
0.352941 0.208188 0.056550
0.378142 0.215578 0.058001
0.403974 0.223124 0.060730
0.429806 0.230669 0.063460
0.455639 0.238215 0.066189
0.481471 0.245760 0.068918
0.506399 0.254312 0.073338
0.530424 0.263868 0.079449
0.554448 0.273425 0.085560
0.578472 0.282981 0.091670
0.602496 0.292538 0.097781
0.624660 0.302460 0.104670
0.643104 0.313113 0.113115
0.661548 0.323766 0.121560
0.679991 0.334418 0.130006
0.698435 0.345071 0.138451
0.715255 0.355405 0.146791
0.723951 0.364146 0.154608
0.732648 0.372887 0.162425
0.741345 0.381628 0.170242
0.750041 0.390369 0.178059
0.758738 0.399110 0.185876
0.147741 0.140762 0.077577
0.166418 0.149622 0.075994
0.185095 0.158481 0.074412
0.203773 0.167341 0.072829
0.222450 0.176201 0.071247
0.241127 0.185061 0.069664
0.264111 0.193315 0.068236
0.287957 0.201447 0.066840
0.311803 0.209580 0.065443
0.335648 0.217712 0.064047
0.359494 0.225845 0.062650
0.384725 0.233580 0.063931
0.410649 0.241116 0.066550
0.436573 0.248653 0.069169
0.462497 0.256189 0.071789
0.488421 0.263726 0.074408
0.513385 0.272171 0.078764
0.537391 0.281527 0.084857
0.561397 0.290882 0.090949
0.585403 0.300237 0.097042
0.609409 0.309593 0.103134
0.631545 0.319341 0.110060
0.649943 0.329875 0.118651
0.668342 0.340409 0.127243
0.686740 0.350943 0.135834
0.705138 0.361477 0.144426
0.721919 0.371754 0.152963
0.730616 0.380751 0.161228
0.739312 0.389748 0.169493
0.748009 0.398745 0.177758
0.756706 0.407742 0.186024
0.765402 0.416740 0.194289
0.155067 0.151916 0.082634
0.173680 0.161050 0.081527
0.192293 0.170185 0.080420
0.210906 0.179319 0.079313
0.229520 0.188453 0.078207
0.248133 0.197587 0.077100
0.271030 0.206764 0.075507
0.294784 0.215948 0.073818
0.318539 0.225133 0.072129
0.342293 0.234317 0.070439
0.366047 0.243502 0.068750
0.391309 0.251582 0.069860
0.417324 0.259109 0.072370
0.443339 0.266636 0.074879
0.469355 0.274163 0.077389
0.495370 0.281691 0.079898
0.520371 0.290031 0.084190
0.544359 0.299185 0.090265
0.568346 0.308340 0.096339
0.592334 0.317494 0.102413
0.616322 0.326648 0.108487
0.638431 0.336222 0.115450
0.656783 0.346637 0.124187
0.675135 0.357052 0.132925
0.693488 0.367467 0.141663
0.711840 0.377882 0.150401
0.728583 0.388103 0.159135
0.737280 0.397356 0.167848
0.745977 0.406610 0.176562
0.754673 0.415863 0.185275
0.763370 0.425116 0.193989
0.772067 0.434369 0.202702
0.162393 0.163071 0.087692
0.180942 0.172479 0.087060
0.199491 0.181888 0.086429
0.218040 0.191297 0.085798
0.236589 0.200705 0.085167
0.255138 0.210114 0.084535
0.277949 0.220213 0.082779
0.301612 0.230449 0.080796
0.325274 0.240686 0.078814
0.348937 0.250922 0.076832
0.372600 0.261159 0.074850
0.397892 0.269583 0.075789
0.423999 0.277101 0.078189
0.450106 0.284620 0.080589
0.476213 0.292138 0.082989
0.502319 0.299656 0.085389
0.527357 0.307891 0.089617
0.551327 0.316844 0.095673
0.575296 0.325797 0.101729
0.599265 0.334750 0.107785
0.623234 0.343703 0.113841
0.645316 0.353103 0.120839
0.663623 0.363399 0.129723
0.681929 0.373695 0.138608
0.700236 0.383991 0.147492
0.718543 0.394287 0.156376
0.735248 0.404452 0.165307
0.743944 0.413962 0.174468
0.752641 0.423471 0.183630
0.761338 0.432980 0.192792
0.770034 0.442490 0.201953
0.778731 0.451999 0.211115
0.170318 0.175643 0.093915
0.188797 0.185222 0.093790
0.207276 0.194802 0.093665
0.225755 0.204381 0.093540
0.244234 0.213961 0.093415
0.262712 0.223540 0.093290
0.285659 0.234143 0.091815
0.309498 0.244949 0.090071
0.333338 0.255756 0.088327
0.357178 0.266563 0.086583
0.381017 0.277370 0.084838
0.406234 0.286360 0.085731
0.432140 0.294442 0.087942
0.458045 0.302525 0.090152
0.483951 0.310607 0.092363
0.509856 0.318689 0.094574
0.534742 0.327149 0.098668
0.558607 0.335986 0.104644
0.582473 0.344823 0.110621
0.606339 0.353660 0.116598
0.630204 0.362497 0.122574
0.652195 0.371768 0.129540
0.670438 0.381909 0.138486
0.688681 0.392049 0.147431
0.706923 0.402190 0.156376
0.725166 0.412330 0.165321
0.741825 0.422382 0.174353
0.750571 0.431989 0.183816
0.759316 0.441596 0.193280
0.768062 0.451203 0.202744
0.776807 0.460809 0.212207
0.785553 0.470416 0.221671
0.178542 0.188924 0.100721
0.196948 0.198623 0.101117
0.215353 0.208321 0.101514
0.233759 0.218019 0.101910
0.252165 0.227718 0.102306
0.270571 0.237416 0.102703
0.293764 0.248313 0.101735
0.317914 0.259449 0.100494
0.342065 0.270585 0.099253
0.366216 0.281721 0.098011
0.390366 0.292857 0.096770
0.415455 0.302525 0.097678
0.441013 0.311458 0.099660
0.466571 0.320391 0.101642
0.492129 0.329324 0.103624
0.517687 0.338257 0.105606
0.542326 0.347105 0.109531
0.566045 0.355869 0.115398
0.589764 0.364633 0.121265
0.613483 0.373396 0.127132
0.637202 0.382160 0.132998
0.659072 0.391325 0.139898
0.677241 0.401292 0.148861
0.695410 0.411258 0.157825
0.713580 0.421225 0.166788
0.731749 0.431192 0.175752
0.748360 0.441102 0.184836
0.757179 0.450727 0.194529
0.765997 0.460352 0.204221
0.774816 0.469977 0.213913
0.783635 0.479602 0.223606
0.792453 0.489228 0.233298
0.186766 0.202206 0.107527
0.205098 0.212023 0.108445
0.223431 0.221840 0.109363
0.241764 0.231658 0.110280
0.260096 0.241475 0.111198
0.278429 0.251292 0.112116
0.301869 0.262483 0.111654
0.326331 0.273948 0.110916
0.350792 0.285414 0.110178
0.375254 0.296879 0.109440
0.399716 0.308345 0.108702
0.424676 0.318689 0.109625
0.449887 0.328473 0.111379
0.475097 0.338257 0.113132
0.500307 0.348040 0.114885
0.525518 0.357824 0.116639
0.549909 0.367061 0.120394
0.573482 0.375752 0.126151
0.597055 0.384443 0.131908
0.620628 0.393133 0.137665
0.644200 0.401824 0.143423
0.665948 0.410882 0.150255
0.684044 0.420675 0.159236
0.702140 0.430468 0.168218
0.720236 0.440261 0.177200
0.738333 0.450053 0.186182
0.754895 0.459821 0.195320
0.763787 0.469465 0.205241
0.772679 0.479108 0.215162
0.781570 0.488752 0.225083
0.790462 0.498395 0.235004
0.799354 0.508039 0.244925
0.194990 0.215487 0.114333
0.213249 0.225423 0.115772
0.231509 0.235359 0.117212
0.249768 0.245296 0.118651
0.268027 0.255232 0.120090
0.286287 0.265168 0.121529
0.309974 0.276653 0.121574
0.334747 0.288448 0.121339
0.359519 0.300243 0.121104
0.384292 0.312038 0.120869
0.409065 0.323832 0.120634
0.433898 0.334854 0.121573
0.458760 0.345488 0.123097
0.483623 0.356123 0.124622
0.508486 0.366757 0.126147
0.533348 0.377392 0.127671
0.557493 0.387018 0.131257
0.580919 0.395635 0.136905
0.604346 0.404253 0.142552
0.627772 0.412870 0.148199
0.651199 0.421487 0.153847
0.672824 0.430439 0.160612
0.690847 0.440058 0.169612
0.708870 0.449677 0.178612
0.726893 0.459296 0.187612
0.744916 0.468915 0.196612
0.761430 0.478541 0.205804
0.770395 0.488203 0.215953
0.779360 0.497865 0.226103
0.788325 0.507527 0.236253
0.797290 0.517188 0.246402
0.806255 0.526850 0.256552
0.203214 0.228768 0.121139
0.221400 0.238824 0.123100
0.239586 0.248879 0.125061
0.257773 0.258934 0.127021
0.275959 0.268989 0.128982
0.294145 0.279044 0.130943
0.318079 0.290823 0.131493
0.343163 0.302948 0.131761
0.368247 0.315072 0.132030
0.393330 0.327196 0.132298
0.418414 0.339320 0.132566
0.443119 0.351018 0.133520
0.467634 0.362503 0.134816
0.492149 0.373989 0.136112
0.516664 0.385474 0.137408
0.541179 0.396959 0.138704
0.565077 0.406974 0.142120
0.588357 0.415518 0.147658
0.611637 0.424062 0.153196
0.634917 0.432607 0.158733
0.658197 0.441151 0.164271
0.679700 0.449995 0.170969
0.697650 0.459441 0.179987
0.715600 0.468886 0.189005
0.733550 0.478331 0.198024
0.751500 0.487777 0.207042
0.767964 0.497261 0.216287
0.777002 0.506941 0.226666
0.786041 0.516621 0.237044
0.795079 0.526301 0.247422
0.804117 0.535981 0.257801
0.813155 0.545662 0.268179
0.210682 0.241175 0.127662
0.228973 0.251473 0.130244
0.247265 0.261770 0.132827
0.265556 0.272068 0.135410
0.283847 0.282366 0.137993
0.302139 0.292663 0.140575
0.326277 0.304651 0.141634
0.351585 0.316976 0.142387
0.376893 0.329301 0.143140
0.402201 0.341627 0.143893
0.427509 0.353952 0.144646
0.452267 0.366068 0.145816
0.476750 0.378079 0.147195
0.501233 0.390091 0.148573
0.525716 0.402102 0.149951
0.550199 0.414113 0.151329
0.573932 0.424576 0.154822
0.596915 0.433491 0.160428
0.619897 0.442406 0.166034
0.642880 0.451320 0.171640
0.665863 0.460235 0.177246
0.687102 0.469258 0.183955
0.704856 0.478498 0.192868
0.722609 0.487737 0.201781
0.740362 0.496976 0.210694
0.758115 0.506216 0.219608
0.774419 0.515514 0.228780
0.783475 0.525108 0.239250
0.792532 0.534701 0.249720
0.801588 0.544294 0.260190
0.810645 0.553887 0.270660
0.819701 0.563480 0.281130
0.217393 0.252708 0.133901
0.235968 0.263371 0.137206
0.254543 0.274035 0.140511
0.273118 0.284698 0.143817
0.291693 0.295362 0.147122
0.310268 0.306025 0.150428
0.334568 0.318135 0.151995
0.360013 0.330533 0.153215
0.385459 0.342932 0.154435
0.410904 0.355330 0.155654
0.436349 0.367729 0.156874
0.461342 0.380004 0.158462
0.486108 0.392216 0.160233
0.510875 0.404429 0.162005
0.535641 0.416641 0.163777
0.560408 0.428854 0.165548
0.584059 0.439824 0.169361
0.606593 0.449553 0.175214
0.629128 0.459282 0.181067
0.651662 0.469011 0.186920
0.674197 0.478740 0.192774
0.695031 0.488226 0.199571
0.712464 0.497228 0.208255
0.729897 0.506230 0.216940
0.747330 0.515231 0.225624
0.764763 0.524233 0.234308
0.780794 0.533301 0.243283
0.789813 0.542702 0.253707
0.798833 0.552103 0.264131
0.807853 0.561504 0.274555
0.816873 0.570905 0.284979
0.825893 0.580306 0.295404
0.224105 0.264240 0.140139
0.242963 0.275270 0.144168
0.261822 0.286299 0.148196
0.280681 0.297329 0.152224
0.299539 0.308358 0.156252
0.318398 0.319387 0.160280
0.342859 0.331619 0.162357
0.368442 0.344091 0.164043
0.394024 0.356562 0.165729
0.419606 0.369034 0.167416
0.445189 0.381506 0.169102
0.470416 0.393939 0.171107
0.495467 0.406353 0.173272
0.520517 0.418767 0.175437
0.545567 0.431180 0.177602
0.570617 0.443594 0.179767
0.594185 0.455073 0.183900
0.616272 0.465616 0.190000
0.638358 0.476159 0.196100
0.660444 0.486702 0.202201
0.682531 0.497245 0.208301
0.702959 0.507195 0.215186
0.720072 0.515959 0.223642
0.737185 0.524722 0.232098
0.754297 0.533486 0.240554
0.771410 0.542250 0.249009
0.787168 0.551088 0.257786
0.796151 0.560297 0.268164
0.805135 0.569506 0.278542
0.814118 0.578715 0.288921
0.823101 0.587924 0.299299
0.832085 0.597133 0.309677
0.230816 0.275773 0.146378
0.249959 0.287168 0.151129
0.269101 0.298564 0.155880
0.288243 0.309959 0.160631
0.307385 0.321354 0.165382
0.326527 0.332750 0.170133
0.351151 0.345103 0.172718
0.376870 0.357648 0.174871
0.402590 0.370193 0.177024
0.428309 0.382738 0.179177
0.454029 0.395283 0.181330
0.479491 0.407874 0.183753
0.504825 0.420489 0.186311
0.530159 0.433105 0.188870
0.555493 0.445720 0.191428
0.580826 0.458335 0.193986
0.604312 0.470321 0.198439
0.625950 0.481678 0.204786
0.647588 0.493035 0.211134
0.669226 0.504392 0.217481
0.690864 0.515750 0.223828
0.710887 0.526163 0.230802
0.727680 0.534689 0.239029
0.744473 0.543215 0.247256
0.761265 0.551741 0.255483
0.778058 0.560267 0.263710
0.793543 0.568875 0.272288
0.802490 0.577891 0.282621
0.811436 0.586908 0.292953
0.820383 0.595925 0.303286
0.829330 0.604942 0.313619
0.838276 0.613959 0.323951
0.237528 0.287306 0.152617
0.256954 0.299067 0.158091
0.276380 0.310828 0.163564
0.295805 0.322589 0.169038
0.315231 0.334351 0.174511
0.334657 0.346112 0.179985
0.359442 0.358587 0.183080
0.385298 0.371205 0.185699
0.411155 0.383823 0.188319
0.437012 0.396441 0.190938
0.462869 0.409060 0.193558
0.488566 0.421810 0.196398
0.514183 0.434626 0.199350
0.539801 0.447442 0.202302
0.565418 0.460259 0.205254
0.591035 0.473075 0.208205
0.614439 0.485569 0.212978
0.635629 0.497740 0.219573
0.656819 0.509912 0.226167
0.678008 0.522083 0.232761
0.699198 0.534254 0.239355
0.718815 0.545131 0.246417
0.735288 0.553420 0.254416
0.751760 0.561708 0.262414
0.768233 0.569996 0.270413
0.784705 0.578284 0.278411
0.799917 0.586661 0.286791
0.808828 0.595486 0.297078
0.817738 0.604311 0.307365
0.826648 0.613135 0.317651
0.835558 0.621960 0.327938
0.844468 0.630785 0.338225
0.243263 0.297215 0.158068
0.263152 0.309529 0.164393
0.283041 0.321842 0.170717
0.302931 0.334155 0.177041
0.322820 0.346468 0.183366
0.342709 0.358781 0.189690
0.367708 0.371432 0.193305
0.393730 0.384151 0.196379
0.419751 0.396870 0.199453
0.445773 0.409589 0.202527
0.471794 0.422307 0.205600
0.497672 0.435172 0.208833
0.523479 0.448111 0.212144
0.549285 0.461049 0.215456
0.575092 0.473987 0.218767
0.600898 0.486926 0.222079
0.624241 0.499743 0.227137
0.645119 0.512439 0.233942
0.665998 0.525134 0.240746
0.686877 0.537830 0.247551
0.707756 0.550526 0.254355
0.727062 0.561807 0.261626
0.743223 0.570256 0.269829
0.759385 0.578706 0.278031
0.775546 0.587156 0.286234
0.791708 0.595605 0.294437
0.806640 0.604074 0.302961
0.815425 0.612636 0.313092
0.824210 0.621199 0.323224
0.832995 0.629761 0.333355
0.841780 0.638324 0.343486
0.850565 0.646886 0.353618
0.247044 0.303880 0.161944
0.267757 0.317117 0.169375
0.288469 0.330354 0.176807
0.309182 0.343591 0.184238
0.329894 0.356828 0.191669
0.350607 0.370065 0.199100
0.375926 0.383000 0.203258
0.402167 0.395874 0.206762
0.428408 0.408749 0.210266
0.454649 0.421623 0.213769
0.480890 0.434497 0.217273
0.506842 0.447390 0.220844
0.532648 0.460291 0.224448
0.558454 0.473193 0.228053
0.584261 0.486095 0.231657
0.610067 0.498996 0.235261
0.633392 0.511768 0.240534
0.654234 0.524409 0.247476
0.675076 0.537050 0.254418
0.695918 0.549691 0.261360
0.716760 0.562332 0.268301
0.735945 0.573896 0.276020
0.751813 0.583306 0.285293
0.767682 0.592716 0.294566
0.783551 0.602126 0.303839
0.799419 0.611537 0.313112
0.814057 0.620738 0.322466
0.822540 0.628898 0.332222
0.831024 0.637058 0.341978
0.839507 0.645218 0.351735
0.847990 0.653378 0.361491
0.856473 0.661538 0.371247
0.250825 0.310544 0.165820
0.272361 0.324705 0.174358
0.293897 0.338866 0.182896
0.315433 0.353027 0.191434
0.336969 0.367188 0.199972
0.358505 0.381349 0.208510
0.384144 0.394568 0.213211
0.410605 0.407597 0.217145
0.437065 0.420627 0.221079
0.463526 0.433657 0.225012
0.489986 0.446687 0.228946
0.516011 0.459607 0.232855
0.541817 0.472472 0.236752
0.567624 0.485337 0.240649
0.593430 0.498202 0.244546
0.619237 0.511067 0.248443
0.642543 0.523793 0.253931
0.663348 0.536379 0.261010
0.684154 0.548965 0.268089
0.704959 0.561551 0.275168
0.725765 0.574137 0.282247
0.744827 0.585985 0.290415
0.760403 0.596356 0.300758
0.775979 0.606726 0.311101
0.791555 0.617097 0.321445
0.807131 0.627468 0.331788
0.821475 0.637403 0.341971
0.829656 0.645161 0.351352
0.837837 0.652918 0.360733
0.846019 0.660676 0.370115
0.854200 0.668433 0.379496
0.862381 0.676190 0.388877
0.254606 0.317208 0.169696
0.276966 0.332293 0.179341
0.299325 0.347378 0.188986
0.321684 0.362463 0.198631
0.344043 0.377548 0.208276
0.366402 0.392633 0.217921
0.392362 0.406135 0.223164
0.419042 0.419321 0.227528
0.445722 0.432506 0.231892
0.472402 0.445691 0.236255
0.499083 0.458876 0.240619
0.525180 0.471824 0.244867
0.550987 0.484652 0.249056
0.576793 0.497481 0.253246
0.602600 0.510309 0.257436
0.628406 0.523138 0.261626
0.651694 0.535818 0.267329
0.672463 0.548349 0.274545
0.693232 0.560880 0.281761
0.714001 0.573411 0.288977
0.734770 0.585943 0.296194
0.753710 0.598074 0.304809
0.768993 0.609405 0.316223
0.784276 0.620736 0.327636
0.799560 0.632068 0.339050
0.814843 0.643399 0.350463
0.828892 0.654068 0.361476
0.836772 0.661423 0.370482
0.844651 0.668778 0.379488
0.852530 0.676133 0.388494
0.860410 0.683488 0.397501
0.868289 0.690842 0.406507
0.258387 0.323873 0.173571
0.281570 0.339882 0.184323
0.304753 0.355890 0.195075
0.327935 0.371899 0.205827
0.351118 0.387908 0.216579
0.374300 0.403917 0.227331
0.400580 0.417703 0.233117
0.427480 0.431044 0.237911
0.454379 0.444384 0.242705
0.481279 0.457725 0.247498
0.508179 0.471066 0.252292
0.534350 0.484041 0.256878
0.560156 0.496833 0.261360
0.585962 0.509625 0.265843
0.611769 0.522417 0.270325
0.637575 0.535209 0.274808
0.660845 0.547843 0.280726
0.681577 0.560319 0.288079
0.702309 0.572795 0.295433
0.723042 0.585272 0.302786
0.743774 0.597748 0.310140
0.762593 0.610163 0.319203
0.777583 0.622455 0.331687
0.792574 0.634747 0.344171
0.807564 0.647038 0.356655
0.822555 0.659330 0.369139
0.836310 0.670732 0.380981
0.843887 0.677685 0.389612
0.851465 0.684637 0.398243
0.859042 0.691590 0.406874
0.866620 0.698542 0.415505
0.874197 0.705495 0.424136
0.261806 0.329521 0.177029
0.285899 0.346569 0.188990
0.309992 0.363618 0.200951
0.334084 0.380667 0.212912
0.358177 0.397716 0.224873
0.382270 0.414765 0.236834
0.408916 0.428889 0.243177
0.436074 0.442428 0.248396
0.463231 0.455967 0.253615
0.490388 0.469506 0.258834
0.517546 0.483045 0.264053
0.543789 0.496066 0.268956
0.569576 0.508829 0.273703
0.595362 0.521592 0.278449
0.621149 0.534355 0.283195
0.646936 0.547118 0.287942
0.670148 0.559703 0.294056
0.690786 0.572111 0.301539
0.711424 0.584519 0.309022
0.732062 0.596927 0.316505
0.752699 0.609334 0.323988
0.771347 0.621952 0.333427
0.786014 0.634989 0.346777
0.800682 0.648027 0.360127
0.815349 0.661064 0.373477
0.830016 0.674101 0.386827
0.843466 0.686101 0.399400
0.850828 0.692912 0.408087
0.858191 0.699722 0.416775
0.865554 0.706533 0.425462
0.872916 0.713344 0.434150
0.880279 0.720154 0.442837
0.263413 0.330088 0.178400
0.288851 0.348756 0.192081
0.314288 0.367424 0.205762
0.339726 0.386092 0.219443
0.365163 0.404760 0.233123
0.390601 0.423428 0.246804
0.417845 0.438165 0.253769
0.445450 0.452115 0.259390
0.473056 0.466066 0.265012
0.500662 0.480017 0.270633
0.528267 0.493967 0.276255
0.554581 0.507132 0.281372
0.580248 0.519904 0.286237
0.605916 0.532676 0.291102
0.631584 0.545449 0.295967
0.657252 0.558221 0.300833
0.680212 0.570742 0.307052
0.700466 0.583012 0.314627
0.720720 0.595283 0.322202
0.740973 0.607553 0.329776
0.761227 0.619824 0.337351
0.779460 0.632240 0.346798
