filters/luts/Foreshadowing 03.cube
# Created by: Adobe Photoshop Export Color Lookup Plugin
# LUT by SparkleStock. Enhanced with VOXCOLOR algorithms.
LUT_3D_SIZE 8
DOMAIN_MIN 0.000000 0.000000 0.000000
DOMAIN_MAX 0.903226 0.903226 0.903226
0.093773 0.113309 0.097680
0.143684 0.118603 0.087660
0.218638 0.133538 0.084470
0.315483 0.158037 0.087636
0.429131 0.191453 0.096640
0.546914 0.232479 0.111765
0.644531 0.272401 0.129253
0.712308 0.303194 0.145370
0.101335 0.130702 0.107133
0.165591 0.150047 0.098869
0.252296 0.171880 0.096710
0.355130 0.199294 0.100425
0.467296 0.233973 0.109594
0.577322 0.274852 0.123987
0.666572 0.314507 0.140499
0.728317 0.345958 0.155591
0.113317 0.160416 0.121273
0.184037 0.186762 0.116943
0.281445 0.216227 0.114907
0.392549 0.249978 0.118074
0.506187 0.288523 0.127926
0.611047 0.331226 0.142831
0.693658 0.372496 0.159870
0.750759 0.406528 0.175999
0.128457 0.197645 0.139785
0.201726 0.228150 0.140651
0.307352 0.265135 0.139767
0.426566 0.306047 0.142773
0.543931 0.349090 0.153041
0.645730 0.394733 0.168971
0.723144 0.438139 0.187512
0.776545 0.475145 0.206085
0.145236 0.237512 0.161621
0.220646 0.272830 0.168580
0.331367 0.316623 0.171015
0.456764 0.363738 0.175146
0.579217 0.410854 0.185380
0.679717 0.459625 0.203468
0.753057 0.504559 0.224062
0.803246 0.543625 0.245775
0.160361 0.271921 0.182796
0.241625 0.316020 0.198536
0.355712 0.365692 0.205711
0.484549 0.418040 0.211756
0.611467 0.470591 0.223509
0.712845 0.520825 0.251697
0.782794 0.565515 0.274706
0.829531 0.604154 0.298962
0.170444 0.294356 0.197511
0.264272 0.353824 0.227522
0.384719 0.411296 0.241641
0.515562 0.467301 0.250659
0.641943 0.521870 0.263929
0.742613 0.572715 0.292825
0.812669 0.620779 0.334471
0.857230 0.659078 0.369468
0.175218 0.305794 0.205199
0.288579 0.387656 0.256129
0.419424 0.455708 0.279926
0.553368 0.515061 0.292682
0.677568 0.569470 0.307709
0.773725 0.618771 0.337336
0.840040 0.665979 0.388167
0.883420 0.706950 0.439551
0.096609 0.117657 0.115073
0.143300 0.132318 0.124520
0.218559 0.150505 0.125453
0.317831 0.175369 0.125265
0.434662 0.208438 0.129000
0.554348 0.247707 0.136806
0.651673 0.284898 0.146610
0.717925 0.313397 0.156079
0.107245 0.144125 0.129210
0.160121 0.175557 0.152765
0.247401 0.199909 0.157608
0.356307 0.226433 0.157138
0.475084 0.260977 0.160825
0.589846 0.301799 0.170166
0.680503 0.341177 0.183243
0.741767 0.372389 0.196825
0.124685 0.185506 0.151144
0.179158 0.221441 0.178543
0.273252 0.253503 0.184921
0.388923 0.285756 0.184785
0.510473 0.321309 0.188561
0.621618 0.362444 0.198754
0.707455 0.403217 0.213745
0.765781 0.437669 0.230320
0.145594 0.233944 0.178304
0.200426 0.270195 0.206867
0.297958 0.308516 0.214546
0.417901 0.347240 0.215008
0.542417 0.385759 0.218450
0.651614 0.427237 0.229214
0.733984 0.468627 0.245679
0.790321 0.505548 0.265087
0.167313 0.283033 0.208611
0.223818 0.321051 0.240717
0.323148 0.362722 0.250922
0.445414 0.406455 0.252237
0.572467 0.450723 0.254998
0.681074 0.493261 0.266619
0.760833 0.534548 0.284659
0.815344 0.572284 0.307195
0.188146 0.327687 0.241203
0.249146 0.369161 0.278351
0.350884 0.414275 0.292364
0.474664 0.461947 0.296199
0.602724 0.510374 0.300564
0.709150 0.553696 0.315031
0.786519 0.594248 0.334183
0.839268 0.630920 0.358965
0.205889 0.363661 0.272701
0.273371 0.408945 0.314148
0.380672 0.459746 0.334231
0.507254 0.512174 0.342948
0.634603 0.562820 0.349365
0.739056 0.607300 0.364842
0.813031 0.647162 0.391886
0.862858 0.681699 0.421531
0.220537 0.391596 0.301259
0.294205 0.439534 0.344488
0.410207 0.498754 0.373554
0.542699 0.558348 0.390734
0.670098 0.610810 0.400489
0.771095 0.655216 0.417590
0.840325 0.693238 0.448907
0.886602 0.726558 0.485430
0.101855 0.124684 0.129387
0.150199 0.143010 0.146896
0.224907 0.166750 0.160448
0.320888 0.195419 0.169149
0.432362 0.228671 0.173239
0.550218 0.267532 0.176630
0.648615 0.304807 0.179838
0.718255 0.335134 0.182768
0.118157 0.161678 0.152251
0.168139 0.197408 0.186106
0.252609 0.225291 0.205148
0.358484 0.253634 0.214027
0.474369 0.288072 0.217415
0.589732 0.328982 0.222198
0.683027 0.369093 0.229250
0.748251 0.402695 0.237541
0.137992 0.208025 0.179266
0.192011 0.252032 0.222624
0.276507 0.287156 0.247376
0.384649 0.318879 0.257656
0.507220 0.352012 0.258989
0.622047 0.392509 0.264433
0.712105 0.433552 0.274973
0.774465 0.469255 0.288464
0.162045 0.262627 0.212430
0.218612 0.307702 0.258545
0.300543 0.347941 0.287026
0.408126 0.384611 0.298933
0.535291 0.419613 0.298654
0.650476 0.458425 0.304357
0.738323 0.498768 0.317213
0.798954 0.535470 0.334721
0.189637 0.322129 0.251752
0.245855 0.363948 0.295701
0.327518 0.404749 0.325311
0.435010 0.446137 0.338636
0.562263 0.488249 0.338297
0.677405 0.525581 0.344064
0.763385 0.564069 0.357711
0.822958 0.600617 0.377554
0.214934 0.372779 0.290680
0.274769 0.414895 0.336493
0.358363 0.457733 0.369317
0.465957 0.501825 0.385337
0.591444 0.546561 0.386005
0.702870 0.586405 0.391460
0.786846 0.623266 0.405264
0.845217 0.657627 0.426610
0.237451 0.414412 0.329389
0.302917 0.457235 0.376647
0.390822 0.503288 0.413404
0.500563 0.551004 0.433404
0.625478 0.598308 0.436477
0.733184 0.639457 0.442923
0.811545 0.674429 0.459392
0.866309 0.705888 0.482349
0.258028 0.449059 0.366605
0.327817 0.490333 0.411892
0.420615 0.539738 0.452245
0.534724 0.592622 0.478213
0.662140 0.644297 0.486877
0.766696 0.686224 0.495461
0.839286 0.719487 0.513927
0.888643 0.748190 0.539285
0.108645 0.133444 0.141408
0.162722 0.153941 0.162649
0.239077 0.182659 0.187502
0.330553 0.215980 0.208567
0.431644 0.251624 0.221221
0.541743 0.291607 0.226698
0.639264 0.331254 0.227183
0.713731 0.366530 0.225842
0.131314 0.182050 0.174908
0.183214 0.220244 0.211419
0.266546 0.251404 0.242150
0.366937 0.282142 0.264172
0.473574 0.317272 0.276374
0.583588 0.358926 0.281874
0.677935 0.400937 0.285024
0.748861 0.438879 0.288248
0.154769 0.234419 0.209198
0.212957 0.282981 0.258136
0.291002 0.320933 0.297401
0.389471 0.353239 0.322264
0.504705 0.384956 0.331803
0.617266 0.425084 0.336179
0.709981 0.466948 0.342287
0.778036 0.505176 0.350819
0.181899 0.292243 0.247023
0.246127 0.343596 0.301742
0.318146 0.386632 0.347423
0.411314 0.422717 0.375592
0.529301 0.454525 0.383656
0.645211 0.490954 0.386136
0.737085 0.530707 0.394145
0.803212 0.568013 0.407026
0.213515 0.354645 0.289586
0.278744 0.402508 0.342403
0.350842 0.445680 0.389876
0.440539 0.485851 0.420804
0.551865 0.523786 0.430341
0.669866 0.556538 0.430723
0.760939 0.592961 0.438903
0.826023 0.628738 0.454096
0.243679 0.410820 0.333856
0.311231 0.455911 0.384648
0.383900 0.498867 0.433028
0.472326 0.540350 0.465947
0.580674 0.580628 0.477005
0.694714 0.618281 0.476830
0.783749 0.651924 0.484599
0.847421 0.684172 0.500238
0.270849 0.454624 0.375051
0.344053 0.499919 0.426497
0.419487 0.543905 0.476508
0.508792 0.587411 0.511841
0.616441 0.630439 0.525554
0.725556 0.669519 0.525990
0.807852 0.701568 0.534391
0.867199 0.730639 0.549948
0.296830 0.490943 0.414142
0.375601 0.535936 0.465223
0.452999 0.579634 0.514724
0.543755 0.625008 0.551981
0.653584 0.672528 0.570753
0.760452 0.713427 0.573756
0.836407 0.744568 0.583305
0.888861 0.770635 0.599638
0.116042 0.142920 0.151688
0.179523 0.167114 0.177357
0.261627 0.198828 0.206741
0.351074 0.235946 0.237198
0.440840 0.276562 0.265234
0.536028 0.319052 0.280810
0.627831 0.362639 0.284794
0.705178 0.404738 0.283499
0.144822 0.204498 0.196586
0.200956 0.247209 0.237624
0.287757 0.280913 0.272494
0.385328 0.313426 0.304393
0.480600 0.350306 0.333571
0.577955 0.393079 0.347938
0.669108 0.437925 0.353058
0.744648 0.481296 0.354795
0.175126 0.267960 0.242417
0.235489 0.317467 0.292058
0.315338 0.357813 0.334871
0.408971 0.391854 0.371263
0.510663 0.423434 0.399978
0.612305 0.462601 0.410314
0.703664 0.505519 0.414938
0.777365 0.547485 0.418952
0.206780 0.328190 0.284920
0.275768 0.380588 0.341625
0.350160 0.427116 0.392166
0.434743 0.464748 0.433919
0.531948 0.493917 0.463375
0.639462 0.527325 0.467986
0.731761 0.566474 0.471726
0.803784 0.605543 0.478376
0.239949 0.383635 0.323700
0.316100 0.438970 0.387422
0.393205 0.487574 0.442876
0.469360 0.527763 0.488918
0.548462 0.559570 0.521726
0.661371 0.588017 0.520785
0.754669 0.622711 0.523979
0.825184 0.658160 0.533668
0.276644 0.444859 0.372801
0.353362 0.494406 0.430984
0.428710 0.539636 0.483672
0.502216 0.579680 0.530315
0.578472 0.614851 0.566482
0.686484 0.649317 0.566400
0.777423 0.679919 0.568616
0.845914 0.710530 0.577612
0.310179 0.490405 0.415365
0.390710 0.538495 0.472318
0.467080 0.583190 0.524877
0.540065 0.624171 0.572926
0.614736 0.661730 0.611681
0.717596 0.698022 0.611856
0.801692 0.727790 0.614059
0.865132 0.755066 0.622035
0.343530 0.527298 0.454181
0.428288 0.574811 0.510769
0.505875 0.619083 0.563009
0.578015 0.660231 0.611056
0.650860 0.698971 0.650529
0.753093 0.738395 0.653529
0.831127 0.768372 0.656546
0.886589 0.792854 0.664776
0.122281 0.151239 0.159817
0.200545 0.181433 0.191195
0.292145 0.217179 0.224940
0.385678 0.257700 0.259324
0.472315 0.301848 0.292721
0.545548 0.346971 0.322495
0.622348 0.394413 0.339944
0.694646 0.442513 0.347132
0.158965 0.230527 0.219060
0.222630 0.278673 0.265806
0.315125 0.316323 0.305598
0.415820 0.351597 0.341934
0.508827 0.389926 0.376828
0.584000 0.430574 0.407432
0.662756 0.477442 0.424375
0.736113 0.525384 0.432216
0.194374 0.303198 0.273844
0.261356 0.356690 0.328149
0.344607 0.400582 0.375744
0.439484 0.437432 0.416823
0.538280 0.470285 0.451828
0.616230 0.505457 0.481083
0.697450 0.548779 0.494989
0.771543 0.593826 0.501698
0.230712 0.368587 0.323629
0.307499 0.422733 0.382770
0.384206 0.471385 0.436472
0.468362 0.511620 0.482294
0.561301 0.542937 0.518806
0.642421 0.572143 0.545424
0.726273 0.610010 0.554894
0.800663 0.650359 0.559780
0.270027 0.426521 0.368263
0.354503 0.481775 0.432594
0.433875 0.530537 0.488942
0.508894 0.572484 0.537670
0.582003 0.607124 0.578008
0.663815 0.631198 0.602077
0.749534 0.662752 0.606733
0.823501 0.697455 0.609941
0.315944 0.476914 0.407849
0.402006 0.531593 0.475027
0.481122 0.579945 0.533463
0.553776 0.621662 0.583500
0.621021 0.656422 0.624648
0.685699 0.681984 0.650596
0.768342 0.707934 0.651327
0.839845 0.736954 0.653417
0.357358 0.523582 0.451634
0.444947 0.575690 0.516524
0.523015 0.622018 0.573451
0.592929 0.662753 0.622935
0.656280 0.698003 0.664664
0.715182 0.726335 0.692928
0.792436 0.752428 0.693706
0.858682 0.778031 0.694426
0.401095 0.563274 0.492310
0.489351 0.613162 0.555177
0.566019 0.657728 0.610536
0.633089 0.697435 0.658989
0.692862 0.732705 0.700397
0.748847 0.763079 0.729885
0.821723 0.790587 0.731391
0.880151 0.813674 0.731907
0.126157 0.156406 0.164796
0.224205 0.196017 0.204565
0.327882 0.237135 0.242848
0.426528 0.281141 0.280001
0.512049 0.328545 0.316213
0.577719 0.377524 0.350914
0.632971 0.423331 0.377947
0.688627 0.470799 0.395768
0.173672 0.260968 0.243749
0.247413 0.312864 0.295865
0.347335 0.355653 0.341549
0.452187 0.395539 0.383249
0.545402 0.436730 0.422609
0.614486 0.478740 0.458670
0.671987 0.521260 0.486999
0.730651 0.566908 0.504975
0.214175 0.343325 0.307237
0.291412 0.400172 0.367396
0.379840 0.447749 0.420252
0.476272 0.488414 0.466522
0.573818 0.524680 0.507072
0.645868 0.560473 0.542687
0.705108 0.598487 0.569680
0.766125 0.640575 0.585598
0.253215 0.409706 0.359862
0.343475 0.468361 0.425988
0.425090 0.519489 0.484006
0.508763 0.562111 0.533656
0.598137 0.596586 0.575196
0.672356 0.627023 0.609255
0.732955 0.659899 0.633359
0.795580 0.697240 0.646124
0.295598 0.465325 0.405426
0.395098 0.525375 0.476850
0.480298 0.576432 0.537231
0.554519 0.619605 0.588376
0.622325 0.655551 0.631407
0.695095 0.681879 0.663594
0.756152 0.709518 0.684129
0.819370 0.741438 0.693546
0.347443 0.512571 0.445623
0.448510 0.572347 0.520630
0.532980 0.622655 0.582578
0.604412 0.664758 0.633741
0.665815 0.699517 0.675846
0.717805 0.725066 0.707533
0.774691 0.748014 0.724329
0.836057 0.774428 0.730862
0.401574 0.556052 0.485605
0.500295 0.613528 0.560557
0.581404 0.661919 0.622060
0.648630 0.702498 0.672456
0.704874 0.736181 0.713605
0.749223 0.761494 0.744614
0.797271 0.782095 0.759128
0.850846 0.803791 0.763081
0.457802 0.596064 0.525707
0.552696 0.650581 0.598926
0.629575 0.696746 0.658994
0.692090 0.735683 0.708084
0.743240 0.768257 0.748000
0.782904 0.793419 0.778212
0.824736 0.813790 0.791681
0.869090 0.832078 0.794166
0.128229 0.159203 0.167403
0.250549 0.211767 0.218321
0.367164 0.259359 0.261657
0.470011 0.306469 0.300647
0.553560 0.356153 0.337846
0.613912 0.408517 0.374511
0.656177 0.454710 0.406663
0.693034 0.495431 0.429413
0.189221 0.296416 0.272056
0.274214 0.348197 0.327152
0.382689 0.396855 0.379249
0.491955 0.443374 0.427507
0.584907 0.488607 0.471500
0.650670 0.533189 0.511164
0.695760 0.573769 0.545806
0.737220 0.612354 0.570569
0.235138 0.389537 0.344677
0.324546 0.446440 0.409323
0.419344 0.496704 0.466878
0.517477 0.542025 0.518713
0.613329 0.583809 0.565697
0.682292 0.622496 0.606178
0.728650 0.658020 0.640977
0.772967 0.693609 0.665226
0.275855 0.453857 0.396981
0.383432 0.517120 0.471950
0.471627 0.569428 0.533857
0.554833 0.613667 0.586521
0.640030 0.652294 0.632813
0.709831 0.686486 0.672362
0.756372 0.717594 0.705830
0.802238 0.749750 0.728196
0.319788 0.502366 0.438893
0.439229 0.569796 0.521643
0.532935 0.624082 0.587824
0.606909 0.667700 0.640683
0.668681 0.703226 0.683586
0.734599 0.733611 0.720500
0.780079 0.760848 0.751660
0.826367 0.789407 0.771597
0.376347 0.544513 0.477918
0.497190 0.612463 0.564748
0.589533 0.666168 0.632189
0.660457 0.708768 0.684741
0.716053 0.742783 0.726105
0.759265 0.768060 0.756820
0.799301 0.791227 0.784000
0.843936 0.815862 0.800906
0.440768 0.584816 0.516029
0.556155 0.650748 0.604270
0.642877 0.702574 0.671541
0.708038 0.743284 0.722768
0.757462 0.775253 0.761971
0.792350 0.798072 0.789611
0.820320 0.815615 0.810714
0.856125 0.834603 0.822926
0.503108 0.623003 0.553510
0.611778 0.685869 0.641328
0.692343 0.735472 0.707716
0.751559 0.774306 0.757489
0.795103 0.804427 0.794676
0.824765 0.825581 0.820106
0.844590 0.839859 0.837150
0.870300 0.853275 0.844328
