filters/luts/LUT Thiago Rodrigues basico 001.cube
LUT_3D_SIZE 6
0.000000 0.000000 0.000000
0.075811 0.000214 0.000000
0.324040 0.000365 0.000000
0.694765 0.000750 0.000000
0.996181 0.001047 0.000000
0.996181 0.001047 0.000000
0.000000 0.055127 0.000000
0.046241 0.048759 0.000000
0.310504 0.014892 0.000000
0.688430 0.000744 0.000000
0.996181 0.001047 0.000000
0.996181 0.001047 0.000000
0.000000 0.258638 0.000000
0.000000 0.255539 0.000000
0.230728 0.238474 0.000000
0.654362 0.179441 0.000000
0.991623 0.102103 0.000000
0.995962 0.035666 0.000000
0.000000 0.573337 0.000000
0.000000 0.571710 0.000000
0.000000 0.563006 0.000000
0.533795 0.536623 0.000000
0.914388 0.511732 0.000000
1.000023 0.519333 0.000000
0.000000 0.845583 0.000000
0.000000 0.844536 0.000000
0.000000 0.837872 0.000000
0.335000 0.818371 0.000000
0.797608 0.792952 0.000000
1.000022 0.810899 0.000000
0.000000 1.004048 0.000000
0.000000 1.004047 0.000000
0.000000 1.004047 0.000000
0.104798 1.004047 0.000000
0.726904 1.004042 0.000000
1.000021 1.003874 0.000000
0.000000 0.000000 0.046390
0.074892 0.000361 0.033573
0.322606 0.000366 0.034551
0.694569 0.000704 0.019753
0.996325 0.001016 0.005131
0.996279 0.001035 0.000000
0.000000 0.054694 0.041583
0.041104 0.048775 0.040348
0.360631 0.003294 0.021395
0.749316 0.000785 0.000000
0.996181 0.001047 0.000000
0.996181 0.001047 0.000000
0.000000 0.258375 0.015213
0.000000 0.266792 0.000000
0.230163 0.240786 0.000000
0.682540 0.168368 0.000000
0.995703 0.069854 0.000000
0.995868 0.018101 0.000000
0.000000 0.573271 0.000000
0.000000 0.580693 0.000000
0.000000 0.569530 0.000000
0.534106 0.538406 0.000000
0.926145 0.508150 0.000000
1.000023 0.509248 0.000000
0.000000 0.845522 0.000000
0.000000 0.849959 0.000000
0.000000 0.842496 0.000000
0.308985 0.821879 0.000000
0.797862 0.793918 0.000000
1.000022 0.809389 0.000000
0.000000 1.004048 0.000000
0.000000 1.004047 0.000000
0.000000 1.004047 0.000000
0.098709 1.004047 0.000000
0.725534 1.004041 0.000000
1.000021 1.003874 0.000000
0.000000 0.000000 0.236029
0.049672 0.000000 0.235527
0.319842 0.000000 0.220609
0.688412 0.002749 0.179798
0.995296 0.002009 0.191784
0.995122 0.002316 0.207021
0.000000 0.048715 0.233270
0.007131 0.039132 0.284123
0.348559 0.001160 0.261488
0.739431 0.002801 0.189443
0.995494 0.001860 0.184224
0.995113 0.002087 0.195562
0.000000 0.257298 0.218031
0.000000 0.262869 0.223410
0.212632 0.238620 0.213260
0.731563 0.105594 0.148385
0.996755 0.001199 0.127227
0.996238 0.001440 0.153518
0.000000 0.572605 0.167407
0.000000 0.579326 0.148239
0.000000 0.581941 0.091450
0.529528 0.541052 0.029839
0.958551 0.492076 0.017098
1.000023 0.492985 0.092630
0.000000 0.845003 0.109804
0.000000 0.849442 0.071483
0.000000 0.857273 0.000000
0.197338 0.832475 0.000000
0.796433 0.796571 0.000000
1.000022 0.803571 0.000000
0.000000 1.004047 0.066700
0.000000 1.004047 0.060919
0.000000 1.004047 0.013123
0.059349 1.004047 0.003795
0.715202 1.004043 0.002200
1.000020 1.003868 0.000000
0.000000 0.000000 0.562296
0.001308 0.000000 0.562069
0.281269 0.000000 0.560791
0.680219 0.000000 0.556959
1.015237 0.007505 0.380936
1.021953 0.005814 0.424439
0.000000 0.040660 0.560905
0.000000 0.025515 0.635211
0.299999 0.000000 0.620913
0.722431 0.000000 0.594241
1.018403 0.006863 0.398477
1.021870 0.005836 0.423870
0.000000 0.311029 0.331641
0.000000 0.318860 0.352915
0.149555 0.220424 0.638948
0.710083 0.087285 0.604001
1.017725 0.007014 0.394510
1.018079 0.006941 0.396527
0.000000 0.570985 0.530570
0.000000 0.576039 0.535360
0.000000 0.576223 0.539102
0.501568 0.536433 0.522131
0.982956 0.450202 0.466491
0.991288 0.440362 0.474518
0.000000 0.843706 0.511749
0.000000 0.847208 0.502941
0.000000 0.853891 0.462951
0.008118 0.840230 0.383316
0.787011 0.799475 0.229247
1.000022 0.788520 0.428343
0.000000 1.004047 0.527180
0.000000 1.004047 0.525437
0.000000 1.004047 0.509785
0.000000 1.004047 0.452146
0.681799 1.004047 0.444531
0.997970 1.003856 0.437631
0.000000 0.000000 0.829657
0.000000 0.000000 0.829385
0.253717 0.000000 0.828538
0.678024 0.000000 0.825456
1.000020 0.000000 0.822185
1.000024 0.000000 0.862543
0.000000 0.034444 0.828611
0.000000 0.008064 0.895678
0.255881 0.000000 0.884415
0.709795 0.000000 0.865075
1.000020 0.000000 0.846500
1.000024 0.000000 0.867763
0.000000 0.250996 0.822923
0.000000 0.247384 0.859215
0.052370 0.201958 0.917076
0.691370 0.060310 0.902781
1.000024 0.000000 0.868919
1.000024 0.000000 0.858613
0.000000 0.621415 0.644413
0.000000 0.628056 0.646281
0.000000 0.633997 0.633667
0.452323 0.521861 0.888693
0.975967 0.423657 0.858065
1.000290 0.429045 0.828060
0.000000 0.842180 0.785502
0.000000 0.845086 0.787891
0.000000 0.849419 0.793534
0.000000 0.835076 0.790973
0.756773 0.791877 0.774801
0.997517 0.755438 0.759416
0.000000 1.004047 0.808552
0.000000 1.004047 0.808140
0.000000 1.004047 0.803461
0.000000 1.004047 0.788073
0.611484 1.004045 0.753296
0.992940 1.003843 0.748892
0.000000 0.000000 1.000025
0.000000 0.000000 1.000025
0.253431 0.000000 1.000025
0.714214 0.000000 1.000024
1.000024 0.000000 1.000024
1.000024 0.000000 1.000024
0.000000 0.033444 1.000025
0.000000 0.019672 1.000025
0.232159 0.000000 1.000025
0.708896 0.000000 1.000024
1.000024 0.000000 1.000024
1.000024 0.000000 1.000024
0.000000 0.276325 1.000025
0.000000 0.268861 1.000025
0.072948 0.221668 1.000025
0.653995 0.154329 1.000024
1.000020 0.039968 1.000024
1.000024 0.000000 1.000024
0.000000 0.705345 0.676391
0.000000 0.703612 0.674301
0.000000 0.688428 0.655649
0.456060 0.527392 1.000024
0.919048 0.479817 1.000023
1.000023 0.431876 1.000023
0.000000 0.885390 0.998568
0.000000 0.886224 0.998732
0.000000 0.877225 0.994739
0.077563 0.851669 0.974091
0.693195 0.806383 0.963873
1.000022 0.753014 1.000020
0.000000 1.004047 0.998733
0.000000 1.004047 0.998723
0.000000 1.004047 0.998552
0.000000 1.004047 0.998021
0.589651 1.004044 0.997553
0.987650 1.003828 0.996373
