filters/luts/LUT Thiago Rodrigues basico 001.cube
LUT_3D_SIZE 16
0.000000 0.000000 0.000000
0.000125 0.000000 0.000000
0.019636 0.000130 0.000000
0.075811 0.000214 0.000000
0.144769 0.000272 0.000000
0.224182 0.000319 0.000000
0.324040 0.000365 0.000000
0.444208 0.000492 0.000000
0.574992 0.000646 0.000000
0.694765 0.000750 0.000000
0.809060 0.000831 0.000000
0.919612 0.000957 0.000000
0.996181 0.001047 0.000000
0.996181 0.001047 0.000000
0.996181 0.001047 0.000000
0.996181 0.001047 0.000000
0.000000 0.000129 0.000000
0.000117 0.000119 0.000000
0.019637 0.000130 0.000000
0.075810 0.000214 0.000000
0.144769 0.000272 0.000000
0.224182 0.000319 0.000000
0.324040 0.000365 0.000000
0.444208 0.000492 0.000000
0.574992 0.000646 0.000000
0.694765 0.000750 0.000000
0.809060 0.000831 0.000000
0.919612 0.000957 0.000000
0.996181 0.001047 0.000000
0.996181 0.001047 0.000000
0.996181 0.001047 0.000000
0.996181 0.001047 0.000000
0.000000 0.014251 0.000000
0.000000 0.014251 0.000000
0.011507 0.012610 0.000000
0.067686 0.008292 0.000000
0.138872 0.002757 0.000000
0.219483 0.000631 0.000000
0.320332 0.000364 0.000000
0.441452 0.000488 0.000000
0.572827 0.000644 0.000000
0.693088 0.000748 0.000000
0.807515 0.000830 0.000000
0.918286 0.000956 0.000000
0.996181 0.001047 0.000000
0.996181 0.001047 0.000000
0.996181 0.001047 0.000000
0.996181 0.001047 0.000000
0.000000 0.055127 0.000000
0.000000 0.055127 0.000000
0.000894 0.053313 0.000000
0.046241 0.048759 0.000000
0.124313 0.040438 0.000000
0.207853 0.029594 0.000000
0.310504 0.014892 0.000000
0.433935 0.001235 0.000000
0.567128 0.000638 0.000000
0.688430 0.000744 0.000000
0.803256 0.000827 0.000000
0.914112 0.000950 0.000000
0.996181 0.001047 0.000000
0.996181 0.001047 0.000000
0.996181 0.001047 0.000000
0.996181 0.001047 0.000000
0.000000 0.112587 0.000000
0.000000 0.112587 0.000000
0.000000 0.111235 0.000000
0.013392 0.107754 0.000000
0.098101 0.102115 0.000000
0.188497 0.091891 0.000000
0.296045 0.076944 0.000000
0.422300 0.053751 0.000000
0.557782 0.021925 0.000000
0.680705 0.000739 0.000000
0.796304 0.000822 0.000000
0.908139 0.000943 0.000000
0.996181 0.001047 0.000000
0.996181 0.001047 0.000000
0.996181 0.001047 0.000000
0.996180 0.001047 0.000000
0.000000 0.177594 0.000000
0.000000 0.177594 0.000000
0.000000 0.176629 0.000000
0.000000 0.173872 0.000000
0.051069 0.169490 0.000000
0.156890 0.162912 0.000000
0.271426 0.150366 0.000000
0.404987 0.132493 0.000000
0.546188 0.107121 0.000000
0.670151 0.076309 0.000000
0.786153 0.038169 0.000000
0.898398 0.006547 0.000000
0.996163 0.001487 0.000000
0.996181 0.001047 0.000000
0.996181 0.001047 0.000000
0.996181 0.001047 0.000000
0.000000 0.258638 0.000000
0.000000 0.258638 0.000000
0.000000 0.257751 0.000000
0.000000 0.255539 0.000000
0.000000 0.251999 0.000000
0.099410 0.246699 0.000000
0.230728 0.238474 0.000000
0.374364 0.222787 0.000000
0.524378 0.202230 0.000000
0.654362 0.179441 0.000000
0.773648 0.154976 0.000000
0.886435 0.129473 0.000000
0.991623 0.102103 0.000000
0.996451 0.073012 0.000000
0.996055 0.053836 0.000000
0.995962 0.035666 0.000000
0.000000 0.358989 0.000000
0.000000 0.358989 0.000000
0.000000 0.358234 0.000000
0.000000 0.356516 0.000000
0.000000 0.353594 0.000000
0.006793 0.349373 0.000000
0.159075 0.342893 0.000000
0.323634 0.332721 0.000000
0.488412 0.314846 0.000000
0.626254 0.296209 0.000000
0.749557 0.277641 0.000000
0.866188 0.260286 0.000000
0.975813 0.245789 0.000000
1.000021 0.235639 0.000000
1.000072 0.231820 0.000000
1.000021 0.227000 0.000000
0.000000 0.471335 0.000000
0.000000 0.471335 0.000000
0.000000 0.470767 0.000000
0.000000 0.469414 0.000000
0.000000 0.467120 0.000000
0.000000 0.463839 0.000000
0.041629 0.458704 0.000000
0.241060 0.450792 0.000000
0.433061 0.439320 0.000000
0.584320 0.424139 0.000000
0.713785 0.410104 0.000000
0.833980 0.398077 0.000000
0.948312 0.389426 0.000000
1.000024 0.386343 0.000000
1.000024 0.389013 0.000000
1.000024 0.388297 0.000000
0.000000 0.573337 0.000000
0.000000 0.573337 0.000000
0.000000 0.572940 0.000000
0.000000 0.571710 0.000000
0.000000 0.569902 0.000000
0.000000 0.567191 0.000000
0.000000 0.563006 0.000000
0.130466 0.556559 0.000000
0.360182 0.547248 0.000000
0.533795 0.536623 0.000000
0.672503 0.525354 0.000000
0.796940 0.516609 0.000000
0.914388 0.511732 0.000000
1.000018 0.511787 0.000000
1.000023 0.517586 0.000000
1.000023 0.519333 0.000000
0.000000 0.667650 0.000000
0.000000 0.667650 0.000000
0.000000 0.667408 0.000000
0.000000 0.666268 0.000000
0.000000 0.664648 0.000000
0.000000 0.662285 0.000000
0.000000 0.658656 0.000000
0.004862 0.653118 0.000000
0.272117 0.645131 0.000000
0.474474 0.635924 0.000000
0.625706 0.625933 0.000000
0.756198 0.619081 0.000000
0.877841 0.616106 0.000000
0.985027 0.618334 0.000000
1.000023 0.625347 0.000000
1.000023 0.628940 0.000000
0.000000 0.757756 0.000000
0.000000 0.757756 0.000000
0.000000 0.757490 0.000000
0.000000 0.756449 0.000000
0.000000 0.754993 0.000000
0.000000 0.752844 0.000000
0.000000 0.749553 0.000000
0.000000 0.744494 0.000000
0.165970 0.737109 0.000000
0.407989 0.728787 0.000000
0.577957 0.719803 0.000000
0.712506 0.710777 0.000000
0.838529 0.708911 0.000000
0.955754 0.712499 0.000000
1.000022 0.720609 0.000000
1.000022 0.725138 0.000000
0.000000 0.845583 0.000000
0.000000 0.845583 0.000000
0.000000 0.845340 0.000000
0.000000 0.844536 0.000000
0.000000 0.843102 0.000000
0.000000 0.840730 0.000000
0.000000 0.837872 0.000000
0.000000 0.833162 0.000000
0.037103 0.826091 0.000000
0.335000 0.818371 0.000000
0.529778 0.810160 0.000000
0.674993 0.801648 0.000000
0.797608 0.792952 0.000000
0.918851 0.797480 0.000000
1.000022 0.805943 0.000000
1.000022 0.810899 0.000000
0.000000 0.931638 0.000000
0.000000 0.931638 0.000000
0.000000 0.931217 0.000000
0.000000 0.930317 0.000000
0.000000 0.929020 0.000000
0.000000 0.927027 0.000000
0.000000 0.924078 0.000000
0.000000 0.919395 0.000000
0.006223 0.912597 0.000000
0.254447 0.905342 0.000000
0.481808 0.897540 0.000000
0.640437 0.889849 0.000000
0.769614 0.881458 0.000000
0.881450 0.873362 0.000000
0.990936 0.881806 0.000000
1.000021 0.886996 0.000000
0.000000 0.999152 0.000000
0.000000 0.999152 0.000000
0.000000 0.998639 0.000000
0.000000 0.998555 0.000000
0.000000 0.997970 0.000000
0.000000 0.997044 0.000000
0.000000 0.995531 0.000000
0.000000 0.993425 0.000000
0.000000 0.990537 0.000000
0.167032 0.985854 0.000000
0.439047 0.978622 0.000000
0.613008 0.970859 0.000000
0.748238 0.963240 0.000000
0.862966 0.955454 0.000000
0.960476 0.948891 0.000000
1.000021 0.953901 0.000000
0.000000 1.004048 0.000000
0.000000 1.004048 0.000000
0.000000 1.004048 0.000000
0.000000 1.004047 0.000000
0.000000 1.004047 0.000000
0.000000 1.004047 0.000000
0.000000 1.004047 0.000000
0.000000 1.004047 0.000000
0.000000 1.004047 0.000000
0.104798 1.004047 0.000000
0.398727 1.004047 0.000000
0.585956 1.004047 0.000000
0.726904 1.004042 0.000000
0.844540 1.003987 0.000000
0.944362 1.003926 0.000000
1.000021 1.003874 0.000000
0.000000 0.000000 0.000230
0.000127 0.000000 0.000122
0.019636 0.000130 0.000000
0.075811 0.000214 0.000000
0.144769 0.000272 0.000000
0.224182 0.000319 0.000000
0.324040 0.000365 0.000000
0.444208 0.000492 0.000000
0.574992 0.000646 0.000000
0.694764 0.000750 0.000000
0.809060 0.000831 0.000000
0.919612 0.000957 0.000000
0.996181 0.001047 0.000000
0.996181 0.001047 0.000000
0.996181 0.001047 0.000000
0.996181 0.001047 0.000000
0.000000 0.000127 0.000121
0.000000 0.000000 0.000000
0.026163 0.000145 0.000000
0.086846 0.000225 0.000000
0.156009 0.000279 0.000000
0.236515 0.000325 0.000000
0.336783 0.000370 0.000000
0.456458 0.000510 0.000000
0.584927 0.000656 0.000000
0.702772 0.000756 0.000000
0.815417 0.000835 0.000000
0.924684 0.000964 0.000000
0.996181 0.001047 0.000000
0.996181 0.001047 0.000000
0.996181 0.001047 0.000000
0.996181 0.001047 0.000000
0.000000 0.014251 0.000000
0.000000 0.015353 0.000000
0.011541 0.012864 0.000000
0.072938 0.007310 0.000000
0.146516 0.001245 0.000000
0.229163 0.000322 0.000000
0.331244 0.000368 0.000000
0.452279 0.000504 0.000000
0.582229 0.000653 0.000000
0.700588 0.000754 0.000000
0.813641 0.000834 0.000000
0.923316 0.000962 0.000000
0.996181 0.001047 0.000000
0.996181 0.001047 0.000000
0.996181 0.001047 0.000000
0.996181 0.001047 0.000000
0.000000 0.055127 0.000000
0.000000 0.056579 0.000000
0.000000 0.054634 0.000000
0.046303 0.049096 0.000000
0.127392 0.039788 0.000000
0.213244 0.027971 0.000000
0.317761 0.012508 0.000000
0.441993 0.000489 0.000000
0.574661 0.000646 0.000000
0.694747 0.000749 0.000000
0.808791 0.000831 0.000000
0.918990 0.000957 0.000000
0.996181 0.001047 0.000000
0.996181 0.001047 0.000000
0.996181 0.001047 0.000000
0.996181 0.001047 0.000000
0.000000 0.112587 0.000000
0.000000 0.113763 0.000000
0.000000 0.112516 0.000000
0.010977 0.108607 0.000000
0.098158 0.102387 0.000000
0.190717 0.091554 0.000000
0.300203 0.075825 0.000000
0.427660 0.051796 0.000000
0.563387 0.019332 0.000000
0.685816 0.000743 0.000000
0.800807 0.000825 0.000000
0.912144 0.000948 0.000000
0.996181 0.001047 0.000000
0.996181 0.001047 0.000000
0.996181 0.001047 0.000000
0.996181 0.001047 0.000000
0.000000 0.177594 0.000000
0.000000 0.178750 0.000000
0.000000 0.177879 0.000000
0.000000 0.174850 0.000000
0.048966 0.170184 0.000000
0.156897 0.163163 0.000000
0.273152 0.150233 0.000000
0.407934 0.131854 0.000000
0.549855 0.105888 0.000000
0.673644 0.074420 0.000000
0.789596 0.035608 0.000000
0.901875 0.004299 0.000000
0.996181 0.001047 0.000000
0.996181 0.001047 0.000000
0.996181 0.001047 0.000000
0.996181 0.001047 0.000000
0.000000 0.258638 0.000000
0.000000 0.259721 0.000000
0.000000 0.259050 0.000000
0.000000 0.256591 0.000000
0.000000 0.252867 0.000000
0.097786 0.247325 0.000000
0.230762 0.238727 0.000000
0.375777 0.222792 0.000000
0.526643 0.201859 0.000000
0.656951 0.178601 0.000000
0.776104 0.153765 0.000000
0.888626 0.127797 0.000000
0.992052 0.100020 0.000000
0.996312 0.070145 0.000000
0.995983 0.050873 0.000000
0.995953 0.033731 0.000000
0.000000 0.358989 0.000000
0.000000 0.360028 0.000000
0.000000 0.359519 0.000000
0.000000 0.357628 0.000000
0.000000 0.354504 0.000000
0.006425 0.350141 0.000000
0.157659 0.343354 0.000000
0.323792 0.332955 0.000000
0.489461 0.314913 0.000000
0.627787 0.295910 0.000000
0.751006 0.277104 0.000000
0.867748 0.259465 0.000000
0.977116 0.244625 0.000000
1.000010 0.234195 0.000000
1.000053 0.229989 0.000000
1.000018 0.224705 0.000000
0.000000 0.471335 0.000000
0.000000 0.472144 0.000000
0.000000 0.471743 0.000000
0.000000 0.470259 0.000000
0.000000 0.467976 0.000000
0.000000 0.464451 0.000000
0.040031 0.459251 0.000000
0.240043 0.451196 0.000000
0.433073 0.439413 0.000000
0.585129 0.424335 0.000000
0.714892 0.409888 0.000000
0.835424 0.397755 0.000000
0.949565 0.389080 0.000000
1.000024 0.385536 0.000000
1.000024 0.388046 0.000000
1.000024 0.387307 0.000000
0.000000 0.573337 0.000000
0.000000 0.573924 0.000000
0.000000 0.573642 0.000000
0.000000 0.572391 0.000000
0.000000 0.570443 0.000000
0.000000 0.567748 0.000000
0.000000 0.563409 0.000000
0.127941 0.557019 0.000000
0.359544 0.547561 0.000000
0.533924 0.536742 0.000000
0.672867 0.525457 0.000000
0.797902 0.516523 0.000000
0.915248 0.511429 0.000000
1.000018 0.511586 0.000000
1.000023 0.517060 0.000000
1.000023 0.518759 0.000000
0.000000 0.667650 0.000000
0.000000 0.668290 0.000000
0.000000 0.667800 0.000000
0.000000 0.666735 0.000000
0.000000 0.665158 0.000000
0.000000 0.662813 0.000000
0.000000 0.659116 0.000000
0.004662 0.653395 0.000000
0.270366 0.645396 0.000000
0.473976 0.636134 0.000000
0.625830 0.626082 0.000000
0.756667 0.619225 0.000000
0.878052 0.616058 0.000000
0.985454 0.618074 0.000000
1.000023 0.625170 0.000000
1.000023 0.628477 0.000000
0.000000 0.757756 0.000000
0.000000 0.758170 0.000000
0.000000 0.757944 0.000000
0.000000 0.756950 0.000000
0.000000 0.755495 0.000000
0.000000 0.753167 0.000000
0.000000 0.749991 0.000000
0.000000 0.744606 0.000000
0.163195 0.737418 0.000000
0.407124 0.729119 0.000000
0.577546 0.720115 0.000000
0.712755 0.710771 0.000000
0.838575 0.708906 0.000000
0.955938 0.712378 0.000000
1.000022 0.720544 0.000000
1.000022 0.724778 0.000000
0.000000 0.845583 0.000000
0.000000 0.845730 0.000000
0.000000 0.845631 0.000000
0.000000 0.844769 0.000000
0.000000 0.843421 0.000000
0.000000 0.841463 0.000000
0.000000 0.838242 0.000000
0.000000 0.833257 0.000000
0.034479 0.826385 0.000000
0.333721 0.818510 0.000000
0.529242 0.810438 0.000000
0.674744 0.801960 0.000000
0.797668 0.792959 0.000000
0.918857 0.797482 0.000000
1.000022 0.805883 0.000000
1.000022 0.810904 0.000000
0.000000 0.931638 0.000000
0.000000 0.931641 0.000000
0.000000 0.931517 0.000000
0.000000 0.930723 0.000000
0.000000 0.929635 0.000000
0.000000 0.927149 0.000000
0.000000 0.924222 0.000000
0.000000 0.919885 0.000000
0.005621 0.912675 0.000000
0.252546 0.905888 0.000000
0.480892 0.897896 0.000000
0.640246 0.889886 0.000000
0.769513 0.881632 0.000000
0.881486 0.873423 0.000000
0.990887 0.881942 0.000000
1.000021 0.887142 0.000000
0.000000 0.999152 0.000000
0.000000 0.999186 0.000000
0.000000 0.999022 0.000000
0.000000 0.998658 0.000000
0.000000 0.997980 0.000000
0.000000 0.997086 0.000000
0.000000 0.995769 0.000000
0.000000 0.993676 0.000000
0.000000 0.990824 0.000000
0.164100 0.986235 0.000000
0.437980 0.978693 0.000000
0.612561 0.971235 0.000000
0.747964 0.963377 0.000000
0.863043 0.955705 0.000000
0.960422 0.948995 0.000000
1.000021 0.953914 0.000000
0.000000 1.004048 0.000000
0.000000 1.004048 0.000000
0.000000 1.004048 0.000000
0.000000 1.004048 0.000000
0.000000 1.004048 0.000000
0.000000 1.004048 0.000000
0.000000 1.004047 0.000000
0.000000 1.004047 0.000000
0.000000 1.004047 0.000000
0.104720 1.004047 0.000000
0.398642 1.004047 0.000000
0.585948 1.004047 0.000000
0.726830 1.004042 0.000000
0.844501 1.003987 0.000000
0.944383 1.003926 0.000000
1.000021 1.003874 0.000000
0.000000 0.000000 0.011727
0.000000 0.000000 0.011727
0.019230 0.000231 0.008303
0.074918 0.000224 0.009530
0.144210 0.000257 0.008090
0.223747 0.000309 0.006068
0.323781 0.000359 0.003562
0.444080 0.000480 0.000631
0.574668 0.000646 0.000000
0.694714 0.000749 0.000000
0.808839 0.000831 0.000000
0.919318 0.000957 0.000000
0.996181 0.001047 0.000000
0.996181 0.001047 0.000000
0.996181 0.001047 0.000000
0.996181 0.001047 0.000000
0.000000 0.000000 0.011727
0.000000 0.000000 0.016300
0.024825 0.000255 0.010671
0.085164 0.000232 0.010437
0.155225 0.000266 0.007271
0.235931 0.000317 0.004583
0.336470 0.000366 0.002151
0.456364 0.000502 0.000000
0.584924 0.000656 0.000000
0.702697 0.000756 0.000000
0.815429 0.000835 0.000000
0.924687 0.000964 0.000000
0.996181 0.001047 0.000000
0.996181 0.001047 0.000000
0.996181 0.001047 0.000000
0.996181 0.001047 0.000000
0.000000 0.014140 0.010490
0.000000 0.014914 0.011010
0.010002 0.012664 0.010121
0.078841 0.002781 0.005826
0.160820 0.000275 0.003791
0.253628 0.000331 0.000770
0.363387 0.000381 0.000000
0.488793 0.000552 0.000000
0.613326 0.000682 0.000000
0.727485 0.000774 0.000000
0.836853 0.000849 0.000000
0.942900 0.000986 0.000000
0.996181 0.001047 0.000000
0.996181 0.001047 0.000000
0.996181 0.001047 0.000000
0.996181 0.001047 0.000000
0.000000 0.055005 0.007200
0.000000 0.056298 0.005533
0.000000 0.057274 0.002979
0.045721 0.049578 0.001503
0.135762 0.037648 0.001123
0.229686 0.022819 0.000000
0.341519 0.006748 0.000000
0.470653 0.000529 0.000000
0.600301 0.000670 0.000000
0.717782 0.000767 0.000000
0.829223 0.000844 0.000000
0.936848 0.000979 0.000000
0.996181 0.001047 0.000000
0.996181 0.001047 0.000000
0.996181 0.001047 0.000000
0.996181 0.001047 0.000000
0.000000 0.112487 0.002754
0.000000 0.113624 0.001477
0.000000 0.116600 0.000000
0.006944 0.111172 0.000000
0.098172 0.103114 0.000000
0.198549 0.090180 0.000000
0.315204 0.071485 0.000000
0.447786 0.043669 0.000000
0.583130 0.011859 0.000000
0.704159 0.000757 0.000000
0.818066 0.000837 0.000000
0.927557 0.000967 0.000000
0.996181 0.001047 0.000000
0.996181 0.001047 0.000000
0.996181 0.001047 0.000000
0.996181 0.001047 0.000000
0.000000 0.177517 0.000000
0.000000 0.178649 0.000000
0.000000 0.182289 0.000000
0.000000 0.178436 0.000000
0.041466 0.172569 0.000000
0.156978 0.164014 0.000000
0.280072 0.149396 0.000000
0.420786 0.128782 0.000000
0.563724 0.100478 0.000000
0.687341 0.065993 0.000000
0.803496 0.026574 0.000000
0.914989 0.000951 0.000000
0.996181 0.001047 0.000000
0.996181 0.001047 0.000000
0.996181 0.001047 0.000000
0.996181 0.001047 0.000000
0.000000 0.258535 0.000000
0.000000 0.259634 0.000000
0.000000 0.263751 0.000000
0.000000 0.260874 0.000000
0.000000 0.256312 0.000000
0.090475 0.249592 0.000000
0.230885 0.239684 0.000000
0.381647 0.222386 0.000000
0.535646 0.199937 0.000000
0.667043 0.175039 0.000000
0.786246 0.148556 0.000000
0.898390 0.120480 0.000000
0.993703 0.089867 0.000000
0.996137 0.056739 0.000000
0.995969 0.036911 0.000000
0.995980 0.024786 0.000000
0.000000 0.358973 0.000000
0.000000 0.360106 0.000000
0.000000 0.364360 0.000000
0.000000 0.362232 0.000000
0.000000 0.358486 0.000000
0.004950 0.353428 0.000000
0.151316 0.345585 0.000000
0.323827 0.334007 0.000000
0.493784 0.314862 0.000000
0.633982 0.294708 0.000000
0.758572 0.274592 0.000000
0.875383 0.255533 0.000000
0.981492 0.239122 0.000000
1.000020 0.226886 0.000000
1.000018 0.220627 0.000000
1.000018 0.213413 0.000000
0.000000 0.471260 0.000000
0.000000 0.472077 0.000000
0.000000 0.475624 0.000000
0.000000 0.474004 0.000000
0.000000 0.471261 0.000000
0.000000 0.467440 0.000000
0.033327 0.461570 0.000000
0.234964 0.452798 0.000000
0.433198 0.440305 0.000000
0.588105 0.424481 0.000000
0.719276 0.409273 0.000000
0.840610 0.396058 0.000000
0.954896 0.386364 0.000000
1.000024 0.381786 0.000000
1.000024 0.383137 0.000000
1.000024 0.381862 0.000000
0.000000 0.573297 0.000000
0.000000 0.573897 0.000000
0.000000 0.576666 0.000000
0.000000 0.575400 0.000000
0.000000 0.573302 0.000000
0.000000 0.570211 0.000000
0.000000 0.565601 0.000000
0.116122 0.558709 0.000000
0.355780 0.548762 0.000000
0.534051 0.537323 0.000000
0.674885 0.525604 0.000000
0.801291 0.516194 0.000000
0.919382 0.510427 0.000000
1.000018 0.509796 0.000000
1.000023 0.514511 0.000000
1.000023 0.515601 0.000000
0.000000 0.667624 0.000000
0.000000 0.668241 0.000000
0.000000 0.670324 0.000000
0.000000 0.669437 0.000000
0.000000 0.667547 0.000000
0.000000 0.664943 0.000000
0.000000 0.661086 0.000000
0.003775 0.655110 0.000000
0.262171 0.646672 0.000000
0.471750 0.637184 0.000000
0.625920 0.626634 0.000000
0.758134 0.619309 0.000000
0.880556 0.615782 0.000000
0.987420 0.617473 0.000000
1.000023 0.623886 0.000000
1.000023 0.626839 0.000000
0.000000 0.757729 0.000000
0.000000 0.758108 0.000000
0.000000 0.759828 0.000000
0.000000 0.759082 0.000000
0.000000 0.757666 0.000000
0.000000 0.755163 0.000000
0.000000 0.751598 0.000000
0.000000 0.746438 0.000000
0.148109 0.738725 0.000000
0.401781 0.730226 0.000000
0.576149 0.720724 0.000000
0.712721 0.711037 0.000000
0.839800 0.709091 0.000000
0.957913 0.712216 0.000000
1.000022 0.719886 0.000000
1.000022 0.723747 0.000000
0.000000 0.845581 0.000000
0.000000 0.845756 0.000000
0.000000 0.847231 0.000000
0.000000 0.846437 0.000000
0.000000 0.845294 0.000000
0.000000 0.843063 0.000000
0.000000 0.839866 0.000000
0.000000 0.834983 0.000000
0.025112 0.827658 0.000000
0.326551 0.819875 0.000000
0.526133 0.811296 0.000000
0.673643 0.802349 0.000000
0.797898 0.793288 0.000000
0.919675 0.797512 0.000000
1.000022 0.805532 0.000000
1.000022 0.810437 0.000000
0.000000 0.931433 0.000000
0.000000 0.931822 0.000000
0.000000 0.932794 0.000000
0.000000 0.932246 0.000000
0.000000 0.930788 0.000000
0.000000 0.928963 0.000000
0.000000 0.925768 0.000000
0.000000 0.920871 0.000000
0.002063 0.914122 0.000000
0.242244 0.906563 0.000000
0.476179 0.898467 0.000000
0.637991 0.890581 0.000000
0.768652 0.882167 0.000000
0.881314 0.873880 0.000000
0.991233 0.881994 0.000000
1.000021 0.886750 0.000000
0.000000 0.999034 0.000000
0.000000 0.999160 0.000000
0.000000 0.999326 0.000000
0.000000 0.998802 0.000000
0.000000 0.998115 0.000000
0.000000 0.997613 0.000000
0.000000 0.996193 0.000000
0.000000 0.994380 0.000000
0.000000 0.991557 0.000000
0.146000 0.986877 0.000000
0.430955 0.979391 0.000000
0.608906 0.971326 0.000000
0.746443 0.963649 0.000000
0.862322 0.955880 0.000000
0.960677 0.948933 0.000000
1.000021 0.953833 0.000000
0.000000 1.004048 0.000000
0.000000 1.004048 0.000000
0.000000 1.004048 0.000000
0.000000 1.004048 0.000000
0.000000 1.004048 0.000000
0.000000 1.004048 0.000000
0.000000 1.004047 0.000000
0.000000 1.004047 0.000000
0.000000 1.004047 0.000000
0.103091 1.004047 0.000000
0.397830 1.004047 0.000000
0.585637 1.004047 0.000000
0.726425 1.004042 0.000000
0.844056 1.003987 0.000000
0.944054 1.003926 0.000000
1.000021 1.003874 0.000000
0.000000 0.000000 0.046390
0.000000 0.000000 0.046390
0.015521 0.000000 0.046149
0.074892 0.000361 0.033573
0.142022 0.000583 0.036038
0.222173 0.000374 0.036810
0.322606 0.000366 0.034551
0.443641 0.000384 0.030684
0.574514 0.000577 0.025240
0.694569 0.000704 0.019753
0.808613 0.000799 0.014400
0.919205 0.000908 0.009332
0.996325 0.001016 0.005131
0.996416 0.001025 0.002024
0.996317 0.001033 0.000000
0.996279 0.001035 0.000000
0.000000 0.000000 0.046390
0.000000 0.000000 0.059475
0.018991 0.000000 0.056674
0.083686 0.000348 0.039284
0.151766 0.000621 0.038522
0.233532 0.000375 0.037572
0.334865 0.000366 0.033928
0.455523 0.000393 0.029259
0.584522 0.000592 0.023460
0.702345 0.000714 0.017779
0.814910 0.000806 0.012349
0.924380 0.000921 0.007268
0.996485 0.001022 0.003173
0.996320 0.001033 0.000000
0.996142 0.001041 0.000000
0.996129 0.001042 0.000000
0.000000 0.013279 0.044977
0.000000 0.013625 0.050524
0.004171 0.010511 0.055576
0.077499 0.002407 0.043365
0.157715 0.000602 0.038936
0.251272 0.000367 0.036301
0.361941 0.000365 0.030540
0.487888 0.000468 0.023724
0.612855 0.000636 0.016496
0.727182 0.000747 0.009895
0.836492 0.000834 0.004020
0.942852 0.000972 0.000000
0.996139 0.001042 0.000000
0.996173 0.001049 0.000000
0.996181 0.001047 0.000000
0.996181 0.001047 0.000000
0.000000 0.054694 0.041583
0.000000 0.055700 0.042287
0.000000 0.056162 0.043007
0.041104 0.048775 0.040348
0.141695 0.027803 0.029306
0.238825 0.009650 0.025449
0.360631 0.003294 0.021395
0.500616 0.000520 0.012484
0.631981 0.000681 0.003967
0.749316 0.000785 0.000000
0.859129 0.000876 0.000000
0.964529 0.001012 0.000000
0.996181 0.001047 0.000000
0.996181 0.001047 0.000000
0.996181 0.001047 0.000000
0.996181 0.001047 0.000000
0.000000 0.112263 0.035194
0.000000 0.113261 0.033896
0.000000 0.115898 0.029688
0.003178 0.112429 0.024876
0.095440 0.103256 0.011190
0.206323 0.087412 0.008181
0.332083 0.064958 0.006120
0.473081 0.032564 0.003553
0.609786 0.004556 0.000000
0.730988 0.000777 0.000000
0.844083 0.000854 0.000000
0.951990 0.000997 0.000000
0.996181 0.001047 0.000000
0.996181 0.001047 0.000000
0.996181 0.001047 0.000000
0.996181 0.001047 0.000000
0.000000 0.177359 0.026741
0.000000 0.178417 0.024593
0.000000 0.181832 0.017898
0.000000 0.182494 0.007907
0.029901 0.175241 0.004521
0.155555 0.164714 0.004438
0.288790 0.147767 0.002769
0.438698 0.123649 0.000881
0.583417 0.090962 0.000000
0.708104 0.051011 0.000000
0.824500 0.015152 0.000000
0.935492 0.000977 0.000000
0.996181 0.001047 0.000000
0.996181 0.001047 0.000000
0.996181 0.001047 0.000000
0.996181 0.001047 0.000000
0.000000 0.258375 0.015213
0.000000 0.259463 0.013161
0.000000 0.263332 0.006078
0.000000 0.266792 0.000000
0.000000 0.261082 0.000000
0.077449 0.252730 0.000000
0.230163 0.240786 0.000000
0.390524 0.221291 0.000000
0.549030 0.196128 0.000000
0.682540 0.168368 0.000000
0.802246 0.138268 0.000000
0.914823 0.105252 0.000000
0.995703 0.069854 0.000000
0.995951 0.030734 0.000000
0.995966 0.012760 0.000000
0.995868 0.018101 0.000000
0.000000 0.358778 0.001418
0.000000 0.359889 0.000944
0.000000 0.364005 0.000000
0.000000 0.369210 0.000000
0.000000 0.364938 0.000000
0.002413 0.358314 0.000000
0.139633 0.348951 0.000000
0.323601 0.335424 0.000000
