filters/luts/lut10.cube
# Copyright: (C) Copyright 2010-2017 by IWLTBAP SAS
# Cannot be resold, shared or otherwise redistributed
# Website: https://luts.iwltbap.com
TITLE "IWLTBAP Arkina (Rec.709, sRGB, DCI-P3)"
LUT_3D_SIZE 5
0.000763 0.000214 0.001984
0.297729 0.094788 0.000000
0.503876 0.137665 0.000000
0.606049 0.162872 0.000000
0.687347 0.193054 0.000000
0.237885 0.213593 0.035767
0.340118 0.248535 0.011902
0.655701 0.347717 0.000000
0.810974 0.406006 0.011932
0.895294 0.452118 0.032440
0.636230 0.485901 0.069122
0.665131 0.497864 0.068848
0.739319 0.520172 0.070953
0.918549 0.592285 0.132446
0.977142 0.631012 0.177490
0.868683 0.654907 0.195068
0.878418 0.659424 0.204224
0.911102 0.676575 0.226440
0.953918 0.706909 0.273499
1.000000 0.753906 0.366150
0.984406 0.790588 0.416260
0.990875 0.794006 0.423767
1.000000 0.808563 0.456238
1.000000 0.829987 0.513153
1.000000 0.861633 0.595306
0.002045 0.030304 0.048035
0.190430 0.114441 0.212402
0.448853 0.154907 0.237579
0.566437 0.158264 0.224152
0.651215 0.137329 0.190094
0.040924 0.205902 0.243286
0.274750 0.272736 0.281281
0.610931 0.332092 0.259766
0.777283 0.352600 0.231323
0.861389 0.360352 0.191742
0.628906 0.495178 0.078735
0.544617 0.473206 0.226410
0.645630 0.501495 0.214905
0.877808 0.598724 0.358582
0.970184 0.613190 0.319763
0.863861 0.656677 0.198395
0.842560 0.670593 0.283691
0.880981 0.688263 0.308899
0.937653 0.714996 0.345490
1.000000 0.795929 0.542908
0.983154 0.790680 0.415222
0.986725 0.792480 0.419922
0.998993 0.807434 0.453339
1.000000 0.829498 0.511658
1.000000 0.861694 0.595520
0.027435 0.121185 0.167114
0.075104 0.112915 0.256134
0.344910 0.174500 0.344879
0.501648 0.193756 0.366882
0.618347 0.179413 0.364197
0.039185 0.247711 0.315643
0.149078 0.265991 0.308044
0.434479 0.325104 0.440491
0.654327 0.345917 0.449158
0.799469 0.313293 0.402191
0.067200 0.400726 0.467957
0.217499 0.419586 0.426666
0.560516 0.542511 0.547821
0.788361 0.563843 0.526733
0.915314 0.558716 0.475891
0.847687 0.664307 0.208252
0.820770 0.676056 0.302734
0.698792 0.661926 0.520844
0.797821 0.699860 0.548798
0.981689 0.811432 0.680817
0.977570 0.789093 0.403931
0.980286 0.791534 0.411987
0.932892 0.875061 0.700409
0.975677 0.903931 0.752838
1.000000 0.932800 0.822540
0.071930 0.215515 0.268066
0.056763 0.213837 0.316742
0.262970 0.169922 0.372742
0.437256 0.203888 0.417084
0.580994 0.214264 0.439423
0.044922 0.294586 0.372803
0.152618 0.324066 0.372253
0.264496 0.287079 0.462708
0.519318 0.335876 0.517242
0.712921 0.324097 0.510345
0.055511 0.413574 0.508209
0.109375 0.437164 0.504761
0.364929 0.478638 0.511780
0.650909 0.547363 0.639191
0.838318 0.513702 0.599091
0.070892 0.496277 0.587769
0.190491 0.561432 0.596680
0.464722 0.617798 0.599518
0.786987 0.784302 0.770691
0.951904 0.794800 0.764648
0.734436 0.770294 0.453369
0.802917 0.818634 0.569672
0.889679 0.871338 0.704010
0.931458 0.926392 0.852478
1.000000 0.977631 0.937805
0.116486 0.305420 0.363037
0.142578 0.324646 0.394806
0.077545 0.138916 0.366638
0.338440 0.181915 0.442688
0.531464 0.214783 0.488770
0.052277 0.347260 0.435944
0.173981 0.380524 0.434601
0.021942 0.204193 0.425812
0.277527 0.263275 0.523346
0.602295 0.312225 0.582306
0.052979 0.425415 0.528442
0.058838 0.433746 0.532593
0.352875 0.521759 0.558594
0.215271 0.381714 0.599304
0.698059 0.479462 0.684601
0.061646 0.496185 0.600311
0.078857 0.511444 0.608276
0.330536 0.620697 0.644531
0.588013 0.704987 0.719299
0.857880 0.748077 0.831848
0.148346 0.630432 0.698364
0.196808 0.664062 0.715515
0.439056 0.775787 0.782623
0.774811 0.902527 0.889709
1.000000 0.998840 0.998688
