filters/luts/lut1.cube
LUT_3D_SIZE 16
0.067390 0.065572 0.065572
0.092630 0.064604 0.064604
0.122820 0.062799 0.062799
0.163362 0.058954 0.058954
0.217278 0.050063 0.050063
0.284610 0.020450 0.020450
0.361382 -0.056153 -0.056153
0.446971 -0.084421 -0.084421
0.537838 -0.109648 -0.109648
0.633629 -0.134294 -0.134294
0.731541 -0.158462 -0.158462
0.824808 -0.180963 -0.180963
0.908598 -0.200890 -0.200890
0.973897 -0.216274 -0.216274
1.015706 -0.226107 -0.226107
1.047688 -0.233599 -0.233599
-0.034092 0.112775 -0.040624
0.080076 0.110218 -0.049682
0.114724 0.090482 0.072395
0.158860 0.083168 0.062528
0.214443 0.077134 0.052754
0.282842 0.063970 0.026108
0.360188 0.033349 -0.054939
0.446039 -0.062781 -0.083767
0.537021 -0.094841 -0.109193
0.632956 -0.122383 -0.133925
0.731376 -0.149193 -0.159277
0.823971 -0.170921 -0.180071
0.908191 -0.192587 -0.200934
0.973451 -0.208979 -0.216292
1.015289 -0.219518 -0.225899
1.047298 -0.227782 -0.233393
-0.096539 0.159448 -0.098244
-0.078836 0.158625 -0.099854
0.097569 0.155004 -0.106357
0.150174 0.135426 0.098072
0.202989 0.130712 0.080047
0.274770 0.125790 0.055512
0.354619 0.116885 -0.039581
0.441788 0.105083 -0.078135
0.533551 0.085796 -0.105815
0.629958 0.040414 -0.131497
0.727860 -0.081646 -0.155528
0.822282 -0.123476 -0.180260
0.905358 -0.148010 -0.198186
0.971877 -0.173545 -0.216164
1.013448 -0.187523 -0.224848
1.045706 -0.200217 -0.232518
-0.140472 0.208237 -0.141486
-0.133154 0.207807 -0.142239
-0.093463 0.205965 -0.145315
0.132770 0.201257 -0.152592
0.200791 0.182200 0.120150
0.260779 0.184549 0.111127
0.342723 0.182347 0.077725
0.432529 0.179609 -0.037110
0.525994 0.176219 -0.089944
0.623392 0.171593 -0.121651
0.722264 0.164265 -0.148839
0.816524 0.150414 -0.173658
0.901691 0.128978 -0.196690
0.967314 0.091153 -0.212148
1.009621 -0.059897 -0.221799
1.042307 -0.114596 -0.230005
-0.183492 0.260834 -0.184215
-0.179127 0.260561 -0.184677
-0.159455 0.259383 -0.186535
-0.083862 0.256511 -0.190992
0.191681 0.249084 -0.198652
0.261900 0.236323 0.152423
0.328651 0.242071 0.146202
0.418228 0.245951 0.113420
0.513483 0.249434 0.065371
0.612460 0.253249 -0.082487
0.712393 0.256554 -0.125051
0.807804 0.255735 -0.157522
0.893186 0.251526 -0.183016
0.960569 0.236856 -0.203713
1.003247 0.217947 -0.214013
1.036730 0.193483 -0.223823
-0.228915 0.318702 -0.229427
-0.225855 0.318503 -0.229756
-0.212841 0.317648 -0.231070
-0.173668 0.315538 -0.234331
0.109844 0.310622 -0.240749
0.266570 0.301509 -0.231604
0.330357 0.294845 0.192019
0.404787 0.306260 0.186702
0.497635 0.316534 0.158847
0.597204 0.326862 0.124239
0.697593 0.337493 0.074640
0.795340 0.342512 -0.108635
0.881725 0.342702 -0.150371
0.949731 0.335679 -0.179021
0.993840 0.318464 -0.195378
1.028483 0.298347 -0.209750
-0.278531 0.383322 -0.278920
-0.276181 0.383138 -0.279183
-0.266232 0.382476 -0.280201
-0.238757 0.380843 -0.282746
-0.156216 0.377219 -0.288081
0.215317 0.370241 -0.296978
0.347601 0.355398 -0.223685
0.406983 0.360352 0.235535
0.485603 0.377763 0.234175
0.580769 0.395059 0.213342
0.681092 0.411658 0.187455
0.778080 0.422339 0.149933
0.866006 0.427071 0.085885
0.934591 0.421905 -0.097142
0.981068 0.405645 -0.148621
1.017216 0.385824 -0.177636
-0.333548 0.455873 -0.333868
-0.331630 0.455734 -0.334065
-0.323649 0.455189 -0.334910
-0.302288 0.453823 -0.336993
-0.245956 0.450793 -0.341505
0.106400 0.445385 -0.349304
0.318346 0.436952 -0.360642
0.429891 0.418710 -0.181835
0.489623 0.433425 0.281868
0.570984 0.457457 0.289156
0.664992 0.481187 0.277037
0.759766 0.497755 0.253765
0.845967 0.507059 0.228061
0.917175 0.502759 0.183049
0.964972 0.486872 0.125585
1.002903 0.466334 -0.074489
-0.395309 0.537956 -0.395563
-0.393700 0.537847 -0.395762
-0.386775 0.537371 -0.396458
-0.368453 0.536095 -0.398319
-0.322828 0.533445 -0.402321
-0.206555 0.528710 -0.409239
0.268022 0.521504 -0.419315
0.424133 0.510175 -0.414479
0.515004 0.492511 -0.129631
0.578436 0.515130 0.330367
0.658650 0.544248 0.351210
0.745667 0.567010 0.342239
0.829446 0.580838 0.320788
0.898346 0.579390 0.289523
0.946953 0.563662 0.247259
0.986137 0.542578 0.199448
-0.464656 0.630542 -0.464848
-0.463204 0.630435 -0.464989
-0.457107 0.630019 -0.465660
-0.440600 0.628874 -0.467344
-0.401152 0.626453 -0.471001
-0.314255 0.622146 -0.477331
0.154052 0.615687 -0.486504
0.388433 0.607417 -0.497693
0.527153 0.593044 -0.461170
0.605817 0.576841 -0.108682
0.672210 0.604347 0.374516
0.744095 0.631931 0.411748
0.818797 0.650090 0.406519
0.883607 0.651080 0.379320
0.929640 0.636426 0.342766
0.968598 0.615129 0.299851
-0.539645 0.731009 -0.539823
-0.538382 0.730979 -0.539964
-0.532860 0.730535 -0.540545
-0.517686 0.729495 -0.542116
-0.481853 0.727164 -0.545547
-0.407265 0.723137 -0.551551
-0.246983 0.717385 -0.559884
0.323484 0.710079 -0.570008
0.496291 0.701291 -0.581648
0.625614 0.684794 -0.516404
0.700393 0.669900 -0.171435
0.763494 0.693122 0.404437
0.822762 0.715617 0.466993
0.876739 0.718339 0.459649
0.917332 0.704726 0.428306
0.953124 0.683723 0.388212
-0.616706 0.834362 -0.616815
-0.615530 0.834372 -0.616914
-0.610458 0.833964 -0.617506
-0.596251 0.832973 -0.618969
-0.563171 0.830853 -0.622220
-0.497984 0.827066 -0.627809
-0.381951 0.821832 -0.635400
0.151812 0.815293 -0.644653
0.440518 0.807488 -0.655278
0.593625 0.798429 -0.665682
0.716981 0.780739 -0.582133
0.792513 0.764571 -0.283627
0.848451 0.778681 0.414111
0.885862 0.782885 0.506627
0.915439 0.769064 0.498138
0.944098 0.748410 0.467034
-0.688301 0.930602 -0.688427
-0.687230 0.930526 -0.688514
-0.682622 0.930253 -0.689018
-0.669740 0.929362 -0.690353
-0.639349 0.927343 -0.693415
-0.583158 0.923950 -0.698438
-0.489466 0.919152 -0.705440
-0.319034 0.913323 -0.713763
0.331166 0.906376 -0.723489
0.534963 0.898494 -0.734113
0.676315 0.889171 -0.741813
0.797589 0.871625 -0.659415
0.874894 0.854970 -0.401912
0.915894 0.847571 0.398075
0.929143 0.830536 0.524751
0.946057 0.809566 0.527538
-0.743614 1.005095 -0.743788
-0.742753 1.005028 -0.743866
-0.738663 1.004744 -0.744305
-0.727061 1.003940 -0.745509
-0.700843 1.002177 -0.748257
-0.652683 0.999193 -0.752683
-0.575222 0.994877 -0.758944
-0.454219 0.989757 -0.766512
-0.180011 0.983506 -0.775176
0.434423 0.976573 -0.784851
0.607614 0.968763 -0.795307
0.741480 0.959130 -0.799022
0.857386 0.941098 -0.714942
0.937675 0.925363 -0.484847
0.960424 0.895313 0.360389
0.964064 0.869204 0.530458
-0.781404 1.055911 -0.781515
-0.780568 1.055851 -0.781621
-0.777077 1.055619 -0.781981
-0.767220 1.054904 -0.783084
-0.745097 1.053416 -0.785313
-0.703778 1.050764 -0.789284
-0.639733 1.047057 -0.794798
-0.545308 1.042444 -0.801445
-0.392245 1.037020 -0.809271
0.258058 1.030810 -0.817935
0.508370 1.023960 -0.827339
0.664194 1.016197 -0.837620
0.788866 1.006607 -0.837400
0.900751 0.989906 -0.754693
0.978123 0.972821 -0.541699
0.994701 0.933124 0.308386
-0.809687 1.093983 -0.809795
-0.808972 1.093881 -0.809891
-0.805884 1.093685 -0.810192
-0.797471 1.093134 -0.811081
-0.778611 1.091791 -0.813040
-0.744282 1.089550 -0.816409
-0.689894 1.086273 -0.821310
-0.613054 1.082247 -0.827308
-0.500370 1.077453 -0.834274
-0.297053 1.071918 -0.842062
0.376444 1.065753 -0.850600
0.570591 1.058973 -0.859719
0.709813 1.051500 -0.869658
0.828969 1.041478 -0.863664
0.932878 1.025207 -0.779191
1.008881 1.008879 -0.583405
0.064691 0.061552 0.126604
0.098074 0.058155 0.120062
0.122912 0.062262 0.090325
0.165488 0.055948 0.081518
0.218994 0.045618 0.074498
0.285712 -0.016270 0.060416
0.362039 -0.058782 0.024506
0.447324 -0.085641 -0.065352
0.537972 -0.110220 -0.096033
0.633639 -0.134449 -0.122943
0.731733 -0.159126 -0.149008
0.824830 -0.181114 -0.172022
0.908599 -0.200997 -0.192617
0.973901 -0.216372 -0.209064
1.015710 -0.226179 -0.219796
1.047694 -0.233667 -0.228052
-0.041840 0.111065 0.111065
0.077278 0.108454 0.108454
0.119827 0.105537 0.105537
0.161283 0.103771 0.103771
0.215976 0.100023 0.100023
0.283719 0.092643 0.092643
0.360746 0.078541 0.078541
0.446490 0.044652 0.044652
0.537460 -0.070827 -0.070827
0.633342 -0.108598 -0.108598
0.731305 -0.139109 -0.139109
0.824592 -0.165304 -0.165304
0.908449 -0.187551 -0.187551
0.973663 -0.204347 -0.204347
1.015561 -0.214933 -0.214933
1.047563 -0.222952 -0.222952
-0.097636 0.158904 -0.053401
-0.060945 0.156828 0.066201
0.095502 0.153922 0.053929
0.152565 0.142991 0.120473
0.204962 0.141153 0.110494
0.276425 0.136882 0.098806
0.355448 0.130804 0.084051
0.442389 0.120752 0.053761
0.534039 0.104740 -0.065483
0.630365 0.075295 -0.105762
0.728745 -0.058757 -0.137439
0.821897 -0.109324 -0.163053
0.906740 -0.144483 -0.187504
0.972100 -0.167601 -0.204270
1.013729 -0.181856 -0.213894
1.045931 -0.194472 -0.222056
-0.140964 0.207956 -0.125908
-0.123078 0.206457 -0.098730
-0.082472 0.204795 -0.103880
0.132135 0.200474 -0.113610
0.202523 0.187526 0.136715
0.262216 0.190512 0.131427
0.343856 0.189135 0.109590
0.433343 0.186746 0.083112
0.526618 0.183395 -0.021033
0.623949 0.178602 -0.093004
0.722127 0.172800 -0.126577
0.817241 0.158803 -0.158962
0.900806 0.140700 -0.179790
0.967613 0.104794 -0.200144
1.009925 0.019364 -0.210785
1.042586 -0.101440 -0.219491
-0.183796 0.260654 -0.175076
-0.172073 0.259537 -0.158095
-0.152001 0.258415 -0.160650
-0.065087 0.255556 -0.165711
0.190566 0.248769 -0.175883
0.263074 0.239689 0.164422
0.329703 0.245682 0.160125
0.419140 0.249881 0.133856
0.514234 0.253377 0.102348
0.613083 0.256982 0.036139
0.713283 0.260365 -0.101667
0.808561 0.259439 -0.141233
0.893535 0.254004 -0.168407
0.959502 0.242656 -0.186837
1.003583 0.222056 -0.202660
1.037013 0.198993 -0.213095
-0.229130 0.318567 -0.223102
-0.220693 0.317731 -0.211081
-0.207083 0.316883 -0.212540
-0.167109 0.314791 -0.216146
0.121151 0.309576 -0.223044
0.266332 0.300753 -0.215427
0.330754 0.296545 0.201927
0.405579 0.308504 0.196421
0.498395 0.318927 0.171711
0.597903 0.329158 0.142483
0.699659 0.338847 0.095926
0.794886 0.345663 -0.062848
0.880637 0.346359 -0.122847
0.948563 0.338945 -0.157614
0.994157 0.320851 -0.182820
1.028785 0.301222 -0.198256
-0.278691 0.383194 -0.274066
-0.272331 0.382543 -0.265266
-0.262009 0.381860 -0.266263
-0.233869 0.380229 -0.269130
-0.145735 0.376553 -0.274897
0.220136 0.369790 -0.284367
0.347467 0.355259 -0.209510
0.407238 0.361447 0.242899
0.486159 0.379192 0.241080
0.581389 0.396499 0.221556
0.681848 0.411936 0.196617
0.777579 0.424328 0.169369
0.864914 0.430580 0.126171
0.934852 0.423822 -0.054120
0.981426 0.407232 -0.130275
1.017546 0.387710 -0.163417
-0.333696 0.455788 -0.329907
-0.328770 0.455268 -0.323378
-0.320348 0.454714 -0.324286
-0.297864 0.453288 -0.326553
-0.240143 0.450264 -0.331262
0.125996 0.444786 -0.339479
0.320571 0.436525 -0.351038
0.429799 0.418624 -0.162406
0.489763 0.434168 0.287647
0.571393 0.458395 0.294207
0.665553 0.481756 0.282162
0.759139 0.499011 0.263671
0.846371 0.508252 0.236156
0.917569 0.504161 0.194333
0.965351 0.487979 0.143652
1.003254 0.467744 0.050302
-0.395451 0.537854 -0.392203
-0.391570 0.537483 -0.387362
-0.384562 0.537000 -0.388020
-0.365471 0.535737 -0.390057
-0.319114 0.533059 -0.394180
-0.197826 0.528269 -0.401403
0.272599 0.521082 -0.411642
0.425313 0.509920 -0.407008
0.514877 0.492450 -0.094925
0.578512 0.515607 0.335220
0.659119 0.544221 0.353577
0.745946 0.567405 0.345960
0.828750 0.582129 0.329120
0.898685 0.580497 0.295203
0.947396 0.564500 0.254280
0.986443 0.543662 0.209355
-0.464755 0.630471 -0.461875
-0.461661 0.630145 -0.458328
-0.455352 0.629715 -0.458997
-0.438351 0.628545 -0.460781
-0.398042 0.626114 -0.464541
-0.308340 0.621742 -0.471102
0.165299 0.615317 -0.480359
0.390708 0.607122 -0.491659
0.527786 0.592855 -0.454961
0.605727 0.576808 -0.055719
0.671859 0.604365 0.378065
0.744160 0.631986 0.414699
0.819039 0.650875 0.409763
0.882828 0.652272 0.386322
0.929936 0.637074 0.346961
0.968877 0.615899 0.305171
-0.539783 0.731031 -0.537153
-0.537241 0.730650 -0.534538
-0.531495 0.730310 -0.535184
-0.515681 0.729285 -0.536850
-0.479178 0.726948 -0.540375
-0.404295 0.722905 -0.546409
-0.240478 0.717173 -0.554799
0.326809 0.709850 -0.565036
0.497436 0.701152 -0.576777
0.625944 0.684650 -0.511331
0.700153 0.669929 -0.158703
0.763922 0.694115 0.408264
0.822821 0.715287 0.469067
0.877157 0.719982 0.462796
0.917584 0.705344 0.431238
0.953426 0.684382 0.391701
-0.616768 0.834365 -0.614407
-0.614692 0.834153 -0.612469
-0.609529 0.833783 -0.613056
-0.594708 0.832769 -0.614583
-0.560918 0.830583 -0.617924
-0.495536 0.826798 -0.623540
-0.378451 0.821640 -0.631189
0.161635 0.815059 -0.640475
0.442123 0.807334 -0.651128
0.594386 0.798251 -0.661738
0.716279 0.781193 -0.584064
0.792108 0.764599 -0.277041
0.848392 0.779102 0.418924
0.885910 0.783448 0.509304
0.915588 0.769374 0.500498
0.944317 0.748945 0.469715
-0.688386 0.930534 -0.686221
-0.686565 0.930432 -0.684682
-0.681797 0.930107 -0.685187
-0.668379 0.929170 -0.686599
-0.637983 0.927185 -0.689643
-0.581140 0.923755 -0.694828
-0.487040 0.918978 -0.701782
-0.315304 0.913122 -0.710258
0.334038 0.906225 -0.719894
0.536099 0.898316 -0.730610
0.677881 0.888944 -0.737444
0.798335 0.871528 -0.656626
0.874803 0.855224 -0.395273
0.916812 0.848036 0.392104
0.929202 0.830851 0.527352
0.946168 0.810006 0.529787
-0.743728 1.005051 -0.741767
-0.742103 1.004897 -0.740451
-0.737925 1.004604 -0.740891
-0.726094 1.003784 -0.742102
-0.699585 1.002009 -0.744801
-0.650012 0.998936 -0.749420
-0.573223 0.994709 -0.755664
-0.451754 0.989546 -0.763232
-0.172239 0.983366 -0.771970
0.436032 0.976458 -0.781641
0.607311 0.968656 -0.792078
0.742364 0.959082 -0.796263
0.857233 0.941164 -0.711422
0.937533 0.925497 -0.479358
0.960469 0.895417 0.366085
0.964063 0.869387 0.533193
-0.781474 1.055871 -0.779858
-0.779957 1.055720 -0.778413
-0.776285 1.055478 -0.778710
-0.766014 1.054765 -0.779950
-0.742957 1.053187 -0.782281
-0.702021 1.050590 -0.786235
-0.637752 1.046886 -0.791702
-0.543147 1.042283 -0.798457
-0.389296 1.036869 -0.806214
0.262433 1.030669 -0.814918
0.510949 1.023767 -0.824451
0.663671 1.016139 -0.834583
0.788757 1.006527 -0.834429
0.900658 0.989927 -0.751342
0.978080 0.972779 -0.537801
0.994642 0.933239 0.315703
-0.809750 1.093900 -0.808297
-0.808327 1.093788 -0.806791
-0.805127 1.093545 -0.807198
-0.796403 1.092968 -0.808150
-0.777142 1.091635 -0.810145
-0.741978 1.089361 -0.813608
-0.687956 1.086117 -0.818386
-0.610950 1.082055 -0.824432
-0.497841 1.077233 -0.831388
-0.292668 1.071752 -0.839212
0.377273 1.065672 -0.847687
0.570415 1.058897 -0.856877
0.709792 1.051433 -0.866826
0.828845 1.041404 -0.860847
0.932935 1.025173 -0.776569
1.008853 1.008852 -0.579849
0.057632 0.053901 0.182739
0.081954 0.049924 0.182028
0.132972 0.039103 0.172402
0.155562 0.066676 0.134230
0.219380 0.041900 0.129665
0.288857 -0.042044 0.121934
0.365230 -0.070136 0.110596
0.450148 -0.093866 0.096189
0.540473 -0.116895 0.071691
0.635915 -0.140218 -0.045879
0.733678 -0.163989 -0.098151
0.826013 -0.184237 -0.129207
0.910459 -0.205407 -0.157736
0.975593 -0.220495 -0.178878
1.016631 -0.228537 -0.191872
1.048383 -0.235450 -0.203583
0.018196 0.088164 0.178187
0.071932 0.105214 0.172538
0.123336 0.099734 0.169584
0.155949 0.106461 0.142129
0.218277 0.097289 0.140076
0.287306 0.086780 0.133897
0.363892 0.069477 0.126354
0.449040 -0.014205 0.114915
0.539503 -0.080810 0.096704
0.635092 -0.114720 0.060027
0.732671 -0.143438 -0.073839
0.826029 -0.169416 -0.119145
0.910007 -0.191690 -0.149974
0.974070 -0.205589 -0.169120
1.016144 -0.216677 -0.185098
1.047943 -0.224191 -0.196865
-0.102130 0.156525 0.156525
-0.067532 0.154917 0.154917
0.091587 0.151962 0.151962
0.157798 0.147230 0.147230
0.213620 0.144988 0.144988
0.282118 0.140746 0.140746
0.359603 0.133442 0.133442
0.445652 0.121094 0.121094
0.536791 0.100059 0.100059
0.632858 0.053157 0.053157
0.730875 -0.089678 -0.089678
0.824293 -0.130751 -0.130751
0.908083 -0.159916 -0.159916
0.973445 -0.180386 -0.180386
1.015298 -0.192846 -0.192846
1.047274 -0.202098 -0.202098
-0.143063 0.206726 0.084401
-0.125330 0.205345 0.106254
-0.076776 0.203211 0.113023
0.129702 0.199132 0.104848
0.202655 0.190764 0.164343
0.267286 0.192782 0.154548
0.348486 0.190340 0.142556
0.437040 0.186584 0.128838
0.529673 0.181087 0.108607
0.626588 0.173093 0.069990
0.725301 0.160982 -0.079084
0.818604 0.143462 -0.122247
0.903434 0.114289 -0.155579
0.969025 0.066202 -0.176205
1.011542 -0.081646 -0.189957
1.043978 -0.118855 -0.199705
-0.185098 0.259861 -0.125031
-0.173388 0.258795 -0.100846
-0.148031 0.257175 -0.084141
-0.054743 0.254358 -0.096301
0.188949 0.248007 -0.115059
0.262645 0.240863 0.187127
0.332774 0.247042 0.177141
0.422591 0.249978 0.157536
0.517378 0.252047 0.136579
0.615893 0.253890 0.107751
0.715267 0.254698 0.049779
0.810840 0.251045 -0.104565
0.895094 0.247342 -0.139272
0.960941 0.234386 -0.161983
1.005271 0.213261 -0.181798
1.038471 0.191172 -0.193325
-0.230040 0.317991 -0.192572
-0.221602 0.317158 -0.179128
-0.204539 0.315940 -0.171492
-0.161722 0.313777 -0.177323
0.126267 0.308550 -0.185260
0.265282 0.300508 -0.183489
0.330874 0.297720 0.217802
0.407619 0.309122 0.208854
0.501023 0.318412 0.187314
0.600508 0.327366 0.163477
0.701163 0.335342 0.134859
0.796972 0.340458 0.087025
0.883612 0.339818 -0.089632
0.950106 0.333318 -0.127427
0.995879 0.315782 -0.160367
1.030316 0.296963 -0.177614
-0.279404 0.382743 -0.251800
-0.273036 0.382094 -0.242492
-0.260550 0.381161 -0.238680
-0.231352 0.379463 -0.242228
-0.141472 0.375831 -0.248226
0.222392 0.368451 -0.258495
0.347201 0.355063 -0.180362
0.407433 0.362041 0.254691
0.487562 0.379271 0.250110
0.583334 0.395704 0.231469
0.683576 0.410552 0.210112
0.780534 0.420572 0.181309
0.867961 0.424891 0.143349
0.936339 0.420456 0.091977
0.983135 0.403803 -0.094309
1.019106 0.384895 -0.137736
-0.334260 0.455412 -0.312190
-0.329347 0.454898 -0.305432
-0.319825 0.454206 -0.303640
-0.296626 0.452736 -0.306650
-0.238852 0.449729 -0.311187
0.129753 0.444230 -0.320147
0.320888 0.436020 -0.332629
0.429576 0.418491 -0.116191
0.489800 0.434490 0.297183
0.572267 0.458236 0.300896
0.666833 0.480653 0.288470
0.761162 0.497202 0.269490
0.849173 0.505698 0.240822
0.918950 0.502533 0.208257
0.967105 0.485615 0.163491
1.004784 0.465723 0.106437
-0.395918 0.537542 -0.377266
-0.392042 0.537133 -0.372329
-0.384561 0.536630 -0.372439
-0.364938 0.535332 -0.374391
-0.318309 0.532610 -0.378700
-0.194999 0.527768 -0.386384
0.272626 0.520670 -0.397055
0.424954 0.509738 -0.394709
0.514672 0.492380 0.093843
0.578359 0.515731 0.343629
0.659826 0.544233 0.358611
0.747635 0.566080 0.348121
0.829748 0.580962 0.334356
0.899886 0.579432 0.301887
0.948821 0.562955 0.262376
0.987928 0.542255 0.221306
-0.465189 0.630176 -0.448858
-0.462098 0.629910 -0.445272
-0.456147 0.629467 -0.446745
-0.438770 0.628324 -0.448544
-0.398772 0.625843 -0.452247
-0.309423 0.621494 -0.459025
0.161887 0.615077 -0.468585
0.389820 0.606877 -0.480286
0.527360 0.592787 -0.445529
0.605525 0.576731 0.117909
0.671329 0.604526 0.387738
0.744581 0.632040 0.418964
0.819636 0.650072 0.413429
0.884712 0.651287 0.387073
0.931067 0.636033 0.351447
0.970111 0.614945 0.311366
-0.540120 0.730725 -0.525509
-0.537630 0.730471 -0.522884
-0.532817 0.730139 -0.525212
-0.517145 0.729129 -0.526917
-0.481083 0.726808 -0.530322
-0.407264 0.722733 -0.536508
-0.245255 0.716945 -0.545133
0.324107 0.709666 -0.555665
0.496322 0.700941 -0.567678
0.625481 0.684668 -0.503812
0.700852 0.669920 -0.123475
0.762662 0.693248 0.420592
0.822749 0.714959 0.473422
0.877353 0.718693 0.465796
0.918258 0.704634 0.434529
0.954243 0.683778 0.395760
-0.617131 0.834115 -0.603911
-0.615037 0.833904 -0.601939
-0.611012 0.833663 -0.604834
-0.596935 0.832748 -0.606173
-0.563701 0.830549 -0.609503
-0.499838 0.826826 -0.615166
-0.382922 0.821587 -0.623033
0.148446 0.814974 -0.632532
0.439769 0.807245 -0.643426
0.593035 0.798163 -0.654661
0.716497 0.781083 -0.577302
0.792410 0.764496 -0.257099
0.848778 0.778802 0.421811
0.885600 0.782367 0.513299
0.915779 0.769181 0.503828
0.944768 0.748654 0.472872
-0.688709 0.930377 -0.676807
-0.686888 0.930213 -0.675225
-0.683388 0.930032 -0.678178
-0.670599 0.929150 -0.679531
-0.640693 0.927185 -0.682461
-0.584070 0.923743 -0.687664
-0.491019 0.918980 -0.694743
-0.321695 0.913096 -0.703259
0.329024 0.906199 -0.713191
0.534021 0.898303 -0.724052
0.677354 0.888775 -0.731362
0.795613 0.871984 -0.654695
0.874563 0.854766 -0.378942
0.915491 0.847816 0.414830
0.928983 0.830664 0.532270
0.946345 0.809855 0.533110
-0.744003 1.004866 -0.733353
-0.742379 1.004712 -0.731972
-0.739260 1.004544 -0.734495
-0.727822 1.003748 -0.735755
-0.701509 1.001975 -0.738376
-0.652584 0.998927 -0.742981
-0.576414 0.994712 -0.749353
-0.455714 0.989524 -0.756983
-0.185154 0.983320 -0.765871
0.433140 0.976368 -0.775636
0.606578 0.968571 -0.786295
0.740517 0.959108 -0.791822
0.857239 0.940773 -0.704208
0.937914 0.925531 -0.480130
0.960184 0.895325 0.377564
0.963923 0.869278 0.538534
-0.781760 1.055700 -0.772406
-0.780257 1.055578 -0.771052
-0.777420 1.055408 -0.772960
-0.767393 1.054713 -0.774004
-0.745320 1.053200 -0.776158
-0.704048 1.050567 -0.780241
-0.640004 1.046860 -0.785784
-0.545743 1.042246 -0.792639
-0.392769 1.036814 -0.800554
0.256702 1.030607 -0.809357
0.508072 1.023731 -0.818874
0.663847 1.015984 -0.829324
0.788252 1.006615 -0.831098
0.900598 0.989755 -0.745023
0.978055 0.972703 -0.530698
0.994451 0.933204 0.329367
-0.809992 1.093784 -0.801811
-0.808597 1.093633 -0.800324
-0.805866 1.093492 -0.801612
-0.797218 1.092837 -0.802565
-0.778188 1.091564 -0.804475
-0.742890 1.089268 -0.808017
-0.689353 1.086053 -0.812870
-0.612467 1.081984 -0.818916
-0.499643 1.077153 -0.825955
-0.296148 1.071667 -0.833802
0.377944 1.065504 -0.842496
0.571121 1.058712 -0.851816
0.709516 1.051278 -0.861750
0.828738 1.041273 -0.855867
0.932792 1.025139 -0.772269
1.008804 1.008802 -0.573490
0.042875 0.036911 0.240387
0.068492 0.031408 0.240026
0.119649 -0.030240 0.238125
0.175509 -0.039602 0.220840
0.204777 0.070958 0.179587
0.285002 -0.027220 0.184068
0.366709 -0.076944 0.178723
0.453540 -0.103699 0.172567
0.544218 -0.126741 0.166148
0.639656 -0.149616 0.158460
0.737154 -0.172522 0.147230
0.829956 -0.193609 0.128861
0.913638 -0.213243 0.100464
0.978739 -0.228081 -0.042668
1.019414 -0.235189 -0.105682
1.050884 -0.241449 -0.137961
-0.030853 0.073786 0.238048
0.062050 0.099771 0.233588
0.112957 0.094512 0.232249
0.172813 0.087061 0.221694
0.204700 0.108882 0.185044
0.284539 0.089112 0.189966
0.365991 0.059511 0.185703
0.452734 -0.056600 0.180327
0.543486 -0.096603 0.174408
0.638971 -0.127054 0.167019
0.736855 -0.155465 0.156170
0.829151 -0.178028 0.142300
0.912327 -0.198290 0.115560
0.977376 -0.214179 0.065496
1.018957 -0.223879 -0.089439
1.050461 -0.230598 -0.126285
-0.094561 0.137652 0.227655
-0.068461 0.145827 0.224163
0.085683 0.147993 0.220952
0.159686 0.142275 0.217011
0.207092 0.148016 0.189789
0.284715 0.137824 0.191741
0.364434 0.126725 0.186929
0.450405 0.111125 0.181313
0.541091 0.084297 0.174235
0.636704 -0.046474 0.164465
0.734343 -0.107303 0.150104
0.827005 -0.141429 0.128202
0.910935 -0.169253 0.092433
0.975983 -0.188591 -0.054275
1.017346 -0.199224 -0.104659
1.048988 -0.207339 -0.132350
-0.147199 0.204181 0.204181
-0.129699 0.203083 0.203083
-0.084491 0.201070 0.201070
0.125690 0.196948 0.196948
0.209777 0.191030 0.191030
0.279529 0.188159 0.188159
0.357743 0.183392 0.183392
0.444294 0.175770 0.175770
0.535757 0.164248 0.164248
0.631989 0.146678 0.146678
0.730190 0.119003 0.119003
0.823702 0.067206 0.067206
0.907651 -0.091008 -0.091008
0.972987 -0.128668 -0.128668
1.014868 -0.147655 -0.147655
1.046869 -0.160735 -0.160735
-0.187657 0.258238 0.149053
-0.176015 0.257261 0.158116
-0.151168 0.255699 0.162519
-0.060565 0.252745 0.158582
0.186933 0.245951 0.148333
0.263545 0.242309 0.211363
0.340027 0.244457 0.198769
0.430007 0.244067 0.186996
0.523893 0.242655 0.174151
0.621718 0.240251 0.157034
0.720956 0.234947 0.131871
0.814926 0.230102 0.093223
0.900743 0.215802 -0.077085
0.965262 0.204018 -0.112804
1.008761 0.182703 -0.139586
1.041512 0.161076 -0.154573
-0.231877 0.316819 -0.084745
-0.223454 0.316027 -0.034551
-0.206493 0.314847 0.040871
-0.164595 0.312636 0.027308
0.120466 0.308282 -0.074073
