filters/luts/lut10.cube
# Copyright: (C) Copyright 2010-2017 by IWLTBAP SAS
# Cannot be resold, shared or otherwise redistributed
# Website: https://luts.iwltbap.com
TITLE "IWLTBAP Arkina (Rec.709, sRGB, DCI-P3)"
LUT_3D_SIZE 9
0.000763 0.000214 0.001984
0.129456 0.047607 0.000000
0.297729 0.094788 0.000000
0.418854 0.119965 0.000000
0.503876 0.137665 0.000000
0.557007 0.151459 0.000000
0.606049 0.162872 0.000000
0.648499 0.175385 0.000000
0.687347 0.193054 0.000000
0.064209 0.079437 0.035095
0.119751 0.105988 0.020752
0.330353 0.169830 0.000000
0.480042 0.207520 0.000000
0.586517 0.237396 0.000000
0.662262 0.263489 0.000000
0.724854 0.285400 0.000000
0.773346 0.305969 0.000000
0.809235 0.325348 0.000000
0.237885 0.213593 0.035767
0.269348 0.227325 0.027740
0.340118 0.248535 0.011902
0.534882 0.308563 0.000000
0.655701 0.347717 0.000000
0.747803 0.381073 0.001709
0.810974 0.406006 0.011932
0.857910 0.429840 0.019623
0.895294 0.452118 0.032440
0.448486 0.356323 0.037018
0.465637 0.363068 0.035004
0.508423 0.374054 0.027924
0.559052 0.390900 0.022095
0.717468 0.449432 0.032593
0.805603 0.481354 0.049164
0.873352 0.508209 0.066986
0.916779 0.533569 0.085327
0.944916 0.550537 0.093658
0.636230 0.485901 0.069122
0.643402 0.490540 0.069244
0.665131 0.497864 0.068848
0.701508 0.505280 0.068085
0.739319 0.520172 0.070953
0.837769 0.559937 0.102570
0.918549 0.592285 0.132446
0.952667 0.613068 0.159210
0.977142 0.631012 0.177490
0.765015 0.578949 0.123718
0.773132 0.580505 0.124420
0.783478 0.583893 0.125916
0.806000 0.593231 0.128632
0.834015 0.604095 0.139801
0.866058 0.617889 0.155945
0.926941 0.650024 0.194489
0.975433 0.676514 0.245422
0.997040 0.695282 0.265961
0.868683 0.654907 0.195068
0.872284 0.656219 0.197174
0.878418 0.659424 0.204224
0.894043 0.668884 0.211914
0.911102 0.676575 0.226440
0.931549 0.690308 0.245728
0.953918 0.706909 0.273499
0.980316 0.729767 0.315643
1.000000 0.753906 0.366150
0.943085 0.725800 0.292694
0.944733 0.726868 0.295105
0.948669 0.729462 0.299438
0.954895 0.734131 0.311829
0.965485 0.744507 0.328369
0.977814 0.753876 0.350800
0.992828 0.769226 0.382202
1.000000 0.786652 0.421295
1.000000 0.806274 0.469666
0.984406 0.790588 0.416260
0.986298 0.791595 0.418457
0.990875 0.794006 0.423767
0.995117 0.800293 0.437164
1.000000 0.808563 0.456238
1.000000 0.820251 0.480743
1.000000 0.829987 0.513153
1.000000 0.845917 0.555969
1.000000 0.861633 0.595306
0.000702 0.005585 0.013214
0.080719 0.055695 0.107025
0.260101 0.106354 0.125000
0.385864 0.129211 0.109680
0.467651 0.136475 0.090210
0.524536 0.138275 0.070923
0.570343 0.138763 0.056305
0.611267 0.135193 0.047272
0.652283 0.138367 0.029266
0.008789 0.087738 0.106598
0.120392 0.132416 0.136536
0.323181 0.184906 0.120483
0.474304 0.211945 0.096802
0.576965 0.224213 0.072906
0.646729 0.231689 0.060089
0.707092 0.240204 0.054169
0.753845 0.252441 0.050507
0.787659 0.266876 0.035400
0.222626 0.215546 0.043701
0.213562 0.204742 0.093597
0.288177 0.230286 0.076172
0.529358 0.327545 0.126373
0.650330 0.355347 0.108154
0.735535 0.372650 0.104309
0.801056 0.387878 0.095764
0.852295 0.406128 0.095886
0.881653 0.416138 0.084473
0.443176 0.360809 0.041565
0.423279 0.352570 0.081909
0.470398 0.368195 0.072784
0.534821 0.386414 0.060089
0.698853 0.463165 0.159058
0.786194 0.483948 0.161072
0.856781 0.502411 0.165222
0.905823 0.520508 0.164001
0.942566 0.534149 0.154724
0.634613 0.488159 0.070740
0.631134 0.482452 0.067688
0.653320 0.490112 0.067291
0.686920 0.499573 0.066681
0.730957 0.514282 0.067291
0.821411 0.574402 0.211517
0.902008 0.599213 0.238007
0.947876 0.617004 0.243317
0.975586 0.630066 0.244232
0.763733 0.579681 0.124786
0.763092 0.577789 0.122864
0.777557 0.581177 0.124207
0.800537 0.588867 0.126617
0.829742 0.599182 0.136597
0.860870 0.614990 0.152557
0.920135 0.661438 0.263855
0.971893 0.693085 0.334869
0.996948 0.707123 0.344757
0.867462 0.655334 0.195587
0.867828 0.654572 0.194672
0.875732 0.657654 0.200836
0.888641 0.667236 0.209778
0.908142 0.675079 0.224365
0.929962 0.688873 0.243591
0.952698 0.704926 0.269165
0.980835 0.729614 0.315582
1.000000 0.774139 0.448242
0.942657 0.725983 0.292938
0.943237 0.725952 0.293182
0.947388 0.728638 0.298035
0.953766 0.733246 0.310089
0.963776 0.743042 0.325684
0.977112 0.753235 0.349518
0.992371 0.768555 0.380859
1.000000 0.786102 0.420166
1.000000 0.806213 0.469482
0.984039 0.790649 0.416107
0.985016 0.791138 0.417297
0.989777 0.793610 0.422729
0.994690 0.799622 0.436249
1.000000 0.808258 0.455505
1.000000 0.820038 0.479523
1.000000 0.829865 0.512756
1.000000 0.845886 0.555725
1.000000 0.861633 0.595367
0.002045 0.030304 0.048035
0.025238 0.059479 0.152130
0.190430 0.114441 0.212402
0.342072 0.140686 0.237579
0.448853 0.154907 0.237579
0.516327 0.159637 0.229431
0.566437 0.158264 0.224152
0.610199 0.151520 0.211090
0.651215 0.137329 0.190094
0.011902 0.103424 0.142456
0.056030 0.121307 0.151398
0.219849 0.181488 0.247803
0.399017 0.211853 0.248566
0.515686 0.223969 0.230957
0.597748 0.225616 0.215271
0.654358 0.223816 0.198700
0.702179 0.214630 0.175140
0.741272 0.213165 0.156372
0.040924 0.205902 0.243286
0.091644 0.194427 0.208984
0.274750 0.272736 0.281281
0.474792 0.312866 0.275726
0.610931 0.332092 0.259766
0.707855 0.346771 0.245728
0.777283 0.352600 0.231323
0.828766 0.352356 0.212036
0.861389 0.360352 0.191742
0.416931 0.363770 0.054810
0.397095 0.358582 0.099548
0.340515 0.314178 0.194214
0.421631 0.343018 0.179260
0.650940 0.459900 0.312134
0.759888 0.480133 0.301422
0.837341 0.493835 0.287811
0.897736 0.498230 0.265656
0.929260 0.498810 0.242340
0.628906 0.495178 0.078735
0.624817 0.487305 0.073242
0.544617 0.473206 0.226410
0.591705 0.485291 0.221558
0.645630 0.501495 0.214905
0.787292 0.579651 0.364258
0.877808 0.598724 0.358582
0.936920 0.611847 0.344910
0.970184 0.613190 0.319763
0.760956 0.582306 0.128296
0.760193 0.580109 0.126068
0.709320 0.583984 0.253143
0.737793 0.595917 0.257599
0.778534 0.609406 0.261444
0.818054 0.623199 0.274506
0.882568 0.673950 0.401947
0.959320 0.708099 0.439178
0.991364 0.712433 0.431854
0.863861 0.656677 0.198395
0.864227 0.655670 0.196014
0.842560 0.670593 0.283691
0.855560 0.676788 0.299316
0.880981 0.688263 0.308899
0.908508 0.698090 0.320038
0.937653 0.714996 0.345490
0.964203 0.756165 0.454498
1.000000 0.795929 0.542908
0.941467 0.726349 0.293304
0.942078 0.726349 0.293610
0.943481 0.726196 0.293854
0.949799 0.732483 0.311920
0.959534 0.740112 0.322693
0.974579 0.752319 0.349823
0.985260 0.770569 0.393585
1.000000 0.784576 0.416962
1.000000 0.818085 0.506012
0.983154 0.790680 0.415222
0.983856 0.791199 0.416748
0.986725 0.792480 0.419922
0.993469 0.797729 0.432098
0.998993 0.807434 0.453339
1.000000 0.819183 0.477203
1.000000 0.829498 0.511658
1.000000 0.845825 0.555298
1.000000 0.861694 0.595520
0.011902 0.075531 0.108002
0.003326 0.071686 0.176422
0.138885 0.113312 0.242828
0.275421 0.150696 0.285767
0.396118 0.170563 0.309570
0.480225 0.175629 0.312439
0.538391 0.177948 0.315063
0.588837 0.173096 0.312378
0.638672 0.156830 0.297577
0.018066 0.128052 0.173950
0.055115 0.150757 0.189941
0.147827 0.171753 0.276550
0.313416 0.214630 0.330444
0.452515 0.235992 0.340973
0.545898 0.244446 0.335602
0.620972 0.244476 0.333588
0.683258 0.232910 0.318481
0.732208 0.214844 0.290558
0.035400 0.226776 0.284454
0.056458 0.225281 0.274689
0.161652 0.233551 0.262817
0.363068 0.305237 0.379730
0.528870 0.327515 0.377533
0.636414 0.338684 0.365356
0.717712 0.340393 0.350281
0.776581 0.328644 0.319733
0.816223 0.312775 0.285065
0.057709 0.316071 0.369049
0.109863 0.322449 0.350037
0.191010 0.291321 0.296875
0.432098 0.416077 0.426849
0.590881 0.441650 0.418823
0.707397 0.456726 0.405426
0.790405 0.466217 0.395599
0.856354 0.468628 0.372894
0.902618 0.459381 0.336182
0.279083 0.428131 0.255585
0.415771 0.469482 0.246002
0.510590 0.474792 0.249207
0.459106 0.425995 0.312073
0.535919 0.452057 0.301331
0.731232 0.564880 0.467957
0.835052 0.583832 0.457581
0.905365 0.597260 0.440430
0.949585 0.592163 0.406708
0.752960 0.587952 0.138550
0.752319 0.584167 0.135620
0.690918 0.589844 0.273315
0.630066 0.568298 0.372162
0.676331 0.582703 0.377167
0.723999 0.599213 0.385254
0.851257 0.677887 0.525604
0.937531 0.705109 0.523376
0.978333 0.709625 0.504639
0.858307 0.658783 0.204041
0.858887 0.658081 0.202484
0.835175 0.672913 0.291290
0.762482 0.677612 0.435791
0.796204 0.691376 0.443787
0.834045 0.706970 0.457703
0.876648 0.724487 0.476593
0.938263 0.774353 0.573853
0.995056 0.809601 0.619202
0.936737 0.727142 0.294006
0.938141 0.727173 0.294281
0.940277 0.727448 0.296448
0.880768 0.765839 0.503723
0.901276 0.774170 0.516205
0.926758 0.788818 0.533630
0.948669 0.805969 0.558380
0.972443 0.825684 0.585693
0.997650 0.861084 0.650909
0.981293 0.790558 0.411499
0.982025 0.791107 0.414368
0.983826 0.792450 0.418488
0.956848 0.836212 0.577911
0.965729 0.845917 0.600891
0.978760 0.857849 0.619415
0.993652 0.869476 0.649628
1.000000 0.887054 0.687439
1.000000 0.901947 0.721008
0.027435 0.121185 0.167114
0.042542 0.140106 0.197296
0.075104 0.112915 0.256134
0.236694 0.150604 0.312073
0.344910 0.174500 0.344879
0.435028 0.189209 0.358093
0.501648 0.193756 0.366882
0.559509 0.193848 0.369568
0.618347 0.179413 0.364197
0.023956 0.156982 0.211029
0.067535 0.179932 0.227051
0.090729 0.169586 0.290497
0.242950 0.207703 0.351379
0.382233 0.237396 0.386200
0.483276 0.253510 0.400299
0.561188 0.260498 0.401733
0.636719 0.249664 0.398285
0.707886 0.228333 0.379364
0.039185 0.247711 0.315643
0.044037 0.249054 0.315186
0.149078 0.265991 0.308044
0.273468 0.287262 0.400360
0.434479 0.325104 0.440491
0.561218 0.344330 0.455322
0.654327 0.345917 0.449158
0.736084 0.333618 0.430023
0.799469 0.313293 0.402191
0.053040 0.331543 0.404510
0.067352 0.333069 0.401550
0.143494 0.330719 0.369781
0.286926 0.356995 0.387482
0.493134 0.431610 0.497314
0.634583 0.447418 0.494141
0.730255 0.452301 0.478394
0.807800 0.441956 0.453400
0.858276 0.419861 0.413269
0.067200 0.400726 0.467957
0.095001 0.407806 0.458405
0.217499 0.419586 0.426666
0.330292 0.420624 0.420593
0.560516 0.542511 0.547821
0.688599 0.558441 0.540100
0.788361 0.563843 0.526733
0.865570 0.571594 0.512146
0.915314 0.558716 0.475891
0.087891 0.456573 0.505127
0.153931 0.481903 0.480255
0.348877 0.526154 0.424622
0.585175 0.564819 0.396637
0.564758 0.544495 0.459534
0.635437 0.568665 0.462311
0.814514 0.669830 0.594879
0.909180 0.690277 0.584320
0.957855 0.695770 0.567474
0.847687 0.664307 0.208252
0.848236 0.663086 0.207489
0.820770 0.676056 0.302734
0.740173 0.679901 0.448059
0.698792 0.661926 0.520844
0.749512 0.682220 0.534607
0.797821 0.699860 0.548798
0.927002 0.786041 0.662231
0.981689 0.811432 0.680817
0.929443 0.727478 0.291779
0.930176 0.727509 0.292328
0.929565 0.730042 0.306519
0.870453 0.768188 0.509552
0.827728 0.778351 0.599274
0.862427 0.797852 0.619507
0.905640 0.819977 0.644562
0.945343 0.840912 0.672760
0.988617 0.886810 0.753845
0.977570 0.789093 0.403931
0.978333 0.789795 0.405609
0.980286 0.791534 0.411987
0.952454 0.838104 0.577911
0.932892 0.875061 0.700409
0.955231 0.888031 0.722107
0.975677 0.903931 0.752838
0.992249 0.920563 0.789124
1.000000 0.932800 0.822540
0.049530 0.170868 0.217468
0.067352 0.183807 0.239075
0.032593 0.112213 0.269775
0.174255 0.145630 0.321625
0.306793 0.172729 0.361389
0.394226 0.190460 0.383331
0.467224 0.205017 0.398346
0.534271 0.208740 0.405487
0.602173 0.203613 0.407379
0.036926 0.199341 0.260803
0.079163 0.216034 0.264954
0.064819 0.193237 0.299957
0.174103 0.200745 0.361877
0.321381 0.230560 0.403290
0.428589 0.251099 0.424072
0.513397 0.266937 0.439514
0.591461 0.266479 0.439789
0.678650 0.246613 0.435883
0.041962 0.270508 0.346008
0.041962 0.271881 0.348083
0.148682 0.293579 0.341339
0.202759 0.274445 0.410400
0.350739 0.307739 0.458069
0.485046 0.333801 0.486237
0.585266 0.349213 0.499878
0.675690 0.344543 0.485809
0.761536 0.315887 0.464294
0.052643 0.345947 0.424927
0.052399 0.345245 0.424591
0.112366 0.356079 0.415497
0.250580 0.372284 0.416595
0.399323 0.404358 0.509460
0.542297 0.440887 0.544556
0.663391 0.454620 0.556641
0.758209 0.441040 0.535034
0.828949 0.414551 0.499512
0.057983 0.405792 0.492676
0.057770 0.404510 0.491608
0.150665 0.434662 0.477905
0.243073 0.430634 0.457184
0.431671 0.486328 0.510620
0.608521 0.546509 0.598694
0.732147 0.557587 0.593689
0.821106 0.549744 0.571869
0.874939 0.524384 0.531860
0.071625 0.456238 0.537994
0.071960 0.455078 0.535339
0.216949 0.507538 0.526215
0.340698 0.517273 0.511597
0.483368 0.554321 0.544525
0.666229 0.655945 0.650665
0.782654 0.667328 0.645538
0.875122 0.670410 0.633026
0.928223 0.670624 0.615265
0.079254 0.497986 0.572540
0.079590 0.497498 0.570221
0.212128 0.561584 0.567352
0.430542 0.615173 0.542755
0.656097 0.657623 0.528687
0.673096 0.669281 0.605713
0.741150 0.694061 0.619141
0.915863 0.791473 0.721893
0.971222 0.808868 0.723816
0.883148 0.722229 0.279419
0.897552 0.724365 0.281067
0.914581 0.732300 0.313538
0.842865 0.769897 0.520844
0.804047 0.779022 0.607239
0.793518 0.774811 0.654236
0.854706 0.806610 0.684631
0.906158 0.833893 0.718903
0.987335 0.906525 0.831726
0.971680 0.786072 0.389008
0.972321 0.786652 0.390533
0.974060 0.788208 0.396820
0.944122 0.840302 0.578949
0.919281 0.875305 0.702515
0.919250 0.896942 0.776520
0.955170 0.920166 0.814362
0.983704 0.940369 0.853333
0.999237 0.958862 0.890564
0.071930 0.215515 0.268066
0.088867 0.227661 0.281342
0.056763 0.213837 0.316742
0.120239 0.140472 0.332245
0.262970 0.169922 0.372742
0.359985 0.188477 0.400269
0.437256 0.203888 0.417084
0.508270 0.213501 0.431183
0.580994 0.214264 0.439423
0.064819 0.246552 0.306519
0.097717 0.253723 0.308289
0.114685 0.268707 0.347076
0.104553 0.189911 0.369537
0.255890 0.217804 0.415405
0.375092 0.242920 0.441162
0.466095 0.258545 0.457489
0.551514 0.271515 0.473236
0.636566 0.263336 0.473297
0.044922 0.294586 0.372803
0.045013 0.297699 0.376923
0.152618 0.324066 0.372253
0.129822 0.263489 0.415649
0.264496 0.287079 0.462708
0.411621 0.315033 0.499695
0.519318 0.335876 0.517242
0.616913 0.345856 0.526001
0.712921 0.324097 0.510345
0.052917 0.360901 0.445251
0.052795 0.361176 0.446777
0.088135 0.371582 0.444397
0.243744 0.400726 0.445251
0.304596 0.377472 0.512238
0.451782 0.407318 0.556732
0.584808 0.439606 0.579773
0.690186 0.440521 0.582031
0.783722 0.405182 0.553040
0.055511 0.413574 0.508209
0.055328 0.412659 0.507965
0.109375 0.437164 0.504761
0.200928 0.449921 0.492035
0.364929 0.478638 0.511780
0.502319 0.509430 0.604919
0.650909 0.547363 0.639191
0.762909 0.541962 0.633698
0.838318 0.513702 0.599091
0.061523 0.456207 0.551392
0.061218 0.455505 0.550110
0.142853 0.497742 0.554260
0.267578 0.524719 0.548645
0.364197 0.531952 0.544800
0.555695 0.608521 0.617310
0.714294 0.654663 0.695648
0.827759 0.652710 0.683258
0.889557 0.633881 0.656860
0.070892 0.496277 0.587769
0.070831 0.495667 0.586487
0.190491 0.561432 0.596680
0.346741 0.601959 0.598572
0.464722 0.617798 0.599518
0.609833 0.677582 0.659180
0.786987 0.784302 0.770691
0.896790 0.790314 0.766541
0.951904 0.794800 0.764648
0.079803 0.533722 0.616364
0.079865 0.533630 0.615967
0.160217 0.588989 0.630402
0.333649 0.659424 0.645599
0.531067 0.720703 0.653351
0.744263 0.772614 0.663361
0.811829 0.822479 0.754517
0.901459 0.862915 0.793243
0.990448 0.923126 0.878204
0.734436 0.770294 0.453369
0.754211 0.788727 0.505585
0.802917 0.818634 0.569672
0.872620 0.845642 0.626099
0.889679 0.871338 0.704010
0.897766 0.895721 0.780731
0.931458 0.926392 0.852478
0.978394 0.957764 0.898956
1.000000 0.977631 0.937805
0.094452 0.263519 0.317322
0.108826 0.270599 0.327271
0.113525 0.283173 0.361084
0.033752 0.125000 0.329498
0.196655 0.160797 0.381744
0.312927 0.179779 0.412415
0.398071 0.195160 0.431427
0.481628 0.211548 0.451965
0.559784 0.222260 0.464539
0.088501 0.286621 0.347900
0.115967 0.291534 0.348022
0.140228 0.307800 0.376068
0.040710 0.174408 0.364868
0.166138 0.201599 0.415283
0.299866 0.225952 0.452637
0.413177 0.244415 0.476349
0.509003 0.263153 0.493866
0.606110 0.270752 0.507843
0.048187 0.322296 0.403229
0.059631 0.329010 0.407043
0.163971 0.350128 0.403809
0.144775 0.331360 0.440125
0.122375 0.250214 0.457550
0.289062 0.283447 0.496887
0.437225 0.308960 0.528473
0.555115 0.327026 0.546051
0.661713 0.329346 0.551208
0.053253 0.373505 0.465210
0.053101 0.374542 0.467041
0.071259 0.384918 0.467224
0.246948 0.425446 0.471710
0.150299 0.331390 0.501587
0.290833 0.356262 0.545685
0.470459 0.391693 0.584900
0.613495 0.419189 0.609070
0.726471 0.405640 0.599457
0.053986 0.419708 0.519318
0.053802 0.419525 0.519379
0.083191 0.437622 0.520905
0.167572 0.464081 0.521759
0.357788 0.501312 0.538879
0.334381 0.454681 0.595886
0.514923 0.488403 0.642242
0.677094 0.523651 0.667389
0.782227 0.498077 0.648407
0.056641 0.457581 0.560272
0.056488 0.457245 0.560059
0.101929 0.486084 0.565704
0.214722 0.529572 0.574127
0.317932 0.544464 0.572845
0.480316 0.580109 0.603149
0.571320 0.598114 0.695953
0.746643 0.636688 0.730499
0.843353 0.614929 0.709106
0.066040 0.495331 0.595825
0.065796 0.495026 0.595612
0.122955 0.536591 0.608307
0.265472 0.594116 0.619415
0.390442 0.619904 0.628448
0.486176 0.637085 0.635071
0.667419 0.731384 0.736572
0.850098 0.780853 0.821716
0.918915 0.770447 0.799133
0.076721 0.533722 0.629089
0.076691 0.533569 0.628937
0.152405 0.589050 0.646912
0.316772 0.663269 0.670380
0.461334 0.708313 0.688995
0.578339 0.736969 0.711975
0.744934 0.826202 0.801392
0.927307 0.923248 0.912476
0.987152 0.934753 0.922455
0.085083 0.569702 0.662964
0.085144 0.569824 0.662903
0.114807 0.596802 0.671478
0.277313 0.707275 0.719666
0.455078 0.774170 0.758331
0.655396 0.844818 0.805756
0.894135 0.922485 0.856567
0.977356 0.975250 0.949097
1.000000 0.991608 0.979431
0.116486 0.305420 0.363037
0.127258 0.310974 0.369812
0.142578 0.324646 0.394806
0.017212 0.176910 0.357727
0.077545 0.138916 0.366638
0.233368 0.169067 0.416046
0.338440 0.181915 0.442688
0.432678 0.198364 0.465515
0.531464 0.214783 0.488770
0.109070 0.324341 0.385468
0.131653 0.328766 0.386688
0.159668 0.343719 0.406860
0.052582 0.263000 0.403259
0.039001 0.167511 0.395844
0.174072 0.194519 0.443848
0.318542 0.220306 0.485382
0.440155 0.236053 0.510895
0.560516 0.257568 0.534363
0.052277 0.347260 0.435944
0.094971 0.364227 0.436707
0.173981 0.380524 0.434601
0.197021 0.387817 0.471344
0.021942 0.204193 0.425812
0.102631 0.230438 0.474945
0.277527 0.263275 0.523346
0.456238 0.289337 0.561066
0.602295 0.312225 0.582306
0.053131 0.388580 0.486969
0.053009 0.389099 0.487854
0.057129 0.392975 0.489258
0.251312 0.448273 0.493713
0.069000 0.312927 0.478851
0.057831 0.275696 0.508514
0.250397 0.317657 0.559875
0.480133 0.360992 0.611725
0.649292 0.386658 0.634460
0.052979 0.425415 0.528442
0.052826 0.425568 0.528809
0.058838 0.433746 0.532593
0.138000 0.469177 0.538330
0.352875 0.521759 0.558594
0.089233 0.346039 0.541840
0.215271 0.381714 0.599304
0.494446 0.436829 0.653778
0.698059 0.479462 0.684601
0.055389 0.460876 0.566986
0.055267 0.460815 0.567108
0.069366 0.472839 0.572754
0.170105 0.524445 0.582153
0.274139 0.556824 0.592377
0.461914 0.598389 0.623657
0.226288 0.471375 0.648956
0.529938 0.535217 0.702026
0.761963 0.595734 0.745422
0.061646 0.496185 0.600311
0.061462 0.496063 0.600311
0.078857 0.511444 0.608276
0.202759 0.579285 0.629272
0.330536 0.620697 0.644531
0.435120 0.647583 0.654327
0.588013 0.704987 0.719299
0.603241 0.676331 0.773926
0.857880 0.748077 0.831848
0.072754 0.530853 0.633362
0.072723 0.530792 0.633392
0.091827 0.548706 0.643402
0.230438 0.635864 0.679260
0.372742 0.692139 0.703461
0.492004 0.733368 0.731964
0.611816 0.781281 0.775177
0.814941 0.880829 0.885681
0.973633 0.925446 0.949036
0.148346 0.630432 0.698364
0.148285 0.630402 0.698364
0.196808 0.664062 0.715515
0.272400 0.707306 0.737732
0.439056 0.775787 0.782623
0.601898 0.837616 0.827759
0.774811 0.902527 0.889709
0.932526 0.968445 0.963470
1.000000 0.998840 0.998688
