filters/luts/lut10.cube
# Copyright: (C) Copyright 2010-2017 by IWLTBAP SAS
# Cannot be resold, shared or otherwise redistributed
# Website: https://luts.iwltbap.com
TITLE "IWLTBAP Arkina (Rec.709, sRGB, DCI-P3)"
LUT_3D_SIZE 33
0.000763 0.000214 0.001984
0.016602 0.009003 0.002777
0.043457 0.017975 0.001343
0.081818 0.033203 0.000000
0.129456 0.047607 0.000000
0.170715 0.059631 0.000000
0.214447 0.074432 0.000000
0.258209 0.084015 0.000000
0.297729 0.094788 0.000000
0.335602 0.101868 0.000000
0.365784 0.111542 0.000000
0.392975 0.116058 0.000000
0.418854 0.119965 0.000000
0.443176 0.125427 0.000000
0.465668 0.130829 0.000000
0.485748 0.134338 0.000000
0.503876 0.137665 0.000000
0.516907 0.140533 0.000000
0.532623 0.144958 0.000000
0.543091 0.149231 0.000000
0.557007 0.151459 0.000000
0.567505 0.154205 0.000000
0.582153 0.157074 0.000000
0.592346 0.159546 0.000000
0.606049 0.162872 0.000000
0.615845 0.167999 0.000000
0.629150 0.170715 0.000000
0.637665 0.172974 0.000000
0.648499 0.175385 0.000000
0.658630 0.178986 0.000000
0.668701 0.185455 0.000000
0.679504 0.189911 0.000000
0.687347 0.193054 0.000000
0.004700 0.012024 0.011658
0.012634 0.015869 0.011322
0.041473 0.028656 0.009308
0.079407 0.043243 0.005890
0.130432 0.061249 0.002258
0.175018 0.075989 0.000000
0.219299 0.091034 0.000000
0.264099 0.100098 0.000000
0.308563 0.112915 0.000000
0.344299 0.119659 0.000000
0.380310 0.129669 0.000000
0.409973 0.135071 0.000000
0.436859 0.139923 0.000000
0.462860 0.147766 0.000000
0.486145 0.152283 0.000000
0.507019 0.155792 0.000000
0.523132 0.159180 0.000000
0.540558 0.164154 0.000000
0.557587 0.169556 0.000000
0.569733 0.172791 0.000000
0.583893 0.175781 0.000000
0.597870 0.179108 0.000000
0.609894 0.183990 0.000000
0.620728 0.188354 0.000000
0.634521 0.190979 0.000000
0.646790 0.194183 0.000000
0.658752 0.198181 0.000000
0.669128 0.204254 0.000000
0.680359 0.207031 0.000000
0.688538 0.210175 0.000000
0.701630 0.214478 0.000000
0.709076 0.218781 0.000000
0.720520 0.224701 0.000000
0.016571 0.024689 0.018311
0.023499 0.032471 0.017700
0.031433 0.036682 0.016052
0.076935 0.058441 0.014069
0.129150 0.079193 0.010345
0.175781 0.094879 0.001648
0.223724 0.109406 0.000000
0.269440 0.119019 0.000000
0.315735 0.131866 0.000000
0.353912 0.138763 0.000000
0.389648 0.149231 0.000000
0.420349 0.154938 0.000000
0.452820 0.160339 0.000000
0.481110 0.169678 0.000000
0.505646 0.174255 0.000000
0.526184 0.178314 0.000000
0.544617 0.183929 0.000000
0.564270 0.189758 0.000000
0.582428 0.193542 0.000000
0.598785 0.198792 0.000000
0.610992 0.204834 0.000000
0.627136 0.209106 0.000000
0.638916 0.212555 0.000000
0.652802 0.214508 0.000000
0.663025 0.218170 0.000000
0.678223 0.224823 0.000000
0.688416 0.228119 0.000000
0.702332 0.232544 0.000000
0.711578 0.237396 0.000000
0.724243 0.244019 0.000000
0.732666 0.248047 0.000000
0.740387 0.251068 0.000000
0.751709 0.253967 0.000000
0.032410 0.050171 0.026154
0.044098 0.055328 0.024506
0.053406 0.059601 0.022064
0.069763 0.067749 0.019043
0.118225 0.091705 0.016357
0.176361 0.111877 0.006744
0.224884 0.125000 0.000000
0.274506 0.137024 0.000000
0.321991 0.150635 0.000000
0.363220 0.158447 0.000000
0.398010 0.169037 0.000000
0.434540 0.175201 0.000000
0.465179 0.182098 0.000000
0.493774 0.191071 0.000000
0.520477 0.197937 0.000000
0.544586 0.206482 0.000000
0.566284 0.210999 0.000000
0.586304 0.215302 0.000000
0.605438 0.222992 0.000000
0.619476 0.227295 0.000000
0.636810 0.231567 0.000000
0.653961 0.236420 0.000000
0.666260 0.244019 0.000000
0.681305 0.247833 0.000000
0.694092 0.251099 0.000000
0.707153 0.255127 0.000000
0.721863 0.262909 0.000000
0.731140 0.266693 0.000000
0.740723 0.270782 0.000000
0.753265 0.274292 0.000000
0.761841 0.281860 0.000000
0.772949 0.286346 0.000000
0.780396 0.289368 0.000000
0.064209 0.079437 0.035095
0.072662 0.083649 0.032806
0.081085 0.090698 0.028900
0.098969 0.097168 0.023590
0.119751 0.105988 0.020752
0.154785 0.120117 0.016357
0.226379 0.143372 0.002106
0.277313 0.156647 0.000000
0.330353 0.169830 0.000000
0.370148 0.178192 0.000000
0.409882 0.189911 0.000000
0.443848 0.197571 0.000000
0.480042 0.207520 0.000000
0.510010 0.213654 0.000000
0.537811 0.223633 0.000000
0.563385 0.230164 0.000000
0.586517 0.237396 0.000000
0.608185 0.245850 0.000000
0.628662 0.250977 0.000000
0.644714 0.255859 0.000000
0.662262 0.263489 0.000000
0.680267 0.267944 0.000000
0.696777 0.272522 0.000000
0.709503 0.279663 0.000000
0.724854 0.285400 0.000000
0.735962 0.289948 0.000000
0.750824 0.294464 0.000000
0.760162 0.302185 0.000000
0.773346 0.305969 0.000000
0.782135 0.309509 0.000000
0.793823 0.312866 0.000000
0.802094 0.320648 0.000000
0.809235 0.325348 0.000000
0.100098 0.113770 0.036957
0.105957 0.116180 0.035400
0.118622 0.119507 0.033112
0.132996 0.126099 0.028412
0.149200 0.132965 0.022949
0.168091 0.138550 0.020264
0.194580 0.150848 0.016541
0.288849 0.177307 0.000000
0.340363 0.191193 0.000000
0.383667 0.202637 0.000000
0.419586 0.211243 0.000000
0.457947 0.221710 0.000000
0.491180 0.230103 0.000000
0.524109 0.240204 0.000000
0.555756 0.248596 0.000000
0.581360 0.254730 0.000000
0.605255 0.265076 0.000000
0.627594 0.270935 0.000000
0.647095 0.277954 0.000000
0.665985 0.285400 0.000000
0.685760 0.290283 0.000000
0.704681 0.296356 0.000000
0.722473 0.304016 0.000000
0.734650 0.308746 0.000000
0.750366 0.313385 0.000000
0.761627 0.321838 0.000000
0.776306 0.326324 0.000000
0.785309 0.330292 0.000000
0.798065 0.335327 0.000000
0.806488 0.341461 0.000000
0.818481 0.344940 0.000000
0.826080 0.349274 0.000000
0.833130 0.354797 0.000000
0.143341 0.144836 0.037445
0.149170 0.149200 0.036011
0.160095 0.152130 0.034302
0.169220 0.155090 0.031982
0.181610 0.158936 0.026886
0.198883 0.167450 0.022552
0.219086 0.173645 0.019257
0.239838 0.179535 0.015961
0.344727 0.212585 0.000000
0.393555 0.225983 0.000000
0.433868 0.234131 0.000000
0.468872 0.246033 0.000000
0.506287 0.254059 0.000000
0.538788 0.266418 0.000000
0.569794 0.274292 0.000000
0.599274 0.284882 0.000000
0.621094 0.291016 0.000000
0.643219 0.300018 0.000000
0.665436 0.306488 0.000000
0.686768 0.312256 0.000000
0.707672 0.321747 0.000000
0.727600 0.327179 0.000000
0.743591 0.332397 0.000000
0.758759 0.341400 0.000000
0.774384 0.346466 0.000000
0.785278 0.350952 0.000000
0.799957 0.358093 0.000000
0.808777 0.363708 0.000000
0.820984 0.367706 0.000000
0.829071 0.371033 0.000061
0.837341 0.376312 0.000427
0.848145 0.382874 0.002289
0.855164 0.387329 0.004608
0.188965 0.177765 0.037354
0.193848 0.179749 0.036316
0.199432 0.183319 0.035095
0.212494 0.189117 0.033081
0.223114 0.192444 0.029327
0.238678 0.195740 0.023254
0.255768 0.204437 0.019836
0.275909 0.210510 0.015808
0.297028 0.216278 0.012207
0.389496 0.246674 0.000000
0.444519 0.261780 0.000000
0.484406 0.270660 0.000000
0.518738 0.283142 0.000000
0.555298 0.291656 0.000000
0.586090 0.303864 0.000000
0.613007 0.310944 0.000000
0.638031 0.321320 0.000000
0.662323 0.327637 0.000000
0.685242 0.333862 0.000000
0.707184 0.343445 0.000000
0.728363 0.349335 0.000000
0.748932 0.356689 0.000000
0.763489 0.364197 0.000000
0.779846 0.369293 0.000000
0.794678 0.375641 0.000549
0.806152 0.382538 0.002228
0.820740 0.387177 0.004425
0.829956 0.392090 0.007782
0.838623 0.400391 0.010162
0.851105 0.404236 0.011597
0.859314 0.407623 0.012115
0.868927 0.415833 0.014191
0.876495 0.420563 0.016602
0.237885 0.213593 0.035767
0.242523 0.215485 0.034821
0.247314 0.218842 0.033752
0.259247 0.224121 0.031982
0.269348 0.227325 0.027740
0.286621 0.231537 0.022491
0.298676 0.234741 0.019348
0.316895 0.241974 0.015869
0.340118 0.248535 0.011902
0.363190 0.255066 0.005035
0.432739 0.279724 0.000000
0.496948 0.297760 0.000000
0.534882 0.308563 0.000000
0.568481 0.321533 0.000000
0.603394 0.329865 0.000000
0.630676 0.341003 0.000000
0.655701 0.347717 0.000000
0.680389 0.355347 0.000000
0.704132 0.364594 0.000000
0.726624 0.370911 0.000000
0.747803 0.381073 0.001709
0.764740 0.386932 0.003326
0.783966 0.392365 0.004364
0.799988 0.401276 0.008148
0.810974 0.406006 0.011932
0.825439 0.412476 0.013245
0.835663 0.418396 0.014832
0.848785 0.423553 0.017181
0.857910 0.429840 0.019623
0.870331 0.436676 0.020966
0.878723 0.440582 0.022034
0.884949 0.444855 0.026337
0.895294 0.452118 0.032440
0.291107 0.251862 0.033295
0.295715 0.253632 0.032532
0.300262 0.255615 0.031647
0.310638 0.260071 0.029449
0.319916 0.264282 0.025543
0.334045 0.266876 0.022186
0.346832 0.270111 0.019287
0.363739 0.273560 0.016357
0.381897 0.279663 0.013062
0.398376 0.285980 0.009003
0.418335 0.292023 0.006256
0.476257 0.311859 0.001160
0.550354 0.334473 0.000000
0.585327 0.345886 0.000000
0.616730 0.356201 0.000000
0.645996 0.366425 0.000000
0.672913 0.373871 0.000824
0.697571 0.383698 0.002380
0.721558 0.390472 0.003906
0.740692 0.400970 0.008026
0.762451 0.407104 0.012177
0.783173 0.416809 0.014191
0.802032 0.422302 0.015717
0.816467 0.427399 0.017792
0.828857 0.436279 0.020599
0.839569 0.440521 0.022308
0.853821 0.444702 0.023895
0.863190 0.452667 0.029327
0.875549 0.459167 0.033905
0.883789 0.463562 0.036041
0.895905 0.468628 0.037537
0.901367 0.475067 0.040344
0.907776 0.479584 0.047272
0.343506 0.287933 0.033051
0.347107 0.289154 0.032471
0.352264 0.290344 0.031921
0.359741 0.292084 0.030853
0.368378 0.295502 0.028046
0.382141 0.300934 0.024017
0.393768 0.304352 0.021057
0.409607 0.306763 0.018005
0.421814 0.310608 0.016205
0.437042 0.313751 0.014618
0.455597 0.322632 0.013214
0.471497 0.328583 0.012268
0.517761 0.346313 0.009186
0.592926 0.369781 0.006561
0.633392 0.382568 0.005524
0.661926 0.390747 0.009064
0.687561 0.402008 0.012146
0.711182 0.409851 0.014038
0.734222 0.419098 0.015656
0.757202 0.425659 0.017639
0.779083 0.435852 0.020203
0.800049 0.441620 0.022491
0.818909 0.447266 0.026520
0.831604 0.456390 0.031647
0.845734 0.461517 0.034943
0.856964 0.466003 0.037231
0.870850 0.473938 0.039093
0.879761 0.479126 0.044495
0.890717 0.484406 0.048737
0.900238 0.491089 0.051056
0.908234 0.496918 0.053528
0.917206 0.500336 0.055878
0.922882 0.503906 0.058594
0.396118 0.323639 0.034851
0.399445 0.324860 0.034393
0.405457 0.325867 0.033813
0.411285 0.327301 0.032990
0.417664 0.329132 0.031769
0.429688 0.331787 0.028839
0.439240 0.334534 0.025238
0.453857 0.340881 0.022461
0.464691 0.343628 0.020569
0.479279 0.346985 0.019226
0.490234 0.350189 0.018158
0.507629 0.356812 0.017365
0.524475 0.364838 0.016724
0.561432 0.379974 0.016235
0.633575 0.403687 0.016693
0.677917 0.417877 0.017487
0.704132 0.425476 0.019592
0.728027 0.436523 0.022614
0.750519 0.442871 0.026703
0.773010 0.450775 0.031036
0.792847 0.458893 0.034119
0.810883 0.464386 0.036713
0.830261 0.473022 0.039398
0.846954 0.479279 0.046387
0.858551 0.484772 0.050171
0.873291 0.493713 0.054138
0.883301 0.498291 0.056427
0.895264 0.502655 0.058929
0.903625 0.509064 0.065277
0.912018 0.515167 0.068024
0.922363 0.519440 0.070465
0.927673 0.523071 0.073059
0.932373 0.527130 0.076599
0.448486 0.356323 0.037018
0.453979 0.358215 0.036652
0.457245 0.360107 0.036255
0.461029 0.361664 0.035736
0.465637 0.363068 0.035004
0.476379 0.365631 0.033875
0.485321 0.367950 0.032532
0.494110 0.370331 0.030670
0.508423 0.374054 0.027924
0.518280 0.379730 0.025787
0.532074 0.383179 0.024078
0.542694 0.386505 0.022675
0.559052 0.390900 0.022095
0.577850 0.401001 0.022308
0.604767 0.411865 0.022583
0.672119 0.436310 0.023956
0.717468 0.449432 0.032593
0.739838 0.459167 0.036102
0.762970 0.465973 0.039795
0.785004 0.475677 0.044678
0.805603 0.481354 0.049164
0.825623 0.487000 0.051727
0.841827 0.495758 0.054596
0.857697 0.501373 0.058411
0.873352 0.508209 0.066986
0.884399 0.516357 0.071442
0.898315 0.521484 0.076782
0.905914 0.525604 0.082458
0.916779 0.533569 0.085327
0.923950 0.536804 0.086884
0.930603 0.540344 0.088623
0.938507 0.544037 0.091064
0.944916 0.550537 0.093658
0.502167 0.389709 0.042236
0.504181 0.390411 0.041626
0.506653 0.391296 0.040955
0.509705 0.392487 0.040039
0.513733 0.395111 0.039032
0.519379 0.398651 0.038177
0.530701 0.401703 0.037292
0.537994 0.403717 0.036316
0.549377 0.406525 0.035370
0.560486 0.410400 0.034302
0.571869 0.416321 0.033661
0.583618 0.419434 0.033173
0.594940 0.422577 0.032806
0.609070 0.426910 0.032898
0.627625 0.436768 0.033295
0.646423 0.443542 0.033875
0.707031 0.464325 0.037781
0.755127 0.480621 0.048401
0.778046 0.487854 0.052429
0.799988 0.497589 0.056671
0.820831 0.503357 0.061981
0.836670 0.511444 0.067871
0.855469 0.517761 0.071106
0.872314 0.523193 0.075745
0.884216 0.531708 0.083405
0.898254 0.537323 0.087555
0.907806 0.542389 0.092407
0.919037 0.548523 0.099548
0.926331 0.554718 0.103729
0.932953 0.557922 0.105621
0.942963 0.561157 0.107147
0.948700 0.564697 0.109406
0.953766 0.572327 0.114899
0.547485 0.424133 0.049469
0.550903 0.424774 0.049316
0.554077 0.425598 0.049194
0.556732 0.426514 0.048950
0.560364 0.428131 0.048706
0.564636 0.430756 0.048248
0.574066 0.435242 0.047729
0.582245 0.437500 0.047089
0.589050 0.439301 0.045654
0.602112 0.442352 0.044678
0.610321 0.444489 0.043213
0.620789 0.449493 0.043579
0.633606 0.455353 0.043518
0.643280 0.458130 0.042664
0.658203 0.462036 0.043030
0.675690 0.468323 0.045288
0.687775 0.476501 0.047577
0.738556 0.495087 0.053162
0.783142 0.506989 0.064728
0.811066 0.518158 0.070282
0.831940 0.524689 0.077148
0.851532 0.534058 0.083923
0.869354 0.539124 0.087708
0.882355 0.544434 0.092377
0.898132 0.553345 0.098206
0.907684 0.557953 0.104218
0.920807 0.562347 0.108521
0.927979 0.569031 0.117920
0.935944 0.575043 0.122864
0.944977 0.578491 0.125549
0.951019 0.581696 0.127472
0.956085 0.585632 0.130615
0.961334 0.592682 0.136597
0.593597 0.457916 0.056580
0.596954 0.458557 0.056519
0.600128 0.459167 0.056427
0.602509 0.459991 0.056274
0.605499 0.461029 0.056122
0.609070 0.462250 0.055969
0.614319 0.464081 0.055786
0.621277 0.466187 0.055603
0.630737 0.469543 0.055328
0.637939 0.473694 0.054962
0.649536 0.476685 0.054779
0.658356 0.478851 0.054382
0.668396 0.482056 0.054535
0.680847 0.484955 0.054565
0.689728 0.488464 0.054535
0.703430 0.494568 0.055267
0.716248 0.499146 0.056824
0.729614 0.503784 0.058868
0.771362 0.519928 0.069397
0.810791 0.535675 0.084259
0.845795 0.545044 0.090302
0.862030 0.554657 0.097595
0.880219 0.559845 0.104095
0.896301 0.564728 0.108215
0.906952 0.573456 0.116608
0.920410 0.577911 0.121735
0.929688 0.581970 0.125488
0.938873 0.588379 0.133606
0.946106 0.594574 0.141083
0.952393 0.598480 0.145172
0.958710 0.604340 0.150116
0.965240 0.608856 0.153931
0.971680 0.612213 0.156738
0.636230 0.485901 0.069122
0.637543 0.486572 0.069183
0.638885 0.487488 0.069183
0.640839 0.488892 0.069244
0.643402 0.490540 0.069244
0.649231 0.492310 0.069183
0.653992 0.494415 0.069122
0.659485 0.496246 0.069061
0.665131 0.497864 0.068848
0.674744 0.499268 0.068481
0.682281 0.501343 0.068329
0.689819 0.503143 0.068054
0.701508 0.505280 0.068085
0.709503 0.509674 0.068390
0.722382 0.514465 0.068848
0.730530 0.516846 0.069366
0.739319 0.520172 0.070953
0.753204 0.524292 0.073395
0.762817 0.531891 0.077881
0.799835 0.543427 0.086975
0.837769 0.559937 0.102570
0.875824 0.574341 0.112518
0.893158 0.579376 0.120758
0.904755 0.583862 0.125885
0.918549 0.592285 0.132446
0.928162 0.596710 0.139099
0.939728 0.601959 0.144104
0.946838 0.609070 0.153656
0.952667 0.613068 0.159210
0.959229 0.617432 0.165833
0.969238 0.623566 0.171631
0.973083 0.628143 0.174286
0.977142 0.631012 0.177490
0.674622 0.514008 0.082428
0.675751 0.514435 0.082458
0.676941 0.514801 0.082489
0.678589 0.515381 0.082520
0.680634 0.516052 0.082581
0.683289 0.516937 0.082642
0.686249 0.517822 0.082642
0.691467 0.519226 0.082764
0.699951 0.520721 0.082825
0.705170 0.522034 0.082733
0.710938 0.523376 0.082581
0.722107 0.525360 0.082703
0.729065 0.528351 0.082550
0.736572 0.533051 0.083221
0.746216 0.535522 0.084167
0.755981 0.538483 0.085663
0.763550 0.540894 0.086884
0.775726 0.544464 0.089081
0.785248 0.552063 0.091736
0.798737 0.556946 0.095459
0.827118 0.568481 0.105591
0.863983 0.583008 0.121674
0.900330 0.597473 0.138275
0.913849 0.603424 0.143311
0.925110 0.609833 0.152435
0.935028 0.614502 0.158203
0.946899 0.618744 0.164368
0.953094 0.626068 0.171997
0.958618 0.631042 0.178467
0.968445 0.635590 0.186768
0.974640 0.640747 0.192261
0.978485 0.646301 0.195007
0.982025 0.649200 0.199738
0.705902 0.536346 0.093109
0.706848 0.536682 0.093201
0.707855 0.537048 0.093292
0.709381 0.537567 0.093384
0.711243 0.538177 0.093506
0.713623 0.538940 0.093597
0.718750 0.539673 0.093597
0.723785 0.540741 0.093658
0.728516 0.542175 0.093750
0.733643 0.543640 0.093872
0.738739 0.544861 0.093903
0.748657 0.547852 0.094147
0.755646 0.551636 0.095093
0.762115 0.553894 0.096008
0.773529 0.556763 0.099182
0.780182 0.559143 0.101746
0.788483 0.562347 0.103821
0.799561 0.565186 0.105499
0.807465 0.572205 0.108093
0.820312 0.576385 0.112457
0.829437 0.580841 0.118652
0.852570 0.593109 0.127075
0.886230 0.608612 0.144135
0.917877 0.618408 0.166077
0.930939 0.625580 0.170441
0.943756 0.631134 0.176727
0.951843 0.635742 0.185608
0.958221 0.640747 0.192444
0.967377 0.648376 0.200836
0.973755 0.652740 0.207153
0.979279 0.657257 0.212219
0.982819 0.661377 0.215515
0.987152 0.666595 0.222229
0.735931 0.557953 0.107941
0.736725 0.558258 0.108032
0.737793 0.558624 0.108154
0.739075 0.559052 0.108276
0.740875 0.559692 0.108459
0.744751 0.560394 0.108673
0.749390 0.561188 0.108856
0.752197 0.561981 0.108978
0.756592 0.563354 0.109375
0.761292 0.564819 0.109711
0.767517 0.567444 0.110382
0.774933 0.569946 0.111053
0.781464 0.573273 0.113068
0.787811 0.575195 0.114960
0.798004 0.577148 0.117035
0.805023 0.580048 0.119354
0.811157 0.582306 0.120911
0.822937 0.586731 0.123474
0.829895 0.592072 0.125702
0.837250 0.595581 0.128937
0.849213 0.599457 0.136353
0.857544 0.607727 0.141479
0.876221 0.614746 0.153656
0.907501 0.629578 0.170959
0.931030 0.638916 0.191345
0.949036 0.647614 0.196503
0.956207 0.652222 0.207123
0.963104 0.656403 0.213776
0.971466 0.662842 0.224030
0.977325 0.669189 0.229095
0.983185 0.673370 0.235504
0.989532 0.676331 0.240173
0.993927 0.679779 0.243530
0.765015 0.578949 0.123718
0.766418 0.579193 0.123840
0.768188 0.579498 0.123962
0.770508 0.579926 0.124146
0.773132 0.580505 0.124420
0.775024 0.581146 0.124695
0.777313 0.581879 0.125000
0.779968 0.582764 0.125397
0.783478 0.583893 0.125916
0.787811 0.586121 0.126587
0.796143 0.588684 0.127228
0.800781 0.591248 0.127808
0.806000 0.593231 0.128632
0.812439 0.595245 0.130493
0.821838 0.597076 0.133118
0.827911 0.599335 0.137024
0.834015 0.604095 0.139801
0.840729 0.608429 0.142181
0.851135 0.611572 0.145416
0.857697 0.614441 0.151276
0.866058 0.617889 0.155945
0.875641 0.623749 0.160492
0.883362 0.629944 0.169861
0.898865 0.635620 0.176575
0.926941 0.650024 0.194489
0.947571 0.658630 0.215027
0.961151 0.668488 0.227448
0.970245 0.672577 0.238007
0.975433 0.676514 0.245422
0.980988 0.683563 0.250610
0.988373 0.689148 0.259338
0.993774 0.692200 0.262543
0.997040 0.695282 0.265961
0.795654 0.598724 0.140503
0.796478 0.598938 0.140625
0.797272 0.599213 0.140778
0.798309 0.599548 0.140961
0.799744 0.600159 0.141235
0.801453 0.601227 0.141510
0.803528 0.602570 0.141876
0.805908 0.603973 0.142212
0.808777 0.605743 0.142639
0.813843 0.608124 0.143402
0.820862 0.609497 0.144287
0.825134 0.610779 0.145355
0.829437 0.612122 0.147430
0.834747 0.614075 0.150787
0.841339 0.616180 0.153931
0.849548 0.618073 0.155945
0.855255 0.621674 0.158691
0.860809 0.627106 0.162903
0.870331 0.630005 0.169006
0.877197 0.633270 0.172699
0.883453 0.636261 0.176361
0.893219 0.640198 0.181152
0.900757 0.647430 0.189484
0.908234 0.651764 0.195129
0.919952 0.656403 0.205536
0.944000 0.669922 0.223663
0.958557 0.677979 0.242523
0.973724 0.688721 0.260162
0.979492 0.692566 0.266602
0.984894 0.696625 0.276398
0.993713 0.703827 0.281433
0.997437 0.708008 0.285004
1.000000 0.711121 0.290192
0.821503 0.617401 0.157288
0.822113 0.617645 0.157440
0.822784 0.617828 0.157593
0.823730 0.618164 0.157806
0.824982 0.618622 0.158112
0.826569 0.619171 0.158508
0.828369 0.620026 0.158966
0.830505 0.621490 0.159515
0.832855 0.623138 0.160095
0.836243 0.625580 0.161377
0.840912 0.627930 0.163696
0.848053 0.629425 0.166382
0.852112 0.630920 0.168976
0.856293 0.632507 0.170624
0.861481 0.634827 0.173248
0.870209 0.637054 0.176086
0.875275 0.639099 0.178741
0.880981 0.645020 0.184265
0.886475 0.648804 0.189636
0.896057 0.651733 0.193481
0.902405 0.654968 0.199677
0.908234 0.657990 0.206146
0.917755 0.664001 0.211090
0.923920 0.669037 0.216858
0.930542 0.673309 0.225983
0.938812 0.677094 0.231506
0.955414 0.689606 0.250122
0.972290 0.697388 0.270874
0.982086 0.709351 0.295319
0.992462 0.712769 0.298187
0.997162 0.716675 0.305420
1.000000 0.721558 0.311279
1.000000 0.726807 0.314728
0.845428 0.636047 0.175049
0.846466 0.636230 0.175201
0.847412 0.636475 0.175415
0.848236 0.636810 0.175690
0.849365 0.637268 0.176117
0.850739 0.637787 0.176544
0.852386 0.638458 0.177155
0.854309 0.639282 0.177948
0.856384 0.640991 0.178802
0.859009 0.643311 0.179962
0.862335 0.646362 0.183044
0.869049 0.648346 0.186890
0.873535 0.649963 0.189575
0.877319 0.651611 0.191681
0.881744 0.653625 0.194305
0.887054 0.656036 0.198822
0.895477 0.658234 0.204315
0.900391 0.662292 0.207489
0.905701 0.667480 0.211548
0.911346 0.670166 0.215454
0.919800 0.673187 0.223785
0.925232 0.676239 0.228271
0.930450 0.680023 0.234222
0.937836 0.686462 0.241760
0.944641 0.689911 0.247253
0.949799 0.694092 0.256866
0.954132 0.697845 0.263977
0.970001 0.709656 0.282288
0.981567 0.717468 0.301208
0.994110 0.729675 0.328796
1.000000 0.733032 0.330414
1.000000 0.735291 0.334473
1.000000 0.739380 0.339020
0.868683 0.654907 0.195068
0.869537 0.655121 0.195312
0.870575 0.655396 0.195648
0.871307 0.655731 0.196045
0.872284 0.656219 0.197174
0.873444 0.656738 0.198578
0.874908 0.657440 0.200287
0.876556 0.658234 0.202301
0.878418 0.659424 0.204224
0.880493 0.661438 0.205505
0.883514 0.664368 0.207458
0.887238 0.667175 0.209625
0.894043 0.668884 0.211914
0.897644 0.670563 0.214233
0.901367 0.672211 0.217224
0.905945 0.674377 0.223145
0.911102 0.676575 0.226440
0.918640 0.678986 0.229736
0.922974 0.683807 0.235626
0.927399 0.687805 0.241669
0.931549 0.690308 0.245728
0.939240 0.693329 0.250488
0.945099 0.696259 0.259186
0.949646 0.700836 0.264343
0.953918 0.706909 0.273499
0.958069 0.710419 0.280029
0.963104 0.714447 0.288788
0.969666 0.719116 0.298492
0.980316 0.729767 0.315643
0.993744 0.737213 0.334320
1.000000 0.748932 0.357483
1.000000 0.751587 0.359253
1.000000 0.753906 0.366150
0.888336 0.673431 0.217651
0.889130 0.673615 0.218140
0.890106 0.673859 0.218811
0.891327 0.674164 0.219604
0.893097 0.674622 0.220825
0.894684 0.675171 0.222290
0.895966 0.675842 0.223816
0.897461 0.676605 0.224884
0.899139 0.677460 0.226074
0.901001 0.678436 0.227417
0.903381 0.680756 0.229126
0.906342 0.683685 0.231232
0.909454 0.686554 0.235626
0.915497 0.688141 0.239777
0.919830 0.689789 0.242279
0.923248 0.691559 0.245087
0.927124 0.693756 0.248566
0.931000 0.695923 0.253326
0.936249 0.698059 0.259491
0.942780 0.703094 0.263519
0.946838 0.707245 0.269287
0.950562 0.709869 0.276459
0.954834 0.713135 0.281982
0.958832 0.716248 0.288116
0.964081 0.721436 0.297241
0.969757 0.727020 0.306458
0.973663 0.730652 0.314758
0.977692 0.734802 0.322998
0.981445 0.740295 0.333618
0.993134 0.749359 0.350281
1.000000 0.756683 0.369019
1.000000 0.767334 0.389130
1.000000 0.771118 0.399841
0.907410 0.691223 0.242645
0.907776 0.691437 0.242981
0.908173 0.691650 0.243286
0.908752 0.691956 0.243744
0.909485 0.692383 0.244385
0.911102 0.692963 0.245178
0.913422 0.693573 0.246094
0.916046 0.694305 0.247162
0.918335 0.695129 0.248413
0.919952 0.695953 0.249725
0.921844 0.696991 0.251556
0.924316 0.698700 0.255890
0.926941 0.701569 0.259674
0.929718 0.704742 0.262299
0.932465 0.706909 0.264984
0.937347 0.708557 0.268860
0.942749 0.710571 0.274902
0.946442 0.712799 0.278534
0.949982 0.715057 0.282379
0.953339 0.717285 0.286835
0.956818 0.722595 0.295532
0.960083 0.726837 0.300568
0.965485 0.729431 0.309082
