filters/luts/lut1.cube
LUT_3D_SIZE 6
0.067390 0.065572 0.065572
0.163362 0.058954 0.058954
0.361382 -0.056153 -0.056153
0.633629 -0.134294 -0.134294
0.908598 -0.200890 -0.200890
1.047688 -0.233599 -0.233599
-0.140472 0.208237 -0.141486
0.132770 0.201257 -0.152592
0.342723 0.182347 0.077725
0.623392 0.171593 -0.121651
0.901691 0.128978 -0.196690
1.042307 -0.114596 -0.230005
-0.278531 0.383322 -0.278920
-0.238757 0.380843 -0.282746
0.347601 0.355398 -0.223685
0.580769 0.395059 0.213342
0.866006 0.427071 0.085885
1.017216 0.385824 -0.177636
-0.464656 0.630542 -0.464848
-0.440600 0.628874 -0.467344
0.154052 0.615687 -0.486504
0.605817 0.576841 -0.108682
0.818797 0.650090 0.406519
0.968598 0.615129 0.299851
-0.688301 0.930602 -0.688427
-0.669740 0.929362 -0.690353
-0.489466 0.919152 -0.705440
0.534963 0.898494 -0.734113
0.874894 0.854970 -0.401912
0.946057 0.809566 0.527538
-0.809687 1.093983 -0.809795
-0.797471 1.093134 -0.811081
-0.689894 1.086273 -0.821310
-0.297053 1.071918 -0.842062
0.709813 1.051500 -0.869658
1.008881 1.008879 -0.583405
0.042875 0.036911 0.240387
0.175509 -0.039602 0.220840
0.366709 -0.076944 0.178723
0.639656 -0.149616 0.158460
0.913638 -0.213243 0.100464
1.050884 -0.241449 -0.137961
-0.147199 0.204181 0.204181
0.125690 0.196948 0.196948
0.357743 0.183392 0.183392
0.631989 0.146678 0.146678
0.907651 -0.091008 -0.091008
1.046869 -0.160735 -0.160735
-0.280812 0.381809 -0.195081
-0.233997 0.378668 -0.184832
0.346782 0.354746 -0.110888
0.587369 0.391367 0.243751
0.872693 0.414743 0.168498
1.022323 0.375208 -0.075858
-0.466072 0.629604 -0.420685
-0.444696 0.628200 -0.426932
0.134302 0.614990 -0.448494
0.605207 0.576649 0.182470
0.820670 0.648237 0.418155
0.972452 0.611494 0.318860
-0.689366 0.929928 -0.656959
-0.676990 0.929302 -0.667468
-0.503718 0.919284 -0.682858
0.527721 0.898268 -0.713219
0.874592 0.854829 -0.364221
0.946430 0.809053 0.537905
-0.810431 1.093469 -0.788387
-0.800795 1.092913 -0.793244
-0.695261 1.086181 -0.803479
-0.309772 1.071694 -0.824990
0.706615 1.051222 -0.853450
1.008725 1.008724 -0.563127
-0.092095 -0.093903 0.445175
0.153377 -0.109687 0.443085
0.329850 0.107194 0.334976
0.635811 -0.148940 0.393542
0.922712 -0.237527 0.416842
1.062493 -0.269225 0.367294
-0.160443 0.175079 0.433144
0.090626 0.180311 0.428714
0.333985 0.201367 0.339072
0.637055 0.125453 0.388968
0.921583 -0.164530 0.403520
1.059867 -0.208087 0.357611
-0.290300 0.375440 0.375440
-0.245669 0.372416 0.372416
0.341357 0.351893 0.351893
0.626141 0.337921 0.337921
0.904130 0.311428 0.311428
1.044003 0.290736 0.290736
-0.472043 0.625618 0.195405
-0.451079 0.624258 0.176559
-0.251947 0.615523 -0.234692
0.602697 0.576168 0.371404
0.832349 0.625645 0.442076
0.991177 0.584085 0.371411
-0.693773 0.927001 -0.488533
-0.681584 0.926340 -0.502329
-0.593302 0.922006 -0.588343
0.471278 0.898959 -0.628883
0.873909 0.854095 -0.154735
0.948287 0.802717 0.567535
-0.813554 1.091455 -0.685991
-0.803916 1.090895 -0.691188
-0.736642 1.087103 -0.732995
-0.391248 1.071962 -0.758469
0.688638 1.050693 -0.791474
1.008174 1.008172 -0.481263
-0.171906 -0.172668 0.733223
0.104568 -0.182315 0.731906
0.454706 -0.232038 0.709869
0.578954 0.163109 0.553052
0.891967 -0.172806 0.649677
1.056368 -0.265482 0.610626
-0.218905 0.139138 0.725825
-0.135335 0.110836 0.725221
0.441413 -0.143200 0.707366
0.580889 0.230458 0.555045
0.893919 0.066528 0.647909
1.056909 -0.211933 0.606383
-0.340352 0.398075 0.692694
-0.304135 0.392645 0.691966
0.319046 0.330570 0.691810
0.587880 0.364022 0.562139
0.904165 0.304276 0.624545
1.058219 0.256338 0.575902
-0.483837 0.617475 0.617475
-0.463727 0.615942 0.615942
-0.281951 0.606086 0.606086
0.608115 0.575614 0.575614
0.893479 0.563571 0.563571
1.035327 0.554849 0.554849
-0.702679 0.921023 0.508984
-0.690883 0.920226 0.501201
-0.605312 0.915430 0.428191
0.333692 0.897685 0.156880
0.871124 0.852407 0.537973
0.962666 0.801007 0.651028
-0.819721 1.087361 -0.346731
-0.810183 1.086756 -0.360956
-0.744044 1.082824 -0.436831
-0.417305 1.067919 -0.492628
0.679855 1.046310 -0.550662
1.006527 1.006526 0.318422
-0.260875 -0.261310 1.082608
-0.168053 -0.268788 1.081569
0.498088 -0.317790 1.071370
0.765432 -0.338815 0.999820
0.827141 0.238448 0.811609
1.007269 -0.105795 0.805329
-0.297436 -0.145280 1.077082
-0.242346 -0.196660 1.077954
0.472800 -0.264790 1.068797
0.761676 -0.303288 1.003307
0.828239 0.283943 0.812916
1.008874 0.156348 0.805349
-0.409545 0.412308 1.053070
-0.378053 0.398802 1.053754
0.259635 0.274775 1.059156
0.729432 0.137906 1.015990
0.832063 0.395502 0.816614
1.016156 0.325860 0.800983
-0.556640 0.669173 1.001826
-0.538487 0.665081 1.001815
-0.382891 0.630438 1.003642
0.601932 0.547661 0.998169
0.843436 0.592899 0.828351
1.029353 0.555233 0.800772
-0.716580 0.911302 0.911302
-0.705123 0.910370 0.910370
-0.623773 0.904731 0.904731
0.278795 0.885332 0.885332
0.869286 0.849211 0.849211
1.015696 0.845305 0.845305
-0.829425 1.080736 0.711786
-0.820127 1.080058 0.709351
-0.755554 1.075906 0.684351
-0.442512 1.060839 0.652687
0.771659 1.029342 0.733271
1.002866 1.002864 0.802409
-0.308367 -0.308713 1.272733
-0.255468 -0.313711 1.271945
0.431252 -0.349541 1.266291
0.736713 -0.401927 1.242844
0.920233 -0.370719 1.137808
0.951680 0.277342 0.951679
-0.334335 -0.242840 1.268916
-0.293972 -0.261036 1.269051
0.407071 -0.305023 1.263498
0.727974 -0.368475 1.241576
0.919720 -0.341866 1.140897
0.952574 0.315553 0.952573
-0.422561 0.345659 1.252513
-0.395101 0.334890 1.252536
0.194563 0.216421 1.254132
0.677621 -0.164929 1.237595
0.915048 -0.193538 1.155553
0.955698 0.416240 0.955696
-0.548912 0.609518 1.218228
-0.530099 0.604371 1.218323
-0.374596 0.570526 1.218667
0.584938 0.528143 1.206668
0.893796 0.487257 1.159593
0.964843 0.605091 0.964841
-0.692168 0.844703 1.160573
-0.679799 0.843070 1.160110
-0.586245 0.827635 1.158905
0.370700 0.804237 1.145658
0.868393 0.836135 1.096593
0.984746 0.858180 0.984745
-0.842897 1.071220 1.071220
-0.833852 1.070556 1.070556
-0.771392 1.066023 1.066023
-0.475053 1.050690 1.050690
0.760070 1.021357 1.021357
1.000022 1.000020 1.000020
