filters/luts/lut2.cube
# Created by Benjamin (IWLTBAP): https://luts.iwltbap.com
# Copyright: (C) Copyright 2021 Triune Films and IWLTBAP SAS
# Cannot be resold, shared or otherwise redistributed
TITLE "Triune Films Superhero LUTs (Rec.709, sRGB, DCI-P3)"
LUT_3D_SIZE 9
0.000000 0.000793 0.000031
0.129578 0.027985 0.020264
0.260712 0.048431 0.042084
0.385681 0.070404 0.050018
0.503265 0.086304 0.051270
0.615997 0.099152 0.053101
0.724854 0.110748 0.060791
0.827576 0.122345 0.071167
0.921387 0.133301 0.082886
0.009583 0.094238 0.012695
0.130035 0.122192 0.032227
0.266968 0.144684 0.041595
0.396667 0.158966 0.047455
0.515594 0.168945 0.050690
0.629059 0.179077 0.056641
0.737976 0.190918 0.065277
0.840149 0.206116 0.076721
0.932220 0.218079 0.086395
0.011200 0.175354 0.027740
0.117432 0.198151 0.036469
0.260559 0.237854 0.045258
0.391571 0.258118 0.036774
0.518829 0.266937 0.045959
0.638153 0.274200 0.054688
0.749939 0.284576 0.064606
0.853149 0.299683 0.077179
0.945435 0.310577 0.087250
0.049408 0.255615 0.032501
0.112823 0.269745 0.034088
0.240295 0.307892 0.047302
0.391785 0.353760 0.059753
0.512268 0.375549 0.034668
0.637512 0.382385 0.040588
0.756927 0.390381 0.053009
0.865204 0.402344 0.068939
0.960968 0.411804 0.082184
0.082428 0.334595 0.036469
0.122467 0.342804 0.037994
0.217346 0.373199 0.050568
0.381012 0.424011 0.075012
0.523041 0.471741 0.072662
0.633667 0.497345 0.030609
0.754578 0.503418 0.030304
0.871094 0.510376 0.045624
0.975494 0.517151 0.062164
0.107330 0.409698 0.052521
0.139709 0.416138 0.053741
0.208221 0.439392 0.060272
0.364319 0.492615 0.076935
0.527985 0.545807 0.095581
0.650055 0.591797 0.081696
0.753357 0.620422 0.029266
0.872375 0.625153 0.017883
0.988068 0.627228 0.029114
0.129181 0.483093 0.071045
0.159241 0.489166 0.071533
0.213287 0.507599 0.075012
0.350464 0.556976 0.082520
0.522369 0.620026 0.096771
0.659363 0.661194 0.114990
0.761292 0.705292 0.097870
0.869843 0.741058 0.032867
0.996765 0.748657 0.004486
0.146423 0.554749 0.087341
0.175781 0.560822 0.087769
0.223358 0.575775 0.089905
0.339722 0.619019 0.091553
0.509247 0.684357 0.099121
0.649658 0.730957 0.116302
0.760284 0.758118 0.145294
0.855377 0.809265 0.127167
0.981873 0.858032 0.042175
0.161163 0.624359 0.101044
0.192810 0.631104 0.101410
0.238556 0.645172 0.102905
0.330353 0.679291 0.101044
0.486511 0.738495 0.102173
0.629486 0.790985 0.114288
0.745728 0.823853 0.145020
0.836639 0.845734 0.195923
0.933380 0.903931 0.163818
0.006439 0.023651 0.118286
0.126770 0.040222 0.118286
0.260376 0.057800 0.124359
0.385681 0.076233 0.132050
0.503845 0.090607 0.136993
0.617859 0.102875 0.141907
0.727020 0.114227 0.149689
0.829742 0.126007 0.162201
0.922485 0.135895 0.174835
0.011993 0.113953 0.117279
0.124664 0.128418 0.124054
0.270874 0.149261 0.132996
0.401031 0.162933 0.138885
0.519409 0.172394 0.142853
0.633423 0.182404 0.148224
0.742310 0.194794 0.156982
0.843597 0.210785 0.171478
0.934265 0.222290 0.183228
0.018341 0.193115 0.104370
0.112152 0.209656 0.110138
0.260986 0.242706 0.127106
0.396301 0.260712 0.135803
0.524475 0.269653 0.143433
0.643799 0.277252 0.150421
0.755005 0.288666 0.160919
0.856842 0.305084 0.177002
0.947693 0.316681 0.189270
0.050629 0.264954 0.093170
0.111115 0.278381 0.095184
0.235535 0.313324 0.109436
0.396484 0.358948 0.132507
0.516296 0.378418 0.136108
0.642548 0.385498 0.144745
0.761322 0.394165 0.157806
0.867615 0.406433 0.174622
0.961853 0.415863 0.188141
0.081116 0.338348 0.091125
0.122467 0.347900 0.091125
0.211670 0.376892 0.099487
0.380066 0.429077 0.120239
0.530151 0.478546 0.141174
0.636353 0.500153 0.137054
0.756958 0.505829 0.143890
0.872467 0.513062 0.159332
0.975647 0.519806 0.174408
0.107330 0.411377 0.095184
0.140808 0.419281 0.094391
0.205292 0.442413 0.098724
0.357605 0.495697 0.113251
0.532104 0.553070 0.138092
0.654724 0.597443 0.157013
0.754303 0.622162 0.141083
0.872833 0.626038 0.137939
0.988037 0.628479 0.148621
0.129456 0.484283 0.102905
0.160461 0.491943 0.101410
0.211151 0.510559 0.104004
0.338806 0.558075 0.113953
0.519318 0.623810 0.134033
0.660522 0.666016 0.168701
0.761658 0.707886 0.182831
0.870087 0.742157 0.147400
0.996887 0.748871 0.127930
0.146973 0.556244 0.113617
0.176636 0.563782 0.112213
0.222351 0.579407 0.114288
0.328033 0.619568 0.121216
0.499512 0.683899 0.134613
0.646179 0.733124 0.165649
0.757812 0.760468 0.210052
0.854126 0.810669 0.216248
0.982269 0.859070 0.156036
0.161407 0.626190 0.127472
0.193420 0.634491 0.126251
0.238403 0.649384 0.128082
0.323395 0.681122 0.133453
0.474121 0.735901 0.138641
0.622986 0.790802 0.161346
0.741364 0.825256 0.202209
0.833557 0.847015 0.262268
0.932617 0.905243 0.250244
0.000000 0.031525 0.217957
0.116455 0.039429 0.229065
0.255219 0.069458 0.231079
0.386719 0.092987 0.229919
0.507233 0.106201 0.233826
0.621796 0.115479 0.238861
0.729828 0.124634 0.245605
0.830658 0.135529 0.258911
0.920898 0.143860 0.271271
0.011993 0.130585 0.233704
0.104156 0.126862 0.242645
0.258850 0.146149 0.246216
0.407074 0.170990 0.242950
0.527039 0.182831 0.243439
0.639618 0.192108 0.247681
0.746582 0.204041 0.256378
0.845184 0.220276 0.272125
0.933136 0.230804 0.283813
0.027893 0.222778 0.229919
0.094788 0.228760 0.237549
0.241669 0.246979 0.245880
0.411469 0.267517 0.249084
0.537720 0.276367 0.250458
0.652344 0.284210 0.254944
0.760345 0.296875 0.265564
0.858643 0.314240 0.282440
0.946411 0.325012 0.293915
0.048737 0.295898 0.210602
0.099762 0.305603 0.213318
0.210968 0.329437 0.218323
0.398071 0.367554 0.235352
0.522736 0.382080 0.249176
0.650574 0.390198 0.257050
0.766449 0.400085 0.269135
0.868927 0.412994 0.285034
0.960022 0.421692 0.296021
0.075653 0.360718 0.187897
0.116455 0.368927 0.186462
0.196747 0.391785 0.188934
0.370575 0.439056 0.202209
0.536560 0.487274 0.236237
0.638031 0.502960 0.252045
0.759918 0.508942 0.261749
0.873413 0.516968 0.275848
0.973694 0.523438 0.287872
0.103821 0.423950 0.169159
0.138306 0.431152 0.164917
0.199066 0.451935 0.166565
0.343384 0.501038 0.179443
0.530945 0.560547 0.211334
0.657776 0.603485 0.251740
0.754517 0.624115 0.256622
0.873230 0.627197 0.259033
0.986908 0.630127 0.269043
0.127716 0.490326 0.157898
0.159241 0.498016 0.153656
0.208588 0.516357 0.154419
0.325256 0.560150 0.168243
0.509979 0.625854 0.197540
0.658234 0.670227 0.243256
0.761353 0.710938 0.276123
0.870697 0.743927 0.262115
0.997009 0.749115 0.251587
0.146149 0.558990 0.156647
0.176208 0.566986 0.153900
0.221497 0.583374 0.155670
0.317871 0.621063 0.169617
0.484650 0.681702 0.192810
0.639099 0.733948 0.231903
0.754181 0.762787 0.281952
0.852966 0.812469 0.305603
0.983673 0.860931 0.269165
0.160461 0.627563 0.165161
0.192230 0.636810 0.163971
0.236969 0.652222 0.166809
0.316284 0.682587 0.180939
0.457397 0.731750 0.194794
0.612671 0.788879 0.223358
0.735413 0.826324 0.266296
0.830353 0.848389 0.327789
0.932007 0.906555 0.335602
0.014374 0.043243 0.313660
0.110443 0.046875 0.330780
0.238068 0.071045 0.344604
0.384003 0.105286 0.339905
0.509644 0.125916 0.334137
0.626343 0.139679 0.338928
0.735413 0.148193 0.348083
0.833160 0.156555 0.360260
0.918427 0.161194 0.368378
0.031067 0.139435 0.334473
0.097473 0.127472 0.346375
0.228882 0.132690 0.359802
0.397461 0.167023 0.356537
0.532623 0.194153 0.349274
0.648651 0.211914 0.352356
0.754364 0.225494 0.361816
0.847717 0.239471 0.374481
0.929810 0.246979 0.383392
0.046204 0.237671 0.342010
0.093231 0.238159 0.354401
0.204163 0.242462 0.369019
0.402374 0.264954 0.371124
0.555145 0.285400 0.363312
0.668640 0.299011 0.364288
0.769989 0.314117 0.373566
0.860352 0.330017 0.386261
0.941772 0.338287 0.395050
0.059387 0.323425 0.333069
0.097870 0.331421 0.342133
0.172668 0.344696 0.353424
0.379608 0.374634 0.366333
0.556244 0.395508 0.370789
0.673401 0.403046 0.373291
0.777222 0.412598 0.381683
0.870331 0.424866 0.393616
0.954620 0.431915 0.401428
0.074707 0.394897 0.315979
0.109070 0.403473 0.320221
0.163544 0.419617 0.325623
0.335724 0.457520 0.333923
0.543610 0.499329 0.354950
0.645569 0.507568 0.372650
0.766541 0.515137 0.380402
0.874390 0.523987 0.391327
0.968567 0.529816 0.399872
0.094391 0.456787 0.296143
0.125854 0.464325 0.296143
0.176208 0.480896 0.298492
0.308289 0.519379 0.302155
0.517944 0.572754 0.317719
0.661682 0.611267 0.356384
0.754181 0.625885 0.374664
0.873566 0.628998 0.380402
0.983582 0.632751 0.389099
0.118713 0.516357 0.277832
0.148254 0.522888 0.274719
0.195374 0.537994 0.273102
0.300995 0.573730 0.276611
0.486664 0.632050 0.289062
0.650909 0.676239 0.325836
0.761353 0.715179 0.370148
0.871674 0.746185 0.377930
0.996613 0.749298 0.375702
0.139465 0.575775 0.264069
0.168854 0.582092 0.259155
0.212921 0.596008 0.254944
0.301697 0.628693 0.259460
0.460327 0.682800 0.271729
0.625824 0.736206 0.303131
0.749420 0.766144 0.352203
0.852142 0.814911 0.393463
0.986481 0.863922 0.382843
0.156342 0.636749 0.255096
0.186798 0.643494 0.249237
0.229218 0.656952 0.244324
0.304718 0.685669 0.251953
0.436462 0.729706 0.264069
0.598480 0.787628 0.288818
0.728302 0.827911 0.330536
0.827179 0.850250 0.391113
0.931396 0.907837 0.420135
0.040771 0.059845 0.403473
0.116455 0.064514 0.420532
0.221313 0.076660 0.446167
0.374786 0.110779 0.455017
0.514404 0.142548 0.445038
0.628601 0.161957 0.438202
0.734955 0.178711 0.444519
0.831696 0.192993 0.458038
0.911407 0.195099 0.466675
0.053070 0.151001 0.425140
0.105560 0.136841 0.437561
0.209534 0.130280 0.459442
0.380066 0.158966 0.470551
0.535675 0.201874 0.462860
0.654907 0.232605 0.457703
0.758698 0.257111 0.464447
0.847809 0.274750 0.475677
0.921692 0.279541 0.483704
0.065826 0.248230 0.438904
0.103058 0.246521 0.452057
0.183655 0.240875 0.471313
0.372345 0.255920 0.485596
0.554016 0.286560 0.479797
0.679626 0.316345 0.475220
0.778992 0.342865 0.481079
0.860870 0.360229 0.489868
0.931793 0.365875 0.496338
0.075165 0.338135 0.435333
0.107330 0.345917 0.447784
0.157532 0.352814 0.463593
0.337708 0.372070 0.485413
0.559296 0.400085 0.491119
0.697601 0.421814 0.488464
0.792755 0.438049 0.493225
0.870758 0.449463 0.500793
0.942688 0.453705 0.505859
0.084198 0.416809 0.423218
0.113495 0.426270 0.432159
0.147217 0.438538 0.442383
0.284607 0.465973 0.460327
0.536102 0.507629 0.479523
0.686279 0.528320 0.491364
0.787292 0.536713 0.498688
0.875061 0.542450 0.506195
0.955933 0.545166 0.511261
0.094025 0.484558 0.409821
0.121246 0.493835 0.415405
0.152344 0.507721 0.422394
0.251862 0.536560 0.432312
0.487671 0.584839 0.446777
0.667542 0.621399 0.472137
0.760223 0.630157 0.496002
0.873657 0.635101 0.502563
0.974487 0.639008 0.508545
0.106628 0.545685 0.396942
0.132111 0.553406 0.400085
0.166351 0.566650 0.403900
0.250214 0.594635 0.410187
0.440643 0.644073 0.415833
0.636383 0.685883 0.433167
0.762177 0.720551 0.473114
0.872437 0.748016 0.498474
0.994049 0.749420 0.500488
0.122803 0.602600 0.386810
0.147736 0.609222 0.387451
0.185547 0.621552 0.388153
0.262695 0.647827 0.391815
0.411194 0.694153 0.390930
0.594208 0.744598 0.397919
0.738403 0.773895 0.431763
0.850891 0.818176 0.486115
0.990875 0.868103 0.500305
0.140015 0.658234 0.378632
0.166595 0.663452 0.375854
0.205505 0.674042 0.373322
0.275116 0.697784 0.374725
0.397919 0.737732 0.373322
0.559875 0.795013 0.371033
0.707520 0.835358 0.396423
0.820770 0.854401 0.456207
0.930389 0.908813 0.507263
0.067871 0.075684 0.491180
0.129456 0.079559 0.506775
0.218231 0.086945 0.534851
0.366547 0.113617 0.557983
0.521698 0.159210 0.559448
0.641754 0.189423 0.549011
0.740112 0.210785 0.543610
0.827179 0.231110 0.547455
0.895966 0.245605 0.553162
0.075653 0.165100 0.512695
0.119354 0.150208 0.524384
0.206024 0.136566 0.547852
0.367706 0.154907 0.571777
0.540070 0.209839 0.576324
0.668976 0.257843 0.569794
0.765839 0.289429 0.566772
0.844666 0.314026 0.569061
0.906250 0.328674 0.573029
0.086273 0.263092 0.529205
0.116791 0.259888 0.541229
0.177277 0.243866 0.560150
0.348236 0.247131 0.584900
0.548584 0.286957 0.591339
0.689514 0.334473 0.586884
0.785309 0.371399 0.586151
0.857422 0.398071 0.587524
0.914825 0.410339 0.589996
0.092834 0.353027 0.528900
0.120300 0.360535 0.540985
0.157288 0.363373 0.556915
0.303772 0.371033 0.584259
0.536560 0.395599 0.599854
0.698608 0.429626 0.598602
0.797241 0.460815 0.600220
0.866425 0.483856 0.601501
0.923187 0.490753 0.602234
0.097504 0.432892 0.515533
0.123444 0.443573 0.525604
0.149536 0.453613 0.536743
0.247192 0.468994 0.558350
0.495728 0.501434 0.588348
0.691986 0.533966 0.599731
0.801300 0.558777 0.605072
0.871979 0.573151 0.610229
0.933197 0.574036 0.612396
0.103424 0.505707 0.502960
0.127991 0.515961 0.510925
0.151093 0.527527 0.519257
0.215424 0.545563 0.532562
0.438843 0.584778 0.558289
0.664948 0.625885 0.579742
0.784698 0.647430 0.601532
0.872131 0.655487 0.614899
0.949829 0.656281 0.620056
0.109100 0.566589 0.492981
0.131805 0.574615 0.498596
0.154846 0.585236 0.504181
0.207672 0.604736 0.513062
0.379242 0.644897 0.529205
0.615601 0.689880 0.547668
0.762421 0.725006 0.578796
0.870667 0.747925 0.617828
0.978882 0.750214 0.623077
0.114471 0.620575 0.483765
0.136383 0.627411 0.487030
0.161163 0.637695 0.490509
0.216461 0.658051 0.497864
0.347015 0.696045 0.507782
0.557556 0.746094 0.519440
0.725739 0.779663 0.537506
0.847626 0.818970 0.587372
0.990051 0.868286 0.622192
0.121246 0.672607 0.476135
0.142731 0.677673 0.476959
0.171356 0.687134 0.478638
0.231812 0.707611 0.484589
0.344818 0.743347 0.491364
0.506195 0.799316 0.492981
0.677551 0.841034 0.501282
0.810822 0.858002 0.543732
0.925751 0.905487 0.600922
0.092438 0.088745 0.575073
0.144836 0.093018 0.589844
0.221497 0.099915 0.617004
0.356567 0.117065 0.647827
0.523865 0.167480 0.661835
0.656189 0.219452 0.659485
0.755310 0.249756 0.653320
0.832306 0.270996 0.645782
0.890045 0.286316 0.635468
0.097107 0.180237 0.597260
0.134979 0.165344 0.608398
0.208588 0.146973 0.629913
0.354614 0.153870 0.659668
0.537811 0.209259 0.676849
0.679901 0.281036 0.678223
0.778229 0.324554 0.673859
0.848236 0.351685 0.666534
0.900085 0.367279 0.657440
0.105927 0.279572 0.614532
0.131531 0.275269 0.625122
0.175995 0.249146 0.639893
0.321136 0.231598 0.667816
0.533997 0.274719 0.688171
0.692291 0.346954 0.691437
0.792938 0.398499 0.689758
0.858643 0.430603 0.683868
0.907227 0.445618 0.676270
0.110107 0.368805 0.615509
0.133514 0.375183 0.626648
0.160675 0.373291 0.640289
0.270508 0.365631 0.667175
0.505646 0.384918 0.694000
0.689697 0.429718 0.697998
0.798798 0.476562 0.699280
0.864807 0.509125 0.696320
0.912170 0.522522 0.689362
0.110779 0.448059 0.598969
0.133820 0.459167 0.608185
0.156067 0.467438 0.618408
0.222687 0.472076 0.639557
0.446411 0.490936 0.678497
0.668945 0.522766 0.696075
0.795837 0.561066 0.702057
0.867737 0.590485 0.704315
0.915619 0.602020 0.699707
0.113495 0.523621 0.581726
0.135529 0.534515 0.589081
0.156097 0.544373 0.596680
0.199249 0.553345 0.610504
0.378510 0.576782 0.645416
0.630615 0.614319 0.678497
0.783661 0.648102 0.696594
0.867737 0.672058 0.707245
0.920776 0.679626 0.708832
0.116455 0.583923 0.572388
0.137482 0.591980 0.578583
0.157562 0.600677 0.584412
0.193817 0.613251 0.593719
0.321930 0.640228 0.616913
0.573334 0.683258 0.647644
0.756073 0.722504 0.674347
0.863068 0.748627 0.708893
0.940430 0.755585 0.722473
0.119019 0.634857 0.564209
0.138916 0.641235 0.568451
0.158539 0.648590 0.572113
0.195953 0.662323 0.579559
0.291992 0.689758 0.595642
0.500549 0.735870 0.620117
0.708313 0.778412 0.643188
0.842926 0.817200 0.686066
0.975006 0.860291 0.736816
0.120636 0.681610 0.555542
0.140015 0.685791 0.557434
0.159760 0.691986 0.558990
0.201355 0.706909 0.565277
0.290222 0.735046 0.577881
0.439667 0.785675 0.596100
0.641785 0.832672 0.613892
0.799347 0.856537 0.638977
0.918152 0.898773 0.695770
0.113159 0.100311 0.653168
0.158295 0.104156 0.664062
0.225403 0.113617 0.686035
0.338806 0.128448 0.717163
0.509430 0.172607 0.742096
0.655334 0.238983 0.752106
0.762299 0.283569 0.751282
0.838165 0.311340 0.744080
0.889862 0.325684 0.729675
0.115814 0.192322 0.670776
0.148254 0.178925 0.676788
0.213654 0.164124 0.693481
0.336548 0.168915 0.723297
0.517609 0.213867 0.750275
0.671356 0.293121 0.763123
0.779419 0.350769 0.763550
0.849762 0.385376 0.758209
0.897644 0.399567 0.747559
0.121246 0.290436 0.685608
0.143768 0.285919 0.689880
0.182831 0.263519 0.698761
0.303894 0.245605 0.726074
0.507599 0.276215 0.755798
0.677063 0.350464 0.769928
0.789307 0.414886 0.772217
0.857666 0.456421 0.768921
0.903656 0.470917 0.761780
0.124054 0.378754 0.690521
0.144318 0.382629 0.695587
0.167053 0.378845 0.702271
0.250793 0.366394 0.724091
0.469940 0.378937 0.758484
0.666565 0.422546 0.773010
0.789886 0.480194 0.777008
0.861633 0.525177 0.776398
0.907684 0.541473 0.771667
0.123108 0.460480 0.674377
0.143250 0.470581 0.679474
0.162842 0.476929 0.685638
0.209167 0.472473 0.703033
0.397369 0.479095 0.745148
0.635712 0.506744 0.771820
0.781555 0.551727 0.779236
0.862518 0.596436 0.782684
0.910156 0.615417 0.780884
0.121887 0.537811 0.649567
0.141907 0.547577 0.654480
0.161163 0.555145 0.660034
0.191254 0.557404 0.672943
0.316040 0.563995 0.712585
0.578400 0.593048 0.757690
0.762787 0.630127 0.778473
0.860291 0.669067 0.787933
0.911987 0.689362 0.789062
0.122803 0.597046 0.637726
0.142426 0.604065 0.642761
0.161163 0.610748 0.647552
0.188812 0.618652 0.656006
0.272552 0.633759 0.682953
0.504028 0.666290 0.727966
0.729340 0.707153 0.765991
0.853180 0.742584 0.788483
0.913635 0.761292 0.795044
0.123749 0.645447 0.630463
0.142731 0.651123 0.634155
0.161163 0.656555 0.637573
0.190247 0.665741 0.644592
0.259277 0.685638 0.663788
0.426971 0.722534 0.699036
0.667786 0.767395 0.736816
0.831604 0.807648 0.771729
0.925842 0.836761 0.806519
0.124054 0.689148 0.621948
0.142731 0.693054 0.623383
0.160950 0.697327 0.625183
0.192627 0.707184 0.631531
0.261597 0.729004 0.647125
0.373688 0.770142 0.674255
0.571716 0.816467 0.703033
0.782959 0.853943 0.733948
0.911865 0.895203 0.787354
0.129456 0.106781 0.705414
0.167267 0.113281 0.712555
0.230194 0.145874 0.734406
0.325378 0.189636 0.763855
0.484375 0.224518 0.791931
0.633545 0.262939 0.810760
0.749847 0.304413 0.819031
0.835815 0.343536 0.817871
0.888000 0.365723 0.813812
0.130951 0.193726 0.717194
0.169312 0.199921 0.723846
0.234406 0.223969 0.745544
0.333130 0.247437 0.772034
0.493988 0.269043 0.796997
0.645752 0.310486 0.815216
0.763458 0.362396 0.823914
0.845734 0.408661 0.824463
0.894287 0.430023 0.822205
0.132111 0.287872 0.728210
0.158783 0.291595 0.731445
0.205505 0.295258 0.744080
0.309082 0.300598 0.770386
0.485687 0.315887 0.799103
0.650970 0.358551 0.818329
0.773041 0.418610 0.827667
0.852814 0.471771 0.830078
0.899323 0.492828 0.830170
0.132690 0.376312 0.735809
0.151337 0.381439 0.736115
0.174255 0.381256 0.739960
0.248718 0.376129 0.760071
0.445740 0.386566 0.797363
0.641266 0.419678 0.819946
0.773346 0.476074 0.829926
0.855927 0.531891 0.834503
0.902679 0.556122 0.836609
0.131836 0.465546 0.729370
0.149780 0.475586 0.728058
0.167725 0.481506 0.729370
0.206207 0.474030 0.742645
0.368073 0.474548 0.784180
0.607452 0.497620 0.819031
0.763611 0.539917 0.831329
0.855072 0.593689 0.838776
0.904846 0.624115 0.842773
0.129181 0.543976 0.708527
0.147491 0.551727 0.706848
0.165192 0.557861 0.707245
0.190247 0.558014 0.716278
0.282013 0.555603 0.755157
0.535217 0.577972 0.807983
0.740173 0.612640 0.832367
0.850372 0.658569 0.843048
0.906799 0.692749 0.848755
0.128296 0.602020 0.692383
0.146423 0.607574 0.693176
0.164490 0.612946 0.694427
0.187592 0.618195 0.700012
0.242310 0.625885 0.726837
0.441467 0.649170 0.782135
0.695129 0.686096 0.826050
0.838806 0.726654 0.846527
0.908630 0.760590 0.855286
0.127991 0.650085 0.684052
0.146149 0.654785 0.685547
0.163788 0.659088 0.687317
0.187805 0.664978 0.692047
0.238403 0.679749 0.711029
0.364807 0.708649 0.755249
0.611389 0.747711 0.804596
0.813538 0.793365 0.842865
0.909363 0.828766 0.860321
0.127411 0.693237 0.677063
0.145386 0.696991 0.678314
0.163086 0.700806 0.680389
0.189026 0.707062 0.685150
0.244629 0.724609 0.701233
0.332703 0.760773 0.737335
0.505066 0.802826 0.778107
0.761871 0.849854 0.820618
0.904419 0.889801 0.857483
