filters/luts/lut2.cube
# Created by Benjamin (IWLTBAP): https://luts.iwltbap.com
# Copyright: (C) Copyright 2021 Triune Films and IWLTBAP SAS
# Cannot be resold, shared or otherwise redistributed
TITLE "Triune Films Superhero LUTs (Rec.709, sRGB, DCI-P3)"
LUT_3D_SIZE 33
0.000000 0.000793 0.000031
0.037354 0.007874 0.004761
0.070435 0.014496 0.009460
0.100128 0.021088 0.014496
0.129578 0.027985 0.020264
0.161987 0.032410 0.026459
0.195068 0.036316 0.032501
0.228149 0.041199 0.037903
0.260712 0.048431 0.042084
0.292542 0.054504 0.044891
0.324005 0.060242 0.047211
0.355042 0.065582 0.048950
0.385681 0.070404 0.050018
0.415619 0.074677 0.050629
0.445190 0.078796 0.050964
0.474396 0.082672 0.051117
0.503265 0.086304 0.051270
0.531677 0.089783 0.051392
0.559937 0.093018 0.051758
0.588074 0.096130 0.052307
0.615997 0.099152 0.053101
0.643616 0.102081 0.054749
0.670959 0.104950 0.056549
0.698029 0.107819 0.058533
0.724854 0.110748 0.060791
0.751068 0.113525 0.063110
0.777008 0.116394 0.065613
0.802521 0.119324 0.068329
0.827576 0.122345 0.071167
0.851776 0.125366 0.074402
0.875427 0.128235 0.077393
0.898590 0.130890 0.080200
0.921387 0.133301 0.082886
0.000061 0.030365 0.002991
0.038605 0.036865 0.007629
0.070953 0.042816 0.012360
0.100494 0.048706 0.017334
0.130310 0.054901 0.022980
0.164642 0.057922 0.029602
0.197815 0.063080 0.035004
0.231079 0.067810 0.039825
0.263885 0.073486 0.043549
0.295990 0.077911 0.045776
0.327484 0.082794 0.047760
0.358612 0.087280 0.049225
0.389252 0.091278 0.050049
0.419220 0.094818 0.050690
0.448761 0.098541 0.050781
0.477905 0.102081 0.050995
0.506744 0.105377 0.051422
0.535187 0.108459 0.051544
0.563446 0.111511 0.052155
0.591522 0.114471 0.052948
0.619446 0.117432 0.053925
0.647064 0.120483 0.055847
0.674377 0.123413 0.057770
0.701416 0.126343 0.059906
0.728180 0.129303 0.062256
0.754486 0.132477 0.064484
0.780334 0.135529 0.067078
0.805786 0.138702 0.069855
0.830750 0.142090 0.072723
0.854767 0.145416 0.075836
0.878296 0.148407 0.078766
0.901337 0.151184 0.081421
0.924011 0.153687 0.083923
0.002869 0.054565 0.005981
0.040375 0.060608 0.010681
0.071320 0.066772 0.015839
0.100586 0.072113 0.020416
0.130707 0.077759 0.025574
0.165039 0.082642 0.031097
0.199463 0.087311 0.036194
0.233032 0.092682 0.040649
0.266174 0.097626 0.044128
0.298615 0.101776 0.046112
0.330475 0.105713 0.047729
0.361664 0.109650 0.049072
0.392395 0.113159 0.049805
0.422424 0.116333 0.050232
0.451996 0.119385 0.050659
0.481171 0.122620 0.050751
0.510040 0.125641 0.051361
0.538513 0.128479 0.051758
0.566803 0.131317 0.052582
0.594879 0.134155 0.053711
0.622803 0.137024 0.054993
0.650360 0.139893 0.056854
0.677673 0.142853 0.059021
0.704712 0.145844 0.061157
0.731506 0.148895 0.063568
0.757751 0.152252 0.065857
0.783661 0.155701 0.068512
0.808990 0.159088 0.071320
0.833862 0.162720 0.074310
0.857819 0.166168 0.077271
0.881165 0.169281 0.080078
0.904083 0.172119 0.082672
0.926636 0.174652 0.084930
0.006042 0.075256 0.009125
0.042206 0.081024 0.013885
0.071808 0.087280 0.019043
0.100342 0.094055 0.024200
0.130646 0.099243 0.028503
0.164734 0.105316 0.032257
0.199249 0.110962 0.036407
0.233673 0.116180 0.040131
0.267303 0.121246 0.043579
0.300232 0.125336 0.045532
0.332458 0.129059 0.047119
0.364044 0.132538 0.048218
0.394928 0.135773 0.049011
0.425140 0.138672 0.049561
0.454803 0.141449 0.050049
0.484100 0.144104 0.050476
0.513000 0.146881 0.051117
0.541565 0.149536 0.051910
0.569916 0.152161 0.052979
0.598083 0.154846 0.054291
0.626038 0.157654 0.056000
0.653625 0.160370 0.057922
0.680939 0.163269 0.060028
0.707977 0.166321 0.062256
0.734772 0.169434 0.064575
0.761017 0.172943 0.067017
0.786865 0.176575 0.069733
0.812225 0.180267 0.072632
0.837006 0.184082 0.075684
0.860809 0.187653 0.078613
0.884094 0.190826 0.081268
0.906891 0.193604 0.083710
0.929382 0.196136 0.085785
0.009583 0.094238 0.012695
0.043945 0.099945 0.017456
0.071869 0.106506 0.022614
0.098785 0.113892 0.027710
0.130035 0.122192 0.032227
0.163574 0.128723 0.033539
0.197937 0.134613 0.036102
0.232605 0.139923 0.039032
0.266968 0.144684 0.041595
0.300476 0.148956 0.043732
0.333221 0.152679 0.045502
0.365234 0.155975 0.046753
0.396667 0.158966 0.047455
0.427124 0.161591 0.048370
0.457031 0.164154 0.049194
0.486511 0.166595 0.049988
0.515594 0.168945 0.050690
0.544312 0.171417 0.052002
0.572815 0.173889 0.053436
0.601044 0.176392 0.054962
0.629059 0.179077 0.056641
0.656708 0.181702 0.058716
0.684082 0.184570 0.060852
0.711182 0.187683 0.063049
0.737976 0.190918 0.065277
0.764252 0.194458 0.067810
0.790070 0.198242 0.070618
0.815430 0.202148 0.073608
0.840149 0.206116 0.076721
0.863922 0.209717 0.079712
0.887115 0.212921 0.082336
0.909851 0.215668 0.084534
0.932220 0.218079 0.086395
0.014984 0.112885 0.017456
0.042206 0.119629 0.021027
0.069000 0.126648 0.025360
0.095673 0.134216 0.030121
0.127594 0.142395 0.034790
0.162476 0.151031 0.037994
0.196198 0.157928 0.037018
0.230560 0.163788 0.037537
0.264923 0.168701 0.038727
0.298981 0.172913 0.040588
0.332306 0.176697 0.042267
0.364899 0.180023 0.043884
0.396851 0.183044 0.045227
0.427917 0.185486 0.046448
0.458221 0.187897 0.047668
0.488037 0.190155 0.048889
0.517456 0.192291 0.050140
0.546570 0.194427 0.051880
0.575256 0.196747 0.053497
0.603699 0.199097 0.055176
0.631866 0.201630 0.056824
0.659637 0.204193 0.058899
0.687073 0.207001 0.061035
0.714264 0.210052 0.063263
0.741119 0.213257 0.065613
0.767426 0.216949 0.068298
0.793274 0.220856 0.071167
0.818634 0.224792 0.074249
0.843353 0.228760 0.077393
0.867065 0.232391 0.080261
0.890228 0.235504 0.082825
0.912903 0.238220 0.084991
0.935242 0.240540 0.086823
0.015564 0.133148 0.021423
0.041199 0.139374 0.024170
0.067078 0.145874 0.027374
0.092621 0.153564 0.031494
0.124329 0.161560 0.036072
0.159332 0.170593 0.040100
0.195007 0.179932 0.041595
0.228851 0.187103 0.038818
0.262970 0.192871 0.037781
0.296631 0.197357 0.037598
0.330353 0.201172 0.039124
0.363464 0.204529 0.040771
0.395844 0.207581 0.042542
0.427521 0.210022 0.044159
0.458588 0.212280 0.046021
0.488831 0.214447 0.047607
0.518677 0.216431 0.049316
0.548126 0.218414 0.051117
0.577301 0.220398 0.052979
0.605927 0.222626 0.054932
0.634308 0.224976 0.056793
0.662323 0.227509 0.058899
0.689972 0.230164 0.061005
0.717224 0.233185 0.063202
0.744141 0.236389 0.065613
0.770569 0.240021 0.068420
0.796509 0.243927 0.071381
0.821808 0.247955 0.074524
0.846588 0.251892 0.077728
0.870300 0.255463 0.080536
0.893433 0.258514 0.083160
0.916138 0.261139 0.085327
0.938446 0.263397 0.087189
0.013580 0.154266 0.024780
0.039520 0.159607 0.026733
0.064056 0.165527 0.029327
0.090179 0.172272 0.032288
0.120758 0.180023 0.036469
0.155365 0.189270 0.040741
0.191467 0.198914 0.043732
0.227722 0.208893 0.043823
0.261475 0.216248 0.039642
0.294769 0.221924 0.037018
0.327911 0.226105 0.036407
0.361145 0.229523 0.037689
0.394043 0.232605 0.039673
0.426147 0.235107 0.041565
0.457764 0.237335 0.043671
0.488831 0.239410 0.045959
0.519135 0.241333 0.047974
0.549072 0.243164 0.049866
0.578613 0.245026 0.051941
0.607819 0.246979 0.053925
0.636414 0.249176 0.056183
0.664673 0.251587 0.058380
0.692535 0.254150 0.060608
0.720062 0.256958 0.062897
0.747101 0.260193 0.065277
0.773651 0.263763 0.068176
0.799683 0.267639 0.071167
0.825073 0.271606 0.074432
0.849854 0.275543 0.077667
0.873596 0.279022 0.080505
0.896759 0.282013 0.083099
0.919464 0.284546 0.085419
0.941833 0.286743 0.087341
0.011200 0.175354 0.027740
0.039368 0.179504 0.028931
0.064514 0.184540 0.030914
0.089508 0.190674 0.033478
0.117432 0.198151 0.036469
0.151154 0.207458 0.040405
0.187103 0.217194 0.044189
0.224030 0.227325 0.046295
0.260559 0.237854 0.045258
0.293579 0.245605 0.039795
0.326263 0.251099 0.036652
0.358795 0.255035 0.035675
0.391571 0.258118 0.036774
0.424072 0.260773 0.038971
0.456085 0.263031 0.041199
0.487671 0.265076 0.043518
0.518829 0.266937 0.045959
0.549286 0.268646 0.048004
0.579315 0.270416 0.050232
0.608948 0.272247 0.052521
0.638153 0.274200 0.054688
0.666718 0.276428 0.057068
0.694855 0.278870 0.059509
0.722565 0.281586 0.061981
0.749939 0.284576 0.064606
0.776642 0.288116 0.067596
0.802795 0.291931 0.070648
0.828308 0.295807 0.073792
0.853149 0.299683 0.077179
0.876984 0.303101 0.080078
0.900177 0.306000 0.082764
0.922943 0.308502 0.085144
0.945435 0.310577 0.087250
0.019531 0.195374 0.029541
0.043488 0.198700 0.030731
0.066315 0.203156 0.031891
0.089142 0.208801 0.033661
0.114960 0.215942 0.035858
0.146393 0.224976 0.039307
0.181915 0.234924 0.042755
0.219238 0.245148 0.046417
0.257111 0.255585 0.048737
0.293365 0.266846 0.047302
0.325836 0.274872 0.041595
0.357849 0.280457 0.038025
0.389709 0.284332 0.036438
0.421722 0.287109 0.036530
0.453918 0.289459 0.038391
0.485840 0.291504 0.040436
0.517426 0.293365 0.042755
0.548615 0.295105 0.045166
0.579193 0.296814 0.047516
0.609314 0.298523 0.049957
0.639008 0.300385 0.052399
0.668182 0.302399 0.054749
0.696686 0.304688 0.057373
0.724762 0.307251 0.060059
0.752380 0.310120 0.062836
0.779419 0.313446 0.066010
0.805725 0.317108 0.069397
0.831451 0.320892 0.072754
0.856415 0.324646 0.076172
0.880432 0.327850 0.079193
0.903748 0.330719 0.082001
0.926636 0.333160 0.084503
0.949219 0.335266 0.086792
0.029419 0.215424 0.030914
0.049957 0.218353 0.031708
0.069214 0.221985 0.032501
0.089722 0.227081 0.033661
0.113312 0.233734 0.035278
0.142853 0.242432 0.037994
0.176605 0.252258 0.041351
0.213623 0.262756 0.045044
0.252106 0.273407 0.049255
0.290283 0.284271 0.052460
0.326172 0.295837 0.050964
0.358032 0.304077 0.044556
0.389374 0.309753 0.040100
0.420380 0.313660 0.036926
0.451843 0.316315 0.036072
0.483826 0.318420 0.037598
0.515625 0.320343 0.039490
0.547119 0.322113 0.041595
0.578369 0.323792 0.044037
0.609009 0.325470 0.046570
0.639160 0.327209 0.049133
0.668823 0.329102 0.051758
0.697968 0.331207 0.054443
0.726440 0.333618 0.057373
0.754395 0.336334 0.060394
0.781738 0.339508 0.063782
0.808472 0.342926 0.067352
0.834412 0.346527 0.070953
0.859589 0.350128 0.074493
0.883759 0.353180 0.077728
0.907379 0.355896 0.080719
0.930389 0.358307 0.083435
0.953094 0.360413 0.085907
0.039703 0.235474 0.031891
0.057404 0.238007 0.032288
0.074036 0.241302 0.032898
0.091309 0.245575 0.033478
0.112579 0.251648 0.034668
0.140076 0.259857 0.036835
0.172058 0.269379 0.039856
0.207916 0.279907 0.043671
0.246246 0.290924 0.048309
0.285583 0.301880 0.054321
0.323608 0.312958 0.057404
0.358948 0.324799 0.055328
0.390167 0.333282 0.047821
0.420593 0.339203 0.041504
0.451050 0.343170 0.037231
0.481995 0.345764 0.035461
0.513794 0.347748 0.036621
0.545349 0.349548 0.038055
0.576813 0.351257 0.040070
0.608002 0.352936 0.042511
0.638672 0.354584 0.045166
0.668793 0.356384 0.047913
0.698425 0.358337 0.050781
0.727539 0.360565 0.053864
0.755981 0.363129 0.057129
0.783691 0.366119 0.060791
0.810760 0.369354 0.064575
0.837067 0.372681 0.068390
0.862549 0.376038 0.072083
0.886963 0.378937 0.075531
0.910797 0.381531 0.078735
0.934174 0.383850 0.081726
0.957031 0.385925 0.084412
0.049408 0.255615 0.032501
0.064758 0.257721 0.032501
0.079315 0.260620 0.032898
0.094788 0.264526 0.033478
0.112823 0.269745 0.034088
0.138214 0.277344 0.035889
0.168365 0.286438 0.038727
0.202606 0.296722 0.042572
0.240295 0.307892 0.047302
0.279999 0.319305 0.054413
0.319366 0.330353 0.060394
0.357056 0.341614 0.062927
0.391785 0.353760 0.059753
0.421997 0.362671 0.050354
0.451843 0.368835 0.042725
0.481781 0.372925 0.037354
0.512268 0.375549 0.034668
0.543579 0.377441 0.034943
0.575012 0.379150 0.036224
0.606354 0.380798 0.038177
0.637512 0.382385 0.040588
0.668121 0.384094 0.043427
0.698242 0.385956 0.046417
0.727814 0.388062 0.049591
0.756927 0.390381 0.053009
0.785095 0.393188 0.056824
0.812561 0.396210 0.060883
0.839294 0.399292 0.064941
0.865204 0.402344 0.068939
0.889954 0.405060 0.072571
0.914062 0.407532 0.075989
0.937683 0.409760 0.079193
0.960968 0.411804 0.082184
0.058563 0.275604 0.032501
0.071167 0.277374 0.032501
0.084290 0.279846 0.032898
0.098083 0.283234 0.033478
0.114319 0.287842 0.034088
0.136230 0.294647 0.035278
0.164520 0.303314 0.038177
0.197357 0.313354 0.042206
0.234070 0.324463 0.047302
0.273987 0.336365 0.054413
0.314270 0.347839 0.061310
0.353790 0.359009 0.066956
0.391174 0.370422 0.069000
0.424652 0.382874 0.063568
0.454163 0.392212 0.052979
0.483398 0.398682 0.044250
0.512756 0.402985 0.037903
0.542572 0.405762 0.033600
0.573578 0.407562 0.033264
0.604736 0.409241 0.034088
0.635925 0.410797 0.035767
0.666901 0.412354 0.038208
0.697449 0.414093 0.041168
0.727448 0.416016 0.044403
0.757019 0.418213 0.047882
0.785858 0.420685 0.051941
0.813751 0.423401 0.056061
0.840912 0.426239 0.060303
0.867279 0.429047 0.064453
0.892670 0.431488 0.068390
0.917175 0.433838 0.071930
0.941193 0.435974 0.075378
0.964783 0.437958 0.078644
0.067200 0.295441 0.032898
0.078552 0.297028 0.033295
0.089630 0.299042 0.033295
0.101929 0.302002 0.033875
0.116455 0.306091 0.034454
0.136322 0.312256 0.036072
0.161316 0.320099 0.038696
0.192535 0.329834 0.042694
0.228088 0.340851 0.047974
0.267822 0.352936 0.054718
0.308807 0.365112 0.061584
0.349335 0.376678 0.068146
0.388702 0.387939 0.073273
0.424988 0.399628 0.073578
0.457489 0.412292 0.066956
0.486298 0.421906 0.055298
0.514893 0.428619 0.045715
0.543549 0.433258 0.037720
0.572937 0.436127 0.032593
0.603607 0.437927 0.031586
0.634460 0.439545 0.031891
0.665344 0.441010 0.033295
0.696198 0.442566 0.035675
0.726624 0.444305 0.038757
0.756561 0.446289 0.042206
0.785828 0.448486 0.046204
0.814484 0.450836 0.050385
0.842102 0.453369 0.054718
0.868927 0.455933 0.059021
0.894836 0.458160 0.063110
0.920074 0.460266 0.066986
0.944489 0.462341 0.070587
0.968506 0.464233 0.074097
0.075226 0.315094 0.034058
0.085571 0.316528 0.034454
0.095642 0.318359 0.034851
0.106262 0.320770 0.035034
0.119171 0.324432 0.035675
0.137146 0.330017 0.037415
0.160004 0.337280 0.040192
0.188293 0.346252 0.043945
0.222504 0.357086 0.049103
0.261780 0.369293 0.055328
0.302887 0.381836 0.062012
0.344543 0.394287 0.068542
0.385040 0.405945 0.074646
0.423401 0.417297 0.078491
0.458740 0.429138 0.077667
0.490295 0.441956 0.069916
0.518402 0.451782 0.057495
0.546143 0.458862 0.046356
0.574341 0.463684 0.037598
0.603271 0.466644 0.031586
0.633606 0.468445 0.029877
0.664093 0.470001 0.029572
0.694763 0.471436 0.030731
0.725433 0.472931 0.032990
0.755707 0.474701 0.036285
0.785370 0.476593 0.040009
0.814453 0.478638 0.044098
0.842865 0.480743 0.048309
0.870209 0.483032 0.052704
0.896667 0.485046 0.056915
0.922394 0.486969 0.060974
0.947601 0.488800 0.064850
0.972076 0.490631 0.068634
0.082428 0.334595 0.036469
0.092010 0.335876 0.036469
0.101257 0.337555 0.036865
0.111115 0.339783 0.037445
0.122467 0.342804 0.037994
0.138672 0.347778 0.039703
0.159485 0.354553 0.042389
0.185486 0.363037 0.046082
0.217346 0.373199 0.050568
0.256012 0.385468 0.056122
0.296967 0.398315 0.062439
0.339050 0.411285 0.068909
0.381012 0.424011 0.075012
0.420746 0.435486 0.080261
0.458130 0.446930 0.083130
0.492462 0.458832 0.081329
0.523041 0.471741 0.072662
0.550140 0.481903 0.058899
0.577362 0.489227 0.046997
0.605072 0.494202 0.037445
0.633667 0.497345 0.030609
0.663422 0.499146 0.027863
0.693665 0.500641 0.027161
0.724091 0.502014 0.028137
0.754578 0.503418 0.030304
0.784576 0.505005 0.033569
0.814056 0.506744 0.037323
0.842926 0.508545 0.041382
0.871094 0.510376 0.045624
0.898102 0.512146 0.049866
0.924438 0.513855 0.054077
0.950195 0.515503 0.058136
0.975494 0.517151 0.062164
0.089050 0.353699 0.040405
0.097626 0.354858 0.040405
0.106384 0.356384 0.040405
0.115601 0.358429 0.040955
0.126160 0.361237 0.041870
0.140259 0.365540 0.043457
0.159332 0.371735 0.045380
0.183533 0.379761 0.048401
0.213379 0.389557 0.052490
0.250519 0.401581 0.057404
0.291565 0.414734 0.063141
0.334076 0.428223 0.069305
0.376770 0.441650 0.075378
0.418060 0.454285 0.080597
0.456909 0.465485 0.085632
0.493286 0.476807 0.087860
0.526489 0.488770 0.085052
0.555511 0.501801 0.075165
0.581909 0.512115 0.060669
0.608582 0.519623 0.048065
0.635864 0.524841 0.037781
0.663818 0.528168 0.029938
0.693329 0.529968 0.026459
0.723267 0.531433 0.025177
0.753540 0.532715 0.025635
0.783752 0.533875 0.027405
0.813599 0.535278 0.030518
0.842896 0.536743 0.034088
0.871582 0.538239 0.037994
0.899506 0.539581 0.042023
0.926483 0.541077 0.046204
0.952881 0.542511 0.050354
0.978760 0.543945 0.054474
0.095306 0.372528 0.044189
0.103546 0.373749 0.044525
0.111664 0.375153 0.044525
0.120392 0.377014 0.044678
0.130310 0.379578 0.045563
0.143433 0.383606 0.047058
0.160187 0.389130 0.048859
0.182648 0.396606 0.051147
0.210602 0.405975 0.054657
0.246307 0.417786 0.059204
0.286407 0.431030 0.064087
0.329163 0.444916 0.069824
0.372528 0.458923 0.075745
0.414764 0.472321 0.080963
0.455017 0.484711 0.085968
0.492920 0.495636 0.090698
0.528229 0.506836 0.092194
0.559723 0.518860 0.088074
0.587646 0.531891 0.077332
0.613373 0.542328 0.062317
0.639465 0.550018 0.049164
0.666077 0.555481 0.037933
0.693848 0.558990 0.029449
0.723083 0.560822 0.025269
0.752899 0.562256 0.023376
0.782928 0.563354 0.023010
0.813049 0.564331 0.024353
0.842773 0.565460 0.027191
0.871948 0.566620 0.030579
0.900482 0.567657 0.034149
0.928406 0.568756 0.038025
0.955444 0.569946 0.042145
0.981903 0.571167 0.046295
0.101379 0.391205 0.048096
0.109192 0.392426 0.048431
0.117126 0.393829 0.048737
0.125397 0.395538 0.048889
0.134888 0.397888 0.049408
0.147125 0.401642 0.050690
0.162750 0.406830 0.052307
0.182739 0.413666 0.054443
0.208893 0.422577 0.057190
0.243134 0.434143 0.061218
0.282104 0.447205 0.065735
0.324493 0.461395 0.070587
0.368347 0.475922 0.076202
0.411407 0.489990 0.081299
0.452576 0.503174 0.086304
0.491730 0.515228 0.091003
0.528595 0.525818 0.095276
0.562134 0.536896 0.095734
0.592407 0.548920 0.090881
0.619263 0.561920 0.079437
0.644257 0.572479 0.064026
0.669586 0.580414 0.050140
0.696014 0.586060 0.038361
0.723663 0.589752 0.029205
0.752808 0.591614 0.024292
0.782471 0.592987 0.021332
0.812500 0.593964 0.020355
0.842590 0.594727 0.021179
0.872192 0.595581 0.023712
0.901306 0.596344 0.026581
0.929871 0.597107 0.029968
0.957886 0.597931 0.033661
0.985016 0.598877 0.037781
0.107330 0.409698 0.052521
0.114655 0.410950 0.052521
0.122375 0.412354 0.052826
0.130676 0.414032 0.053284
0.139709 0.416138 0.053741
0.151245 0.419678 0.054657
0.165863 0.424591 0.055878
0.184540 0.431122 0.057648
0.208221 0.439392 0.060272
0.240845 0.450653 0.063629
0.278625 0.463562 0.067657
0.320251 0.477661 0.072113
0.364319 0.492615 0.076935
0.408051 0.507355 0.081757
0.449982 0.521240 0.086609
0.489990 0.534119 0.091309
0.527985 0.545807 0.095581
0.563141 0.555817 0.099335
0.595306 0.566833 0.099121
0.624329 0.578827 0.093658
0.650055 0.591797 0.081696
0.674255 0.602570 0.065826
0.699402 0.610718 0.051514
0.725708 0.616547 0.039124
0.753357 0.620422 0.029266
0.782501 0.622375 0.023102
0.812256 0.623688 0.019287
0.842285 0.624542 0.017609
0.872375 0.625153 0.017883
0.902039 0.625641 0.019775
0.931213 0.626160 0.022369
0.959930 0.626678 0.025513
0.988068 0.627228 0.029114
0.113190 0.428040 0.057037
0.120117 0.429352 0.057037
0.127716 0.430725 0.057037
0.135895 0.432404 0.057343
0.144745 0.434448 0.057770
0.155457 0.437683 0.058624
0.169189 0.442291 0.059814
0.186676 0.448486 0.061371
0.208771 0.456390 0.063629
0.239044 0.467072 0.066437
0.275757 0.479767 0.069824
0.316711 0.493835 0.073730
0.360535 0.508942 0.078003
0.404968 0.524536 0.082458
0.447632 0.539124 0.087067
0.488373 0.552704 0.091614
0.527039 0.565033 0.095886
0.563049 0.575836 0.099976
0.596832 0.585388 0.103607
0.627563 0.596130 0.102997
0.655121 0.608063 0.096893
0.679443 0.621063 0.084717
0.703339 0.632019 0.068604
0.728394 0.640411 0.053802
0.754791 0.646576 0.040833
0.782745 0.650848 0.029724
0.812164 0.652985 0.022644
0.842133 0.654388 0.017883
0.872375 0.655273 0.015320
0.902771 0.655731 0.014496
0.932648 0.656067 0.015900
0.962006 0.656372 0.018097
0.990906 0.656708 0.020966
0.118805 0.446442 0.061646
0.125641 0.447754 0.061646
0.132996 0.449127 0.061646
0.141022 0.450714 0.061798
0.149750 0.452698 0.062225
0.160065 0.455780 0.063019
0.172699 0.460052 0.063843
0.189178 0.465881 0.065216
0.209961 0.473450 0.067139
0.238617 0.483704 0.069580
0.273346 0.495941 0.072205
0.313477 0.509949 0.075562
0.356934 0.525116 0.079285
0.401581 0.541046 0.083252
0.445068 0.556580 0.087494
0.486481 0.570831 0.091919
0.525787 0.583832 0.096191
0.562286 0.595154 0.100433
0.596802 0.605194 0.104523
0.629089 0.614288 0.108124
0.658325 0.624756 0.107208
0.683960 0.636658 0.100739
0.707733 0.649750 0.088470
0.731567 0.660980 0.071930
0.756744 0.669708 0.056580
0.783630 0.676453 0.042480
0.811981 0.681091 0.030457
0.841736 0.683472 0.022400
0.872040 0.685028 0.016724
0.902832 0.686005 0.012787
0.933655 0.686462 0.011078
0.963776 0.686676 0.012054
0.993408 0.686859 0.013855
0.124176 0.464813 0.066315
0.130981 0.466125 0.066315
0.138214 0.467529 0.066315
0.146027 0.469055 0.066437
0.154633 0.470917 0.066864
0.164673 0.473846 0.067535
0.176758 0.477905 0.068298
0.191864 0.483337 0.069305
0.211548 0.490509 0.070862
0.238800 0.500366 0.072876
0.272034 0.512207 0.075104
0.310608 0.525940 0.077606
0.353577 0.541107 0.080780
0.398315 0.557373 0.084259
0.442108 0.573303 0.088135
0.484344 0.588470 0.092224
0.524231 0.602173 0.096466
0.561188 0.613953 0.100830
0.596069 0.624420 0.105164
0.628998 0.633698 0.109497
0.659729 0.642303 0.113037
0.686737 0.652557 0.111938
0.711578 0.664551 0.105377
0.735016 0.677856 0.092896
0.758942 0.689423 0.075806
0.784698 0.698853 0.059509
0.812103 0.706055 0.044556
0.841003 0.711182 0.031494
0.871216 0.713806 0.022461
0.902313 0.715729 0.015198
0.933655 0.716888 0.010284
0.964966 0.717438 0.007751
0.995453 0.717560 0.008209
0.129181 0.483093 0.071045
0.136047 0.484436 0.071045
0.143311 0.485840 0.071045
0.151001 0.487396 0.071167
0.159241 0.489166 0.071533
0.169159 0.491974 0.071899
0.180847 0.495789 0.072540
0.195251 0.500916 0.073517
0.213287 0.507599 0.075012
0.239288 0.517090 0.076447
0.271210 0.528564 0.078125
0.308502 0.541901 0.080078
0.350464 0.556976 0.082520
0.395203 0.573486 0.085480
0.439178 0.589783 0.088989
0.481781 0.605469 0.092865
0.522369 0.620026 0.096771
0.559662 0.632263 0.101105
0.594879 0.643097 0.105652
0.628082 0.652710 0.110291
0.659363 0.661194 0.114990
0.687775 0.669220 0.118744
0.713776 0.679504 0.117554
0.738037 0.691681 0.110779
0.761292 0.705292 0.097870
0.785889 0.717682 0.080017
0.812256 0.727692 0.062927
0.840240 0.735443 0.047028
0.869843 0.741058 0.032867
0.901093 0.744324 0.022095
0.932861 0.746552 0.013794
0.964844 0.747925 0.007904
0.996765 0.748657 0.004486
0.133942 0.501282 0.075470
0.140533 0.502625 0.075470
0.147705 0.504028 0.075470
0.155426 0.505585 0.075470
0.163696 0.507324 0.075592
0.173096 0.509888 0.076294
0.184448 0.513458 0.076904
0.198242 0.518280 0.077606
0.215393 0.524658 0.078552
0.239502 0.533569 0.079926
0.270233 0.544678 0.081299
0.306458 0.557739 0.082916
0.347565 0.572632 0.084808
0.391968 0.589233 0.087067
0.436188 0.605927 0.089966
0.479034 0.621979 0.093445
0.519867 0.636993 0.097351
0.557587 0.649933 0.101654
0.593018 0.661072 0.106201
0.626404 0.670898 0.110870
0.657928 0.679565 0.115723
0.686951 0.686890 0.121338
0.714020 0.694672 0.125519
0.739044 0.704987 0.124420
0.762695 0.717468 0.117432
0.786224 0.731873 0.103882
0.811493 0.744934 0.085510
0.838593 0.755646 0.067627
0.867401 0.764099 0.050690
0.898285 0.770660 0.034637
0.930481 0.774475 0.022644
0.963196 0.777191 0.013153
0.996063 0.779022 0.006226
0.138306 0.519226 0.079712
0.144989 0.520660 0.079712
0.152039 0.522095 0.079712
0.159607 0.523621 0.079712
0.167816 0.525330 0.079712
0.177124 0.527740 0.080170
0.188019 0.531097 0.080841
0.201355 0.535645 0.081635
0.217773 0.541718 0.082458
0.240906 0.550262 0.083344
0.269623 0.560822 0.084259
0.304718 0.573547 0.085449
0.344818 0.588196 0.086884
0.388702 0.604706 0.088684
0.432770 0.621552 0.091309
0.475830 0.638000 0.094269
0.516907 0.653381 0.097961
0.554718 0.666687 0.102020
0.590454 0.678406 0.106384
0.624146 0.688477 0.111237
0.655884 0.697296 0.116302
