filters/luts/lut2.cube
# Created by Benjamin (IWLTBAP): https://luts.iwltbap.com
# Copyright: (C) Copyright 2021 Triune Films and IWLTBAP SAS
# Cannot be resold, shared or otherwise redistributed
TITLE "Triune Films Superhero LUTs (Rec.709, sRGB, DCI-P3)"
LUT_3D_SIZE 5
0.000000 0.000793 0.000031
0.260712 0.048431 0.042084
0.503265 0.086304 0.051270
0.724854 0.110748 0.060791
0.921387 0.133301 0.082886
0.011200 0.175354 0.027740
0.260559 0.237854 0.045258
0.518829 0.266937 0.045959
0.749939 0.284576 0.064606
0.945435 0.310577 0.087250
0.082428 0.334595 0.036469
0.217346 0.373199 0.050568
0.523041 0.471741 0.072662
0.754578 0.503418 0.030304
0.975494 0.517151 0.062164
0.129181 0.483093 0.071045
0.213287 0.507599 0.075012
0.522369 0.620026 0.096771
0.761292 0.705292 0.097870
0.996765 0.748657 0.004486
0.161163 0.624359 0.101044
0.238556 0.645172 0.102905
0.486511 0.738495 0.102173
0.745728 0.823853 0.145020
0.933380 0.903931 0.163818
0.000000 0.031525 0.217957
0.255219 0.069458 0.231079
0.507233 0.106201 0.233826
0.729828 0.124634 0.245605
0.920898 0.143860 0.271271
0.027893 0.222778 0.229919
0.241669 0.246979 0.245880
0.537720 0.276367 0.250458
0.760345 0.296875 0.265564
0.946411 0.325012 0.293915
0.075653 0.360718 0.187897
0.196747 0.391785 0.188934
0.536560 0.487274 0.236237
0.759918 0.508942 0.261749
0.973694 0.523438 0.287872
0.127716 0.490326 0.157898
0.208588 0.516357 0.154419
0.509979 0.625854 0.197540
0.761353 0.710938 0.276123
0.997009 0.749115 0.251587
0.160461 0.627563 0.165161
0.236969 0.652222 0.166809
0.457397 0.731750 0.194794
0.735413 0.826324 0.266296
0.932007 0.906555 0.335602
0.040771 0.059845 0.403473
0.221313 0.076660 0.446167
0.514404 0.142548 0.445038
0.734955 0.178711 0.444519
0.911407 0.195099 0.466675
0.065826 0.248230 0.438904
0.183655 0.240875 0.471313
0.554016 0.286560 0.479797
0.778992 0.342865 0.481079
0.931793 0.365875 0.496338
0.084198 0.416809 0.423218
0.147217 0.438538 0.442383
0.536102 0.507629 0.479523
0.787292 0.536713 0.498688
0.955933 0.545166 0.511261
0.106628 0.545685 0.396942
0.166351 0.566650 0.403900
0.440643 0.644073 0.415833
0.762177 0.720551 0.473114
0.994049 0.749420 0.500488
0.140015 0.658234 0.378632
0.205505 0.674042 0.373322
0.397919 0.737732 0.373322
0.707520 0.835358 0.396423
0.930389 0.908813 0.507263
0.092438 0.088745 0.575073
0.221497 0.099915 0.617004
0.523865 0.167480 0.661835
0.755310 0.249756 0.653320
0.890045 0.286316 0.635468
0.105927 0.279572 0.614532
0.175995 0.249146 0.639893
0.533997 0.274719 0.688171
0.792938 0.398499 0.689758
0.907227 0.445618 0.676270
0.110779 0.448059 0.598969
0.156067 0.467438 0.618408
0.446411 0.490936 0.678497
0.795837 0.561066 0.702057
0.915619 0.602020 0.699707
0.116455 0.583923 0.572388
0.157562 0.600677 0.584412
0.321930 0.640228 0.616913
0.756073 0.722504 0.674347
0.940430 0.755585 0.722473
0.120636 0.681610 0.555542
0.159760 0.691986 0.558990
0.290222 0.735046 0.577881
0.641785 0.832672 0.613892
0.918152 0.898773 0.695770
0.129456 0.106781 0.705414
0.230194 0.145874 0.734406
0.484375 0.224518 0.791931
0.749847 0.304413 0.819031
0.888000 0.365723 0.813812
0.132111 0.287872 0.728210
0.205505 0.295258 0.744080
0.485687 0.315887 0.799103
0.773041 0.418610 0.827667
0.899323 0.492828 0.830170
0.131836 0.465546 0.729370
0.167725 0.481506 0.729370
0.368073 0.474548 0.784180
0.763611 0.539917 0.831329
0.904846 0.624115 0.842773
0.128296 0.602020 0.692383
0.164490 0.612946 0.694427
0.242310 0.625885 0.726837
0.695129 0.686096 0.826050
0.908630 0.760590 0.855286
0.127411 0.693237 0.677063
0.163086 0.700806 0.680389
0.244629 0.724609 0.701233
0.505066 0.802826 0.778107
0.904419 0.889801 0.857483
