filters/luts/lut4.cube
# Created by Benjamin (IWLTBAP): https://luts.iwltbap.com
# Copyright: (C) Copyright 2021 Triune Films and IWLTBAP SAS
# Cannot be resold, shared or otherwise redistributed
TITLE "Triune Films Superhero LUTs (Rec.709, sRGB, DCI-P3)"
LUT_3D_SIZE 9
0.000000 0.000000 0.000824
0.106293 0.002319 0.000000
0.264771 0.021759 0.000580
0.400482 0.036682 0.001831
0.525940 0.054962 0.000946
0.644348 0.065308 0.001404
0.756226 0.077332 0.002502
0.866333 0.086853 0.002869
0.947174 0.090027 0.003265
0.012756 0.072113 0.008179
0.138397 0.087219 0.000000
0.290771 0.109009 0.000000
0.425171 0.124969 0.000000
0.550171 0.139435 0.000000
0.665100 0.152100 0.001099
0.774689 0.163727 0.002197
0.880554 0.172180 0.002045
0.957397 0.177246 0.002441
0.029785 0.194122 0.021790
0.151703 0.209747 0.021912
0.316650 0.232483 0.001251
0.430359 0.243896 0.000000
0.562164 0.249298 0.000000
0.682587 0.256256 0.000214
0.792450 0.265320 0.000305
0.896820 0.274841 0.000336
0.972534 0.281372 0.001373
0.054169 0.326691 0.034271
0.177216 0.345581 0.033051
0.352051 0.354492 0.016663
0.467377 0.378876 0.003601
0.546906 0.378296 0.000000
0.669769 0.378998 0.000000
0.792084 0.381073 0.000000
0.902405 0.384705 0.000000
0.988373 0.390839 0.000427
0.106384 0.470917 0.045990
0.226929 0.485504 0.042786
0.371246 0.492950 0.044647
0.506927 0.502686 0.017822
0.584229 0.511841 0.006073
0.651917 0.504425 0.000000
0.770050 0.503845 0.000000
0.893433 0.506470 0.000000
0.999390 0.509491 0.000000
0.152435 0.609070 0.052063
0.256378 0.617004 0.052673
0.373260 0.626984 0.057770
0.498596 0.619476 0.049042
0.614838 0.629486 0.035980
0.685150 0.634247 0.011871
0.761536 0.627777 0.000000
0.878479 0.626251 0.000000
1.000000 0.628052 0.000000
0.158966 0.731934 0.059753
0.259125 0.737244 0.058777
0.365601 0.743561 0.058899
0.481262 0.746582 0.060913
0.599670 0.739197 0.059448
0.708038 0.744568 0.050903
0.786865 0.752747 0.013062
0.879303 0.751251 0.000000
1.000000 0.750000 0.000000
0.142059 0.845673 0.062683
0.245880 0.849670 0.059692
0.353546 0.855530 0.057617
0.463928 0.859528 0.057892
0.580872 0.860321 0.063599
0.697388 0.855072 0.067474
0.801910 0.858612 0.060364
0.894104 0.872467 0.024719
1.000000 0.876038 0.000061
0.126282 0.957916 0.064667
0.235474 0.961243 0.060822
0.343170 0.966309 0.057343
0.452667 0.970734 0.055756
0.565033 0.973328 0.058014
0.680847 0.973785 0.065979
0.793732 0.970154 0.071320
0.898743 0.974457 0.075714
0.995453 0.984772 0.081055
0.000000 0.003937 0.027740
0.083801 0.001556 0.074005
0.263489 0.009460 0.057983
0.403503 0.019775 0.049316
0.524170 0.028931 0.044891
0.638031 0.039154 0.040863
0.752594 0.055878 0.043030
0.868591 0.078705 0.049957
0.946930 0.087189 0.056244
0.000793 0.067291 0.082947
0.060455 0.080048 0.092773
0.269592 0.106506 0.075989
0.423431 0.112671 0.055420
0.550629 0.117004 0.046295
0.664429 0.118408 0.042969
0.774017 0.133331 0.047577
0.880554 0.151733 0.051270
0.955811 0.161316 0.056396
0.000671 0.194763 0.086823
0.091003 0.209564 0.088165
0.302979 0.233734 0.066315
0.431519 0.241699 0.075653
0.568726 0.243378 0.062531
0.687225 0.250549 0.059509
0.795929 0.258545 0.058167
0.899811 0.268524 0.057831
0.972351 0.274384 0.060730
0.001038 0.320831 0.084503
0.101898 0.331055 0.088867
0.318848 0.354797 0.079285
0.463684 0.380554 0.063538
0.546783 0.377197 0.089661
0.673187 0.377228 0.085815
0.795776 0.378845 0.078949
0.905243 0.382843 0.075165
0.988647 0.388062 0.075348
0.043854 0.454254 0.108734
0.166626 0.472565 0.112488
0.337006 0.498016 0.115723
0.495941 0.499207 0.083496
0.582001 0.512482 0.078003
0.650970 0.504120 0.103943
0.771515 0.503693 0.104706
0.895172 0.506042 0.098785
0.999969 0.509155 0.095032
0.107391 0.598419 0.135498
0.227234 0.610138 0.131104
0.351837 0.624512 0.134491
0.488525 0.622742 0.126801
0.610596 0.628937 0.105927
0.684082 0.634735 0.094055
0.760986 0.627655 0.113373
0.878876 0.626343 0.117340
1.000000 0.628326 0.111938
0.139557 0.726868 0.151428
0.244507 0.733276 0.147186
0.354523 0.741821 0.146667
0.472260 0.748199 0.147064
0.594666 0.741333 0.140076
0.705902 0.744995 0.125214
0.786438 0.753082 0.103394
0.879089 0.751221 0.116943
1.000000 0.750000 0.121552
0.130951 0.843292 0.162109
0.236694 0.847351 0.157532
0.345947 0.853729 0.152863
0.457977 0.859070 0.151611
0.576233 0.861237 0.152191
0.694580 0.856598 0.149536
0.800690 0.858643 0.137177
0.894012 0.872650 0.118073
1.000000 0.876129 0.117950
0.114532 0.956299 0.167542
0.227692 0.960236 0.163666
0.337311 0.964874 0.157501
0.448120 0.970123 0.154358
0.561340 0.973328 0.153564
0.677673 0.973999 0.158691
0.791931 0.971344 0.164825
0.898407 0.974823 0.161285
0.995667 0.985382 0.182068
0.001556 0.019714 0.108368
0.016541 0.020508 0.174347
0.247589 0.011810 0.159607
0.394714 0.018921 0.138641
0.516022 0.024231 0.123199
0.623871 0.026184 0.119843
0.730286 0.030548 0.125275
0.843292 0.045471 0.130554
0.928741 0.058685 0.134491
0.000000 0.084259 0.156403
0.012604 0.094666 0.176392
0.254425 0.078125 0.182220
0.428436 0.066742 0.141693
0.542603 0.064545 0.120911
0.645569 0.067200 0.121368
0.749268 0.080109 0.125854
0.859894 0.100403 0.130219
0.941498 0.121857 0.138428
0.001587 0.191071 0.202789
0.013397 0.198730 0.211334
0.183502 0.218018 0.220062
0.413574 0.244629 0.201202
0.566925 0.247620 0.175903
0.689789 0.247070 0.153900
0.795044 0.247162 0.147034
0.898254 0.249939 0.144531
0.966370 0.251617 0.144196
0.000000 0.330780 0.221069
0.053436 0.338013 0.214050
0.245544 0.361755 0.208771
0.453888 0.382904 0.184845
0.544769 0.377075 0.209412
0.680664 0.375427 0.188660
0.802826 0.375092 0.171326
0.910095 0.375854 0.160278
0.988617 0.378540 0.155518
0.005981 0.459503 0.226135
0.090302 0.464447 0.219452
0.273682 0.491394 0.220215
0.466278 0.495941 0.186768
0.573730 0.512909 0.192719
0.648041 0.503967 0.226044
0.776001 0.503235 0.215363
0.900360 0.504578 0.197205
1.000000 0.506409 0.191101
0.020477 0.581818 0.227478
0.131439 0.587646 0.221191
0.304626 0.614563 0.222778
0.459045 0.633362 0.222778
0.599457 0.627380 0.191711
0.680939 0.635437 0.194244
0.759338 0.627167 0.235565
0.880249 0.626495 0.236603
1.000000 0.628693 0.225525
0.081421 0.710052 0.243073
0.192719 0.719696 0.242676
0.324432 0.734314 0.237701
0.451508 0.746643 0.235840
0.582764 0.746826 0.226837
0.700897 0.745056 0.202881
0.785187 0.753387 0.196472
0.878510 0.750977 0.238647
1.000000 0.750061 0.246674
0.101837 0.834930 0.263092
0.215027 0.841522 0.260101
0.328217 0.849060 0.254883
0.445831 0.857422 0.248688
0.565521 0.861816 0.245483
0.687531 0.859558 0.235657
0.797882 0.858887 0.217377
0.893646 0.873077 0.212585
1.000000 0.876099 0.236908
0.095856 0.951355 0.271942
0.210999 0.956818 0.269196
0.325897 0.962555 0.264984
0.438812 0.968262 0.258545
0.554199 0.973114 0.254272
0.672302 0.974365 0.256958
0.788818 0.972778 0.262665
0.897125 0.975037 0.250244
0.996216 0.986511 0.284088
0.001556 0.052979 0.182861
0.008667 0.065643 0.223358
0.125275 0.011047 0.266296
0.377075 0.024445 0.236755
0.503021 0.029968 0.217621
0.606689 0.030762 0.208588
0.708710 0.035583 0.212341
0.811859 0.039886 0.208618
0.901154 0.044342 0.215149
0.000000 0.111481 0.214386
0.003937 0.122040 0.243256
0.081482 0.114990 0.315277
0.403625 0.067841 0.259155
0.527649 0.044739 0.223358
0.626770 0.041748 0.210602
0.723877 0.053864 0.206543
0.825989 0.067596 0.206482
0.912811 0.096924 0.222290
0.000000 0.204559 0.274597
0.000793 0.211670 0.290863
0.058044 0.226562 0.311218
0.411194 0.210938 0.296387
0.581299 0.202057 0.250000
0.688416 0.214783 0.234222
0.783081 0.230835 0.235748
0.879089 0.236511 0.238708
0.948669 0.267212 0.258545
0.000000 0.316132 0.322357
0.002380 0.321045 0.327362
0.062225 0.340912 0.345337
0.357452 0.384460 0.368744
0.561218 0.390961 0.337067
0.689972 0.391052 0.318939
0.802032 0.385864 0.299835
0.907196 0.385345 0.289185
0.977844 0.388306 0.288300
0.000000 0.452515 0.353333
0.018494 0.462463 0.354431
0.169952 0.480835 0.352936
0.408081 0.510773 0.348480
0.579346 0.522980 0.336212
0.653076 0.507324 0.354767
0.783936 0.507416 0.338837
0.906677 0.508179 0.321716
0.999115 0.507202 0.312775
0.007294 0.578918 0.366669
0.095825 0.585968 0.362823
0.236023 0.600433 0.354218
0.414062 0.626770 0.358582
0.580719 0.632843 0.335236
0.680054 0.637726 0.333649
0.756256 0.626862 0.367065
0.883728 0.628021 0.360840
1.000000 0.630554 0.348450
0.048676 0.699432 0.368988
0.130035 0.702820 0.364380
0.277557 0.722534 0.365326
0.418915 0.740601 0.364746
0.557159 0.751770 0.357361
0.691315 0.746307 0.328064
0.783112 0.753876 0.331635
0.877167 0.750671 0.369019
1.000000 0.750366 0.370544
0.063507 0.818298 0.367584
0.159607 0.823181 0.363434
0.295441 0.839813 0.368561
0.423553 0.852814 0.366425
0.548767 0.861603 0.361847
0.676117 0.864014 0.347443
0.794067 0.860321 0.324066
0.893127 0.873535 0.326752
1.000000 0.875946 0.363739
0.064911 0.937439 0.369812
0.179932 0.945251 0.369904
0.304626 0.956146 0.371002
0.425537 0.965027 0.367645
0.544403 0.972107 0.367249
0.665070 0.974792 0.371155
0.784607 0.974213 0.370575
0.895325 0.975037 0.356415
0.996979 0.988495 0.389954
0.000000 0.092590 0.251068
0.006287 0.099915 0.273926
0.029175 0.102631 0.317596
0.280121 0.023651 0.333954
0.490051 0.034698 0.298004
0.595001 0.042511 0.283508
0.682281 0.045441 0.281311
0.777161 0.047546 0.292450
0.872620 0.054016 0.308136
0.000000 0.142548 0.278778
0.003174 0.149384 0.296143
0.023651 0.161926 0.334045
0.268188 0.090027 0.359497
0.506744 0.056183 0.311005
0.610291 0.052979 0.290466
0.696899 0.056183 0.286255
0.789368 0.061249 0.294434
0.884399 0.094147 0.312042
0.000000 0.226562 0.329254
0.000000 0.232941 0.338928
0.000000 0.246979 0.365173
0.200897 0.247925 0.437500
0.565002 0.209839 0.357635
0.678802 0.190857 0.324829
0.754669 0.167236 0.306000
0.829102 0.137756 0.301025
0.915070 0.260376 0.326294
0.000000 0.318420 0.378845
0.000793 0.322968 0.387787
0.046875 0.341095 0.413269
0.170319 0.360931 0.438416
0.566467 0.371582 0.420685
0.695923 0.358032 0.368347
0.792023 0.364990 0.356964
0.882721 0.378296 0.366425
0.949860 0.401611 0.386841
0.000000 0.428986 0.428864
0.001556 0.433136 0.432404
0.029175 0.448944 0.446411
0.199127 0.477753 0.471039
0.541748 0.537384 0.492706
0.685089 0.530090 0.469452
0.797363 0.525940 0.458405
0.907837 0.521759 0.448090
0.985382 0.520386 0.442932
0.000000 0.559387 0.469269
0.009644 0.563721 0.468781
0.141327 0.590088 0.476471
0.315338 0.607727 0.485779
0.550812 0.644257 0.484406
0.691101 0.647858 0.476379
0.767456 0.632629 0.490417
0.894409 0.633942 0.482697
0.999969 0.635712 0.473846
0.016815 0.681519 0.482758
0.093323 0.686249 0.480286
0.227417 0.701111 0.478302
0.376129 0.724304 0.485474
0.541809 0.747375 0.489258
0.684479 0.753632 0.475403
0.787476 0.756622 0.469177
0.877563 0.750946 0.495697
0.999939 0.751709 0.493927
0.058899 0.801758 0.486786
0.143158 0.805389 0.483887
0.261444 0.817871 0.480743
0.400269 0.841064 0.489716
0.536163 0.857544 0.490540
0.663788 0.865753 0.487854
0.790833 0.863525 0.467346
0.893738 0.873901 0.460724
1.000000 0.875671 0.495117
0.054932 0.924194 0.490295
0.161530 0.928833 0.486328
0.273743 0.939392 0.484924
0.408905 0.957153 0.491852
0.533630 0.970001 0.491547
0.655151 0.976837 0.494080
0.778046 0.978058 0.497772
0.894714 0.977386 0.494659
0.998962 0.992065 0.484711
0.000793 0.129669 0.312866
0.005524 0.136566 0.329681
0.011810 0.151764 0.367126
0.162903 0.073151 0.430908
0.431458 0.046173 0.394043
0.588287 0.050354 0.352020
0.676697 0.058655 0.348145
0.758423 0.067871 0.354736
0.846863 0.078613 0.369598
0.000000 0.176697 0.337341
0.002380 0.183289 0.351105
0.006317 0.200500 0.386993
0.119415 0.193726 0.490753
0.422546 0.109711 0.418762
0.603699 0.071045 0.362274
0.689850 0.074158 0.355316
0.769714 0.079559 0.360199
0.863403 0.133606 0.378845
0.000000 0.249451 0.372559
0.000000 0.255615 0.382782
0.000000 0.269745 0.410583
0.098328 0.297638 0.465393
0.398682 0.242462 0.471405
0.666840 0.214783 0.413086
0.743774 0.186249 0.388062
0.801636 0.128113 0.374725
0.886475 0.262634 0.398804
0.000000 0.333405 0.434784
0.000000 0.337921 0.443298
0.000000 0.348419 0.456482
0.085175 0.378387 0.490021
0.362488 0.388733 0.543030
0.681519 0.372437 0.469421
0.776489 0.353821 0.441101
0.850372 0.338654 0.424805
0.908386 0.384216 0.439301
0.004730 0.425140 0.473053
0.011810 0.428101 0.478149
0.033112 0.439148 0.495239
0.161194 0.468903 0.527374
0.318420 0.497864 0.556671
0.681793 0.520691 0.538300
0.784332 0.508209 0.503540
0.873169 0.502014 0.493103
0.947327 0.528809 0.517273
0.000000 0.538055 0.524567
0.007080 0.541534 0.527557
0.021271 0.547394 0.532776
0.157959 0.580658 0.556793
0.363861 0.608765 0.589020
0.678497 0.666199 0.605438
0.793701 0.657715 0.596252
0.902100 0.649506 0.588379
0.988281 0.646088 0.586639
0.000000 0.656738 0.568115
0.010406 0.661072 0.568604
0.130005 0.680237 0.574280
0.270996 0.698334 0.585083
0.473999 0.725586 0.606873
0.669647 0.756989 0.606903
0.795258 0.761078 0.598541
0.887238 0.756012 0.616455
0.999756 0.758240 0.614227
0.011597 0.776245 0.582153
0.103180 0.781006 0.581177
0.219391 0.791473 0.581757
0.350220 0.809082 0.591705
0.514435 0.839508 0.604187
0.658875 0.858551 0.608826
0.787170 0.866516 0.604340
0.896637 0.873840 0.594238
1.000000 0.876648 0.619934
0.033142 0.901489 0.592987
0.147797 0.905670 0.591064
0.255676 0.914307 0.591675
0.377167 0.930878 0.598358
0.525116 0.957611 0.607269
0.652283 0.971039 0.610596
0.773529 0.977814 0.615143
0.893494 0.977570 0.615784
0.997925 0.990906 0.603973
0.000000 0.170074 0.372772
0.004730 0.177155 0.385712
0.007904 0.194550 0.415863
0.056824 0.210602 0.461487
0.343964 0.084717 0.478210
0.579529 0.078613 0.450043
0.681396 0.074158 0.413116
0.757477 0.084259 0.418915
0.831543 0.096313 0.432495
0.000000 0.211853 0.391663
0.000000 0.217834 0.402435
0.001587 0.234741 0.430725
0.041748 0.256805 0.473328
0.325775 0.171936 0.514587
0.591492 0.131195 0.468994
0.696136 0.109711 0.423218
0.769379 0.112213 0.426788
0.845642 0.162170 0.442841
0.000000 0.275787 0.420288
0.000000 0.281036 0.429657
0.000000 0.294891 0.452576
0.000793 0.316467 0.487854
0.258423 0.306671 0.584106
0.574066 0.269867 0.519836
0.737610 0.219788 0.464233
0.794708 0.170532 0.445190
0.872986 0.291351 0.477051
0.000000 0.351501 0.470917
0.000000 0.356750 0.477875
0.000000 0.366699 0.492371
0.000000 0.384552 0.519135
0.220306 0.422546 0.577820
0.540039 0.392151 0.574188
0.762085 0.375397 0.521332
0.835236 0.360626 0.509338
0.890442 0.402588 0.520416
0.000000 0.435272 0.521820
0.000000 0.438934 0.528168
0.000000 0.447357 0.544281
0.091736 0.472198 0.570221
0.222412 0.500610 0.600006
0.549835 0.523956 0.631775
0.768127 0.513855 0.584564
0.851257 0.499207 0.568054
0.912445 0.518555 0.571014
0.019714 0.531036 0.564056
0.033112 0.534607 0.568176
0.048279 0.539612 0.576660
0.143951 0.561279 0.600067
0.317749 0.590271 0.634125
0.535400 0.638123 0.662415
0.772919 0.655060 0.656250
0.862976 0.637573 0.633392
0.940277 0.647888 0.639404
0.004730 0.641022 0.611877
0.026001 0.644135 0.614227
0.051666 0.648254 0.618408
0.130890 0.666168 0.631134
0.324341 0.693237 0.660706
0.558105 0.733124 0.694092
0.776581 0.771179 0.705566
0.892395 0.771667 0.713837
0.986633 0.769836 0.717957
0.000000 0.750031 0.653809
0.023956 0.753601 0.654968
0.090332 0.761566 0.656403
0.249634 0.779327 0.666443
0.414490 0.800201 0.686951
0.617554 0.834229 0.709106
0.773071 0.861694 0.716858
0.897064 0.871948 0.714935
1.000000 0.880066 0.741516
0.000000 0.870361 0.671173
0.093231 0.875122 0.672668
0.222565 0.883636 0.676788
0.331177 0.895416 0.684387
0.476959 0.918396 0.702301
0.639648 0.951904 0.717285
0.769775 0.969757 0.724579
0.890350 0.977112 0.730804
0.994141 0.986969 0.727234
0.000000 0.212250 0.428864
0.000000 0.218750 0.438660
0.003937 0.236389 0.464844
0.009460 0.264374 0.507263
0.197754 0.213165 0.609619
0.475586 0.129669 0.536743
0.693481 0.144531 0.510864
0.769501 0.142303 0.485809
0.832001 0.153625 0.493988
0.000000 0.250214 0.446350
0.000000 0.256073 0.454498
0.000000 0.270844 0.476410
0.000793 0.298004 0.517792
0.179352 0.303192 0.626251
0.459503 0.214417 0.563354
0.703644 0.188812 0.529144
0.779633 0.183716 0.497131
0.842407 0.214417 0.506775
0.000000 0.304504 0.468842
0.000000 0.309662 0.475922
0.000000 0.322296 0.494843
0.000000 0.346344 0.532684
0.161438 0.382080 0.601135
0.448730 0.303436 0.603638
0.704865 0.293884 0.564606
0.795074 0.239288 0.521393
0.861206 0.317047 0.540802
0.000000 0.373413 0.509064
0.000000 0.378113 0.515228
0.000000 0.386749 0.528290
0.000000 0.403107 0.554779
0.130585 0.438049 0.602600
0.405853 0.421082 0.661774
0.676025 0.406464 0.611572
0.820679 0.382355 0.574463
0.878479 0.418793 0.581940
0.000000 0.451050 0.567505
0.000000 0.454437 0.572021
0.000000 0.462067 0.581024
0.000000 0.473694 0.595734
0.136261 0.503754 0.630890
0.366608 0.535217 0.679169
0.677338 0.523560 0.667633
0.833252 0.507690 0.631531
0.899384 0.528534 0.636902
0.000000 0.535461 0.610138
0.002350 0.538849 0.615143
0.014191 0.544159 0.624786
0.101471 0.560364 0.645660
0.249908 0.585602 0.676575
0.391083 0.614807 0.703156
0.698364 0.650208 0.729248
0.847412 0.639771 0.702087
0.917328 0.643402 0.700867
0.023651 0.632782 0.652466
0.047577 0.634155 0.655182
0.070526 0.637573 0.661224
0.117737 0.648407 0.675018
0.290955 0.674561 0.705109
0.473816 0.702606 0.737549
0.692505 0.754059 0.766022
0.859406 0.765411 0.767670
0.940460 0.763733 0.764435
0.000000 0.732910 0.695343
0.023651 0.735992 0.697998
0.065643 0.740662 0.701874
0.106415 0.747314 0.707520
0.277557 0.765930 0.727051
0.485138 0.792786 0.759430
0.710266 0.845001 0.794678
0.867615 0.868164 0.805573
0.981110 0.883209 0.833405
0.000000 0.841614 0.739685
0.000763 0.845123 0.741089
0.120270 0.852081 0.745544
0.270966 0.863129 0.755341
0.393402 0.878601 0.769287
0.554718 0.903839 0.791016
0.737152 0.941895 0.814209
0.879028 0.969452 0.831268
0.986145 0.981628 0.835388
0.000000 0.256531 0.484650
0.000000 0.262939 0.493591
0.000000 0.278107 0.513763
0.004730 0.297791 0.542053
0.147797 0.317169 0.626343
0.412811 0.219452 0.604370
0.626373 0.225189 0.587524
0.773651 0.222595 0.570557
0.833252 0.216949 0.555817
0.000000 0.288910 0.497192
0.000000 0.294525 0.504883
0.000000 0.307648 0.522705
0.000000 0.327148 0.551086
0.146698 0.355957 0.612030
0.401733 0.268646 0.626312
0.604004 0.271118 0.600952
0.779663 0.263519 0.579346
0.842682 0.274567 0.572174
0.000000 0.335785 0.515472
0.000000 0.340485 0.521698
0.000000 0.352295 0.538605
0.000000 0.370758 0.566437
0.123993 0.399902 0.614075
0.354431 0.359253 0.672760
0.586029 0.339935 0.627594
0.782867 0.339203 0.605896
0.854889 0.347076 0.597809
0.000000 0.396332 0.547485
0.000000 0.400787 0.553406
0.000000 0.410034 0.566772
0.000000 0.424255 0.588806
0.098724 0.451660 0.623596
0.320129 0.470856 0.690399
0.587280 0.427399 0.667572
0.774597 0.429962 0.641144
0.866669 0.433899 0.636353
0.000000 0.467987 0.598175
0.000000 0.471497 0.603027
0.000000 0.478119 0.611969
0.000000 0.489594 0.630157
0.105255 0.512848 0.657074
0.294128 0.542908 0.699158
0.606201 0.532928 0.719086
0.782562 0.535034 0.694031
0.883759 0.532318 0.688538
0.000000 0.545929 0.656006
0.000000 0.548279 0.661224
0.000000 0.551941 0.669342
0.065643 0.564636 0.681824
0.157959 0.581818 0.699432
0.316803 0.610382 0.732941
0.606537 0.646820 0.777069
0.800171 0.648071 0.763519
0.905182 0.641968 0.754303
0.006287 0.631073 0.697571
0.030731 0.633118 0.701569
0.052338 0.636963 0.709900
0.086060 0.643066 0.723480
0.235565 0.662994 0.747711
0.378937 0.689148 0.785065
0.565857 0.724915 0.810638
0.818268 0.761322 0.830658
0.927002 0.757446 0.824585
0.000000 0.724152 0.740936
0.028381 0.726715 0.743866
0.071045 0.730560 0.749481
0.106049 0.735229 0.758423
0.245758 0.751587 0.778381
0.380524 0.772827 0.809875
0.616852 0.809540 0.843079
0.821136 0.858582 0.871155
0.951202 0.869537 0.882111
0.000000 0.822510 0.782623
0.015778 0.827728 0.787354
0.119415 0.832001 0.791718
0.246674 0.838928 0.802277
0.387115 0.852722 0.820557
0.510559 0.870728 0.843140
0.667999 0.902435 0.870880
0.844299 0.951050 0.906128
0.965363 0.969208 0.921326
