filters/luts/lut4.cube
# Created by Benjamin (IWLTBAP): https://luts.iwltbap.com
# Copyright: (C) Copyright 2021 Triune Films and IWLTBAP SAS
# Cannot be resold, shared or otherwise redistributed
TITLE "Triune Films Superhero LUTs (Rec.709, sRGB, DCI-P3)"
LUT_3D_SIZE 5
0.000000 0.000000 0.000824
0.264771 0.021759 0.000580
0.525940 0.054962 0.000946
0.756226 0.077332 0.002502
0.947174 0.090027 0.003265
0.029785 0.194122 0.021790
0.316650 0.232483 0.001251
0.562164 0.249298 0.000000
0.792450 0.265320 0.000305
0.972534 0.281372 0.001373
0.106384 0.470917 0.045990
0.371246 0.492950 0.044647
0.584229 0.511841 0.006073
0.770050 0.503845 0.000000
0.999390 0.509491 0.000000
0.158966 0.731934 0.059753
0.365601 0.743561 0.058899
0.599670 0.739197 0.059448
0.786865 0.752747 0.013062
1.000000 0.750000 0.000000
0.126282 0.957916 0.064667
0.343170 0.966309 0.057343
0.565033 0.973328 0.058014
0.793732 0.970154 0.071320
0.995453 0.984772 0.081055
0.001556 0.019714 0.108368
0.247589 0.011810 0.159607
0.516022 0.024231 0.123199
0.730286 0.030548 0.125275
0.928741 0.058685 0.134491
0.001587 0.191071 0.202789
0.183502 0.218018 0.220062
0.566925 0.247620 0.175903
0.795044 0.247162 0.147034
0.966370 0.251617 0.144196
0.005981 0.459503 0.226135
0.273682 0.491394 0.220215
0.573730 0.512909 0.192719
0.776001 0.503235 0.215363
1.000000 0.506409 0.191101
0.081421 0.710052 0.243073
0.324432 0.734314 0.237701
0.582764 0.746826 0.226837
0.785187 0.753387 0.196472
1.000000 0.750061 0.246674
0.095856 0.951355 0.271942
0.325897 0.962555 0.264984
0.554199 0.973114 0.254272
0.788818 0.972778 0.262665
0.996216 0.986511 0.284088
0.000000 0.092590 0.251068
0.029175 0.102631 0.317596
0.490051 0.034698 0.298004
0.682281 0.045441 0.281311
0.872620 0.054016 0.308136
0.000000 0.226562 0.329254
0.000000 0.246979 0.365173
0.565002 0.209839 0.357635
0.754669 0.167236 0.306000
0.915070 0.260376 0.326294
0.000000 0.428986 0.428864
0.029175 0.448944 0.446411
0.541748 0.537384 0.492706
0.797363 0.525940 0.458405
0.985382 0.520386 0.442932
0.016815 0.681519 0.482758
0.227417 0.701111 0.478302
0.541809 0.747375 0.489258
0.787476 0.756622 0.469177
0.999939 0.751709 0.493927
0.054932 0.924194 0.490295
0.273743 0.939392 0.484924
0.533630 0.970001 0.491547
0.778046 0.978058 0.497772
0.998962 0.992065 0.484711
0.000000 0.170074 0.372772
0.007904 0.194550 0.415863
0.343964 0.084717 0.478210
0.681396 0.074158 0.413116
0.831543 0.096313 0.432495
0.000000 0.275787 0.420288
0.000000 0.294891 0.452576
0.258423 0.306671 0.584106
0.737610 0.219788 0.464233
0.872986 0.291351 0.477051
0.000000 0.435272 0.521820
0.000000 0.447357 0.544281
0.222412 0.500610 0.600006
0.768127 0.513855 0.584564
0.912445 0.518555 0.571014
0.004730 0.641022 0.611877
0.051666 0.648254 0.618408
0.324341 0.693237 0.660706
0.776581 0.771179 0.705566
0.986633 0.769836 0.717957
0.000000 0.870361 0.671173
0.222565 0.883636 0.676788
0.476959 0.918396 0.702301
0.769775 0.969757 0.724579
0.994141 0.986969 0.727234
0.000000 0.256531 0.484650
0.000000 0.278107 0.513763
0.147797 0.317169 0.626343
0.626373 0.225189 0.587524
0.833252 0.216949 0.555817
0.000000 0.335785 0.515472
0.000000 0.352295 0.538605
0.123993 0.399902 0.614075
0.586029 0.339935 0.627594
0.854889 0.347076 0.597809
0.000000 0.467987 0.598175
0.000000 0.478119 0.611969
0.105255 0.512848 0.657074
0.606201 0.532928 0.719086
0.883759 0.532318 0.688538
0.006287 0.631073 0.697571
0.052338 0.636963 0.709900
0.235565 0.662994 0.747711
0.565857 0.724915 0.810638
0.927002 0.757446 0.824585
0.000000 0.822510 0.782623
0.119415 0.832001 0.791718
0.387115 0.852722 0.820557
0.667999 0.902435 0.870880
0.965363 0.969208 0.921326
