filters/luts/lut4.cube
# Created by Benjamin (IWLTBAP): https://luts.iwltbap.com
# Copyright: (C) Copyright 2021 Triune Films and IWLTBAP SAS
# Cannot be resold, shared or otherwise redistributed
TITLE "Triune Films Superhero LUTs (Rec.709, sRGB, DCI-P3)"
LUT_3D_SIZE 33
0.000000 0.000000 0.000824
0.013062 0.000580 0.000824
0.035645 0.000793 0.000427
0.066956 0.001160 0.000000
0.106293 0.002319 0.000000
0.148651 0.005798 0.000000
0.189087 0.010712 0.000000
0.227783 0.016296 0.000000
0.264771 0.021759 0.000580
0.299866 0.025970 0.001099
0.333893 0.029755 0.001251
0.367279 0.033264 0.001373
0.400482 0.036682 0.001831
0.432739 0.041748 0.001251
0.464203 0.046661 0.001038
0.495209 0.051147 0.000977
0.525940 0.054962 0.000946
0.556458 0.057343 0.000885
0.586060 0.059357 0.000824
0.615204 0.061737 0.000946
0.644348 0.065308 0.001404
0.672241 0.069092 0.001831
0.700256 0.072601 0.002289
0.728271 0.075500 0.002533
0.756226 0.077332 0.002502
0.783813 0.079041 0.002899
0.811462 0.081421 0.002991
0.838989 0.084137 0.002930
0.866333 0.086853 0.002869
0.889984 0.087952 0.002808
0.910980 0.088745 0.002747
0.929871 0.089386 0.002838
0.947174 0.090027 0.003265
0.001740 0.012268 0.001312
0.017548 0.012939 0.001282
0.043762 0.014954 0.000488
0.077637 0.016815 0.000000
0.118439 0.019073 0.000000
0.158661 0.024109 0.000000
0.197632 0.028625 0.000000
0.235321 0.033966 0.000000
0.271851 0.039307 0.000488
0.305939 0.044464 0.001007
0.339630 0.048645 0.001160
0.372894 0.052582 0.001099
0.406128 0.056488 0.001221
0.437622 0.060211 0.001190
0.469269 0.065033 0.000946
0.500397 0.069489 0.000916
0.531189 0.073395 0.000885
0.561066 0.075867 0.000824
0.590729 0.078339 0.000793
0.619904 0.081085 0.000885
0.649078 0.084839 0.001343
0.676788 0.087891 0.001801
0.704468 0.090607 0.001892
0.732178 0.092773 0.002167
0.759827 0.094055 0.002441
0.786926 0.096588 0.002380
0.814362 0.098877 0.002472
0.841736 0.101440 0.002411
0.868896 0.103912 0.002380
0.891968 0.103729 0.002777
0.912781 0.104095 0.002716
0.931519 0.104462 0.002808
0.948730 0.105011 0.003204
0.004120 0.027557 0.002899
0.021332 0.028503 0.002502
0.048859 0.031281 0.001343
0.084747 0.035522 0.000122
0.126465 0.039825 0.000000
0.167267 0.044922 0.000000
0.206055 0.049866 0.000000
0.242767 0.054718 0.000000
0.278809 0.059784 0.000336
0.312988 0.064728 0.000519
0.346069 0.069458 0.000671
0.378998 0.073517 0.000641
0.412140 0.077576 0.000610
0.443634 0.081543 0.000580
0.474945 0.085358 0.000549
0.506287 0.089722 0.000488
0.537262 0.093567 0.000458
0.566803 0.096741 0.000427
0.596191 0.099579 0.000732
0.625275 0.102417 0.000824
0.654327 0.106110 0.001282
0.682068 0.109131 0.001740
0.709503 0.111786 0.002167
0.736908 0.113556 0.002106
0.764191 0.114563 0.002380
0.791138 0.117218 0.002319
0.818024 0.119659 0.002289
0.845154 0.121948 0.002228
0.872131 0.124084 0.002167
0.894897 0.124329 0.002289
0.915192 0.124176 0.002380
0.933838 0.124542 0.002472
0.951019 0.125244 0.002869
0.007660 0.047119 0.005280
0.026154 0.048615 0.004913
0.054108 0.050659 0.003082
0.090332 0.055786 0.000824
0.132416 0.063049 0.000000
0.172974 0.069122 0.000000
0.212036 0.073944 0.000000
0.249695 0.078491 0.000153
0.285248 0.083038 0.000153
0.319550 0.087555 0.000153
0.353058 0.092072 0.000153
0.385620 0.096405 0.000153
0.418457 0.100281 0.000122
0.450012 0.104248 0.000122
0.481293 0.108093 0.000092
0.512451 0.111816 0.000061
0.543732 0.115570 0.000031
0.573059 0.119049 0.000000
0.602173 0.122406 0.000305
0.630981 0.125275 0.000763
0.659760 0.128693 0.001190
0.687592 0.131897 0.001495
0.715118 0.134705 0.001923
0.742218 0.137054 0.002350
0.769196 0.138062 0.002289
0.795990 0.140747 0.002258
0.822693 0.143097 0.002197
0.849304 0.145264 0.002167
0.876007 0.146973 0.002106
0.898438 0.148010 0.002075
0.918457 0.148438 0.002014
0.936737 0.148560 0.002136
0.953918 0.149689 0.002533
0.012756 0.072113 0.008179
0.032410 0.074432 0.008148
0.060730 0.076080 0.006073
0.096466 0.079529 0.002869
0.138397 0.087219 0.000000
0.177826 0.095154 0.000000
0.216309 0.100800 0.000000
0.253906 0.105103 0.000000
0.290771 0.109009 0.000000
0.325256 0.112823 0.000000
0.359253 0.116852 0.000000
0.392578 0.120972 0.000000
0.425171 0.124969 0.000000
0.456787 0.128601 0.000000
0.488037 0.132202 0.000000
0.519104 0.135834 0.000000
0.550171 0.139435 0.000000
0.579346 0.142822 0.000000
0.608307 0.146332 0.000214
0.636902 0.149536 0.000641
0.665100 0.152100 0.001099
0.693085 0.155701 0.001068
0.720703 0.158875 0.001343
0.747955 0.161560 0.001770
0.774689 0.163727 0.002197
0.801270 0.166412 0.002136
0.827789 0.168579 0.002106
0.854218 0.170471 0.002075
0.880554 0.172180 0.002045
0.902588 0.174438 0.001984
0.922302 0.175781 0.001953
0.940369 0.176605 0.002045
0.957397 0.177246 0.002441
0.017242 0.100494 0.011200
0.038208 0.103912 0.011658
0.066284 0.106659 0.010345
0.102295 0.108978 0.007019
0.144958 0.113312 0.002625
0.186157 0.122192 0.000366
0.221893 0.130096 0.000031
0.257355 0.135529 0.000000
0.292572 0.139465 0.000000
0.327606 0.141754 0.000000
0.362244 0.144897 0.000000
0.396332 0.148254 0.000000
0.429718 0.151672 0.000000
0.461853 0.154663 0.000000
0.493225 0.157776 0.000000
0.524292 0.160950 0.000000
0.555267 0.164185 0.000000
0.585083 0.167755 0.000000
0.614105 0.171234 0.000031
0.642761 0.174500 0.000488
0.670929 0.177155 0.000946
0.698669 0.180511 0.000916
0.726044 0.183777 0.000885
0.753082 0.186584 0.001190
0.779724 0.188873 0.001587
0.806030 0.191620 0.001556
0.832581 0.194183 0.001526
0.858948 0.196411 0.001648
0.885101 0.198486 0.001923
0.906342 0.200623 0.001892
0.925934 0.202301 0.001831
0.944000 0.203369 0.001801
0.961151 0.204132 0.001923
0.021698 0.130737 0.014618
0.042969 0.134003 0.015320
0.069855 0.137909 0.015503
0.105988 0.140656 0.012573
0.149261 0.143219 0.007599
0.194122 0.149536 0.003052
0.231567 0.158508 0.001099
0.263885 0.165863 0.000397
0.296539 0.170593 0.000000
0.329193 0.173492 0.000000
0.363373 0.175568 0.000000
0.397919 0.178070 0.000000
0.431854 0.180786 0.000000
0.464813 0.183105 0.000000
0.496857 0.185486 0.000000
0.528137 0.188171 0.000000
0.559204 0.190948 0.000000
0.589569 0.194092 0.000000
0.619110 0.196991 0.000000
0.647949 0.200195 0.000275
0.676270 0.202789 0.000732
0.703857 0.205811 0.000732
0.731018 0.208832 0.000732
0.757904 0.211639 0.000732
0.784424 0.213928 0.001007
0.810822 0.216797 0.001251
0.837097 0.219513 0.001251
0.863342 0.222046 0.001221
0.889313 0.224365 0.001495
0.910248 0.226379 0.001465
0.929504 0.228058 0.001740
0.947601 0.229340 0.001709
0.964874 0.230194 0.001678
0.025940 0.162170 0.018188
0.048004 0.165405 0.019012
0.074402 0.169373 0.019623
0.107697 0.173401 0.019104
0.151489 0.175751 0.014160
0.199066 0.179840 0.007599
0.240814 0.186890 0.003296
0.274963 0.195496 0.001495
0.304077 0.201782 0.000122
0.333557 0.205566 0.000000
0.364777 0.208191 0.000000
0.397736 0.209808 0.000000
0.431976 0.211731 0.000000
0.465363 0.213501 0.000000
0.498199 0.215332 0.000000
0.530243 0.217133 0.000000
0.561646 0.219452 0.000000
0.592560 0.222107 0.000000
0.622559 0.224548 0.000031
0.651764 0.226685 0.000061
0.680389 0.229126 0.000488
0.708160 0.231812 0.000519
0.735382 0.234528 0.000519
0.762238 0.237061 0.000519
0.788727 0.239288 0.000519
0.815247 0.242004 0.000793
0.841522 0.244690 0.001068
0.867493 0.247314 0.000946
0.893219 0.249847 0.000916
0.913879 0.251709 0.001038
0.933014 0.253448 0.001282
0.951202 0.254883 0.001556
0.968658 0.255859 0.001526
0.029785 0.194122 0.021790
0.053101 0.197510 0.022552
0.079498 0.201691 0.023376
0.111481 0.205994 0.023468
0.151703 0.209747 0.021912
0.201019 0.211975 0.013672
0.246155 0.217407 0.007263
0.285278 0.224701 0.003021
0.316650 0.232483 0.001251
0.342041 0.237457 0.000244
0.369507 0.240875 0.000000
0.398956 0.242981 0.000000
0.430359 0.243896 0.000000
0.463837 0.245300 0.000000
0.497101 0.246704 0.000000
0.529938 0.248077 0.000000
0.562164 0.249298 0.000000
0.593658 0.251404 0.000000
0.624176 0.253387 0.000000
0.653778 0.255035 0.000153
0.682587 0.256256 0.000214
0.710815 0.258606 0.000244
0.738464 0.261017 0.000275
0.765625 0.263306 0.000305
0.792450 0.265320 0.000305
0.819122 0.267639 0.000305
0.845459 0.269989 0.000580
0.871368 0.272400 0.000732
0.896820 0.274841 0.000336
0.917297 0.276581 0.000732
0.936371 0.278381 0.001129
0.954559 0.280029 0.001373
0.972534 0.281372 0.001373
0.035370 0.226929 0.025269
0.057770 0.230103 0.025513
0.084442 0.234222 0.025726
0.115875 0.239197 0.025909
0.154633 0.244354 0.025208
0.202972 0.245819 0.021057
0.250275 0.248840 0.012787
0.293427 0.255371 0.006592
0.330658 0.264069 0.002777
0.356689 0.269745 0.001404
0.379425 0.273651 0.000366
0.404541 0.276093 0.000000
0.432007 0.277283 0.000000
0.461334 0.278015 0.000000
0.493927 0.279175 0.000000
0.526642 0.280243 0.000000
0.559204 0.281097 0.000000
0.591187 0.282104 0.000000
0.622345 0.283478 0.000000
0.652588 0.284760 0.000000
0.682068 0.285767 0.000000
0.711243 0.287262 0.000000
0.739471 0.289185 0.000000
0.767181 0.291168 0.000000
0.794495 0.292999 0.000000
0.821442 0.294647 0.000000
0.848022 0.296783 0.000000
0.874146 0.298920 0.000244
0.899658 0.301056 0.000122
0.919647 0.302582 0.000153
0.939270 0.304352 0.000549
0.958038 0.306061 0.000793
0.976501 0.307617 0.000793
0.040955 0.259735 0.028412
0.064117 0.262970 0.028625
0.090759 0.267090 0.028625
0.122040 0.272064 0.028351
0.159760 0.277985 0.027985
0.206787 0.281403 0.026123
0.253784 0.281250 0.019684
0.299255 0.286163 0.011505
0.340637 0.294922 0.005676
0.372284 0.302002 0.003235
0.395294 0.306519 0.001770
0.415527 0.309357 0.000671
0.438477 0.310791 0.000000
0.463226 0.311462 0.000000
0.491028 0.311890 0.000000
0.522644 0.312744 0.000000
0.554657 0.313354 0.000000
0.586517 0.313995 0.000000
0.618408 0.314575 0.000000
0.649475 0.315399 0.000000
0.679749 0.316193 0.000000
0.709595 0.317261 0.000000
0.738831 0.318451 0.000000
0.767181 0.319977 0.000000
0.795074 0.321503 0.000000
0.822693 0.322845 0.000000
0.849701 0.324341 0.000000
0.875946 0.326263 0.000000
0.901520 0.328125 0.000000
0.921936 0.329590 0.000000
0.941986 0.331177 0.000183
0.961456 0.332977 0.000580
0.980591 0.334686 0.000702
0.047058 0.292877 0.031342
0.071106 0.296173 0.031494
0.098816 0.300415 0.031372
0.130127 0.305450 0.031097
0.167267 0.311432 0.030457
0.212738 0.316315 0.030273
0.258514 0.316711 0.026031
0.303650 0.317108 0.018127
0.347473 0.325073 0.010193
0.383331 0.333313 0.006256
0.411987 0.339447 0.004059
0.432251 0.342865 0.002472
0.450134 0.344604 0.001282
0.469971 0.345123 0.000366
0.493103 0.345276 0.000000
0.519531 0.345367 0.000000
0.550018 0.345825 0.000000
0.580902 0.346130 0.000000
0.612579 0.346497 0.000000
0.644409 0.346832 0.000000
0.675659 0.347321 0.000000
0.706177 0.348083 0.000000
0.736176 0.348907 0.000000
0.765686 0.349762 0.000000
0.794250 0.350830 0.000000
0.822601 0.351868 0.000000
0.850281 0.353027 0.000000
0.876831 0.354370 0.000000
0.902405 0.355988 0.000000
0.923462 0.357452 0.000000
0.944183 0.358948 0.000000
0.964630 0.360596 0.000336
0.984619 0.362488 0.000702
0.054169 0.326691 0.034271
0.079193 0.330078 0.034363
0.108093 0.334473 0.034119
0.140808 0.339661 0.033630
0.177216 0.345581 0.033051
0.221039 0.351410 0.033844
0.265381 0.351837 0.031097
0.309326 0.351349 0.025208
0.352051 0.354492 0.016663
0.390656 0.363739 0.010681
0.423553 0.371307 0.007294
0.449524 0.376556 0.005341
0.467377 0.378876 0.003601
0.481873 0.379150 0.001831
0.499969 0.378937 0.000641
0.521667 0.378571 0.000000
0.546906 0.378296 0.000000
0.575897 0.378357 0.000000
0.606445 0.378540 0.000000
0.637939 0.378754 0.000000
0.669769 0.378998 0.000000
0.701050 0.379578 0.000000
0.731873 0.380096 0.000000
0.762207 0.380615 0.000000
0.792084 0.381073 0.000000
0.821167 0.381744 0.000000
0.849548 0.382538 0.000000
0.876770 0.383545 0.000000
0.902405 0.384705 0.000000
0.924347 0.386169 0.000000
0.945923 0.387573 0.000000
0.967255 0.389099 0.000061
0.988373 0.390839 0.000427
0.064362 0.361420 0.037506
0.091095 0.365356 0.037537
0.120697 0.369873 0.037323
0.153564 0.375061 0.036621
0.189636 0.380829 0.035553
0.229797 0.386749 0.037506
0.273132 0.389191 0.036896
0.315613 0.387329 0.032318
0.356323 0.385651 0.024200
0.395264 0.392883 0.016083
0.431091 0.401703 0.010742
0.461334 0.408478 0.007843
0.484741 0.412628 0.006134
0.499084 0.413300 0.004242
0.511841 0.412689 0.002167
0.528503 0.411835 0.000763
0.549042 0.410950 0.000000
0.573090 0.410217 0.000000
0.601532 0.410126 0.000000
0.631653 0.410187 0.000000
0.662781 0.410370 0.000000
0.694397 0.410583 0.000000
0.725800 0.411041 0.000000
0.756836 0.411469 0.000000
0.787476 0.411926 0.000000
0.817841 0.412445 0.000000
0.846985 0.413177 0.000000
0.874908 0.414001 0.000000
0.901184 0.414978 0.000000
0.924896 0.415924 0.000000
0.947540 0.417328 0.000000
0.969818 0.418701 0.000305
0.991821 0.420227 0.000671
0.077362 0.397461 0.040649
0.104156 0.401276 0.040527
0.134033 0.405487 0.039795
0.166870 0.410553 0.039276
0.202362 0.416016 0.038177
0.240814 0.421417 0.039978
0.280457 0.424744 0.041016
0.322052 0.423859 0.038300
0.361359 0.419708 0.031189
0.398254 0.422394 0.023224
0.435455 0.430573 0.016022
0.468658 0.438660 0.011444
0.496368 0.444397 0.009094
0.516113 0.446625 0.007019
0.528839 0.446777 0.004791
0.540375 0.445526 0.002502
0.556122 0.444153 0.001007
0.575623 0.442841 0.000000
0.599243 0.441833 0.000000
0.627228 0.441559 0.000000
0.656982 0.441528 0.000000
0.687683 0.441559 0.000000
0.719177 0.441803 0.000000
0.750793 0.442230 0.000000
0.782074 0.442688 0.000000
0.813202 0.443268 0.000000
0.843567 0.443909 0.000000
0.872253 0.444641 0.000000
0.899231 0.445435 0.000000
0.924194 0.446289 0.000000
0.948608 0.447266 0.000000
0.971863 0.448517 0.000244
0.994812 0.449829 0.000641
0.091797 0.434143 0.043579
0.118744 0.437744 0.043213
0.148254 0.441620 0.042297
0.180237 0.445892 0.041412
0.214935 0.450958 0.040680
0.251465 0.455841 0.042664
0.289337 0.459381 0.044037
0.328033 0.459991 0.043488
0.366547 0.455750 0.037872
0.401886 0.454865 0.030243
0.437561 0.459015 0.023102
0.472687 0.467285 0.016571
0.503387 0.474335 0.012909
0.527283 0.477997 0.010376
0.545410 0.479767 0.008087
0.557037 0.479553 0.005371
0.567902 0.477814 0.002960
0.582855 0.475952 0.001038
0.602142 0.474365 0.000000
0.625488 0.473206 0.000000
0.653076 0.472778 0.000000
0.682373 0.472565 0.000000
0.712891 0.472595 0.000000
0.744324 0.472839 0.000000
0.776184 0.473358 0.000000
0.807831 0.473907 0.000000
0.838928 0.474548 0.000000
0.868896 0.475281 0.000000
0.896637 0.475983 0.000000
0.922882 0.476837 0.000000
0.948456 0.477722 0.000000
0.973419 0.478516 0.000000
0.997345 0.479584 0.000336
0.106384 0.470917 0.045990
0.133514 0.474152 0.045319
0.162720 0.477631 0.044189
0.193878 0.481384 0.043182
0.226929 0.485504 0.042786
0.261292 0.489777 0.045288
0.297150 0.493530 0.047302
0.333984 0.495117 0.047516
0.371246 0.492950 0.044647
0.405487 0.489471 0.037506
0.440094 0.490570 0.030548
0.474213 0.495300 0.023956
0.506927 0.502686 0.017822
0.533722 0.507599 0.014618
0.556061 0.510803 0.012054
0.573151 0.512207 0.009399
0.584229 0.511841 0.006073
0.594604 0.509521 0.003418
0.609497 0.507385 0.001373
0.628662 0.505646 0.000000
0.651917 0.504425 0.000000
0.679260 0.503876 0.000000
0.708282 0.503632 0.000000
0.738617 0.503632 0.000000
0.770050 0.503845 0.000000
0.802032 0.504303 0.000000
0.833649 0.504913 0.000000
0.864288 0.505646 0.000000
0.893433 0.506470 0.000000
0.920990 0.507355 0.000000
0.947784 0.508240 0.000000
0.973907 0.508972 0.000000
0.999390 0.509491 0.000000
0.119720 0.506439 0.047943
0.147186 0.509216 0.046936
0.175476 0.512360 0.046204
0.205170 0.515686 0.045563
0.236206 0.519226 0.045563
0.267975 0.523193 0.047668
0.301941 0.527039 0.049988
0.337067 0.529541 0.051178
0.372803 0.529144 0.049835
0.406799 0.524078 0.044067
0.439850 0.521881 0.037903
0.473236 0.523987 0.031921
0.506042 0.529480 0.026276
0.535431 0.535095 0.020935
0.561096 0.539581 0.017395
0.582397 0.542480 0.014496
0.598602 0.543671 0.011475
0.609436 0.542786 0.007751
0.620453 0.540588 0.004639
0.635834 0.538544 0.002167
0.655365 0.536835 0.000244
0.678619 0.535400 0.000000
0.705902 0.534760 0.000000
0.734802 0.534454 0.000000
0.765045 0.534393 0.000000
0.796387 0.534546 0.000000
0.828156 0.535004 0.000000
0.859375 0.535583 0.000000
0.889465 0.536285 0.000000
0.918732 0.537079 0.000000
0.946716 0.537933 0.000000
0.973724 0.538696 0.000000
0.999847 0.539246 0.000000
0.132629 0.541534 0.049500
0.159210 0.543884 0.048645
0.186493 0.546417 0.048218
0.215149 0.549438 0.047913
0.244629 0.552551 0.048279
0.274658 0.555969 0.049927
0.305573 0.559296 0.051941
0.339172 0.562225 0.053619
0.373566 0.563049 0.053436
0.407135 0.559601 0.049408
0.439423 0.555328 0.044434
0.471497 0.554291 0.039307
0.503815 0.557312 0.034393
0.534210 0.562103 0.030365
0.562836 0.567169 0.025421
0.587524 0.571259 0.021332
0.607971 0.573822 0.017792
0.623413 0.574402 0.013702
0.634705 0.573639 0.009583
0.646423 0.571564 0.005920
0.662354 0.569580 0.002930
0.682373 0.567719 0.000458
0.705780 0.566284 0.000000
0.733032 0.565552 0.000000
0.761871 0.565186 0.000000
0.792053 0.565002 0.000000
0.823181 0.565155 0.000000
0.854706 0.565582 0.000000
0.885468 0.566132 0.000000
0.915588 0.566772 0.000000
0.945160 0.567505 0.000000
0.973175 0.568237 0.000000
1.000000 0.568848 0.000000
0.143921 0.575836 0.050781
0.169769 0.577850 0.050140
0.196228 0.580017 0.049927
0.223236 0.582428 0.050049
0.251556 0.585236 0.050690
0.280212 0.588165 0.052124
0.309814 0.591125 0.053680
0.340424 0.593872 0.055389
0.373688 0.595428 0.055878
0.406769 0.593658 0.053528
0.438690 0.590363 0.049988
0.469788 0.587006 0.045990
0.501038 0.587036 0.041992
0.531708 0.589996 0.038788
0.561340 0.594208 0.035309
0.589264 0.598724 0.030670
0.613129 0.602356 0.025696
0.632599 0.604248 0.020569
0.648132 0.604889 0.015839
0.659943 0.604187 0.011108
0.672424 0.602203 0.006775
0.689301 0.600281 0.003174
0.709686 0.598511 0.000519
0.733429 0.597046 0.000000
0.760681 0.596283 0.000000
0.789520 0.595795 0.000000
0.819580 0.595612 0.000000
0.850494 0.595673 0.000000
0.881744 0.596100 0.000000
0.912476 0.596588 0.000000
0.942871 0.597168 0.000000
0.972412 0.597778 0.000000
1.000000 0.598419 0.000000
0.152435 0.609070 0.052063
0.177673 0.610718 0.051666
0.203461 0.612579 0.051697
0.229706 0.614685 0.052063
0.256378 0.617004 0.052673
0.283997 0.619568 0.053894
0.312653 0.622223 0.055176
0.342407 0.624756 0.056458
0.373260 0.626984 0.057770
0.405884 0.626923 0.056946
0.437378 0.624695 0.054779
0.468140 0.621735 0.051910
0.498596 0.619476 0.049042
0.528748 0.619629 0.046082
0.558624 0.621979 0.043518
0.587555 0.625549 0.040405
0.614838 0.629486 0.035980
0.637787 0.632477 0.029083
0.657013 0.634338 0.023071
0.672699 0.634949 0.017456
0.685150 0.634247 0.011871
0.698975 0.632629 0.007050
0.716492 0.630890 0.003174
0.737427 0.629211 0.000305
0.761536 0.627777 0.000000
0.788971 0.626953 0.000000
0.817841 0.626434 0.000000
0.847778 0.626221 0.000000
0.878479 0.626251 0.000000
0.909668 0.626587 0.000000
0.940613 0.627045 0.000000
0.970886 0.627533 0.000000
1.000000 0.628052 0.000000
0.156342 0.640350 0.053680
0.181152 0.641876 0.053650
0.206512 0.643616 0.053650
0.232239 0.645538 0.053955
0.258270 0.647614 0.054443
0.285309 0.650085 0.055176
0.313263 0.652557 0.056244
0.342194 0.655029 0.057373
0.372131 0.657288 0.058533
0.402771 0.658478 0.059326
0.434387 0.657593 0.058289
0.465088 0.654938 0.056274
0.495209 0.651886 0.053864
0.525085 0.650116 0.051849
0.554871 0.650452 0.049530
0.584198 0.652527 0.047272
0.612366 0.655426 0.044189
0.638733 0.658813 0.039764
0.661407 0.661530 0.032959
0.680511 0.663300 0.026367
0.696259 0.664001 0.019562
0.710266 0.664001 0.012238
0.725281 0.662689 0.007111
0.743744 0.661194 0.003052
0.765442 0.659698 0.000061
0.790222 0.658478 0.000000
0.817841 0.657654 0.000000
0.846832 0.657166 0.000000
0.876892 0.656921 0.000000
0.907715 0.656860 0.000000
0.938995 0.657166 0.000000
0.969940 0.657562 0.000000
1.000000 0.658081 0.000000
0.158691 0.671295 0.055817
0.183319 0.672699 0.055664
0.208160 0.674194 0.055634
0.233643 0.675964 0.055817
0.259338 0.677917 0.056183
0.286102 0.680145 0.056610
0.313232 0.682312 0.057159
0.341461 0.684509 0.058014
0.370575 0.686615 0.058960
0.400330 0.688141 0.059692
0.430511 0.688690 0.060150
0.461334 0.687164 0.059174
0.491364 0.684204 0.057465
0.521088 0.681763 0.055847
0.550751 0.680267 0.054413
0.580139 0.680664 0.052704
0.608826 0.682373 0.050659
0.636230 0.684662 0.047821
0.662201 0.687775 0.043732
0.684692 0.690308 0.036835
0.703735 0.692078 0.029510
0.720490 0.693298 0.020599
0.735596 0.693665 0.012451
0.751770 0.692657 0.007111
0.771240 0.691406 0.002930
0.794006 0.690338 0.000000
0.819275 0.689240 0.000000
0.847107 0.688446 0.000000
0.876312 0.687927 0.000000
0.906799 0.687714 0.000000
0.937897 0.687714 0.000000
0.969208 0.687988 0.000000
1.000000 0.688416 0.000000
0.159515 0.701843 0.057983
0.184113 0.703094 0.057739
0.208832 0.704437 0.057587
0.233978 0.705963 0.057495
0.259613 0.707794 0.057678
0.286041 0.709778 0.057892
0.312897 0.711700 0.058136
0.340027 0.713501 0.058472
0.368469 0.715271 0.059021
0.397339 0.716888 0.059631
0.426849 0.717957 0.060242
0.456635 0.717957 0.060547
0.486786 0.715942 0.059845
0.516571 0.713440 0.058807
0.546204 0.711365 0.057739
0.575592 0.709930 0.056885
0.604523 0.710297 0.055664
0.632629 0.711517 0.053955
0.659668 0.713562 0.051331
0.685272 0.716370 0.047516
0.707642 0.718811 0.040375
0.727264 0.720917 0.031403
0.744873 0.722473 0.021698
0.761139 0.723267 0.012634
0.778473 0.722565 0.007202
0.799530 0.721924 0.002686
0.823059 0.721069 0.000000
0.848877 0.720123 0.000000
0.877045 0.719360 0.000000
0.906860 0.718994 0.000000
0.937531 0.718781 0.000000
0.968750 0.718750 0.000000
1.000000 0.719055 0.000000
0.158966 0.731934 0.059753
0.183533 0.733063 0.059418
0.208282 0.734283 0.059174
0.233398 0.735626 0.058960
0.259125 0.737244 0.058777
0.285156 0.738922 0.058777
0.311676 0.740570 0.058777
0.338531 0.742157 0.058807
0.365601 0.743561 0.058899
0.393646 0.744995 0.059265
0.422485 0.746307 0.059875
0.451813 0.747009 0.060516
0.481262 0.746582 0.060913
0.511292 0.744629 0.060577
0.541107 0.742584 0.060120
0.570587 0.740692 0.059692
0.599670 0.739197 0.059448
0.628204 0.739380 0.058411
0.656006 0.740356 0.056854
0.682709 0.742126 0.054413
0.708038 0.744568 0.050903
0.730591 0.747192 0.043304
0.750854 0.749603 0.033569
0.769379 0.751556 0.023071
0.786865 0.752747 0.013062
0.806396 0.752869 0.007141
0.828430 0.752563 0.002716
0.852814 0.751984 0.000000
0.879303 0.751251 0.000000
0.908203 0.750702 0.000000
0.938110 0.750275 0.000000
0.968811 0.750061 0.000000
1.000000 0.750000 0.000000
0.154388 0.760742 0.060242
0.179382 0.761780 0.059784
0.204315 0.762909 0.059387
0.229614 0.764160 0.059021
0.255524 0.765656 0.058655
0.281464 0.767181 0.058380
0.307831 0.768768 0.058319
0.334564 0.770294 0.058228
0.361542 0.771698 0.058197
0.388916 0.772949 0.058197
0.417084 0.774109 0.058533
0.446014 0.775085 0.059235
0.475311 0.775421 0.059998
0.505188 0.775116 0.060760
0.535248 0.773346 0.060913
0.564972 0.771545 0.061005
0.594330 0.769928 0.061127
0.623291 0.768494 0.061188
0.651581 0.768341 0.060425
0.679138 0.768951 0.059021
0.705627 0.770294 0.056671
0.731049 0.772705 0.053619
0.753998 0.775421 0.046417
0.774811 0.778046 0.036835
0.794189 0.780334 0.026215
0.813965 0.782349 0.014954
0.834656 0.782990 0.008209
0.857605 0.783081 0.003265
0.882629 0.782806 0.000000
0.909851 0.782410 0.000000
0.939087 0.781921 0.000000
0.969238 0.781586 0.000000
1.000000 0.781342 0.000000
0.149170 0.789429 0.060486
0.174500 0.790436 0.059998
0.199829 0.791443 0.059418
0.225311 0.792633 0.058929
0.251343 0.794006 0.058441
0.277496 0.795441 0.057983
0.303894 0.796936 0.057617
0.330536 0.798431 0.057465
0.357422 0.799866 0.057343
0.384644 0.801056 0.057190
0.412506 0.802094 0.057343
0.440979 0.803009 0.057831
0.470123 0.803772 0.058746
0.499908 0.803925 0.059845
0.529755 0.803497 0.061096
0.559814 0.802002 0.061737
0.589539 0.800476 0.062347
0.618927 0.798920 0.062988
0.647858 0.797516 0.063416
0.675873 0.797058 0.062775
0.703125 0.797333 0.061462
