filters/luts/lut6.cube
# Copyright: (C) Copyright 2010-2017 by IWLTBAP SAS
# Cannot be resold, shared or otherwise redistributed
# Website: https://luts.iwltbap.com
TITLE "IWLTBAP Fillingat (Rec.709, sRGB, DCI-P3)"
LUT_3D_SIZE 5
0.000824 0.001587 0.000793
0.248779 0.012085 0.005188
0.514221 0.028259 0.014404
0.752228 0.046326 0.019592
0.991821 0.062927 0.024200
0.223999 0.094666 0.048981
0.300476 0.140869 0.031525
0.513702 0.230957 0.018005
0.748901 0.256683 0.019623
0.993561 0.268921 0.023682
0.481781 0.203979 0.095062
0.511169 0.224854 0.090027
0.580658 0.269470 0.068390
0.748199 0.374146 0.036011
0.993256 0.478088 0.041656
0.710968 0.314636 0.146423
0.723175 0.325256 0.144531
0.763428 0.352936 0.129669
0.841675 0.400452 0.104156
0.990936 0.495636 0.071564
0.934631 0.426453 0.206482
0.945465 0.433563 0.203796
0.976349 0.457855 0.196564
0.990143 0.776215 0.635254
0.989075 0.956726 0.940399
0.010284 0.045441 0.156952
0.207214 0.018158 0.274170
0.515564 0.019714 0.254120
0.757294 0.026245 0.228088
0.990997 0.030701 0.213898
0.062714 0.201172 0.190857
0.241058 0.218719 0.222595
0.510834 0.256592 0.258392
0.751831 0.269348 0.253876
0.992371 0.286163 0.257111
0.476868 0.186523 0.100708
0.506653 0.213165 0.099121
0.579956 0.303070 0.119415
0.747009 0.486328 0.259094
0.993500 0.514740 0.265747
0.710144 0.307434 0.150208
0.722321 0.319824 0.149414
0.762939 0.351715 0.135681
0.842773 0.414825 0.123993
0.991211 0.629700 0.271210
0.933502 0.421692 0.208557
0.944061 0.429504 0.206482
0.975220 0.456360 0.201294
0.990112 0.776550 0.638977
0.989227 0.959412 0.943939
0.031525 0.122711 0.365143
0.198730 0.116058 0.531647
0.492035 0.021271 0.553223
0.750732 0.026825 0.550934
0.982513 0.030731 0.529144
0.031525 0.206451 0.226379
0.127594 0.302948 0.459076
0.494751 0.263641 0.558990
0.754639 0.264496 0.554962
0.986084 0.270264 0.524872
0.152710 0.414795 0.387238
0.307373 0.423065 0.399536
0.517273 0.500061 0.507904
0.750702 0.523346 0.540405
0.991882 0.529755 0.530457
0.704773 0.263123 0.155701
0.716034 0.278412 0.157990
0.756134 0.334167 0.158234
0.838074 0.484680 0.240387
0.991608 0.743073 0.547028
0.929108 0.399323 0.211151
0.938965 0.409882 0.211151
0.969940 0.444885 0.214264
0.989960 0.770996 0.643463
0.989960 0.967651 0.954620
0.061188 0.238953 0.647583
0.203461 0.235077 0.771790
0.416656 0.059875 0.783447
0.735474 0.032349 0.794067
0.975739 0.034698 0.796631
0.027649 0.314026 0.417572
0.115509 0.396484 0.698730
0.434479 0.339844 0.780090
0.743530 0.269318 0.804810
0.980957 0.273071 0.806000
0.091705 0.434723 0.453522
0.104858 0.454926 0.466400
0.349731 0.586731 0.749207
0.739746 0.539093 0.808289
0.984375 0.536072 0.809906
0.242401 0.651794 0.596497
0.393860 0.654633 0.606720
0.575104 0.664795 0.637878
0.766541 0.753387 0.773254
0.991364 0.767120 0.795624
0.916962 0.329041 0.210236
0.925018 0.339966 0.211334
0.951263 0.369049 0.216797
0.989075 0.649353 0.518433
0.993347 0.980774 0.973602
0.096008 0.374725 0.978729
0.208862 0.299011 0.972839
0.378571 0.180267 0.962952
0.716003 0.043274 0.998291
0.959839 0.049683 0.998138
0.047089 0.489929 0.741302
0.141663 0.510529 0.977112
0.431305 0.444519 0.972687
0.721069 0.287079 0.997009
0.968018 0.290588 0.999512
0.066620 0.535950 0.571991
0.047089 0.596436 0.669556
0.277405 0.658234 0.980286
0.710266 0.578918 0.981842
0.972778 0.554779 0.999756
0.204376 0.715637 0.736450
0.257324 0.725342 0.741211
0.265717 0.775024 0.780273
0.655579 0.832703 0.981445
0.979980 0.786926 0.999878
0.347443 0.930786 0.860382
0.504242 0.937897 0.875061
0.665741 0.955750 0.911865
0.830139 0.973969 0.955414
1.000000 1.000000 1.000000
