filters/luts/lut6.cube
# Copyright: (C) Copyright 2010-2017 by IWLTBAP SAS
# Cannot be resold, shared or otherwise redistributed
# Website: https://luts.iwltbap.com
TITLE "IWLTBAP Fillingat (Rec.709, sRGB, DCI-P3)"
LUT_3D_SIZE 33
0.000824 0.001587 0.000793
0.024658 0.001709 0.001709
0.051636 0.002289 0.001740
0.080536 0.002869 0.001740
0.111481 0.004028 0.002289
0.144775 0.005768 0.002869
0.179413 0.007477 0.003448
0.214447 0.009796 0.004608
0.248779 0.012085 0.005188
0.282623 0.014404 0.006317
0.316162 0.016144 0.007477
0.349426 0.017853 0.008636
0.382446 0.020172 0.009796
0.415283 0.021881 0.010956
0.447754 0.024200 0.012085
0.479370 0.026489 0.013245
0.514221 0.028259 0.014404
0.544800 0.029968 0.014984
0.575287 0.032166 0.016144
0.605316 0.034271 0.017303
0.634857 0.036804 0.017883
0.664337 0.039703 0.018463
0.693756 0.041992 0.019012
0.723022 0.044189 0.019012
0.752228 0.046326 0.019592
0.781830 0.048401 0.020172
0.811920 0.050385 0.020752
0.842224 0.052704 0.021332
0.872467 0.054932 0.021912
0.902679 0.057129 0.022491
0.932861 0.058868 0.023071
0.962677 0.060913 0.023651
0.991821 0.062927 0.024200
0.020538 0.011810 0.006287
0.037842 0.015778 0.007080
0.057770 0.019348 0.006073
0.084137 0.024658 0.004333
0.115295 0.029236 0.003876
0.148865 0.032471 0.003601
0.183624 0.034882 0.003937
0.218140 0.037598 0.004639
0.251923 0.039795 0.005280
0.285370 0.041931 0.006470
0.318481 0.044006 0.007629
0.351288 0.045532 0.008820
0.383698 0.047943 0.010010
0.415985 0.050232 0.011169
0.447906 0.052460 0.011810
0.479248 0.054626 0.012970
0.513855 0.056305 0.013580
0.544373 0.058319 0.014160
0.574677 0.060272 0.015350
0.604553 0.062195 0.016510
0.634033 0.064026 0.017090
0.663483 0.066528 0.017670
0.692932 0.068604 0.018280
0.722229 0.070648 0.019440
0.751556 0.072601 0.020020
0.781250 0.074524 0.020599
0.811462 0.076691 0.021179
0.841949 0.079102 0.021790
0.872467 0.081146 0.022369
0.902954 0.083160 0.022949
0.933380 0.085114 0.023529
0.963226 0.087006 0.024109
0.992340 0.089142 0.024689
0.042969 0.022858 0.012604
0.055359 0.027588 0.011810
0.070251 0.033112 0.011017
0.091187 0.039429 0.009460
0.118530 0.048920 0.007538
0.151306 0.056183 0.006042
0.185974 0.061462 0.005585
0.220245 0.064972 0.005249
0.253571 0.067322 0.005554
0.286407 0.069183 0.006470
0.319519 0.071381 0.007690
0.352203 0.073212 0.008911
0.384308 0.075317 0.009583
0.416260 0.077362 0.010803
0.447906 0.079681 0.011444
0.478912 0.081665 0.012085
0.513458 0.083588 0.012726
0.543793 0.085449 0.013885
0.573975 0.086975 0.014526
0.603699 0.088776 0.015686
0.633179 0.090546 0.016846
0.662567 0.092529 0.017456
0.692047 0.094452 0.018646
0.721405 0.096344 0.019226
0.750732 0.098480 0.019836
0.780487 0.100281 0.020447
0.810760 0.102539 0.021027
0.841461 0.104736 0.021637
0.872192 0.106903 0.022217
0.902893 0.109009 0.022797
0.933502 0.111084 0.023407
0.963470 0.113098 0.023987
0.992615 0.115082 0.024567
0.067657 0.033905 0.018921
0.077087 0.039429 0.017334
0.088684 0.044739 0.015778
0.105072 0.051666 0.014191
0.127594 0.060455 0.012604
0.156250 0.071594 0.010284
0.188538 0.081268 0.007812
0.221771 0.088287 0.007141
0.254761 0.092926 0.007263
0.287415 0.096039 0.007477
0.320007 0.098541 0.007721
0.352142 0.100342 0.008514
0.383942 0.101990 0.009460
0.415863 0.104095 0.010223
0.447418 0.105927 0.010925
0.478394 0.107758 0.011627
0.512756 0.109558 0.012299
0.543030 0.111298 0.012970
0.573151 0.112823 0.014160
0.602905 0.114532 0.015350
0.632294 0.116211 0.016541
0.661682 0.117859 0.017700
0.691193 0.119690 0.018341
0.720551 0.121490 0.018951
0.749939 0.123474 0.019592
0.779663 0.125641 0.020752
0.810059 0.127747 0.021362
0.840820 0.130005 0.021423
0.871735 0.132202 0.022003
0.902618 0.134399 0.022614
0.933380 0.136719 0.023224
0.963470 0.138794 0.023804
0.992706 0.140839 0.024414
0.094818 0.046173 0.024445
0.102875 0.051025 0.023651
0.112457 0.056183 0.021271
0.126038 0.062805 0.019714
0.144135 0.071564 0.017334
0.167572 0.080994 0.014984
0.195221 0.091034 0.013184
0.224609 0.103058 0.010345
0.255981 0.111877 0.009460
0.288208 0.118286 0.008850
0.320709 0.122681 0.009521
0.352814 0.126038 0.009674
0.384460 0.128693 0.010437
0.415741 0.130737 0.010681
0.446716 0.132477 0.010956
0.477509 0.134155 0.011017
0.511963 0.135620 0.011749
0.542236 0.137268 0.012451
0.572418 0.138733 0.013672
0.602173 0.140137 0.015381
0.631592 0.141754 0.016602
0.661041 0.143341 0.017822
0.690521 0.145081 0.018494
0.719910 0.146790 0.019135
0.749359 0.148834 0.019226
0.779114 0.150818 0.019867
0.809479 0.152985 0.020508
0.840302 0.155090 0.021118
0.871338 0.157349 0.021729
0.902374 0.159698 0.022339
0.933258 0.162018 0.022980
0.963501 0.164154 0.023560
0.992767 0.166229 0.024170
0.125122 0.058655 0.030731
0.132355 0.062225 0.029175
0.141113 0.067291 0.027588
0.152771 0.073639 0.025238
0.167542 0.081482 0.022858
0.185944 0.090027 0.020508
0.207397 0.099121 0.018127
0.232300 0.108612 0.016541
0.259521 0.121521 0.013733
0.289734 0.132568 0.011932
0.321625 0.140991 0.011139
0.353546 0.147308 0.011139
0.385101 0.152313 0.011780
0.416412 0.156036 0.011932
0.447266 0.159058 0.012115
0.477692 0.161224 0.012329
0.511627 0.162811 0.012085
0.541595 0.164062 0.012878
0.571777 0.165314 0.013519
0.601624 0.166687 0.014771
0.631073 0.168030 0.016541
0.660583 0.169495 0.017273
0.690155 0.171143 0.017944
0.719635 0.172760 0.018646
0.749084 0.174652 0.018799
0.778870 0.176666 0.019440
0.809204 0.178650 0.020111
0.840057 0.180786 0.020203
0.871124 0.183014 0.020844
0.902252 0.185211 0.021484
0.933197 0.187378 0.022095
0.963531 0.189362 0.023285
0.992889 0.191345 0.023895
0.157776 0.070526 0.037048
0.164032 0.074158 0.035461
0.171906 0.078613 0.033905
0.181946 0.084259 0.032318
0.194427 0.091309 0.029175
0.209229 0.098724 0.026794
0.225525 0.107147 0.024445
0.244629 0.115692 0.022064
0.267456 0.125275 0.019714
0.294281 0.138031 0.016541
0.323944 0.151215 0.014526
0.354980 0.161835 0.013580
0.386169 0.170319 0.013458
0.417267 0.177307 0.013428
0.448090 0.182800 0.013489
0.478394 0.186798 0.014160
0.512146 0.189758 0.013794
0.541992 0.191742 0.014526
0.571808 0.193207 0.014771
0.601349 0.194397 0.015533
0.630707 0.195404 0.016327
0.660248 0.196625 0.017059
0.689941 0.197998 0.017822
0.719513 0.199524 0.018036
0.749023 0.201141 0.018768
0.778809 0.203003 0.018921
0.809143 0.204865 0.019623
0.839996 0.206818 0.019745
0.871033 0.208893 0.020416
0.902191 0.210815 0.021057
0.933258 0.212830 0.021729
0.963654 0.214844 0.022919
0.993103 0.216705 0.024078
0.191040 0.082397 0.043243
0.196350 0.085632 0.041748
0.202911 0.089600 0.040985
0.211395 0.094666 0.038635
0.221954 0.101074 0.036255
0.234528 0.108612 0.033112
0.247955 0.116028 0.029968
0.263031 0.123993 0.027588
0.280853 0.132385 0.025238
0.303131 0.141724 0.022858
0.329498 0.152893 0.020233
0.357788 0.168152 0.017212
0.387878 0.181061 0.016083
0.418518 0.191956 0.015228
0.449188 0.200928 0.015747
0.479279 0.207977 0.015717
0.512848 0.213165 0.015747
0.542542 0.216980 0.016418
0.572205 0.219818 0.016571
0.601654 0.221985 0.017273
0.630829 0.223511 0.017456
0.660248 0.224731 0.017700
0.689850 0.225830 0.017975
0.719452 0.227020 0.017822
0.748993 0.228394 0.018585
0.778809 0.229889 0.018829
0.809204 0.231598 0.019562
0.840027 0.233307 0.020264
0.871094 0.235229 0.020447
0.902252 0.237030 0.021118
0.933380 0.238800 0.021790
0.963806 0.240601 0.023010
0.993286 0.242371 0.023651
0.223999 0.094666 0.048981
0.228516 0.097534 0.047577
0.233917 0.101074 0.046875
0.240906 0.105652 0.044739
0.249939 0.111511 0.042511
0.260742 0.118408 0.040222
0.273102 0.125916 0.037048
0.286163 0.133606 0.033905
0.300476 0.140869 0.031525
0.317474 0.148590 0.029175
0.338440 0.157440 0.026794
0.363647 0.167725 0.024445
0.390991 0.183868 0.020721
0.420441 0.199097 0.018707
0.450592 0.212036 0.017700
0.480377 0.222626 0.017517
0.513702 0.230957 0.018005
0.543213 0.237549 0.017975
0.572754 0.242798 0.018585
0.602020 0.246918 0.019226
0.631073 0.249817 0.019318
0.660370 0.252167 0.019470
0.689850 0.253876 0.019684
0.719391 0.255341 0.019379
0.748901 0.256683 0.019623
0.778778 0.257874 0.019409
0.809235 0.259125 0.019836
0.840149 0.260773 0.020599
0.871216 0.262360 0.020844
0.902435 0.264038 0.021576
0.933563 0.265778 0.022278
0.964050 0.267365 0.022980
0.993561 0.268921 0.023682
0.256714 0.107513 0.054291
0.260590 0.110077 0.053650
0.265137 0.113251 0.052338
0.270935 0.117065 0.050995
0.278595 0.122375 0.049652
0.288208 0.128723 0.046875
0.299377 0.135986 0.044006
0.311615 0.143402 0.040985
0.324432 0.150452 0.037842
0.337799 0.157196 0.035461
0.353516 0.164368 0.033905
0.372894 0.172852 0.030731
0.396790 0.183502 0.028381
0.423798 0.198914 0.024353
0.452515 0.216095 0.021393
0.481750 0.230408 0.020264
0.514771 0.242310 0.019958
0.544067 0.251923 0.019806
0.573364 0.260132 0.020294
0.602448 0.266937 0.020844
0.631348 0.272400 0.021423
0.660522 0.276764 0.021484
0.689941 0.280273 0.021576
0.719330 0.283081 0.021698
0.748749 0.285187 0.021362
0.778625 0.286835 0.021576
0.809113 0.288239 0.021790
0.840149 0.289520 0.022064
0.871338 0.290863 0.021820
0.902649 0.292206 0.022369
0.933838 0.293762 0.023132
0.964294 0.295227 0.023895
0.993805 0.296600 0.024628
0.289551 0.120758 0.059845
0.292847 0.122711 0.059265
0.296692 0.125610 0.058655
0.301697 0.129059 0.057434
0.308228 0.133606 0.056183
0.316681 0.139465 0.054291
0.326538 0.146149 0.051666
0.337708 0.153351 0.048279
0.349609 0.160461 0.045441
0.361603 0.166779 0.042511
0.374084 0.172852 0.040222
0.388336 0.179596 0.037842
0.406433 0.187958 0.035461
0.429535 0.199127 0.032318
0.456207 0.213165 0.028839
0.483673 0.231689 0.024902
0.516052 0.247345 0.022888
0.545013 0.260315 0.021851
0.574097 0.271484 0.022247
0.603027 0.281189 0.022675
0.631744 0.289490 0.023163
0.660736 0.296600 0.023682
0.690033 0.302765 0.023682
0.719299 0.307922 0.023743
0.748657 0.312012 0.023804
0.778442 0.315002 0.023956
0.808960 0.317261 0.024109
0.839996 0.319000 0.024292
0.871246 0.320435 0.024506
0.902618 0.321777 0.024231
0.933929 0.323029 0.024475
0.964508 0.324097 0.024750
0.994049 0.325256 0.025391
0.322632 0.133911 0.065063
0.325317 0.135986 0.065063
0.328583 0.138306 0.064514
0.332947 0.141449 0.063385
0.338562 0.145599 0.062225
0.345612 0.150726 0.061035
0.354095 0.156708 0.058655
0.364044 0.163391 0.056183
0.374939 0.170074 0.052338
0.386353 0.176697 0.048981
0.397736 0.182648 0.046173
0.409363 0.188599 0.044739
0.422821 0.195160 0.043243
0.440002 0.203796 0.040222
0.461823 0.214966 0.036255
0.487244 0.228088 0.032318
0.517944 0.246521 0.028503
0.546143 0.263214 0.025604
0.574890 0.277588 0.024445
0.603607 0.289917 0.024109
0.632141 0.300934 0.024506
0.661011 0.310730 0.024963
0.690155 0.319672 0.025452
0.719330 0.327728 0.025970
0.748657 0.334442 0.026520
0.778320 0.339813 0.026550
0.808777 0.343964 0.026611
0.839874 0.347107 0.026703
0.871155 0.349518 0.026855
0.902588 0.351379 0.027008
0.933868 0.352875 0.027191
0.964478 0.353973 0.027374
0.994080 0.354950 0.028046
0.355316 0.147522 0.071045
0.357697 0.149414 0.070526
0.360504 0.151520 0.070007
0.364136 0.154388 0.069458
0.368896 0.157959 0.068390
0.374847 0.162445 0.067291
0.382202 0.167725 0.065643
0.390778 0.173767 0.063385
0.400543 0.180023 0.060455
0.411407 0.186493 0.056824
0.422485 0.192932 0.053650
0.433594 0.198944 0.050995
0.444641 0.204559 0.048981
0.457062 0.211121 0.047577
0.472870 0.219788 0.045441
0.492950 0.230591 0.040985
0.521149 0.243408 0.037048
0.547913 0.260345 0.032166
0.575867 0.278320 0.028351
0.604187 0.293884 0.027100
0.632538 0.307556 0.026001
0.661224 0.319855 0.026367
0.690308 0.331207 0.026794
0.719421 0.341797 0.027222
0.748596 0.351227 0.028320
0.778259 0.359222 0.028809
0.808685 0.365967 0.028778
0.839752 0.371460 0.029327
0.871094 0.375854 0.029358
0.902527 0.379242 0.029938
0.933807 0.381836 0.029999
0.964417 0.383667 0.030579
0.993958 0.385101 0.031158
0.387604 0.161438 0.076660
0.389648 0.163177 0.076141
0.392029 0.164856 0.076141
0.395203 0.167480 0.075653
0.399261 0.170532 0.074646
0.404419 0.174683 0.073639
0.410736 0.179382 0.072601
0.418304 0.184784 0.070526
0.427002 0.190460 0.067841
0.436798 0.196564 0.065063
0.447266 0.203033 0.061646
0.458069 0.209290 0.058044
0.468567 0.215332 0.055573
0.478729 0.221008 0.053650
0.490051 0.227234 0.052338
0.508270 0.235229 0.050323
0.527222 0.245911 0.046875
0.550903 0.258606 0.041748
0.577606 0.273438 0.036682
0.605011 0.292755 0.031921
0.632965 0.309448 0.029083
0.661499 0.324524 0.028625
0.690399 0.338348 0.028259
0.719452 0.351196 0.029266
0.748535 0.362854 0.029663
0.778168 0.373138 0.030121
0.808533 0.382324 0.031158
0.839630 0.390350 0.031586
0.871002 0.397308 0.032043
0.902466 0.403137 0.031982
0.933777 0.407928 0.032959
0.964325 0.411682 0.033417
0.993835 0.414795 0.034363
0.419586 0.175354 0.082397
0.421387 0.176941 0.082397
0.423431 0.178497 0.081940
0.426208 0.180908 0.081482
0.429749 0.183716 0.080994
0.434143 0.187134 0.080536
0.439667 0.191498 0.079559
0.446198 0.196167 0.077637
0.453735 0.201477 0.075653
0.462311 0.207031 0.073120
0.471832 0.213165 0.069489
0.481934 0.219452 0.065643
0.492096 0.225708 0.062225
0.505829 0.231781 0.059265
0.515442 0.237183 0.058044
0.525848 0.243103 0.057434
0.539429 0.250671 0.056183
0.557678 0.260925 0.052338
0.580627 0.273499 0.046173
0.606598 0.287109 0.040985
0.633575 0.306488 0.035522
0.661713 0.324799 0.031830
0.690521 0.341400 0.030579
0.719421 0.356689 0.030853
0.748474 0.370514 0.031189
0.778015 0.382874 0.031555
0.808411 0.393982 0.032532
0.839478 0.404175 0.032898
0.870911 0.413391 0.033844
0.902374 0.421692 0.034210
0.933685 0.429169 0.035095
0.964172 0.435730 0.036407
0.993683 0.441467 0.037689
0.451172 0.189636 0.088715
0.452637 0.190887 0.088287
0.454468 0.192535 0.088287
0.456818 0.194550 0.088287
0.459900 0.196960 0.087830
0.463684 0.200104 0.086945
0.468475 0.203796 0.086090
0.474121 0.208160 0.085144
0.480560 0.212982 0.083344
0.487976 0.218018 0.080536
0.498383 0.223633 0.077637
0.509308 0.229614 0.074158
0.519104 0.235901 0.070007
0.529114 0.242310 0.066193
0.538818 0.248230 0.063934
0.548065 0.253387 0.063385
0.558014 0.258881 0.062805
0.570801 0.265961 0.061646
0.588074 0.275818 0.057434
0.609863 0.288269 0.050995
0.635010 0.301971 0.045441
0.662262 0.320007 0.039215
0.690613 0.339905 0.035339
0.719421 0.358002 0.033264
0.748352 0.374359 0.032806
0.777863 0.388977 0.033081
0.808228 0.402222 0.034027
0.839264 0.414185 0.034332
0.870728 0.425232 0.035217
0.902222 0.435486 0.036072
0.933533 0.445160 0.036896
0.964050 0.454254 0.038635
0.993469 0.462616 0.039825
0.481781 0.203979 0.095062
0.483124 0.205139 0.094666
0.484680 0.206482 0.094666
0.486694 0.208160 0.094666
0.489349 0.210571 0.094269
0.492676 0.213348 0.093445
0.499298 0.216766 0.093018
0.505493 0.220490 0.091736
0.511169 0.224854 0.090027
0.517609 0.229614 0.087860
0.524902 0.234741 0.085175
0.533142 0.240234 0.081940
0.542297 0.246368 0.078125
0.552155 0.252655 0.074158
0.562286 0.259033 0.071045
0.571869 0.264648 0.068909
0.580658 0.269470 0.068390
0.589935 0.274597 0.067841
0.601776 0.281189 0.066742
0.617798 0.290710 0.062805
0.638641 0.302948 0.056824
0.663696 0.316956 0.050323
0.691101 0.333435 0.044312
0.719452 0.354797 0.038910
0.748199 0.374146 0.036011
0.777649 0.391510 0.035461
0.807953 0.406982 0.035675
0.839081 0.421051 0.035889
0.870544 0.433929 0.036743
0.902039 0.445801 0.037537
0.933380 0.457092 0.038818
0.963898 0.467865 0.040039
0.993256 0.478088 0.041656
0.515503 0.218231 0.101471
0.516663 0.219269 0.101105
0.518036 0.220490 0.101105
0.519806 0.222076 0.100708
0.522125 0.224152 0.100311
0.525055 0.226715 0.099915
0.528625 0.229767 0.099121
0.532898 0.233276 0.098328
0.537872 0.237183 0.097137
0.543671 0.241669 0.095093
0.550262 0.246368 0.092590
0.557739 0.251434 0.089600
0.566040 0.256958 0.086517
0.575287 0.262939 0.082428
0.585114 0.269073 0.078613
0.594940 0.275269 0.075165
0.604095 0.280670 0.073151
0.612518 0.285431 0.072632
0.621216 0.290222 0.073120
0.632141 0.296417 0.072083
0.647369 0.305511 0.068909
0.667847 0.317657 0.062805
0.692657 0.332001 0.055573
0.719818 0.347717 0.048981
0.748108 0.369690 0.043121
0.777405 0.389954 0.039459
0.807678 0.408142 0.038116
0.838867 0.424652 0.038239
0.870361 0.439606 0.038361
0.901855 0.453369 0.039093
0.933228 0.466248 0.040375
0.963715 0.478333 0.041534
0.993011 0.489716 0.043152
0.544769 0.232117 0.107513
0.545837 0.233124 0.107513
0.547028 0.234283 0.107147
0.548615 0.235901 0.107147
0.550781 0.237671 0.106781
0.553406 0.240082 0.106049
0.556580 0.242767 0.105682
0.560364 0.245911 0.104919
0.564850 0.249603 0.103394
0.570068 0.253540 0.101868
0.575989 0.257996 0.099915
0.582611 0.262512 0.097534
0.590118 0.267670 0.094269
0.598358 0.273102 0.090881
0.607452 0.278931 0.086975
0.617035 0.285034 0.082886
0.626678 0.291107 0.079590
0.635803 0.296539 0.077637
0.644165 0.301239 0.077148
0.652435 0.305634 0.078125
0.662781 0.311462 0.078125
0.677429 0.320160 0.075165
0.697388 0.332336 0.068390
0.721588 0.347412 0.060455
0.748535 0.363800 0.053650
0.777252 0.384125 0.047913
0.807434 0.405334 0.043518
0.838623 0.424530 0.041382
0.870148 0.441895 0.040741
0.901672 0.457825 0.041412
0.933044 0.472656 0.042023
0.963531 0.486359 0.043182
0.992737 0.498993 0.044250
0.573608 0.245941 0.113617
0.574554 0.246857 0.113617
0.575653 0.247925 0.113281
0.577148 0.249176 0.113281
0.578949 0.251007 0.112915
0.581360 0.253113 0.112579
0.584229 0.255646 0.111847
0.587646 0.258606 0.111145
0.591583 0.261810 0.110077
0.596252 0.265533 0.108612
0.601501 0.269470 0.106781
0.607452 0.273773 0.104919
0.614105 0.278381 0.102264
0.621552 0.283447 0.099121
0.629822 0.288788 0.095490
0.638977 0.294800 0.091309
0.648712 0.300873 0.087402
0.658600 0.307068 0.083801
0.667969 0.312408 0.081940
0.676208 0.316956 0.081940
0.684113 0.320953 0.082886
0.693848 0.326263 0.083344
0.707611 0.334839 0.080536
0.726715 0.347290 0.074646
0.750458 0.363007 0.066193
0.777771 0.379974 0.059265
0.807343 0.398224 0.053192
0.838440 0.420441 0.048096
0.869965 0.440521 0.045258
0.901520 0.458893 0.043884
0.932861 0.475922 0.044403
0.963318 0.491577 0.044922
0.992462 0.506042 0.045959
0.601746 0.259613 0.119751
0.602570 0.260345 0.119415
0.603577 0.261383 0.119415
0.604828 0.262543 0.119415
0.606476 0.264099 0.119080
0.608643 0.266113 0.118744
0.611206 0.268494 0.118073
0.614258 0.271149 0.117401
0.617828 0.274200 0.116730
0.622009 0.277588 0.115356
0.626831 0.281219 0.113983
0.632233 0.285309 0.112213
0.638367 0.289581 0.109711
0.645203 0.294281 0.107147
0.652863 0.299164 0.103790
0.661469 0.304657 0.099915
0.670929 0.310516 0.095490
0.681030 0.316711 0.091309
0.691101 0.322784 0.087860
0.700378 0.328247 0.086090
0.708374 0.332550 0.086090
0.715790 0.336456 0.087860
0.724792 0.341461 0.088745
0.737732 0.349762 0.086517
0.756226 0.362427 0.080536
0.780090 0.378601 0.072601
0.808105 0.395813 0.065063
0.838501 0.412811 0.058655
0.869781 0.435242 0.052551
0.901306 0.456299 0.049011
0.932709 0.475647 0.047546
0.963074 0.493561 0.047363
0.992188 0.510040 0.047241
0.629120 0.273376 0.125916
0.629913 0.274048 0.125916
0.630798 0.274872 0.125916
0.631927 0.275970 0.125610
0.633453 0.277466 0.125275
0.635437 0.279205 0.124969
0.637817 0.281342 0.124634
0.640625 0.283844 0.123993
0.643921 0.286743 0.123352
0.647827 0.289825 0.122375
0.652252 0.293396 0.121094
0.657349 0.297180 0.119415
0.663086 0.301117 0.117401
0.669525 0.305389 0.114655
0.676697 0.310059 0.111847
0.684692 0.314972 0.108246
0.693573 0.320404 0.104156
0.703247 0.326263 0.099518
0.713379 0.332550 0.095093
0.723328 0.338806 0.091736
0.732483 0.344299 0.090027
0.740265 0.348633 0.090454
0.747437 0.352234 0.092590
0.755829 0.356964 0.093842
0.768250 0.365173 0.092590
0.786560 0.377747 0.087402
0.810913 0.393951 0.079102
0.839417 0.411469 0.070526
0.869934 0.428925 0.063385
0.901215 0.449921 0.058075
0.932495 0.471985 0.053894
0.962830 0.492126 0.051727
0.991852 0.510651 0.049713
0.656372 0.287109 0.132416
0.657013 0.287903 0.132416
0.657898 0.288544 0.132416
0.658966 0.289581 0.132111
0.660400 0.290863 0.132111
0.662201 0.292511 0.131805
0.664459 0.294525 0.131195
0.667114 0.296783 0.130890
0.670288 0.299408 0.130280
0.673950 0.302338 0.129364
0.678070 0.305634 0.128113
0.682922 0.309113 0.126862
0.688293 0.312897 0.124969
0.694305 0.316956 0.122375
0.700989 0.321198 0.119751
0.708282 0.325806 0.116394
0.716492 0.330688 0.112579
0.725403 0.336121 0.108246
0.735138 0.342194 0.103790
0.745361 0.348633 0.099518
0.755524 0.355164 0.095917
0.764893 0.360840 0.094269
0.772888 0.365265 0.095093
0.779846 0.368744 0.097534
0.787842 0.373047 0.099518
0.799927 0.380829 0.098724
0.818146 0.392975 0.093842
0.842529 0.409119 0.085602
0.870972 0.427094 0.076141
0.901337 0.445312 0.068909
0.932434 0.464600 0.063416
0.962646 0.487366 0.058044
0.991516 0.507843 0.054108
0.683716 0.300995 0.139160
0.684387 0.301605 0.139160
0.685181 0.302368 0.139160
0.686127 0.303192 0.139160
0.687531 0.304413 0.138885
0.689240 0.305878 0.138611
0.691345 0.307800 0.138306
0.693817 0.309937 0.138031
0.696777 0.312286 0.137451
0.700165 0.314972 0.136566
0.704102 0.318115 0.135376
0.708527 0.321320 0.134216
0.713531 0.324921 0.132416
0.719116 0.328705 0.130280
0.725281 0.332764 0.127808
0.732117 0.336975 0.124634
0.739624 0.341553 0.121094
0.747986 0.346588 0.117065
0.757263 0.352234 0.112579
0.767426 0.358582 0.107880
0.778168 0.365356 0.103394
0.788879 0.372284 0.100311
0.798676 0.378326 0.098724
0.806824 0.382660 0.099518
0.813599 0.385864 0.102631
0.821167 0.389679 0.104919
0.832733 0.396606 0.104919
0.850586 0.408356 0.099915
0.874390 0.424530 0.091736
0.902527 0.443024 0.082397
0.932678 0.461639 0.074646
0.962463 0.479156 0.068390
0.991211 0.501984 0.061554
0.710968 0.314636 0.146423
0.711609 0.315094 0.146423
0.712311 0.315796 0.146423
0.713287 0.316711 0.146179
0.714569 0.317871 0.146179
0.716156 0.319244 0.145905
0.718109 0.320953 0.145630
0.720428 0.322998 0.145081
0.723175 0.325256 0.144531
0.726349 0.327820 0.143951
0.729980 0.330688 0.143127
0.734131 0.333862 0.141998
0.738739 0.337189 0.140320
0.743988 0.340820 0.138306
0.749786 0.344604 0.135986
0.756256 0.348663 0.132996
0.763428 0.352936 0.129669
0.771423 0.357574 0.125916
0.780334 0.362823 0.121399
0.790253 0.368835 0.116730
0.801147 0.375702 0.112213
0.812561 0.383026 0.107880
0.823730 0.390198 0.104553
0.833649 0.396240 0.103394
0.841675 0.400452 0.104156
0.848053 0.403046 0.107513
0.855164 0.406219 0.110443
0.866089 0.412506 0.110779
0.883026 0.423859 0.106415
0.906311 0.439941 0.098328
0.933960 0.458649 0.088715
0.962738 0.477478 0.079559
0.990936 0.495636 0.071564
0.737946 0.328156 0.153870
0.738586 0.328705 0.153870
0.739227 0.329376 0.153625
0.740143 0.330139 0.153625
0.741364 0.331238 0.153625
0.742889 0.332672 0.153351
0.744781 0.334290 0.153107
0.746918 0.336243 0.152832
0.749542 0.338379 0.152313
0.752472 0.340820 0.151794
0.755951 0.343445 0.151001
0.759888 0.346466 0.149933
0.764343 0.349579 0.148590
0.769318 0.353149 0.146698
0.774933 0.356781 0.144531
0.781219 0.360657 0.141724
0.788208 0.364685 0.138611
0.795929 0.369141 0.134796
0.804535 0.374084 0.130585
0.814178 0.379791 0.126251
0.824860 0.386322 0.121399
0.836243 0.393585 0.116730
0.847839 0.401154 0.112213
0.859070 0.408203 0.108978
0.868927 0.414093 0.107513
0.876770 0.417816 0.108978
0.882812 0.420135 0.112579
0.889343 0.422821 0.116058
0.899475 0.428711 0.117065
0.915710 0.439636 0.113617
0.938110 0.455322 0.105286
0.964111 0.473907 0.094666
0.990936 0.493378 0.083801
0.765045 0.341675 0.161194
0.765594 0.342194 0.161194
0.766266 0.342834 0.161194
0.767120 0.343658 0.161194
0.768280 0.344696 0.160950
0.769745 0.346069 0.160950
0.771576 0.347626 0.160706
0.773743 0.349487 0.160461
0.776215 0.351410 0.159973
0.779083 0.353760 0.159454
0.782440 0.356384 0.158722
0.786255 0.359161 0.157959
0.790588 0.362244 0.156708
0.795471 0.365570 0.154907
0.801025 0.369049 0.152832
0.807190 0.372864 0.150208
0.813995 0.376831 0.147247
0.821533 0.381104 0.143677
0.829895 0.385773 0.139740
0.839020 0.391113 0.135376
0.849091 0.397217 0.130585
0.860016 0.404083 0.125916
0.871521 0.411499 0.121094
