filters/luts/lut6.cube
# Copyright: (C) Copyright 2010-2017 by IWLTBAP SAS
# Cannot be resold, shared or otherwise redistributed
# Website: https://luts.iwltbap.com
TITLE "IWLTBAP Fillingat (Rec.709, sRGB, DCI-P3)"
LUT_3D_SIZE 9
0.000824 0.001587 0.000793
0.111481 0.004028 0.002289
0.248779 0.012085 0.005188
0.382446 0.020172 0.009796
0.514221 0.028259 0.014404
0.634857 0.036804 0.017883
0.752228 0.046326 0.019592
0.872467 0.054932 0.021912
0.991821 0.062927 0.024200
0.094818 0.046173 0.024445
0.144135 0.071564 0.017334
0.255981 0.111877 0.009460
0.384460 0.128693 0.010437
0.511963 0.135620 0.011749
0.631592 0.141754 0.016602
0.749359 0.148834 0.019226
0.871338 0.157349 0.021729
0.992767 0.166229 0.024170
0.223999 0.094666 0.048981
0.249939 0.111511 0.042511
0.300476 0.140869 0.031525
0.390991 0.183868 0.020721
0.513702 0.230957 0.018005
0.631073 0.249817 0.019318
0.748901 0.256683 0.019623
0.871216 0.262360 0.020844
0.993561 0.268921 0.023682
0.355316 0.147522 0.071045
0.368896 0.157959 0.068390
0.400543 0.180023 0.060455
0.444641 0.204559 0.048981
0.521149 0.243408 0.037048
0.632538 0.307556 0.026001
0.748596 0.351227 0.028320
0.871094 0.375854 0.029358
0.993958 0.385101 0.031158
0.481781 0.203979 0.095062
0.489349 0.210571 0.094269
0.511169 0.224854 0.090027
0.542297 0.246368 0.078125
0.580658 0.269470 0.068390
0.638641 0.302948 0.056824
0.748199 0.374146 0.036011
0.870544 0.433929 0.036743
0.993256 0.478088 0.041656
0.601746 0.259613 0.119751
0.606476 0.264099 0.119080
0.617828 0.274200 0.116730
0.638367 0.289581 0.109711
0.670929 0.310516 0.095490
0.708374 0.332550 0.086090
0.756226 0.362427 0.080536
0.869781 0.435242 0.052551
0.992188 0.510040 0.047241
0.710968 0.314636 0.146423
0.714569 0.317871 0.146179
0.723175 0.325256 0.144531
0.738739 0.337189 0.140320
0.763428 0.352936 0.129669
0.801147 0.375702 0.112213
0.841675 0.400452 0.104156
0.883026 0.423859 0.106415
0.990936 0.495636 0.071564
0.821014 0.368958 0.176025
0.824127 0.371521 0.175812
0.831757 0.377838 0.174896
0.845520 0.388062 0.172180
0.867401 0.402191 0.164154
0.898895 0.420929 0.149933
0.941833 0.451141 0.136566
0.971497 0.524506 0.213318
0.990540 0.552551 0.262482
0.934631 0.426453 0.206482
0.937775 0.428558 0.205902
0.945465 0.433563 0.203796
0.958466 0.443665 0.201691
0.976349 0.457855 0.196564
0.989563 0.542236 0.300354
0.990143 0.776215 0.635254
0.989166 0.888733 0.819305
0.989075 0.956726 0.940399
0.003967 0.019714 0.077148
0.094818 0.020508 0.133911
0.223480 0.009460 0.132385
0.373596 0.014648 0.118256
0.515564 0.019287 0.111053
0.638794 0.023468 0.111603
0.755920 0.030792 0.112457
0.874298 0.041504 0.113983
0.991943 0.050812 0.115936
0.026062 0.099731 0.094391
0.116180 0.099121 0.104523
0.238251 0.123566 0.130402
0.377991 0.129730 0.124969
0.513245 0.137817 0.122589
0.634766 0.145721 0.124725
0.752228 0.153595 0.125885
0.872711 0.162781 0.127716
0.992401 0.170563 0.130829
0.215179 0.086060 0.055573
0.239502 0.103394 0.053009
0.292999 0.161926 0.076660
0.385254 0.229309 0.123566
0.511536 0.250793 0.126770
0.630341 0.257538 0.129791
0.748810 0.262634 0.131073
0.871460 0.270203 0.132324
0.993347 0.278198 0.136261
0.351318 0.140594 0.074158
0.364990 0.151520 0.072601
0.398926 0.177368 0.063934
0.443970 0.220490 0.073120
0.519379 0.298889 0.125916
0.631744 0.354187 0.129578
0.748322 0.376038 0.133850
0.871155 0.383911 0.135529
0.994080 0.388153 0.137909
0.480499 0.199554 0.097107
0.488220 0.206848 0.096313
0.510284 0.222595 0.092590
0.542297 0.245758 0.080536
0.580933 0.280121 0.082886
0.637573 0.360626 0.136261
0.748505 0.433441 0.131104
0.870880 0.481140 0.136719
0.993469 0.506287 0.142822
0.601349 0.256836 0.121094
0.606171 0.261658 0.120758
0.617523 0.272400 0.118439
0.638153 0.288788 0.111877
0.671112 0.310303 0.096741
0.708710 0.339661 0.095093
0.755249 0.418610 0.152832
0.870026 0.501190 0.142120
0.992462 0.562958 0.135834
0.710815 0.312775 0.147522
0.714417 0.316162 0.147522
0.723022 0.323914 0.146179
0.738586 0.336334 0.142303
0.763336 0.352631 0.131500
0.801392 0.375610 0.113281
0.842102 0.404785 0.109711
0.882233 0.477203 0.173523
0.991150 0.562714 0.160217
0.820892 0.367493 0.176727
0.823944 0.370178 0.176727
0.831604 0.376740 0.176025
0.845306 0.387329 0.173553
0.867126 0.401764 0.165833
0.898834 0.420685 0.151276
0.941925 0.451141 0.137451
0.971649 0.528717 0.219086
0.990540 0.606293 0.329010
0.934357 0.425171 0.207214
0.937408 0.427277 0.206482
0.945099 0.432434 0.204559
0.958130 0.442963 0.202850
0.976044 0.457489 0.198151
0.989563 0.541290 0.300476
0.990143 0.777588 0.637817
0.989166 0.889343 0.820953
0.989136 0.957153 0.941071
0.010284 0.045441 0.156952
0.097168 0.053650 0.262054
0.207214 0.018158 0.274170
0.366547 0.013428 0.271820
0.515564 0.019714 0.254120
0.640869 0.023773 0.238281
0.757294 0.026245 0.228088
0.874634 0.027710 0.219421
0.990997 0.030701 0.213898
0.020538 0.100677 0.111847
0.071259 0.134186 0.210571
0.211395 0.138306 0.274017
0.367950 0.126221 0.274567
0.516235 0.129181 0.256409
0.640106 0.133759 0.242767
0.756195 0.138733 0.234619
0.873749 0.145630 0.230560
0.991211 0.153717 0.229218
0.062714 0.201172 0.190857
0.140961 0.207092 0.199799
0.241058 0.218719 0.222595
0.366791 0.253235 0.265747
0.510834 0.256592 0.258392
0.634186 0.262482 0.255096
0.751831 0.269348 0.253876
0.872101 0.277679 0.254639
0.992371 0.286163 0.257111
0.341705 0.123993 0.080536
0.352692 0.132416 0.081482
0.385162 0.166290 0.084259
0.433136 0.260040 0.150208
0.513641 0.357666 0.252106
0.629364 0.380280 0.257599
0.747375 0.386322 0.259094
0.870514 0.391602 0.260223
0.993683 0.398560 0.263611
0.476868 0.186523 0.100708
0.484283 0.194153 0.100708
0.506653 0.213165 0.099121
0.540924 0.243256 0.086975
0.579956 0.303070 0.119415
0.635223 0.426178 0.247437
0.747009 0.486328 0.259094
0.869904 0.507721 0.263641
0.993500 0.514740 0.265747
0.600128 0.248566 0.124023
0.604919 0.253876 0.124023
0.616364 0.266388 0.122711
0.637238 0.285828 0.116730
0.671204 0.309692 0.100708
0.708832 0.353546 0.115692
0.753479 0.483643 0.252167
0.869293 0.564697 0.260590
0.992645 0.611542 0.265198
0.710144 0.307434 0.150208
0.713745 0.311127 0.150208
0.722321 0.319824 0.149414
0.737946 0.333862 0.146454
0.762939 0.351715 0.135681
0.801636 0.375214 0.115723
0.842773 0.414825 0.123993
0.880737 0.541351 0.268188
0.991211 0.629700 0.271210
0.820282 0.363312 0.178711
0.823334 0.366425 0.178711
0.830902 0.373444 0.178497
0.844635 0.385040 0.176483
0.866364 0.400452 0.169861
0.898407 0.420135 0.154663
0.942322 0.450989 0.139465
0.971802 0.542023 0.238312
0.990448 0.662231 0.407227
0.933502 0.421692 0.208557
0.936554 0.423950 0.207977
0.944061 0.429504 0.206482
0.957123 0.441101 0.205719
0.975220 0.456360 0.201294
0.989349 0.537109 0.298126
0.990112 0.776550 0.638977
0.989136 0.890808 0.824921
0.989227 0.959412 0.943939
0.018951 0.080048 0.251282
0.102112 0.104919 0.386108
0.193237 0.056213 0.408600
0.350433 0.018158 0.419342
0.508667 0.018158 0.417969
0.638519 0.022095 0.408997
0.755524 0.026825 0.395172
0.872040 0.028534 0.379242
0.987244 0.031097 0.366028
0.013428 0.129028 0.171722
0.061157 0.167969 0.307892
0.202728 0.179596 0.405273
0.352295 0.132690 0.422150
0.511627 0.130890 0.421814
0.640137 0.134186 0.410614
0.756714 0.137482 0.395050
0.873016 0.140167 0.378815
0.988098 0.142487 0.364929
0.043823 0.193604 0.210297
0.053894 0.200043 0.217651
0.165192 0.269165 0.353821
0.346985 0.274567 0.417450
0.508484 0.259613 0.423615
0.640472 0.261200 0.411530
0.756500 0.262726 0.394104
0.873657 0.264984 0.380157
0.990234 0.268494 0.371033
0.105652 0.305389 0.287170
0.180756 0.308136 0.291199
0.270050 0.322418 0.311676
0.378998 0.357361 0.361206
0.494995 0.392181 0.408783
0.631714 0.391083 0.403046
0.751892 0.394714 0.397552
0.871735 0.400482 0.394165
0.992126 0.407043 0.393890
0.470795 0.164398 0.103790
0.476685 0.169373 0.105286
0.492035 0.184357 0.108612
0.527527 0.241028 0.129974
0.567383 0.373688 0.248993
0.631866 0.491119 0.397614
0.745758 0.512390 0.401215
0.869324 0.518768 0.400726
0.993469 0.523651 0.400757
0.597046 0.227264 0.126892
0.601532 0.232635 0.127502
0.612732 0.247009 0.128448
0.633789 0.273773 0.126251
0.669525 0.307922 0.111877
0.706512 0.388214 0.173981
0.750122 0.554169 0.385468
0.868134 0.615845 0.403870
0.992676 0.637787 0.406799
0.708405 0.293396 0.153900
0.711945 0.297913 0.154144
0.720428 0.308258 0.154419
0.736053 0.326050 0.153381
0.761200 0.348450 0.144806
0.801331 0.374176 0.121735
0.842651 0.437225 0.158722
0.877747 0.614075 0.392242
0.991333 0.691833 0.404968
0.819000 0.353973 0.181152
0.822052 0.357269 0.181366
0.829437 0.365265 0.181793
0.842987 0.378876 0.181580
0.864624 0.397064 0.176727
0.897156 0.418549 0.161713
0.942535 0.450562 0.143707
0.970947 0.570526 0.281464
0.990448 0.715393 0.493805
0.931915 0.414185 0.210236
0.934845 0.416748 0.209839
0.942169 0.423157 0.209106
0.955109 0.436462 0.209839
0.973419 0.453400 0.207031
0.989075 0.527802 0.291992
0.990051 0.776123 0.643005
0.989075 0.893921 0.833008
0.989471 0.963013 0.948578
0.031525 0.122711 0.365143
0.105072 0.151764 0.498413
0.198730 0.116058 0.531647
0.316010 0.038635 0.546539
0.492035 0.021271 0.553223
0.631592 0.022888 0.553284
0.750732 0.026825 0.550934
0.867737 0.029175 0.542053
0.982513 0.030731 0.529144
0.018982 0.171448 0.264404
0.063934 0.209656 0.414154
0.196747 0.231934 0.526459
0.321411 0.162415 0.545563
0.498169 0.133911 0.557495
0.634735 0.136261 0.557495
0.753052 0.139160 0.553497
0.869690 0.140869 0.541931
0.983765 0.145020 0.527649
0.031525 0.206451 0.226379
0.030792 0.229767 0.275543
0.127594 0.302948 0.459076
0.331970 0.310028 0.541595
0.494751 0.263641 0.558990
0.635925 0.262787 0.560577
0.754639 0.264496 0.554962
0.871460 0.267334 0.541931
0.986084 0.270264 0.524872
0.075165 0.309937 0.331909
0.101685 0.310486 0.329285
0.119812 0.327972 0.348358
0.294617 0.415222 0.501251
0.481506 0.418945 0.548279
0.625580 0.403900 0.559265
0.755066 0.401917 0.554382
0.872711 0.401489 0.536316
0.988800 0.401093 0.521454
0.152710 0.414795 0.387238
0.227539 0.416870 0.389801
0.307373 0.423065 0.399536
0.405243 0.444000 0.431458
0.517273 0.500061 0.507904
0.622620 0.526398 0.543793
0.750702 0.523346 0.540405
0.872009 0.525696 0.533813
0.991882 0.529755 0.530457
0.592926 0.201294 0.127197
0.596619 0.204407 0.128448
0.605713 0.212982 0.132111
0.623535 0.235413 0.138611
0.653137 0.329010 0.198730
0.688477 0.499084 0.370544
0.748108 0.619110 0.538666
0.868134 0.640991 0.541870
0.992950 0.647522 0.539734
0.704773 0.263123 0.155701
0.708069 0.267365 0.156464
0.716034 0.278412 0.157990
0.731110 0.300140 0.160217
0.756134 0.334167 0.158234
0.797607 0.376434 0.143707
0.838074 0.484680 0.240387
0.873535 0.683899 0.529755
0.991608 0.743073 0.547028
0.816010 0.332886 0.182678
0.818939 0.336670 0.183319
0.826202 0.346069 0.184601
0.839447 0.362518 0.186096
0.860565 0.386414 0.185669
0.893402 0.414185 0.174011
0.941650 0.449127 0.151550
0.967834 0.612274 0.350464
0.990448 0.770935 0.591431
0.929108 0.399323 0.211151
0.931976 0.402466 0.210968
0.938965 0.409882 0.211151
0.951447 0.425079 0.214081
0.969940 0.444885 0.214264
0.988129 0.506744 0.274994
0.989960 0.770996 0.643463
0.988922 0.897766 0.843750
0.989960 0.967651 0.954620
0.046448 0.178040 0.499542
0.108643 0.190857 0.605591
0.202362 0.178497 0.651123
0.289581 0.092590 0.654572
0.467987 0.029968 0.673340
0.620850 0.026825 0.674316
0.743805 0.027618 0.674683
0.862610 0.031555 0.675903
0.979370 0.034698 0.672485
0.029999 0.231110 0.385956
0.071259 0.258270 0.533386
0.186127 0.281708 0.642365
0.305603 0.221527 0.655457
0.467987 0.143677 0.676025
0.625977 0.138885 0.679504
0.747559 0.140594 0.679749
0.865692 0.144226 0.678925
0.981293 0.145874 0.672485
0.025269 0.253387 0.307678
0.029205 0.283691 0.379791
0.114838 0.345825 0.575012
0.314728 0.357941 0.654572
0.462769 0.284088 0.672241
0.628113 0.265350 0.682678
0.749786 0.266632 0.683228
0.867920 0.268463 0.681244
0.983154 0.269745 0.672485
0.057526 0.304291 0.317322
0.057190 0.313141 0.324493
0.055359 0.358337 0.403809
0.222137 0.446747 0.607056
0.471985 0.443909 0.667633
0.624268 0.404846 0.683319
0.751007 0.403290 0.686157
0.869568 0.404327 0.682037
0.984833 0.405609 0.670380
0.121368 0.442535 0.464996
0.159515 0.443359 0.463684
0.185883 0.446350 0.461517
0.244476 0.486298 0.509674
0.440918 0.553528 0.638611
0.619324 0.549164 0.678680
0.748901 0.535278 0.687134
0.871399 0.535034 0.680969
0.987549 0.533539 0.664856
0.198853 0.525299 0.485992
0.273468 0.526367 0.488434
0.350098 0.531219 0.496521
0.441254 0.541595 0.514740
0.538483 0.567108 0.554962
0.644165 0.629059 0.641693
0.745850 0.648010 0.669952
0.872070 0.647217 0.667206
0.991791 0.649353 0.661194
0.657440 0.270691 0.182983
0.676300 0.264587 0.177185
0.707947 0.248016 0.161713
0.722412 0.257141 0.165619
0.742889 0.287628 0.176514
0.773743 0.437042 0.300751
0.809662 0.633789 0.509644
0.870605 0.743469 0.670959
0.992218 0.767059 0.674164
0.810822 0.295563 0.183105
0.813446 0.298553 0.183746
0.819916 0.306488 0.185242
0.832092 0.322998 0.187561
0.851990 0.352325 0.191101
0.883789 0.395996 0.191315
0.934143 0.463104 0.196777
0.960358 0.667542 0.451416
0.990540 0.827484 0.698273
0.923920 0.370209 0.210236
0.926727 0.374390 0.210419
0.933319 0.383209 0.211151
0.945007 0.398529 0.215363
0.963562 0.422180 0.218750
0.985260 0.471283 0.248840
0.989716 0.748352 0.625336
0.988892 0.901306 0.856079
0.991180 0.973816 0.963043
0.061188 0.238953 0.647583
0.113495 0.231598 0.719116
0.203461 0.235077 0.771790
0.293121 0.165833 0.767242
0.416656 0.059875 0.783447
0.607788 0.031555 0.794556
0.735474 0.032349 0.794067
0.855652 0.031555 0.794312
0.975739 0.034698 0.796631
0.042267 0.305725 0.535980
0.080353 0.316681 0.667480
0.180634 0.327240 0.759338
0.307770 0.289673 0.774231
0.418976 0.183075 0.783020
0.611267 0.143402 0.800354
0.740387 0.144226 0.800415
0.860291 0.144775 0.800537
0.978729 0.148315 0.802551
0.027649 0.314026 0.417572
0.036316 0.351990 0.508423
0.115509 0.396484 0.698730
0.294861 0.407990 0.776001
0.434479 0.339844 0.780090
0.604736 0.272369 0.801208
0.743530 0.269318 0.804810
0.863159 0.270142 0.805054
0.980957 0.273071 0.806000
0.049744 0.350677 0.379150
0.045074 0.369385 0.409210
0.043701 0.426819 0.523743
0.188385 0.489624 0.731110
0.455200 0.489380 0.782166
0.595856 0.424408 0.795898
0.744141 0.405609 0.807709
0.865295 0.406189 0.808807
0.982605 0.406891 0.808472
0.091705 0.434723 0.453522
0.104218 0.439423 0.455933
0.104858 0.454926 0.466400
0.097565 0.514740 0.557251
0.349731 0.586731 0.749207
0.609528 0.577271 0.793610
0.739746 0.539093 0.808289
0.867218 0.536255 0.812195
0.984375 0.536072 0.809906
0.180298 0.580536 0.602722
0.226807 0.581482 0.602234
0.266754 0.584167 0.601135
0.302612 0.594055 0.606445
0.411011 0.640442 0.669189
0.584961 0.682983 0.771027
0.741486 0.670380 0.807251
0.868713 0.656433 0.814575
0.986420 0.656555 0.810333
0.242401 0.651794 0.596497
0.317108 0.651886 0.598175
0.393860 0.654633 0.606720
0.473938 0.657928 0.618744
0.575104 0.664795 0.637878
0.662720 0.689636 0.678528
0.766541 0.753387 0.773254
0.870392 0.766449 0.797272
0.991364 0.767120 0.795624
0.704803 0.359131 0.256927
0.728790 0.354645 0.253021
0.762360 0.342194 0.242462
0.805939 0.317108 0.219177
0.838928 0.305878 0.203430
0.863312 0.341980 0.215729
0.898224 0.566315 0.431458
0.932434 0.788940 0.689880
0.989929 0.877258 0.816345
0.916962 0.329041 0.210236
0.919464 0.332886 0.210419
0.925018 0.339966 0.211334
0.933868 0.346893 0.213715
0.951263 0.369049 0.216797
0.975891 0.412323 0.226227
0.989075 0.649353 0.518433
0.988770 0.898560 0.862976
0.993347 0.980774 0.973602
0.079437 0.311096 0.816254
0.123260 0.284637 0.853027
0.208130 0.280518 0.889954
0.299774 0.238312 0.889282
0.380676 0.129974 0.887451
0.572723 0.044739 0.912231
0.725983 0.037079 0.915833
0.847473 0.037079 0.916046
0.968933 0.035492 0.916748
0.057739 0.393036 0.717499
0.096008 0.386475 0.825562
0.186554 0.372437 0.883301
0.304810 0.354340 0.898285
0.400208 0.258575 0.889709
0.567383 0.158203 0.913544
0.732117 0.148590 0.921417
0.853577 0.149139 0.921204
0.973602 0.148590 0.922241
0.035522 0.392242 0.558289
0.046448 0.434601 0.664551
0.127899 0.459351 0.842712
0.277954 0.456177 0.901215
0.433624 0.407471 0.894623
0.555847 0.300476 0.906982
0.733093 0.273743 0.924438
0.857605 0.273895 0.925171
0.976440 0.273468 0.925903
0.035522 0.420776 0.487915
0.033936 0.442169 0.527618
0.042999 0.504913 0.666626
0.181519 0.540100 0.866455
0.432800 0.534058 0.902832
0.573181 0.471619 0.901337
0.723083 0.412140 0.922546
0.860107 0.408844 0.927643
0.978516 0.408752 0.928497
0.091156 0.468079 0.477692
0.088257 0.478516 0.491821
0.076630 0.510681 0.538666
0.069244 0.590363 0.688354
0.298401 0.631836 0.882172
0.598419 0.616425 0.906433
0.714417 0.557495 0.914917
0.860657 0.539032 0.929382
0.980347 0.539246 0.930908
0.145599 0.574524 0.596252
0.166687 0.577911 0.597839
0.181488 0.586914 0.602448
0.176453 0.609680 0.618683
0.182159 0.680969 0.724548
0.499847 0.720184 0.887512
0.731079 0.699005 0.914001
0.857391 0.661072 0.928345
0.982483 0.659302 0.932678
0.237183 0.719208 0.737732
0.289764 0.720337 0.737518
0.339508 0.723236 0.737122
0.379700 0.729065 0.737122
0.455811 0.747131 0.760132
0.574585 0.783478 0.818085
0.713745 0.809143 0.900696
0.860229 0.786194 0.926331
0.984833 0.774475 0.934082
0.286743 0.788239 0.725067
0.361633 0.788727 0.726776
0.437866 0.790405 0.731476
0.519196 0.793243 0.739746
0.609070 0.795044 0.753754
0.702148 0.792297 0.767059
0.787445 0.817749 0.808777
0.889832 0.873779 0.896851
0.990845 0.889343 0.918945
0.754517 0.446442 0.339722
0.782867 0.443695 0.336945
0.818298 0.434235 0.328766
0.860474 0.410126 0.311066
0.912170 0.375702 0.276459
0.958252 0.344604 0.234131
0.981079 0.450867 0.331238
0.988281 0.837219 0.809448
0.995239 0.987152 0.984985
0.096008 0.374725 0.978729
0.128784 0.323090 0.975037
0.208862 0.299011 0.972839
0.294861 0.278656 0.968933
0.378571 0.180267 0.962952
0.539490 0.065094 0.989227
0.716003 0.043274 0.998291
0.839020 0.046906 0.998474
0.959839 0.049683 0.998138
0.084839 0.488892 0.936981
0.112457 0.446808 0.977966
0.188568 0.399902 0.978821
0.293121 0.385010 0.976044
0.402374 0.307037 0.964905
0.536530 0.181976 0.983704
0.722412 0.157959 0.998779
0.845398 0.160706 0.999573
0.966187 0.162170 0.999451
0.047089 0.489929 0.741302
0.067688 0.534912 0.864929
0.141663 0.510529 0.977112
0.267487 0.479065 0.982300
0.431305 0.444519 0.972687
0.539490 0.336639 0.974365
0.721069 0.287079 0.997009
0.849792 0.288116 0.999573
0.968018 0.290588 0.999512
0.030792 0.502045 0.629181
0.033173 0.527161 0.680206
0.059479 0.597260 0.848419
0.189819 0.577484 0.978577
0.401428 0.554901 0.982544
0.574402 0.506409 0.973206
0.708832 0.428925 0.990112
0.852844 0.422699 0.999481
0.970154 0.425873 0.999634
0.066620 0.535950 0.571991
0.060608 0.552765 0.597076
0.047089 0.596436 0.669556
0.065552 0.676697 0.855469
0.277405 0.658234 0.980286
0.580627 0.635803 0.981842
0.710266 0.578918 0.981842
0.853088 0.552124 0.998230
0.972778 0.554779 0.999756
0.145203 0.604401 0.618469
0.150391 0.610138 0.622101
0.147308 0.625732 0.632202
0.125427 0.668701 0.687714
0.123596 0.760773 0.863098
0.441101 0.747192 0.980286
0.724670 0.715454 0.984070
0.851349 0.672333 0.994446
0.976013 0.671967 0.999756
0.204376 0.715637 0.736450
0.232483 0.718353 0.737762
0.257324 0.725342 0.741211
0.273407 0.740997 0.751343
0.265717 0.775024 0.780273
0.330017 0.848358 0.892944
0.655579 0.832703 0.981445
0.857727 0.797729 0.991821
0.979980 0.786926 0.999878
0.286865 0.867004 0.874542
0.344757 0.868469 0.875183
0.402100 0.871643 0.876434
0.455292 0.877594 0.878693
0.515564 0.887390 0.886932
0.639160 0.903290 0.924408
0.727325 0.923157 0.956787
0.850098 0.918243 0.987366
0.987122 0.905396 0.999939
0.347443 0.930786 0.860382
0.422821 0.933899 0.866211
0.504242 0.937897 0.875061
0.583710 0.946228 0.891205
0.665741 0.955750 0.911865
0.747711 0.965271 0.935364
0.830139 0.973969 0.955414
0.913605 0.983673 0.974274
1.000000 1.000000 1.000000
