filters/luts/lut7.cube
TITLE "Brown Aqua - RMN (Neat2)"
#LUT size
LUT_3D_SIZE 8
#LUT data points
0.000000 0.000000 0.000000
0.152941 0.000000 0.000000
0.341176 0.000000 0.000000
0.529412 0.000000 0.000000
0.709804 0.000000 0.000000
0.847059 0.000000 0.000000
0.972549 0.000000 0.000000
1.000000 0.000000 0.000000
0.000000 0.105882 0.000000
0.164706 0.074510 0.000000
0.337255 0.098039 0.000000
0.537255 0.050980 0.000000
0.709804 0.027451 0.000000
0.847059 0.027451 0.000000
0.972549 0.027451 0.000000
1.000000 0.027451 0.000000
0.039216 0.254902 0.000000
0.231373 0.258824 0.000000
0.376471 0.184314 0.000000
0.537255 0.254902 0.000000
0.701961 0.227451 0.000000
0.843137 0.180392 0.000000
0.972549 0.070588 0.000000
1.000000 0.058824 0.000000
0.094118 0.396078 0.000000
0.262745 0.407843 0.000000
0.431373 0.372549 0.000000
0.556863 0.274510 0.000000
0.698039 0.345098 0.000000
0.835294 0.345098 0.000000
0.972549 0.313725 0.000000
1.000000 0.262745 0.000000
0.141176 0.509804 0.000000
0.274510 0.517647 0.000000
0.447059 0.501961 0.000000
0.580392 0.439216 0.000000
0.709804 0.356863 0.000000
0.839216 0.419608 0.000000
0.972549 0.458824 0.000000
1.000000 0.419608 0.000000
0.184314 0.623529 0.000000
0.294118 0.627451 0.000000
0.454902 0.619608 0.000000
0.639216 0.611765 0.000000
0.737255 0.505882 0.000000
0.866667 0.439216 0.000000
0.972549 0.501961 0.000000
1.000000 0.552941 0.000000
0.227451 0.749020 0.000000
0.321569 0.745098 0.000000
0.466667 0.745098 0.000000
0.643137 0.741176 0.000000
0.815686 0.721569 0.000000
0.905882 0.580392 0.000000
0.972549 0.533333 0.000000
1.000000 0.592157 0.000000
0.000000 0.929412 0.000000
0.211765 0.929412 0.000000
0.431373 0.925490 0.000000
0.635294 0.917647 0.000000
0.827451 0.905882 0.000000
0.941176 0.866667 0.000000
0.972549 0.686275 0.000000
1.000000 0.650980 0.000000
0.000000 0.062745 0.133333
0.117647 0.000000 0.129412
0.321569 0.000000 0.105882
0.521569 0.000000 0.039216
0.686275 0.000000 0.027451
0.827451 0.000000 0.027451
0.968627 0.000000 0.027451
1.000000 0.000000 0.027451
0.000000 0.109804 0.133333
0.125490 0.121569 0.121569
0.337255 0.098039 0.082353
0.533333 0.070588 0.027451
0.698039 0.031373 0.027451
0.843137 0.027451 0.027451
0.972549 0.027451 0.027451
1.000000 0.027451 0.027451
0.000000 0.286275 0.164706
0.149020 0.290196 0.086275
0.380392 0.203922 0.062745
0.545098 0.258824 0.027451
0.705882 0.239216 0.027451
0.847059 0.211765 0.027451
0.972549 0.141176 0.027451
1.000000 0.058824 0.027451
0.000000 0.427451 0.027451
0.176471 0.431373 0.027451
0.439216 0.407843 0.027451
0.572549 0.290196 0.027451
0.709804 0.352941 0.027451
0.847059 0.360784 0.027451
0.972549 0.329412 0.027451
1.000000 0.278431 0.027451
0.000000 0.537255 0.027451
0.211765 0.545098 0.027451
0.435294 0.529412 0.027451
0.603922 0.470588 0.027451
0.729412 0.364706 0.027451
0.854902 0.427451 0.027451
0.972549 0.470588 0.027451
1.000000 0.431373 0.027451
0.035294 0.654902 0.027451
0.247059 0.658824 0.027451
0.447059 0.650980 0.027451
0.647059 0.635294 0.027451
0.760784 0.529412 0.027451
0.886275 0.447059 0.027451
0.972549 0.509804 0.027451
1.000000 0.568627 0.027451
0.137255 0.776471 0.027451
0.278431 0.780392 0.027451
0.462745 0.776471 0.027451
0.654902 0.764706 0.027451
0.827451 0.741176 0.027451
0.921569 0.596078 0.027451
0.972549 0.537255 0.027451
1.000000 0.596078 0.027451
0.000000 0.941176 0.027451
0.137255 0.945098 0.027451
0.411765 0.937255 0.027451
0.627451 0.925490 0.027451
0.827451 0.913725 0.027451
0.941176 0.878431 0.027451
0.972549 0.694118 0.027451
1.000000 0.650980 0.027451
0.000000 0.200000 0.298039
0.027451 0.172549 0.298039
0.282353 0.000000 0.294118
0.505882 0.000000 0.274510
0.682353 0.000000 0.219608
0.835294 0.000000 0.141176
0.972549 0.000000 0.058824
1.000000 0.000000 0.058824
0.000000 0.243137 0.301961
0.027451 0.254902 0.305882
0.301961 0.129412 0.305882
0.521569 0.054902 0.274510
0.698039 0.027451 0.215686
0.850980 0.027451 0.141176
0.972549 0.027451 0.058824
1.000000 0.027451 0.058824
0.000000 0.274510 0.321569
0.027451 0.282353 0.325490
0.309804 0.290196 0.290196
0.529412 0.247059 0.243137
0.701961 0.200000 0.180392
0.854902 0.152941 0.090196
0.972549 0.086275 0.058824
1.000000 0.058824 0.058824
0.000000 0.447059 0.380392
0.027451 0.454902 0.352941
0.309804 0.431373 0.243137
0.552941 0.329412 0.211765
0.698039 0.364706 0.058824
0.850980 0.341176 0.058824
0.972549 0.317647 0.058824
1.000000 0.298039 0.058824
0.000000 0.560784 0.282353
0.027451 0.572549 0.215686
0.317647 0.552941 0.176471
0.596078 0.517647 0.137255
0.725490 0.388235 0.113725
0.858824 0.439216 0.058824
0.972549 0.470588 0.058824
1.000000 0.443137 0.058824
0.000000 0.682353 0.058824
0.027451 0.686275 0.058824
0.333333 0.670588 0.058824
0.600000 0.650980 0.058824
0.764706 0.568627 0.058824
0.894118 0.458824 0.058824
0.972549 0.517647 0.058824
1.000000 0.576471 0.058824
0.000000 0.803922 0.058824
0.027451 0.807843 0.058824
0.345098 0.796078 0.058824
0.603922 0.784314 0.058824
0.819608 0.764706 0.058824
0.933333 0.627451 0.058824
0.972549 0.541176 0.058824
1.000000 0.603922 0.058824
0.000000 0.956863 0.058824
0.027451 0.960784 0.058824
0.317647 0.949020 0.058824
0.588235 0.937255 0.058824
0.807843 0.925490 0.058824
0.941176 0.901961 0.058824
0.972549 0.713725 0.058824
1.000000 0.650980 0.058824
0.000000 0.317647 0.447059
0.027451 0.309804 0.450980
0.058824 0.211765 0.462745
0.450980 0.000000 0.450980
0.650980 0.000000 0.415686
0.823529 0.000000 0.376471
0.972549 0.000000 0.325490
1.000000 0.000000 0.254902
0.000000 0.372549 0.470588
0.027451 0.380392 0.474510
0.058824 0.290196 0.470588
0.462745 0.133333 0.458824
0.666667 0.027451 0.419608
0.835294 0.027451 0.376471
0.972549 0.027451 0.325490
1.000000 0.027451 0.247059
0.000000 0.396078 0.474510
0.027451 0.407843 0.478431
0.058824 0.400000 0.458824
0.462745 0.278431 0.447059
0.662745 0.243137 0.407843
0.831373 0.192157 0.368627
0.972549 0.058824 0.309804
1.000000 0.058824 0.207843
0.000000 0.403922 0.466667
0.027451 0.415686 0.474510
0.058824 0.411765 0.454902
0.462745 0.419608 0.415686
0.658824 0.380392 0.372549
0.835294 0.341176 0.329412
0.972549 0.290196 0.262745
1.000000 0.219608 0.090196
0.000000 0.517647 0.517647
0.027451 0.549020 0.525490
0.058824 0.576471 0.490196
0.458824 0.545098 0.372549
0.690196 0.447059 0.345098
0.843137 0.474510 0.231373
0.972549 0.447059 0.125490
1.000000 0.411765 0.090196
0.000000 0.698039 0.494118
0.027451 0.705882 0.478431
0.058824 0.698039 0.388235
0.454902 0.674510 0.305882
0.741176 0.631373 0.274510
0.882353 0.498039 0.250980
0.972549 0.537255 0.090196
1.000000 0.568627 0.090196
0.000000 0.823529 0.356863
0.027451 0.831373 0.309804
0.058824 0.823529 0.156863
0.443137 0.803922 0.090196
0.752941 0.784314 0.090196
0.929412 0.682353 0.090196
0.972549 0.552941 0.090196
1.000000 0.607843 0.090196
0.000000 0.976471 0.090196
0.027451 0.980392 0.090196
0.058824 0.968627 0.090196
0.407843 0.952941 0.090196
0.749020 0.941176 0.090196
0.941176 0.933333 0.090196
0.972549 0.745098 0.090196
1.000000 0.650980 0.090196
0.000000 0.427451 0.592157
0.027451 0.423529 0.592157
0.058824 0.368627 0.592157
0.090196 0.196078 0.588235
0.584314 0.015686 0.572549
0.792157 0.000000 0.549020
0.956863 0.000000 0.513725
1.000000 0.000000 0.482353
0.000000 0.466667 0.600000
0.027451 0.470588 0.603922
0.058824 0.427451 0.600000
0.090196 0.270588 0.596078
0.596078 0.141176 0.580392
0.800000 0.027451 0.552941
0.964706 0.027451 0.517647
1.000000 0.027451 0.482353
0.000000 0.490196 0.600000
0.027451 0.498039 0.607843
0.058824 0.494118 0.592157
0.090196 0.380392 0.588235
0.600000 0.274510 0.576471
0.800000 0.239216 0.549020
0.964706 0.180392 0.513725
1.000000 0.062745 0.478431
0.000000 0.505882 0.596078
0.027451 0.513725 0.603922
0.058824 0.509804 0.588235
0.090196 0.509804 0.568627
0.603922 0.407843 0.560784
0.800000 0.388235 0.533333
0.960784 0.349020 0.498039
1.000000 0.274510 0.447059
0.000000 0.517647 0.592157
0.027451 0.525490 0.596078
0.058824 0.521569 0.588235
0.254902 0.525490 0.568627
0.607843 0.541176 0.537255
0.807843 0.505882 0.498039
0.972549 0.450980 0.439216
1.000000 0.384314 0.352941
0.000000 0.568627 0.654902
0.027451 0.596078 0.662745
0.058824 0.639216 0.650980
0.090196 0.701961 0.623529
0.600000 0.674510 0.490196
0.843137 0.572549 0.462745
0.972549 0.580392 0.325490
1.000000 0.541176 0.168627
0.000000 0.839216 0.686275
0.027451 0.847059 0.678431
0.058824 0.839216 0.627451
0.090196 0.827451 0.517647
0.576471 0.811765 0.403922
0.898039 0.764706 0.364706
0.972549 0.596078 0.309804
1.000000 0.627451 0.117647
0.000000 0.980392 0.580392
0.027451 0.984314 0.564706
0.058824 0.980392 0.470588
0.090196 0.980392 0.117647
0.513725 0.964706 0.117647
0.901961 0.949020 0.117647
0.972549 0.796078 0.117647
1.000000 0.650980 0.117647
0.000000 0.505882 0.705882
0.027451 0.505882 0.705882
0.058824 0.470588 0.705882
0.090196 0.388235 0.705882
0.117647 0.160784 0.713725
0.721569 0.074510 0.701961
0.917647 0.000000 0.678431
1.000000 0.000000 0.654902
0.000000 0.541176 0.713725
0.027451 0.545098 0.717647
0.058824 0.521569 0.713725
0.090196 0.443137 0.717647
0.117647 0.235294 0.725490
0.733333 0.168627 0.713725
0.925490 0.050980 0.682353
1.000000 0.027451 0.654902
0.000000 0.572549 0.717647
0.027451 0.576471 0.721569
0.058824 0.572549 0.713725
0.090196 0.517647 0.713725
0.117647 0.349020 0.721569
0.741176 0.286275 0.713725
0.925490 0.235294 0.678431
1.000000 0.196078 0.650980
0.000000 0.596078 0.717647
0.027451 0.600000 0.721569
0.058824 0.596078 0.717647
0.090196 0.600000 0.705882
0.117647 0.486275 0.713725
0.745098 0.411765 0.705882
0.925490 0.368627 0.666667
1.000000 0.341176 0.639216
0.000000 0.611765 0.717647
0.027451 0.619608 0.721569
0.058824 0.619608 0.717647
0.090196 0.623529 0.709804
0.117647 0.631373 0.698039
0.749020 0.533333 0.690196
0.925490 0.501961 0.650980
1.000000 0.474510 0.619608
0.000000 0.623529 0.717647
0.027451 0.631373 0.725490
0.058824 0.631373 0.721569
0.090196 0.639216 0.713725
0.415686 0.654902 0.701961
0.752941 0.670588 0.666667
0.937255 0.619608 0.607843
1.000000 0.560784 0.541176
0.000000 0.670588 0.784314
0.027451 0.678431 0.792157
0.058824 0.686275 0.796078
0.090196 0.741176 0.792157
0.301961 0.847059 0.772549
0.733333 0.807843 0.607843
0.972549 0.678431 0.556863
1.000000 0.690196 0.392157
0.000000 0.956863 0.870588
0.027451 0.972549 0.874510
0.058824 0.996078 0.862745
0.090196 0.992157 0.784314
0.117647 0.984314 0.650980
0.670588 0.968627 0.454902
0.972549 0.909804 0.325490
1.000000 0.670588 0.149020
0.000000 0.580392 0.831373
0.027451 0.580392 0.831373
0.058824 0.564706 0.831373
0.090196 0.513725 0.835294
0.117647 0.407843 0.839216
0.290196 0.200000 0.839216
0.839216 0.125490 0.827451
1.000000 0.000000 0.815686
0.000000 0.619608 0.835294
0.027451 0.623529 0.839216
0.058824 0.611765 0.839216
0.090196 0.560784 0.843137
0.117647 0.458824 0.847059
0.290196 0.254902 0.847059
0.850980 0.200000 0.835294
1.000000 0.141176 0.823529
0.000000 0.654902 0.843137
0.027451 0.658824 0.850980
0.058824 0.658824 0.847059
0.090196 0.623529 0.847059
0.117647 0.533333 0.850980
0.258824 0.333333 0.850980
0.858824 0.298039 0.835294
1.000000 0.266667 0.823529
0.000000 0.682353 0.850980
0.027451 0.686275 0.854902
0.058824 0.690196 0.850980
0.090196 0.690196 0.847059
0.117647 0.619608 0.847059
0.282353 0.443137 0.847059
0.862745 0.407843 0.835294
1.000000 0.388235 0.819608
0.000000 0.705882 0.850980
0.027451 0.713725 0.858824
0.058824 0.713725 0.858824
0.090196 0.717647 0.850980
0.117647 0.721569 0.839216
0.360784 0.588235 0.839216
0.866667 0.521569 0.827451
1.000000 0.509804 0.807843
0.000000 0.721569 0.854902
0.027451 0.729412 0.862745
0.058824 0.729412 0.858824
0.090196 0.733333 0.854902
0.117647 0.741176 0.843137
0.149020 0.749020 0.819608
0.870588 0.647059 0.815686
1.000000 0.643137 0.792157
0.000000 0.737255 0.858824
0.027451 0.741176 0.866667
0.058824 0.741176 0.862745
0.090196 0.745098 0.858824
0.117647 0.752941 0.847059
0.525490 0.768627 0.827451
0.870588 0.792157 0.788235
1.000000 0.764706 0.749020
0.000000 0.772549 0.933333
0.027451 0.776471 0.937255
0.058824 0.776471 0.937255
0.090196 0.784314 0.941176
0.117647 0.831373 0.941176
0.282353 0.984314 0.921569
0.843137 0.968627 0.717647
1.000000 0.803922 0.631373
0.000000 0.658824 0.968627
0.027451 0.658824 0.968627
0.058824 0.658824 0.968627
0.090196 0.623529 0.968627
0.117647 0.556863 0.972549
0.149020 0.431373 0.980392
0.552941 0.270588 0.984314
0.972549 0.247059 0.980392
0.000000 0.694118 0.968627
0.027451 0.698039 0.968627
0.058824 0.698039 0.964706
0.090196 0.658824 0.968627
0.117647 0.596078 0.972549
0.149020 0.474510 0.980392
0.552941 0.317647 0.984314
0.976471 0.298039 0.980392
0.000000 0.733333 0.972549
0.027451 0.733333 0.972549
0.058824 0.733333 0.968627
0.090196 0.709804 0.968627
0.117647 0.650980 0.976471
0.149020 0.537255 0.984314
0.549020 0.380392 0.984314
0.980392 0.368627 0.980392
0.000000 0.764706 0.976471
0.027451 0.764706 0.976471
0.058824 0.764706 0.972549
0.090196 0.764706 0.972549
0.117647 0.721569 0.976471
0.149020 0.623529 0.980392
0.529412 0.454902 0.988235
0.984314 0.454902 0.980392
0.000000 0.792157 0.976471
0.027451 0.792157 0.980392
0.058824 0.792157 0.976471
0.090196 0.792157 0.976471
0.117647 0.800000 0.976471
0.149020 0.725490 0.980392
0.498039 0.552941 0.988235
0.988235 0.549020 0.980392
0.000000 0.811765 0.980392
0.027451 0.811765 0.980392
0.058824 0.811765 0.980392
0.090196 0.815686 0.980392
0.117647 0.823529 0.980392
0.149020 0.839216 0.976471
0.549020 0.709804 0.984314
0.992157 0.666667 0.980392
0.000000 0.831373 0.992157
0.027451 0.831373 0.992157
0.058824 0.831373 0.992157
0.090196 0.835294 0.992157
0.117647 0.839216 0.992157
0.149020 0.854902 0.992157
0.180392 0.890196 0.984314
1.000000 0.807843 0.984314
0.000000 0.843137 1.000000
0.027451 0.843137 1.000000
0.058824 0.843137 1.000000
0.090196 0.839216 1.000000
0.117647 0.843137 1.000000
0.149020 0.858824 1.000000
0.584314 0.905882 0.996078
0.992157 0.976471 0.976471
