filters/luts/lut7.cube
TITLE "Brown Aqua - RMN (Neat2)"
#LUT size
LUT_3D_SIZE 4
#LUT data points
0.000000 0.000000 0.000000
0.400000 0.000000 0.000000
0.803922 0.000000 0.000000
1.000000 0.000000 0.000000
0.058824 0.305882 0.000000
0.439216 0.215686 0.000000
0.788235 0.254902 0.000000
1.000000 0.070588 0.000000
0.168627 0.584314 0.000000
0.509804 0.576471 0.000000
0.819608 0.411765 0.000000
1.000000 0.517647 0.000000
0.000000 0.929412 0.000000
0.498039 0.921569 0.000000
0.929412 0.901961 0.000000
1.000000 0.650980 0.000000
0.000000 0.239216 0.349020
0.345098 0.000000 0.352941
0.780392 0.000000 0.254902
1.000000 0.000000 0.070588
0.000000 0.317647 0.372549
0.364706 0.337255 0.333333
0.796078 0.231373 0.211765
1.000000 0.090196 0.070588
0.000000 0.643137 0.313725
0.372549 0.635294 0.196078
0.839216 0.447059 0.109804
1.000000 0.537255 0.070588
0.000000 0.964706 0.070588
0.372549 0.949020 0.070588
0.929412 0.925490 0.070588
1.000000 0.650980 0.070588
0.000000 0.482353 0.670588
0.070588 0.415686 0.666667
0.678431 0.054902 0.662745
1.000000 0.000000 0.600000
0.000000 0.549020 0.674510
0.070588 0.552941 0.666667
0.694118 0.321569 0.662745
1.000000 0.211765 0.584314
0.000000 0.592157 0.682353
0.070588 0.600000 0.678431
0.709804 0.631373 0.627451
1.000000 0.509804 0.486275
0.000000 0.992157 0.800000
0.070588 0.988235 0.717647
0.615686 0.968627 0.345098
1.000000 0.654902 0.141176
0.000000 0.658824 0.968627
0.070588 0.650980 0.968627
0.141176 0.482353 0.976471
0.972549 0.247059 0.980392
0.000000 0.745098 0.968627
0.070588 0.741176 0.968627
0.141176 0.607843 0.976471
0.972549 0.380392 0.972549
0.000000 0.807843 0.980392
0.070588 0.807843 0.984314
0.141176 0.827451 0.980392
0.992157 0.639216 0.984314
0.000000 0.843137 1.000000
0.070588 0.843137 1.000000
0.141176 0.850980 1.000000
0.992157 0.976471 0.976471
