filters/luts/lut8.cube
# Created by Benjamin (IWLTBAP): https://luts.iwltbap.com
# Copyright: (C) Copyright 2021 Triune Films and IWLTBAP SAS
# Cannot be resold, shared or otherwise redistributed
TITLE "Triune Films Superhero LUTs (Rec.709, sRGB, DCI-P3)"
LUT_3D_SIZE 9
0.001587 0.000793 0.001587
0.125580 0.002380 0.001587
0.251587 0.007080 0.000793
0.372650 0.011810 0.001587
0.493896 0.017334 0.002350
0.615082 0.021301 0.003143
0.735962 0.026825 0.004730
0.860779 0.030762 0.010254
0.971680 0.055573 0.036285
0.000793 0.068390 0.055573
0.121063 0.082886 0.044739
0.268066 0.087830 0.005524
0.391449 0.092590 0.002380
0.515778 0.099121 0.003174
0.641907 0.103394 0.004730
0.768799 0.108246 0.007111
0.902893 0.117401 0.010254
0.987427 0.197144 0.070007
0.000000 0.138580 0.111847
0.070007 0.156189 0.100311
0.247772 0.183502 0.056824
0.395264 0.199310 0.005524
0.522461 0.205902 0.005524
0.647461 0.217834 0.007080
0.770630 0.234741 0.008667
0.895874 0.261047 0.010254
0.991516 0.310150 0.051025
0.000793 0.212219 0.170990
0.018921 0.231110 0.158722
0.152557 0.244812 0.111511
0.362213 0.285004 0.060486
0.517822 0.309082 0.006317
0.646118 0.327576 0.009460
0.770142 0.344055 0.011047
0.892853 0.366699 0.012604
0.994263 0.403473 0.046173
0.000793 0.285126 0.231262
0.018127 0.304504 0.222961
0.039429 0.314148 0.197968
0.241974 0.337494 0.112579
0.464325 0.382721 0.054291
0.634277 0.415314 0.007874
0.764160 0.459290 0.013397
0.889771 0.478851 0.014984
0.996185 0.505707 0.042511
0.000793 0.355347 0.290588
0.018127 0.373688 0.292999
0.037842 0.391174 0.273773
0.065643 0.390656 0.216614
0.329895 0.435028 0.113617
0.566650 0.484009 0.043274
0.752808 0.520264 0.008667
0.886719 0.588440 0.016571
0.996521 0.617737 0.041779
0.000793 0.427490 0.350189
0.018127 0.446686 0.361237
0.037048 0.465912 0.353333
0.057434 0.478516 0.325684
0.117737 0.480072 0.226562
0.431946 0.555939 0.134521
0.659302 0.583344 0.044006
0.878967 0.634338 0.010254
0.997925 0.713013 0.059875
0.000793 0.499298 0.406036
0.018127 0.520081 0.420929
0.037048 0.539917 0.424744
0.056824 0.564514 0.414642
0.082886 0.573975 0.381744
0.239441 0.597412 0.268494
0.524689 0.675079 0.182220
0.764648 0.698547 0.120422
0.996399 0.750793 0.135681
0.000793 0.573639 0.458862
0.018921 0.597046 0.475647
0.037048 0.618042 0.485016
0.056183 0.640564 0.491058
0.079102 0.666565 0.486542
0.110443 0.685181 0.463379
0.347809 0.732239 0.357758
0.627686 0.839630 0.272247
0.889587 0.877380 0.284363
0.003937 0.026001 0.055573
0.106415 0.016541 0.080048
0.238800 0.003174 0.088715
0.359344 0.006317 0.096710
0.481934 0.009460 0.100311
0.606079 0.013428 0.099121
0.734070 0.019714 0.098724
0.867004 0.027618 0.110413
0.976501 0.058655 0.138885
0.001587 0.086945 0.105652
0.090027 0.093842 0.119751
0.245911 0.095886 0.099121
0.387848 0.078125 0.080536
0.518372 0.056183 0.070007
0.643829 0.063385 0.071564
0.774384 0.072083 0.078613
0.911926 0.085602 0.101074
0.987122 0.201660 0.167969
0.000793 0.150452 0.156677
0.044739 0.167480 0.152313
0.228241 0.191498 0.137421
0.392059 0.210754 0.094238
0.531097 0.206085 0.070526
0.661469 0.202637 0.057434
0.785828 0.217468 0.059265
0.911133 0.250366 0.072601
0.992798 0.318878 0.141144
0.001556 0.218719 0.210938
0.018127 0.236694 0.201294
0.129669 0.250977 0.182648
0.359924 0.297150 0.143677
0.523132 0.326782 0.088287
0.658752 0.335022 0.070007
0.781616 0.350067 0.073639
0.904175 0.371674 0.077148
0.996277 0.415070 0.129974
0.001556 0.288147 0.266632
0.018127 0.305115 0.260040
0.037842 0.323090 0.242920
0.236359 0.341522 0.181335
0.470795 0.398346 0.137146
0.645966 0.433685 0.073120
0.774841 0.469635 0.078125
0.898621 0.488617 0.082397
0.998901 0.516052 0.116730
0.001587 0.358856 0.321503
0.018921 0.375122 0.322296
0.037048 0.394836 0.304993
0.067291 0.404083 0.269592
0.335114 0.441559 0.169373
0.574738 0.499298 0.116730
0.766785 0.537689 0.054291
0.896790 0.601135 0.071045
1.000000 0.629395 0.102997
0.001587 0.433685 0.375946
0.018921 0.450836 0.383575
0.037048 0.470642 0.377655
0.056824 0.486725 0.352417
0.129028 0.490601 0.266083
0.436737 0.561737 0.170319
0.667480 0.596893 0.101471
0.889709 0.651855 0.072601
1.000000 0.724426 0.124969
0.002350 0.507385 0.431000
0.018921 0.526001 0.442627
0.037048 0.546448 0.446899
0.056183 0.571960 0.438538
0.080994 0.583862 0.408600
0.241821 0.602234 0.299377
0.532623 0.685486 0.215881
0.777161 0.714050 0.162415
0.998138 0.771729 0.213867
0.002350 0.582520 0.481720
0.019714 0.604828 0.497620
0.037842 0.625580 0.507446
0.056183 0.647491 0.514587
0.078125 0.673523 0.512360
0.108643 0.694397 0.491425
0.365417 0.745422 0.394928
0.646515 0.856689 0.322296
0.896790 0.892792 0.370056
0.007111 0.044739 0.110413
0.078613 0.036285 0.159454
0.215515 0.006317 0.185852
0.335236 0.005524 0.207397
0.459442 0.007874 0.230591
0.587372 0.009460 0.243713
0.717621 0.011841 0.251434
0.855316 0.015778 0.265656
0.967590 0.059875 0.291992
0.002380 0.107880 0.160950
0.066193 0.112213 0.188812
0.211487 0.099518 0.191071
0.363098 0.074158 0.183716
0.497742 0.040985 0.186066
0.624451 0.040985 0.195953
0.759827 0.050354 0.213867
0.906128 0.080536 0.247772
0.982391 0.222778 0.312164
0.002350 0.168427 0.203979
0.030731 0.180908 0.211853
0.175812 0.197357 0.225525
0.371979 0.213501 0.201477
0.520752 0.207977 0.177582
0.656372 0.200317 0.165588
0.787231 0.204346 0.169128
0.912781 0.248840 0.200500
0.991913 0.330780 0.267761
0.003143 0.231262 0.254425
0.018921 0.245117 0.252777
0.098328 0.267212 0.250671
0.348114 0.309082 0.242310
0.519897 0.343201 0.207031
0.658691 0.346558 0.188599
0.787598 0.353516 0.182220
0.908142 0.377808 0.199310
0.996826 0.425873 0.250366
0.002350 0.294647 0.306793
0.018921 0.308594 0.304871
0.036255 0.329437 0.296265
0.208710 0.352509 0.280396
0.474365 0.416138 0.250671
0.645538 0.460815 0.210571
0.777344 0.480469 0.205505
0.898987 0.496765 0.214417
0.998260 0.520081 0.242310
0.002350 0.359558 0.359741
0.018921 0.374359 0.362213
0.036255 0.390656 0.351898
0.058655 0.418304 0.340576
0.335236 0.448273 0.282104
0.580841 0.520081 0.253387
0.768127 0.570923 0.216217
0.892456 0.612823 0.226562
0.998901 0.630585 0.246368
0.002380 0.427094 0.411987
0.018921 0.443634 0.419281
0.036255 0.461487 0.417236
0.054291 0.486267 0.403473
0.129974 0.510620 0.379028
0.437500 0.556396 0.289307
0.674377 0.618500 0.256073
0.889008 0.686188 0.245758
0.999878 0.738068 0.262054
0.002380 0.498688 0.462158
0.018921 0.517303 0.472412
0.036255 0.537109 0.477417
0.054291 0.562592 0.477692
0.074158 0.590179 0.462952
0.266357 0.606750 0.409271
0.531830 0.673828 0.325897
0.784058 0.734558 0.301971
0.998779 0.803589 0.335022
0.003174 0.576172 0.510925
0.019714 0.597595 0.523193
0.037048 0.619019 0.532990
0.054932 0.642731 0.542175
0.073669 0.670044 0.546753
0.099518 0.700134 0.537384
0.378571 0.732727 0.482544
0.660461 0.846191 0.423523
0.914246 0.905823 0.464752
0.005524 0.062225 0.164612
0.061035 0.063385 0.220673
0.164856 0.021301 0.261627
0.302826 0.005524 0.288788
0.428040 0.008667 0.330780
0.555420 0.011810 0.374725
0.690826 0.014191 0.409607
0.838409 0.016571 0.440765
0.956940 0.079102 0.469543
0.003174 0.130890 0.216400
0.046875 0.137421 0.251129
0.152039 0.122711 0.270721
0.330322 0.085175 0.283447
0.469910 0.044006 0.302948
0.602753 0.030731 0.330780
0.744080 0.037842 0.367096
0.894165 0.089600 0.415894
0.971558 0.257690 0.466278
0.003937 0.189636 0.250977
0.023651 0.202057 0.266205
0.137421 0.213501 0.294769
0.335327 0.203033 0.288116
0.499146 0.188812 0.272522
0.641785 0.182648 0.272644
0.779480 0.196136 0.291840
0.911987 0.259460 0.338440
0.987152 0.365143 0.411621
0.004730 0.249908 0.297028
0.020508 0.263367 0.300964
0.085175 0.281036 0.310974
0.299866 0.317963 0.336945
0.512573 0.343628 0.315308
0.659485 0.345825 0.296631
0.792603 0.354950 0.294128
0.915039 0.388367 0.321045
0.995514 0.450378 0.382263
0.004730 0.310608 0.346863
0.020508 0.323883 0.348206
0.037048 0.340912 0.347473
0.181122 0.376038 0.353027
0.478851 0.435944 0.353333
0.647064 0.477386 0.330994
0.780823 0.488770 0.325226
0.902039 0.504517 0.334473
0.998718 0.531097 0.364349
0.004730 0.372192 0.397461
0.019714 0.386932 0.401398
0.036255 0.400177 0.395020
0.061646 0.430359 0.392700
0.331207 0.466339 0.379303
0.599457 0.545258 0.363770
0.770752 0.596436 0.341522
0.893250 0.621307 0.349030
0.999146 0.634521 0.365234
0.003937 0.434723 0.445709
0.019714 0.451599 0.452942
0.036255 0.467346 0.451599
0.053650 0.490143 0.445770
0.146973 0.529266 0.441315
0.463501 0.574677 0.390717
0.698059 0.645355 0.372833
0.893494 0.713928 0.365723
0.999878 0.747711 0.379028
0.003937 0.500732 0.490875
0.019714 0.520203 0.500458
0.036255 0.539429 0.505432
0.053650 0.563782 0.509338
0.072601 0.597046 0.503937
0.301605 0.632202 0.489441
0.566650 0.691223 0.428101
0.806854 0.759430 0.415985
0.999481 0.831482 0.443451
0.003937 0.574066 0.535522
0.019714 0.596527 0.547760
0.037048 0.619049 0.557953
0.053650 0.644348 0.569397
0.072113 0.674011 0.579407
0.105286 0.710693 0.578217
0.429962 0.752136 0.559174
0.689606 0.847321 0.505951
0.937622 0.923828 0.557953
0.003937 0.080994 0.215698
0.040985 0.093414 0.277161
0.129974 0.063385 0.320709
0.261627 0.003937 0.353424
0.393158 0.008667 0.387848
0.519440 0.011841 0.442169
0.649567 0.015778 0.502045
0.800446 0.022095 0.570129
0.945251 0.097137 0.636078
0.004730 0.157196 0.272644
0.025238 0.166534 0.310028
0.123016 0.152557 0.333496
0.268616 0.102234 0.363312
0.440063 0.051025 0.390106
0.576752 0.032318 0.431793
0.719666 0.037048 0.487213
0.872406 0.109314 0.560425
0.963318 0.284882 0.625488
0.005524 0.213318 0.299255
0.020508 0.227234 0.317627
0.110779 0.237030 0.355225
0.255768 0.225342 0.378296
0.471680 0.193542 0.374725
0.617493 0.170532 0.385864
0.759521 0.176697 0.416565
0.902039 0.261353 0.472992
0.976440 0.404053 0.549377
0.006287 0.271393 0.340363
0.021271 0.286316 0.349121
0.062805 0.302460 0.366882
0.239441 0.327118 0.409424
0.486908 0.327911 0.394470
0.651459 0.330780 0.380707
0.794861 0.353027 0.395172
0.922302 0.407318 0.442841
0.991180 0.493622 0.515472
0.006317 0.331238 0.388397
0.022064 0.345825 0.393494
0.037842 0.361511 0.397461
0.173767 0.392517 0.415710
0.469116 0.457458 0.452240
0.652649 0.480652 0.436432
0.792236 0.492218 0.430664
0.916687 0.517548 0.447266
0.998352 0.562653 0.492889
0.006317 0.392792 0.438385
0.021271 0.408600 0.444092
0.037842 0.421570 0.441498
0.069458 0.447968 0.446747
0.318207 0.496765 0.460907
0.620300 0.572021 0.467712
0.776001 0.612061 0.457733
0.900513 0.627380 0.464447
0.999817 0.642578 0.482819
0.006287 0.453308 0.483521
0.021271 0.471069 0.490936
0.037048 0.486053 0.490936
0.053650 0.506348 0.490204
0.193329 0.551270 0.496429
0.497620 0.600616 0.482880
0.729614 0.675232 0.478119
0.898285 0.734192 0.476685
0.999939 0.753387 0.494141
0.005524 0.514832 0.522644
0.020508 0.535278 0.532318
0.037048 0.553589 0.537506
0.053650 0.576233 0.543152
0.086517 0.610229 0.545990
0.355042 0.659912 0.551941
0.617157 0.717590 0.519440
0.839325 0.788788 0.517242
0.999725 0.854309 0.544495
0.005524 0.581696 0.560364
0.020508 0.604950 0.572906
0.037048 0.627411 0.583832
0.054291 0.653015 0.597015
0.073120 0.685059 0.611298
0.219604 0.730103 0.616943
0.498993 0.782593 0.621552
0.743225 0.866882 0.586884
0.955536 0.940491 0.644165
0.005524 0.103027 0.265106
0.022064 0.126862 0.334595
0.106781 0.107147 0.378754
0.220154 0.026825 0.423462
0.360535 0.007874 0.434875
0.488983 0.011810 0.481934
0.613586 0.015778 0.539734
0.754883 0.022888 0.621216
0.915771 0.084717 0.735901
0.006317 0.187134 0.329803
0.021271 0.199310 0.366119
0.099915 0.188385 0.398865
0.219971 0.145874 0.431885
0.398499 0.062225 0.460327
0.547424 0.032318 0.498505
0.689392 0.038635 0.556519
0.844788 0.106384 0.644592
0.959839 0.295380 0.728882
0.006317 0.239288 0.349762
0.021271 0.254578 0.369019
0.082397 0.263641 0.409698
0.205902 0.253540 0.441162
0.411621 0.209839 0.463104
0.590302 0.180908 0.479919
0.737946 0.190857 0.519440
0.886810 0.279968 0.586365
0.969849 0.430420 0.670929
0.007080 0.294006 0.384857
0.022064 0.310394 0.396667
0.044006 0.326111 0.418121
0.205902 0.346863 0.468903
0.411194 0.345215 0.493774
0.627686 0.330536 0.479645
0.778992 0.347900 0.492676
0.916290 0.421722 0.546814
0.983032 0.538574 0.625854
0.007904 0.353546 0.430847
0.022064 0.370453 0.439636
0.038635 0.385559 0.446533
0.158966 0.412811 0.473328
0.390808 0.457214 0.528717
0.641693 0.472198 0.508942
0.800842 0.495026 0.511200
0.933289 0.544373 0.547272
0.995361 0.613434 0.606018
0.007904 0.415497 0.479279
0.022858 0.433380 0.487671
0.039429 0.448730 0.490204
0.079102 0.472839 0.500946
0.318085 0.523499 0.528442
0.632202 0.597015 0.564056
0.788391 0.619873 0.560364
0.915771 0.640686 0.569672
0.999512 0.671539 0.597412
0.007904 0.477203 0.522705
0.022858 0.496887 0.532135
0.038635 0.513428 0.535522
0.057434 0.534210 0.540283
0.233093 0.578918 0.552948
0.517151 0.634979 0.574951
0.759094 0.704956 0.577820
0.903687 0.746918 0.584625
0.999939 0.762695 0.606598
0.007111 0.538666 0.559174
0.022064 0.560364 0.570251
0.037842 0.579132 0.577332
0.054932 0.600616 0.584900
0.166046 0.633789 0.591858
0.412872 0.690308 0.611877
0.668793 0.746277 0.603241
0.869568 0.817322 0.608429
0.999725 0.871277 0.641052
0.007080 0.601196 0.591400
0.022064 0.625000 0.604980
0.037842 0.647034 0.617004
0.055573 0.671570 0.630676
0.127808 0.703369 0.645538
0.333160 0.754333 0.659760
0.578186 0.814148 0.679504
0.796265 0.888428 0.662018
0.968994 0.955109 0.730591
0.006317 0.127197 0.310974
0.021271 0.162415 0.388031
0.071045 0.154663 0.439697
0.187531 0.098724 0.477539
0.338135 0.009460 0.494751
0.463593 0.012604 0.521332
0.590546 0.016571 0.571686
0.727173 0.022888 0.644348
0.882507 0.056213 0.758850
0.007904 0.220673 0.388947
0.022064 0.234741 0.420929
0.062225 0.231781 0.468140
0.186493 0.190033 0.491272
0.356659 0.096710 0.526855
0.518555 0.034698 0.555420
0.662323 0.040222 0.604675
0.819336 0.091736 0.690460
0.943970 0.277405 0.766327
0.007904 0.268066 0.402710
0.022064 0.284210 0.422394
0.048981 0.294769 0.462891
0.174683 0.285400 0.503540
0.343109 0.244354 0.540283
0.553345 0.196960 0.556305
0.710419 0.198151 0.593292
0.863647 0.289673 0.662323
0.967957 0.437286 0.740967
0.007904 0.319458 0.432678
0.022064 0.337067 0.446747
0.037842 0.351685 0.466980
0.170776 0.369019 0.519836
0.337585 0.367065 0.558594
0.584900 0.344360 0.570679
0.753601 0.358429 0.591187
0.897400 0.432098 0.640686
0.975830 0.551544 0.705200
0.008667 0.376434 0.473969
0.022858 0.395172 0.485504
0.039429 0.411804 0.495636
0.131195 0.434387 0.524261
0.352814 0.472473 0.589478
0.605804 0.484924 0.603424
0.780365 0.497559 0.600555
0.923340 0.560120 0.634644
0.989929 0.656281 0.690765
0.009460 0.437927 0.519440
0.024445 0.457916 0.530731
0.040985 0.476440 0.537811
0.080994 0.499878 0.552490
0.313324 0.544617 0.588928
0.601501 0.607666 0.643372
0.793243 0.628906 0.633209
0.936340 0.671387 0.652588
0.997833 0.726074 0.689301
0.010254 0.502045 0.562317
0.024445 0.523895 0.574310
0.040222 0.543610 0.582092
0.067291 0.566895 0.592346
0.264069 0.608032 0.610687
0.525909 0.669342 0.646729
0.779968 0.732178 0.675476
0.915283 0.758850 0.685791
0.999573 0.783691 0.706787
0.010254 0.566528 0.598999
0.024445 0.590210 0.612488
0.040222 0.611145 0.622772
0.067841 0.634033 0.633423
0.235229 0.666748 0.643677
0.464661 0.724426 0.671356
0.712616 0.776733 0.686157
0.894043 0.842957 0.697327
0.999756 0.883240 0.737030
0.009460 0.630341 0.630432
0.023651 0.655975 0.646301
0.040222 0.678589 0.660095
0.089600 0.702148 0.673462
0.240540 0.731873 0.685394
0.424500 0.784515 0.709381
0.648071 0.845642 0.737732
0.840210 0.908325 0.735382
0.988831 0.970428 0.818390
0.007904 0.152832 0.355042
0.022064 0.197357 0.436737
0.039429 0.204773 0.502258
0.159210 0.162933 0.541168
0.301086 0.044739 0.582397
0.445465 0.013428 0.569122
0.574524 0.018921 0.609314
0.714081 0.026031 0.673462
0.870911 0.058075 0.777191
0.009460 0.257690 0.451141
0.023651 0.272369 0.479706
0.040222 0.278625 0.537048
0.163147 0.241364 0.559692
0.310852 0.168915 0.603790
0.493225 0.039429 0.614105
0.644836 0.044006 0.653687
0.803223 0.106415 0.732239
0.922729 0.268890 0.792786
0.009460 0.300720 0.460266
0.023651 0.317963 0.480408
0.038635 0.328461 0.514252
0.148590 0.326904 0.569397
0.292999 0.288910 0.594940
0.499542 0.221008 0.622406
0.685333 0.211487 0.656555
0.838196 0.293121 0.721191
0.965149 0.436096 0.792480
0.009460 0.348114 0.484070
0.023651 0.366974 0.500000
0.038635 0.381927 0.518677
0.132111 0.395172 0.566833
0.292358 0.394806 0.615692
0.514832 0.363770 0.648102
0.723572 0.365723 0.666565
0.874634 0.438995 0.721069
0.973145 0.559326 0.780090
0.010254 0.400970 0.518890
0.024445 0.421173 0.532806
0.040222 0.439941 0.545502
0.091309 0.459381 0.572632
0.313568 0.491882 0.638733
0.530518 0.500244 0.677856
0.755615 0.506592 0.687561
0.903198 0.566010 0.725403
0.979797 0.663330 0.768646
0.011047 0.460327 0.559784
0.026001 0.482330 0.573456
0.042511 0.503754 0.584320
0.075165 0.528534 0.602295
0.292480 0.565918 0.639771
0.551941 0.615723 0.707825
0.774872 0.638367 0.716827
0.922943 0.683472 0.737793
0.991638 0.756226 0.771027
0.012634 0.525543 0.601349
0.027588 0.549561 0.615875
0.043243 0.572632 0.627686
0.072083 0.599426 0.642731
0.276764 0.637115 0.664093
0.530762 0.691071 0.709656
0.780365 0.747498 0.748962
0.930511 0.784424 0.761963
0.997986 0.830322 0.785828
0.012634 0.594299 0.639771
0.026794 0.620422 0.655853
0.042511 0.644653 0.669800
0.110077 0.670654 0.683594
0.291473 0.705475 0.698730
0.510468 0.757690 0.731567
0.746704 0.816406 0.763428
0.915405 0.866028 0.791504
0.998596 0.898346 0.824951
0.011841 0.663879 0.674652
0.026794 0.692352 0.693787
0.066742 0.717834 0.710205
0.196960 0.740784 0.721313
0.333832 0.772888 0.737366
0.513031 0.820831 0.766235
0.712463 0.878967 0.796753
0.881104 0.929199 0.810913
0.994904 0.984283 0.895935
0.008667 0.179810 0.399658
0.023651 0.229248 0.479431
0.038635 0.252045 0.554962
0.117737 0.225891 0.601562
0.260620 0.150208 0.635559
0.437988 0.021301 0.639282
0.563660 0.023651 0.654663
0.710419 0.034698 0.717102
0.866638 0.087402 0.811157
0.011047 0.298401 0.517944
0.025238 0.313904 0.543488
0.040222 0.322418 0.590851
0.127472 0.298523 0.629456
0.274841 0.235718 0.655579
0.478119 0.097534 0.679504
0.638519 0.053650 0.709259
0.796112 0.143372 0.783813
0.906128 0.274994 0.826904
0.011047 0.336212 0.520966
0.025238 0.354828 0.541290
0.040222 0.367493 0.570251
0.105286 0.372833 0.632477
0.252472 0.335449 0.654846
0.460602 0.266785 0.693970
0.659546 0.231598 0.714294
0.817627 0.300842 0.776520
0.944641 0.428589 0.841431
0.011047 0.379425 0.538116
0.025238 0.399750 0.555420
0.040222 0.416992 0.574677
0.084717 0.428772 0.615570
0.253845 0.432281 0.675476
0.456421 0.401825 0.709900
0.683258 0.376801 0.731812
0.850189 0.438202 0.786987
0.970062 0.558411 0.851868
0.011841 0.427795 0.566040
0.025238 0.449646 0.581696
0.040985 0.470795 0.596802
0.065063 0.491547 0.623718
0.273743 0.516235 0.681946
0.470276 0.521881 0.733337
0.717285 0.516907 0.760315
0.882812 0.567810 0.805908
0.975586 0.667358 0.856812
0.012634 0.483795 0.601501
0.027588 0.507385 0.616852
0.044739 0.531464 0.630920
0.063934 0.558868 0.651733
0.263092 0.589325 0.686188
0.512390 0.631744 0.762817
0.749512 0.651855 0.793701
0.906616 0.687256 0.826111
0.981689 0.761902 0.858887
0.014984 0.548523 0.640717
0.029968 0.574738 0.657257
0.046173 0.600891 0.672424
0.076660 0.631104 0.691101
0.276337 0.666260 0.713959
0.525970 0.714600 0.765625
0.771637 0.764709 0.822937
0.923767 0.794556 0.845337
0.989624 0.846008 0.867218
0.015778 0.620758 0.680573
0.029968 0.649963 0.699585
0.046173 0.677948 0.717407
0.159698 0.707062 0.733337
0.336304 0.743958 0.753235
0.552063 0.792053 0.790985
0.779846 0.846069 0.835358
0.933228 0.885010 0.869080
0.994690 0.922668 0.890808
0.015778 0.698120 0.721069
0.044006 0.730011 0.743805
0.152039 0.757446 0.760376
0.270294 0.783936 0.773895
0.426178 0.820435 0.797058
0.603333 0.865479 0.829376
0.782593 0.917603 0.860535
0.924438 0.957611 0.888367
0.992157 0.992371 0.939270
