filters/luts/lut8.cube
# Created by Benjamin (IWLTBAP): https://luts.iwltbap.com
# Copyright: (C) Copyright 2021 Triune Films and IWLTBAP SAS
# Cannot be resold, shared or otherwise redistributed
TITLE "Triune Films Superhero LUTs (Rec.709, sRGB, DCI-P3)"
LUT_3D_SIZE 33
0.001587 0.000793 0.001587
0.029358 0.001984 0.002167
0.059570 0.002380 0.002380
0.091797 0.002380 0.002167
0.125580 0.002380 0.001587
0.158936 0.002960 0.001587
0.190796 0.003937 0.001190
0.221527 0.005310 0.000793
0.251587 0.007080 0.000793
0.281982 0.008270 0.000793
0.312164 0.009460 0.001190
0.342316 0.010651 0.001587
0.372650 0.011810 0.001587
0.402954 0.013000 0.001587
0.433258 0.014587 0.001587
0.463562 0.016174 0.001770
0.493896 0.017334 0.002350
0.524109 0.018524 0.002380
0.554413 0.019318 0.002380
0.584717 0.020111 0.002563
0.615082 0.021301 0.003143
0.645233 0.022491 0.003174
0.675140 0.024048 0.003540
0.705261 0.025635 0.004120
0.735962 0.026825 0.004730
0.766479 0.027405 0.005920
0.797272 0.028381 0.007080
0.828613 0.029572 0.008484
0.860779 0.030762 0.010254
0.892853 0.031952 0.013214
0.923706 0.031952 0.017334
0.950806 0.037537 0.024445
0.971680 0.055573 0.036285
0.001587 0.017944 0.014008
0.028198 0.019135 0.015778
0.059418 0.020294 0.014404
0.092499 0.020905 0.012421
0.127014 0.021301 0.009857
0.163910 0.019531 0.004547
0.197205 0.019318 0.003357
0.228912 0.019714 0.002167
0.259430 0.020691 0.001373
0.289917 0.021271 0.001373
0.320221 0.022461 0.001770
0.350616 0.023651 0.002350
0.381317 0.024841 0.002747
0.412323 0.025421 0.003357
0.443176 0.026611 0.003754
0.474152 0.027802 0.004150
0.505280 0.028595 0.004730
0.536560 0.029175 0.005310
0.567566 0.029968 0.005707
0.598633 0.030548 0.006104
0.629730 0.031342 0.006714
0.660736 0.033112 0.007874
0.691406 0.034302 0.008270
0.722168 0.035492 0.009064
0.753448 0.036285 0.010040
0.785522 0.037445 0.011810
0.817352 0.038391 0.013794
0.849701 0.039368 0.016174
0.882782 0.040131 0.019135
0.914642 0.041779 0.025024
0.942200 0.046265 0.032288
0.964661 0.057739 0.042358
0.979462 0.083008 0.057037
0.001587 0.034912 0.027191
0.026215 0.037048 0.028992
0.057098 0.039124 0.027985
0.091339 0.040527 0.024048
0.126862 0.041595 0.019318
0.164276 0.041290 0.012024
0.200165 0.039764 0.005920
0.232910 0.039368 0.003937
0.264008 0.039764 0.002380
0.294647 0.039948 0.001953
0.325165 0.040802 0.001953
0.355560 0.042053 0.002380
0.386383 0.043304 0.002747
0.417267 0.044098 0.003357
0.448517 0.044617 0.003540
0.479797 0.045410 0.003937
0.511322 0.045807 0.004333
0.542664 0.045990 0.004913
0.574005 0.046478 0.005524
0.605621 0.047028 0.006317
0.637268 0.047577 0.007111
0.668793 0.048187 0.007874
0.700378 0.049347 0.009064
0.731812 0.050293 0.009857
0.763672 0.050812 0.011047
0.796539 0.052094 0.012421
0.830139 0.053314 0.014587
0.863586 0.054077 0.017334
0.897736 0.054443 0.020905
0.929810 0.057709 0.027985
0.953674 0.076111 0.042450
0.973145 0.090668 0.055695
0.983582 0.120392 0.073425
0.001373 0.051727 0.041107
0.023468 0.054901 0.042603
0.053223 0.057617 0.041595
0.088135 0.060455 0.037811
0.124939 0.062408 0.030701
0.163177 0.063934 0.021088
0.199615 0.063965 0.012817
0.234741 0.062683 0.006104
0.266479 0.062683 0.003754
0.297363 0.062988 0.002777
0.327972 0.063660 0.002380
0.358551 0.064819 0.002380
0.389282 0.066223 0.002380
0.420135 0.067230 0.002960
0.451263 0.068207 0.003174
0.482544 0.069214 0.003174
0.514160 0.069214 0.003174
0.545502 0.069611 0.003754
0.576935 0.070068 0.004333
0.608398 0.070740 0.004730
0.640411 0.071198 0.005920
0.672180 0.071472 0.006500
0.703949 0.072052 0.007477
0.735809 0.073303 0.008270
0.768250 0.073730 0.009460
0.801239 0.075653 0.010437
0.834900 0.077637 0.012024
0.869415 0.078583 0.013794
0.904724 0.078583 0.017365
0.937256 0.083008 0.023254
0.962006 0.101257 0.037201
0.977905 0.129364 0.058685
0.985687 0.160736 0.079681
0.000793 0.068390 0.055573
0.019714 0.072723 0.056519
0.047729 0.076141 0.055237
0.082367 0.079315 0.051422
0.121063 0.082886 0.044739
0.160431 0.086609 0.032471
0.197723 0.088501 0.021667
0.233429 0.088806 0.012604
0.268066 0.087830 0.005524
0.299286 0.088806 0.003754
0.330078 0.089783 0.002747
0.360718 0.090973 0.002380
0.391449 0.092590 0.002380
0.422424 0.093842 0.002960
0.453522 0.095276 0.003174
0.484680 0.097015 0.003174
0.515778 0.099121 0.003174
0.547058 0.100281 0.003754
0.578613 0.101257 0.004333
0.610260 0.102234 0.004730
0.641907 0.103394 0.004730
0.673584 0.104248 0.005341
0.705231 0.105103 0.006317
0.736969 0.106293 0.007111
0.768799 0.108246 0.007111
0.801270 0.111481 0.007690
0.834259 0.114807 0.008667
0.868073 0.117126 0.009674
0.902893 0.117401 0.010254
0.936127 0.122589 0.012634
0.961975 0.140228 0.023651
0.979431 0.166412 0.042938
0.987427 0.197144 0.070007
0.000793 0.085907 0.069122
0.012604 0.090851 0.068756
0.038727 0.094635 0.068024
0.072876 0.098267 0.064789
0.112549 0.102448 0.058716
0.154999 0.108276 0.048431
0.193420 0.111664 0.035278
0.230194 0.113739 0.023254
0.265717 0.114716 0.012634
0.300079 0.115448 0.005524
0.331573 0.116241 0.003754
0.362579 0.117371 0.002960
0.393311 0.118988 0.002960
0.424530 0.120636 0.002960
0.455658 0.122101 0.003174
0.486938 0.123749 0.003357
0.518250 0.125641 0.003754
0.549408 0.127838 0.004333
0.580688 0.129547 0.004913
0.612030 0.131470 0.005310
0.643280 0.133820 0.005310
0.674530 0.137085 0.005920
0.706085 0.139221 0.006104
0.737518 0.142059 0.006897
0.768890 0.145905 0.007690
0.800446 0.151428 0.007690
0.833008 0.156006 0.008270
0.865967 0.160858 0.009064
0.899597 0.164856 0.009674
0.932587 0.170624 0.010834
0.960693 0.180939 0.017151
0.979767 0.201294 0.034332
0.988739 0.227783 0.061951
0.000793 0.103363 0.082916
0.009460 0.108704 0.081696
0.028778 0.112915 0.080475
0.060730 0.116486 0.077759
0.099640 0.120697 0.072205
0.144348 0.127441 0.062469
0.187134 0.133331 0.051666
0.225006 0.136749 0.037476
0.261536 0.139282 0.024048
0.297516 0.141571 0.012634
0.332001 0.143158 0.005524
0.363708 0.144073 0.003937
0.394806 0.145599 0.003540
0.426147 0.147125 0.003540
0.457428 0.148834 0.003937
0.488647 0.150726 0.003937
0.520020 0.152740 0.004333
0.551239 0.155090 0.004913
0.582489 0.157623 0.005524
0.613678 0.159912 0.005920
0.644745 0.162872 0.005920
0.675751 0.166534 0.006104
0.706787 0.170410 0.006714
0.738159 0.173737 0.006897
0.769257 0.178406 0.007874
0.800629 0.184021 0.008270
0.832428 0.190125 0.008270
0.864929 0.195953 0.008881
0.897705 0.202148 0.009460
0.929932 0.209137 0.010254
0.959167 0.217773 0.014191
0.979889 0.233337 0.028778
0.989868 0.256561 0.056458
0.000610 0.120911 0.097076
0.007111 0.126556 0.095215
0.021698 0.131195 0.093292
0.048248 0.134674 0.090973
0.084686 0.138336 0.085846
0.129150 0.145081 0.075958
0.175232 0.152374 0.065491
0.217926 0.158325 0.054443
0.255554 0.162048 0.039062
0.292938 0.165405 0.024261
0.329254 0.168579 0.012604
0.363739 0.171112 0.005524
0.395599 0.172394 0.004333
0.427277 0.173737 0.004120
0.458710 0.175354 0.004333
0.490051 0.177277 0.004913
0.521332 0.179718 0.004913
0.552612 0.182312 0.005524
0.583893 0.185028 0.005920
0.615112 0.187836 0.006500
0.646179 0.190796 0.006500
0.677063 0.194611 0.006500
0.707886 0.198639 0.006897
0.738770 0.203064 0.007477
0.769867 0.207458 0.008087
0.801086 0.213104 0.008484
0.832611 0.219299 0.008881
0.864380 0.226074 0.009064
0.896667 0.233002 0.009674
0.928284 0.240723 0.010254
0.957367 0.249878 0.013397
0.979767 0.262909 0.025757
0.990784 0.283875 0.053009
0.000000 0.138580 0.111847
0.005310 0.144470 0.109436
0.016174 0.149506 0.106964
0.036438 0.153473 0.104034
0.070007 0.156189 0.100311
0.111694 0.161957 0.089630
0.158539 0.169739 0.078827
0.205566 0.177551 0.067902
0.247772 0.183502 0.056824
0.286377 0.187469 0.039642
0.324371 0.191772 0.024445
0.360901 0.195892 0.012604
0.395264 0.199310 0.005524
0.427612 0.200500 0.004913
0.459442 0.201965 0.004730
0.490997 0.203735 0.004913
0.522461 0.205902 0.005524
0.553772 0.208862 0.006104
0.585083 0.211853 0.006287
0.616302 0.214874 0.006500
0.647461 0.217834 0.007080
0.678375 0.221527 0.007080
0.709167 0.225525 0.007477
0.739868 0.229858 0.008087
0.770630 0.234741 0.008667
0.801697 0.240417 0.008667
0.833008 0.246643 0.009064
0.864441 0.253479 0.009644
0.895874 0.261047 0.010254
0.927063 0.269012 0.010834
0.956146 0.278259 0.013397
0.979004 0.291199 0.024597
0.991516 0.310150 0.051025
0.000000 0.156830 0.126373
0.004730 0.162567 0.123108
0.010437 0.167816 0.120880
0.023651 0.172150 0.118103
0.048248 0.175385 0.114380
0.089722 0.178131 0.104614
0.136200 0.185211 0.092407
0.185638 0.193848 0.080536
0.233002 0.202148 0.069061
0.276672 0.208740 0.057739
0.316010 0.212708 0.040344
0.354492 0.217133 0.024628
0.391388 0.221527 0.012024
0.426788 0.226624 0.005524
0.459137 0.228882 0.005310
0.491028 0.231018 0.005524
0.522583 0.233093 0.006104
0.554260 0.235565 0.006714
0.585571 0.238464 0.006897
0.616791 0.241577 0.007080
0.647919 0.244843 0.007690
0.678711 0.248627 0.008270
0.709595 0.252441 0.008270
0.740326 0.256714 0.008667
0.771088 0.261505 0.009247
0.801788 0.267151 0.009277
0.832977 0.273224 0.009644
0.864227 0.279816 0.010254
0.895508 0.287018 0.010834
0.926147 0.295013 0.011444
0.955566 0.304230 0.014008
0.979065 0.316254 0.024292
0.992493 0.333435 0.048981
0.000397 0.175232 0.141235
0.004730 0.180847 0.137726
0.009064 0.186005 0.134857
0.015564 0.190552 0.132446
0.031525 0.194122 0.128998
0.065735 0.196442 0.120026
0.110321 0.200195 0.107697
0.160583 0.208435 0.094208
0.211609 0.217773 0.081573
0.260864 0.227203 0.070374
0.305267 0.234070 0.058960
0.345123 0.237793 0.040802
0.383942 0.242126 0.024048
0.421997 0.247864 0.011627
0.457733 0.254059 0.005920
0.490082 0.257446 0.006104
0.521912 0.260345 0.006683
0.553680 0.263367 0.007294
0.585266 0.265808 0.007507
0.616577 0.268738 0.007690
0.647766 0.272034 0.008270
0.678772 0.275879 0.008881
0.709625 0.279877 0.009064
0.740417 0.284027 0.009247
0.771179 0.288757 0.009857
0.801758 0.294250 0.010254
0.832642 0.299988 0.010254
0.863678 0.306366 0.010834
0.894714 0.313263 0.011444
0.925354 0.320740 0.012024
0.954895 0.329590 0.014587
0.978973 0.341003 0.024323
0.993225 0.356750 0.047607
0.000793 0.193726 0.156189
0.004913 0.199219 0.152740
0.009064 0.204376 0.149597
0.013611 0.208893 0.146820
0.021301 0.212616 0.143860
0.045593 0.214874 0.135956
0.083557 0.217560 0.124268
0.131378 0.222443 0.109894
0.184509 0.231628 0.095398
0.238434 0.242554 0.082825
0.288239 0.252411 0.071472
0.333740 0.259491 0.060028
0.373901 0.262756 0.040558
0.413788 0.267578 0.023071
0.452332 0.274170 0.010834
0.488068 0.281555 0.006317
0.520355 0.286163 0.006897
0.552338 0.290680 0.007690
0.584076 0.294067 0.008087
0.615753 0.296539 0.008270
0.647125 0.299530 0.008850
0.678284 0.303284 0.009460
0.709290 0.307343 0.009674
0.740112 0.311646 0.009857
0.770874 0.316315 0.010468
0.801514 0.321655 0.011047
0.832245 0.327209 0.011444
0.863037 0.333160 0.011444
0.893768 0.339844 0.012024
0.924286 0.346832 0.012604
0.953827 0.355011 0.015381
0.978729 0.365479 0.024567
0.993805 0.380066 0.046722
0.000793 0.212219 0.170990
0.004913 0.217621 0.167847
0.009064 0.222748 0.164734
0.013611 0.227295 0.161682
0.018921 0.231110 0.158722
0.030762 0.233582 0.152130
0.059479 0.235565 0.141327
0.101349 0.238739 0.127411
0.152557 0.244812 0.111511
0.210327 0.255920 0.096039
0.264618 0.267426 0.083282
0.315277 0.277710 0.071869
0.362213 0.285004 0.060486
0.403107 0.287445 0.038757
0.443634 0.292908 0.020905
0.482361 0.300415 0.009277
0.517822 0.309082 0.006317
0.550140 0.316010 0.007507
0.582184 0.321259 0.008270
0.614105 0.325073 0.008850
0.646118 0.327576 0.009460
0.677429 0.331055 0.010040
0.708557 0.334961 0.010254
0.739471 0.339294 0.010437
0.770142 0.344055 0.011047
0.801025 0.349243 0.011627
0.831818 0.354675 0.012207
0.862427 0.360443 0.012604
0.892853 0.366699 0.012604
0.923218 0.373291 0.013214
0.952667 0.380890 0.016174
0.977539 0.390594 0.025726
0.994263 0.403473 0.046173
0.000793 0.230591 0.185913
0.004913 0.235840 0.183868
0.009460 0.241058 0.180603
0.014008 0.245758 0.177277
0.018921 0.249725 0.173889
0.023651 0.252380 0.169495
0.039825 0.253937 0.160370
0.072693 0.255554 0.146912
0.118500 0.258942 0.130310
0.174805 0.267548 0.111786
0.234131 0.279694 0.096130
0.289246 0.291901 0.083160
0.340027 0.302521 0.071503
0.387665 0.309052 0.058197
0.430389 0.312103 0.036438
0.472076 0.317871 0.018738
0.511261 0.325439 0.007507
0.546967 0.335876 0.006317
0.579468 0.344208 0.007874
0.611694 0.350861 0.008850
0.643829 0.356049 0.009460
0.675751 0.360229 0.010651
0.707214 0.363708 0.010864
0.738464 0.367676 0.011047
0.769440 0.372101 0.011627
0.800476 0.377045 0.012238
0.831238 0.382507 0.012817
0.861755 0.388214 0.013214
0.892059 0.394287 0.013214
0.922119 0.400391 0.014404
0.951385 0.407440 0.017365
0.976868 0.416077 0.025970
0.994934 0.427368 0.044556
0.000793 0.248871 0.200989
0.004913 0.254059 0.199493
0.009460 0.259094 0.196838
0.014008 0.264038 0.193268
0.018524 0.268280 0.189514
0.023254 0.271027 0.185272
0.028778 0.273224 0.179565
0.049194 0.273987 0.167755
0.086121 0.275391 0.151550
0.137329 0.280823 0.131256
0.197235 0.290619 0.112213
0.257660 0.303467 0.096100
0.313141 0.316071 0.082611
0.365173 0.326965 0.069733
0.413330 0.333344 0.056519
0.457458 0.336670 0.034210
0.499847 0.342407 0.016174
0.539856 0.351105 0.006714
0.576111 0.362457 0.006317
0.608826 0.372162 0.008270
0.641296 0.380188 0.009460
0.673431 0.387665 0.010651
0.705261 0.393005 0.011444
0.736847 0.396637 0.011627
0.768158 0.400818 0.012207
0.799438 0.405426 0.012817
0.830414 0.410583 0.013031
0.861084 0.416229 0.013611
0.891449 0.422089 0.013794
0.921448 0.428131 0.014984
0.950470 0.434570 0.018127
0.976257 0.442444 0.026215
0.995392 0.452454 0.043274
0.000793 0.267090 0.216156
0.004913 0.272156 0.215240
0.009247 0.277069 0.213165
0.014008 0.281952 0.209869
0.018127 0.286621 0.205811
0.022858 0.289734 0.201508
0.028198 0.292023 0.196106
0.034119 0.293762 0.189026
0.058655 0.293854 0.174377
0.101410 0.296173 0.153137
0.156799 0.303101 0.132233
0.219696 0.313934 0.112549
0.280731 0.327209 0.095673
0.337646 0.340790 0.081360
0.389832 0.351501 0.068481
0.438965 0.357910 0.055267
0.484039 0.361145 0.031891
0.527893 0.367279 0.014374
0.568420 0.376617 0.006104
0.605225 0.388947 0.006683
0.638214 0.399933 0.009064
0.670868 0.410431 0.010468
0.703003 0.419250 0.011444
0.734741 0.425995 0.012207
0.766357 0.429962 0.012817
0.797913 0.434509 0.013397
0.829193 0.439301 0.013794
0.860138 0.444550 0.013794
0.890778 0.450226 0.014374
0.920929 0.456146 0.015564
0.949921 0.462463 0.018921
0.975830 0.469543 0.026581
0.995758 0.478577 0.042511
0.000793 0.285126 0.231262
0.004913 0.290070 0.231018
0.009064 0.294861 0.229614
0.013397 0.299652 0.226929
0.018127 0.304504 0.222961
0.022858 0.308289 0.218323
0.027985 0.310974 0.213013
0.033508 0.312836 0.206451
0.039429 0.314148 0.197968
0.070251 0.313354 0.176514
0.117737 0.317474 0.154541
0.176697 0.325775 0.132935
0.241974 0.337494 0.112579
0.304260 0.352081 0.095001
0.360962 0.365417 0.080627
0.413788 0.376099 0.067657
0.464325 0.382721 0.054291
0.511597 0.385559 0.028961
0.555939 0.392059 0.013000
0.596954 0.402069 0.006104
0.634277 0.415314 0.007874
0.667847 0.428497 0.009674
0.700562 0.440552 0.011047
0.732605 0.450958 0.012207
0.764160 0.459290 0.013397
0.795990 0.464050 0.014008
0.827545 0.468750 0.014587
0.858826 0.473633 0.014984
0.889771 0.478851 0.014984
0.920227 0.484497 0.016174
0.949463 0.490631 0.019714
0.975433 0.497589 0.027771
0.996185 0.505707 0.042511
0.000793 0.302826 0.246277
0.004913 0.307587 0.246948
0.009460 0.312347 0.246185
0.013794 0.317078 0.244019
0.018127 0.321899 0.240387
0.022858 0.326599 0.235565
0.027985 0.329742 0.230682
0.033325 0.331940 0.224823
0.038818 0.333496 0.217346
0.046600 0.333099 0.203186
0.080750 0.333008 0.179321
0.131989 0.338257 0.155884
0.195190 0.348145 0.133820
0.264465 0.361481 0.112579
0.326813 0.376740 0.094574
0.383575 0.390137 0.079407
0.436401 0.400269 0.065277
0.488739 0.406494 0.048737
0.537506 0.409821 0.025116
0.583008 0.416656 0.010834
0.624939 0.426727 0.005524
0.663544 0.441071 0.007904
0.697571 0.455597 0.009674
0.730591 0.469055 0.011230
0.762787 0.480988 0.012817
0.794312 0.491699 0.014008
0.825867 0.497620 0.014984
0.857269 0.503113 0.015778
0.888489 0.508301 0.016174
0.919373 0.513367 0.016754
0.948792 0.519135 0.020294
0.975128 0.525604 0.028168
0.996368 0.533142 0.042511
0.000793 0.320374 0.261078
0.004913 0.325134 0.262268
0.009064 0.329742 0.262421
0.013794 0.334320 0.260895
0.018127 0.338959 0.257782
0.022858 0.343872 0.253326
0.027588 0.348267 0.248291
0.032928 0.350952 0.243073
0.038239 0.352844 0.236572
0.044281 0.353149 0.225311
0.053223 0.352173 0.207947
0.090881 0.352966 0.181915
0.146088 0.359589 0.157318
0.216797 0.372070 0.134521
0.286652 0.385712 0.112732
0.348999 0.401398 0.094116
0.405731 0.414642 0.077942
0.460175 0.424591 0.061768
0.513763 0.431152 0.044708
0.563751 0.434601 0.021851
0.610260 0.441315 0.008270
0.653717 0.452026 0.005127
0.693024 0.467102 0.007904
0.727570 0.482941 0.009857
0.760925 0.497772 0.011841
0.793396 0.512024 0.013397
0.824860 0.523895 0.014984
0.856110 0.531006 0.016174
0.887299 0.537231 0.016968
0.918182 0.542908 0.017548
0.948090 0.547943 0.020905
0.974731 0.554016 0.028564
0.996490 0.561035 0.042511
0.000793 0.337830 0.275787
0.004913 0.342651 0.277557
0.009247 0.347260 0.278259
0.013397 0.351715 0.277740
0.018127 0.356110 0.275238
0.022858 0.360992 0.271118
0.027588 0.365662 0.266266
0.032532 0.369751 0.261047
0.037842 0.372070 0.255402
0.043030 0.373047 0.246521
0.049988 0.372833 0.232788
0.059509 0.371368 0.212372
0.100830 0.373260 0.184479
0.166321 0.383057 0.158478
0.238770 0.396576 0.135437
0.308502 0.410187 0.113098
0.370758 0.426086 0.093628
0.428925 0.439545 0.076080
0.483887 0.449463 0.059143
0.539642 0.456909 0.042694
0.590668 0.460083 0.019684
0.638458 0.466461 0.007294
0.682617 0.477631 0.005127
0.722748 0.493469 0.008087
0.757843 0.510559 0.010468
0.791779 0.527557 0.012421
0.824371 0.542999 0.014404
0.855682 0.556091 0.015961
0.886597 0.564362 0.017151
0.917236 0.571625 0.018127
0.947052 0.577515 0.021484
0.974335 0.582703 0.028778
0.996521 0.589264 0.042328
0.000793 0.355347 0.290588
0.004913 0.360291 0.292969
0.009460 0.364929 0.294281
0.014008 0.369385 0.294342
0.018127 0.373688 0.292999
0.022858 0.378265 0.289154
0.027588 0.382965 0.284424
0.032532 0.387390 0.279144
0.037842 0.391174 0.273773
0.043030 0.392700 0.266724
0.048859 0.393188 0.256073
0.056152 0.392517 0.239990
0.065643 0.390656 0.216614
0.119263 0.395905 0.185852
0.187653 0.407471 0.159912
0.261078 0.421722 0.136597
0.329895 0.435028 0.113617
0.393402 0.451691 0.092957
0.451385 0.464691 0.074432
0.507812 0.475098 0.057922
0.566650 0.484009 0.043274
0.618256 0.485382 0.017914
0.666687 0.491974 0.007080
0.711670 0.503632 0.005707
0.752808 0.520264 0.008667
0.788666 0.539246 0.011047
0.822937 0.557465 0.013397
0.855621 0.574127 0.015381
0.886719 0.588440 0.016571
0.916901 0.598267 0.018341
0.946411 0.605957 0.022064
0.973541 0.612183 0.029358
0.996521 0.617737 0.041779
0.000793 0.373474 0.305817
0.004913 0.378448 0.309052
0.009460 0.383240 0.310883
0.014008 0.387726 0.311523
0.018127 0.391998 0.310791
0.022858 0.396362 0.308350
0.027588 0.401001 0.303802
0.032318 0.405609 0.298431
0.037262 0.409851 0.292603
0.042480 0.412445 0.286469
0.048035 0.413788 0.278717
0.054352 0.413910 0.266815
0.062195 0.412811 0.248962
0.079590 0.411865 0.219391
0.138000 0.419006 0.188354
0.209747 0.432281 0.162384
0.285187 0.448059 0.139252
0.356171 0.465088 0.117462
0.418396 0.480804 0.096008
0.475647 0.492737 0.076355
0.531891 0.502014 0.058350
0.590118 0.508179 0.038605
0.643738 0.510620 0.016754
0.693970 0.518005 0.007690
0.740540 0.530212 0.006317
0.783386 0.547668 0.008667
0.820068 0.567627 0.011047
0.854919 0.586853 0.013397
0.887970 0.604523 0.015381
0.918762 0.620270 0.018341
0.947754 0.630768 0.022858
0.974304 0.639130 0.030518
0.996613 0.646118 0.042877
0.000793 0.391541 0.320923
0.004913 0.396545 0.324402
0.009460 0.401398 0.327087
0.014008 0.405975 0.328217
0.018127 0.410248 0.328003
0.022858 0.414673 0.326294
0.027588 0.419281 0.323425
0.032318 0.424011 0.318359
0.037048 0.428619 0.312500
0.042267 0.431946 0.306030
0.047516 0.433990 0.299316
0.053406 0.435089 0.290588
0.060150 0.434906 0.277252
0.071594 0.433655 0.253845
0.092682 0.433777 0.221710
0.157166 0.442932 0.190796
0.233612 0.458038 0.165222
0.312866 0.478668 0.144470
0.382202 0.495514 0.122345
0.443146 0.510101 0.099945
0.499695 0.520844 0.079041
0.555939 0.528015 0.057648
0.613068 0.532501 0.036285
0.669067 0.536224 0.017365
0.721558 0.544647 0.009460
0.770599 0.557922 0.006683
0.814453 0.575867 0.008667
0.851959 0.596680 0.011230
0.887451 0.616760 0.013794
0.920502 0.635620 0.017944
0.950134 0.651886 0.024841
0.975708 0.662872 0.033691
0.996948 0.671783 0.046814
0.000793 0.409546 0.335785
0.004913 0.414581 0.339539
0.009460 0.419495 0.342499
0.014008 0.424164 0.344543
0.018127 0.428467 0.344788
0.022858 0.432922 0.343689
0.027588 0.437592 0.341583
0.032318 0.442444 0.338379
0.037048 0.447357 0.332916
0.042084 0.451508 0.326569
0.047363 0.454437 0.319824
0.052643 0.455963 0.312347
0.058807 0.456848 0.302490
0.066772 0.455719 0.284393
0.081024 0.455109 0.258179
0.105255 0.456451 0.223969
0.177155 0.467773 0.193634
0.262543 0.489227 0.171722
0.340179 0.509827 0.150879
0.407593 0.525909 0.128052
0.467316 0.539215 0.104645
0.523743 0.548126 0.081482
0.579132 0.553925 0.059052
0.635986 0.557434 0.037628
0.694824 0.562653 0.021057
0.750793 0.572754 0.012207
0.801086 0.586334 0.007477
0.846252 0.604767 0.009064
0.884644 0.626312 0.012024
0.920349 0.647308 0.017731
0.952301 0.666534 0.026031
0.977600 0.682953 0.038025
0.997406 0.694244 0.052734
0.000793 0.427490 0.350189
0.004913 0.432556 0.354218
0.009460 0.437469 0.357513
0.014008 0.442200 0.359894
0.018127 0.446686 0.361237
0.022858 0.451080 0.360626
0.027588 0.455780 0.359192
0.032318 0.460724 0.356812
0.037048 0.465912 0.353333
0.041718 0.471008 0.347565
0.046814 0.474915 0.341248
0.052124 0.477478 0.334076
0.057434 0.478516 0.325684
0.064423 0.477936 0.312073
0.074341 0.477081 0.290924
0.090881 0.477325 0.262390
0.117737 0.480072 0.226562
0.207092 0.499634 0.201355
0.290924 0.521210 0.179626
0.366730 0.541168 0.158356
0.431946 0.555939 0.134521
0.490814 0.567291 0.109436
0.546661 0.575104 0.085815
0.601990 0.580200 0.063904
0.659302 0.583344 0.044006
0.722961 0.591248 0.028168
0.780426 0.601501 0.015778
0.832245 0.615417 0.009064
0.878967 0.634338 0.010254
0.917694 0.656494 0.017944
0.952393 0.677704 0.027985
0.980103 0.696899 0.041595
0.997925 0.713013 0.059875
0.000793 0.445496 0.364594
0.004913 0.450623 0.368805
0.009460 0.455597 0.372345
0.014008 0.460327 0.374969
0.018127 0.464783 0.376465
0.022858 0.469360 0.376953
0.027588 0.474030 0.376343
0.032318 0.478973 0.374847
0.037048 0.484222 0.372345
0.041718 0.490082 0.368530
0.046814 0.495270 0.362671
0.052124 0.499176 0.356354
0.057434 0.501617 0.349274
0.063599 0.501892 0.339630
0.070435 0.500549 0.324097
0.080750 0.499451 0.300659
0.098236 0.499969 0.269409
0.143280 0.507172 0.233551
0.235413 0.530487 0.210358
0.319702 0.553680 0.189606
0.393585 0.573212 0.168304
0.455902 0.586182 0.143646
0.514252 0.596375 0.118744
0.569977 0.603363 0.095276
0.625610 0.607941 0.073517
0.684845 0.611664 0.059814
0.749420 0.619995 0.047485
0.808350 0.630890 0.037537
0.862213 0.645691 0.032135
0.911072 0.663940 0.032715
0.949493 0.685425 0.040009
0.979492 0.705688 0.052490
0.998077 0.723663 0.071350
0.000793 0.463379 0.378632
0.004913 0.468567 0.382935
0.009460 0.473694 0.386780
0.014008 0.478546 0.389740
0.018127 0.483093 0.391571
0.022858 0.487640 0.392365
0.027588 0.492371 0.392822
0.032135 0.497345 0.392181
0.036652 0.502594 0.390594
0.041718 0.508453 0.387848
0.046478 0.514557 0.383759
0.051941 0.519836 0.377930
0.057434 0.523712 0.371735
0.063324 0.525604 0.364044
0.069885 0.525543 0.353516
0.077057 0.523376 0.335999
0.088226 0.521973 0.310120
0.115204 0.525085 0.276520
0.172852 0.536102 0.242889
0.266449 0.562256 0.221344
0.349854 0.586212 0.201263
