filters/luts/lut8.cube
# Created by Benjamin (IWLTBAP): https://luts.iwltbap.com
# Copyright: (C) Copyright 2021 Triune Films and IWLTBAP SAS
# Cannot be resold, shared or otherwise redistributed
TITLE "Triune Films Superhero LUTs (Rec.709, sRGB, DCI-P3)"
LUT_3D_SIZE 5
0.001587 0.000793 0.001587
0.251587 0.007080 0.000793
0.493896 0.017334 0.002350
0.735962 0.026825 0.004730
0.971680 0.055573 0.036285
0.000000 0.138580 0.111847
0.247772 0.183502 0.056824
0.522461 0.205902 0.005524
0.770630 0.234741 0.008667
0.991516 0.310150 0.051025
0.000793 0.285126 0.231262
0.039429 0.314148 0.197968
0.464325 0.382721 0.054291
0.764160 0.459290 0.013397
0.996185 0.505707 0.042511
0.000793 0.427490 0.350189
0.037048 0.465912 0.353333
0.117737 0.480072 0.226562
0.659302 0.583344 0.044006
0.997925 0.713013 0.059875
0.000793 0.573639 0.458862
0.037048 0.618042 0.485016
0.079102 0.666565 0.486542
0.347809 0.732239 0.357758
0.889587 0.877380 0.284363
0.007111 0.044739 0.110413
0.215515 0.006317 0.185852
0.459442 0.007874 0.230591
0.717621 0.011841 0.251434
0.967590 0.059875 0.291992
0.002350 0.168427 0.203979
0.175812 0.197357 0.225525
0.520752 0.207977 0.177582
0.787231 0.204346 0.169128
0.991913 0.330780 0.267761
0.002350 0.294647 0.306793
0.036255 0.329437 0.296265
0.474365 0.416138 0.250671
0.777344 0.480469 0.205505
0.998260 0.520081 0.242310
0.002380 0.427094 0.411987
0.036255 0.461487 0.417236
0.129974 0.510620 0.379028
0.674377 0.618500 0.256073
0.999878 0.738068 0.262054
0.003174 0.576172 0.510925
0.037048 0.619019 0.532990
0.073669 0.670044 0.546753
0.378571 0.732727 0.482544
0.914246 0.905823 0.464752
0.003937 0.080994 0.215698
0.129974 0.063385 0.320709
0.393158 0.008667 0.387848
0.649567 0.015778 0.502045
0.945251 0.097137 0.636078
0.005524 0.213318 0.299255
0.110779 0.237030 0.355225
0.471680 0.193542 0.374725
0.759521 0.176697 0.416565
0.976440 0.404053 0.549377
0.006317 0.331238 0.388397
0.037842 0.361511 0.397461
0.469116 0.457458 0.452240
0.792236 0.492218 0.430664
0.998352 0.562653 0.492889
0.006287 0.453308 0.483521
0.037048 0.486053 0.490936
0.193329 0.551270 0.496429
0.729614 0.675232 0.478119
0.999939 0.753387 0.494141
0.005524 0.581696 0.560364
0.037048 0.627411 0.583832
0.073120 0.685059 0.611298
0.498993 0.782593 0.621552
0.955536 0.940491 0.644165
0.006317 0.127197 0.310974
0.071045 0.154663 0.439697
0.338135 0.009460 0.494751
0.590546 0.016571 0.571686
0.882507 0.056213 0.758850
0.007904 0.268066 0.402710
0.048981 0.294769 0.462891
0.343109 0.244354 0.540283
0.710419 0.198151 0.593292
0.967957 0.437286 0.740967
0.008667 0.376434 0.473969
0.039429 0.411804 0.495636
0.352814 0.472473 0.589478
0.780365 0.497559 0.600555
0.989929 0.656281 0.690765
0.010254 0.502045 0.562317
0.040222 0.543610 0.582092
0.264069 0.608032 0.610687
0.779968 0.732178 0.675476
0.999573 0.783691 0.706787
0.009460 0.630341 0.630432
0.040222 0.678589 0.660095
0.240540 0.731873 0.685394
0.648071 0.845642 0.737732
0.988831 0.970428 0.818390
0.008667 0.179810 0.399658
0.038635 0.252045 0.554962
0.260620 0.150208 0.635559
0.563660 0.023651 0.654663
0.866638 0.087402 0.811157
0.011047 0.336212 0.520966
0.040222 0.367493 0.570251
0.252472 0.335449 0.654846
0.659546 0.231598 0.714294
0.944641 0.428589 0.841431
0.011841 0.427795 0.566040
0.040985 0.470795 0.596802
0.273743 0.516235 0.681946
0.717285 0.516907 0.760315
0.975586 0.667358 0.856812
0.014984 0.548523 0.640717
0.046173 0.600891 0.672424
0.276337 0.666260 0.713959
0.771637 0.764709 0.822937
0.989624 0.846008 0.867218
0.015778 0.698120 0.721069
0.152039 0.757446 0.760376
0.426178 0.820435 0.797058
0.782593 0.917603 0.860535
0.992157 0.992371 0.939270
