filters/luts/lut9.cube
LUT_3D_SIZE 16
0.004544 0.003472 0.112989
0.030851 0.003472 0.112989
0.077608 0.003472 0.112989
0.141274 0.003472 0.112989
0.210998 0.003472 0.112989
0.285102 0.003472 0.112989
0.367257 0.003472 0.112989
0.454240 0.003472 0.112989
0.546920 0.003472 0.112989
0.640076 0.003472 0.112989
0.727802 0.003472 0.112989
0.803914 0.003472 0.112989
0.868817 0.003472 0.112989
0.925315 0.003472 0.112989
0.967072 0.003472 0.112989
0.999844 0.003472 0.112989
0.004544 0.024952 0.112989
0.030851 0.024596 0.112989
0.077608 0.021455 0.112989
0.141274 0.021121 0.112989
0.210998 0.021422 0.112989
0.285102 0.022546 0.112989
0.367257 0.023142 0.112989
0.454240 0.024301 0.112989
0.546920 0.025561 0.112989
0.640076 0.026594 0.112989
0.727802 0.027404 0.112989
0.803914 0.027211 0.112989
0.868817 0.026412 0.112989
0.925315 0.025255 0.112989
0.967072 0.024597 0.112989
0.999844 0.024062 0.112989
0.004544 0.065569 0.112989
0.027308 0.065569 0.112989
0.078569 0.064695 0.112989
0.142061 0.063820 0.112989
0.210998 0.065037 0.112989
0.285102 0.067736 0.112989
0.367257 0.070385 0.112989
0.454240 0.074094 0.112989
0.546920 0.078131 0.112989
0.640076 0.081423 0.112989
0.727802 0.082905 0.112989
0.803914 0.083348 0.112989
0.868817 0.081648 0.112989
0.925315 0.077985 0.112989
0.967072 0.075038 0.112989
0.999844 0.073322 0.112989
0.004544 0.123448 0.112989
0.026716 0.123448 0.112989
0.077608 0.123448 0.112989
0.142163 0.123448 0.112989
0.210998 0.124314 0.112989
0.285102 0.129642 0.112989
0.367257 0.134722 0.112989
0.454240 0.141084 0.112989
0.546920 0.147857 0.112989
0.640076 0.153279 0.112989
0.727802 0.156174 0.112989
0.803914 0.155363 0.112989
0.868817 0.152027 0.112989
0.925315 0.148106 0.112989
0.967072 0.142670 0.112989
0.999844 0.139792 0.112989
0.004544 0.188306 0.112989
0.027041 0.188306 0.112989
0.078569 0.188306 0.112989
0.143768 0.188306 0.112989
0.210998 0.187748 0.112989
0.285102 0.194153 0.112989
0.367257 0.201271 0.112989
0.454240 0.209763 0.112989
0.546920 0.218812 0.112989
0.640076 0.226024 0.112989
0.727802 0.229195 0.112989
0.803914 0.229164 0.112989
0.868817 0.225399 0.112989
0.925315 0.218427 0.112989
0.967072 0.211888 0.112989
0.999844 0.208020 0.112989
0.004544 0.258062 0.112989
0.027852 0.258062 0.112989
0.080516 0.258062 0.112989
0.147224 0.258062 0.112989
0.216360 0.257452 0.112989
0.285102 0.258723 0.112989
0.367257 0.267856 0.112989
0.454240 0.278478 0.112989
0.546920 0.289813 0.112989
0.640076 0.298830 0.112989
0.727802 0.303331 0.112989
0.803914 0.301975 0.112989
0.868817 0.296754 0.112989
0.925315 0.289817 0.112989
0.967072 0.281147 0.112989
0.999844 0.276294 0.112989
0.004544 0.333142 0.112989
0.028959 0.333142 0.112989
0.084460 0.333142 0.112989
0.154359 0.333142 0.112989
0.224925 0.333445 0.112989
0.293670 0.332667 0.112989
0.367257 0.334465 0.112989
0.454240 0.347251 0.112989
0.546920 0.360805 0.112989
0.640076 0.371681 0.112989
0.727802 0.377470 0.112989
0.803914 0.375831 0.112989
0.868817 0.370225 0.112989
0.925315 0.361250 0.112989
0.967072 0.350440 0.112989
0.999844 0.344596 0.112989
0.004544 0.413619 0.112989
0.030275 0.413619 0.112989
0.088456 0.413619 0.112989
0.160717 0.413619 0.112989
0.233103 0.413619 0.112989
0.305443 0.413926 0.112989
0.378678 0.413619 0.112989
0.454240 0.415994 0.112989
0.546920 0.431828 0.112989
0.640076 0.444514 0.112989
0.727802 0.450562 0.112989
0.803914 0.449697 0.112989
0.868817 0.442609 0.112989
0.925315 0.431662 0.112989
0.967072 0.419708 0.112989
0.999844 0.412968 0.112989
0.004544 0.499503 0.112989
0.031726 0.499503 0.112989
0.092545 0.499503 0.112989
0.167252 0.499503 0.112989
0.241674 0.499503 0.112989
0.318111 0.499503 0.112989
0.392578 0.499503 0.112989
0.467957 0.499503 0.112989
0.546920 0.502937 0.112989
0.640076 0.517402 0.112989
0.727802 0.524783 0.112989
0.803914 0.522613 0.112989
0.868817 0.514052 0.112989
0.925315 0.503195 0.112989
0.967072 0.489090 0.112989
0.999844 0.481334 0.112989
0.004544 0.587298 0.112989
0.033015 0.587298 0.112989
0.096690 0.587298 0.112989
0.173492 0.587298 0.112989
0.250674 0.587298 0.112989
0.326951 0.587298 0.112989
0.404809 0.587298 0.112989
0.482155 0.587298 0.112989
0.559528 0.587298 0.112989
0.640076 0.590279 0.112989
0.727528 0.598751 0.112989
0.803914 0.596509 0.112989
0.868817 0.587540 0.112989
0.925315 0.573620 0.112989
0.967072 0.558378 0.112989
0.999844 0.549682 0.112989
0.004544 0.671698 0.112989
0.033827 0.671698 0.112989
0.098784 0.671698 0.112989
0.176888 0.671698 0.112989
0.255072 0.671698 0.112989
0.333691 0.671698 0.112989
0.412424 0.671698 0.112989
0.491021 0.671698 0.112989
0.569727 0.671698 0.112989
0.648406 0.671698 0.112989
0.728109 0.672712 0.112989
0.803590 0.669583 0.112989
0.868817 0.660019 0.112989
0.925315 0.645007 0.112989
0.967072 0.627733 0.112989
0.999844 0.617991 0.112989
0.004544 0.748064 0.112989
0.033993 0.748064 0.112989
0.099835 0.748064 0.112989
0.177127 0.748064 0.112989
0.256536 0.748064 0.112989
0.334368 0.748064 0.112989
0.413875 0.748064 0.112989
0.492799 0.748064 0.112989
0.571678 0.748064 0.112989
0.650583 0.748064 0.112989
0.730044 0.748064 0.112989
0.804741 0.743848 0.112989
0.868817 0.731326 0.112989
0.925315 0.716617 0.112989
0.967072 0.697029 0.112989
0.999844 0.686469 0.112989
0.004544 0.812989 0.112989
0.033482 0.812989 0.112989
0.097727 0.812989 0.112989
0.175291 0.812989 0.112989
0.253967 0.812989 0.112989
0.332018 0.812989 0.112989
0.409174 0.812989 0.112989
0.487235 0.812989 0.112989
0.565387 0.812989 0.112989
0.643503 0.812989 0.112989
0.721687 0.812989 0.112989
0.799796 0.812989 0.112989
0.868817 0.804804 0.112989
0.925315 0.786988 0.112989
0.967072 0.766347 0.112989
0.999844 0.754732 0.112989
0.004544 0.869005 0.112989
0.032567 0.869005 0.112989
0.094595 0.869005 0.112989
0.170681 0.869005 0.112989
0.247537 0.869005 0.112989
0.324192 0.869005 0.112989
0.400616 0.869005 0.112989
0.477241 0.869005 0.112989
0.553964 0.869005 0.112989
0.630688 0.869005 0.112989
0.707053 0.869005 0.112989
0.784833 0.869005 0.112989
0.860262 0.869035 0.112989
0.925315 0.858485 0.112989
0.967072 0.835780 0.112989
0.999844 0.823172 0.112989
0.004544 0.917672 0.112989
0.031460 0.917672 0.112989
0.091512 0.917672 0.112989
0.165758 0.917672 0.112989
0.240237 0.917672 0.112989
0.315131 0.917672 0.112989
0.390092 0.917672 0.112989
0.464978 0.917672 0.112989
0.539914 0.917672 0.112989
0.614860 0.917672 0.112989
0.689821 0.917672 0.112989
0.764739 0.917672 0.112989
0.839948 0.918514 0.112989
0.914250 0.917368 0.112989
0.967072 0.904951 0.112989
0.999844 0.891334 0.112989
0.004544 0.959839 0.112989
0.030210 0.959839 0.112989
0.087457 0.959839 0.112989
0.159535 0.959839 0.112989
0.232444 0.959839 0.112989
0.304312 0.959839 0.112989
0.378058 0.959839 0.112989
0.450972 0.959839 0.112989
0.523875 0.959839 0.112989
0.596838 0.959839 0.112989
0.669482 0.959839 0.112989
0.742367 0.959839 0.112989
0.815765 0.959839 0.112989
0.887774 0.959839 0.112989
0.955848 0.959839 0.112989
0.999844 0.959839 0.112989
0.004544 0.003472 0.147125
0.030851 0.003472 0.145342
0.077608 0.003472 0.141572
0.141274 0.003472 0.141373
0.210998 0.003472 0.141228
0.285102 0.003472 0.141818
0.367257 0.003472 0.143612
0.454240 0.003472 0.144998
0.546920 0.003472 0.146474
0.640076 0.003472 0.147667
0.727802 0.003472 0.148059
0.803914 0.003472 0.148461
0.868817 0.003472 0.147724
0.925315 0.003472 0.147092
0.967072 0.003472 0.145343
0.999844 0.003472 0.144714
0.004544 0.024952 0.145766
0.030851 0.024932 0.147125
0.077608 0.024952 0.146557
0.141274 0.024334 0.147125
0.210998 0.023867 0.147125
0.285102 0.023989 0.147125
0.367257 0.024459 0.147125
0.454240 0.024581 0.147125
0.546920 0.024723 0.147125
0.640076 0.024840 0.147125
0.727802 0.024723 0.147125
0.803914 0.024840 0.147125
0.868817 0.024394 0.147125
0.925315 0.024959 0.147125
0.967072 0.024394 0.147125
0.999844 0.024362 0.147125
0.004544 0.065569 0.141776
0.030213 0.065569 0.147125
0.078569 0.064695 0.147331
0.141350 0.064695 0.147125
0.210998 0.066675 0.147125
0.285102 0.067897 0.147125
0.367257 0.071167 0.147125
0.454240 0.074263 0.147125
0.546920 0.077649 0.147125
0.640076 0.080408 0.147125
0.727802 0.082406 0.147125
0.803914 0.081363 0.147125
0.868817 0.080572 0.147125
0.925315 0.077228 0.147125
0.967072 0.074919 0.147125
0.999844 0.073504 0.147125
0.004544 0.123448 0.141166
0.029973 0.123448 0.147125
0.078569 0.123448 0.146723
0.140968 0.123448 0.147125
0.210998 0.124779 0.147125
0.285102 0.129755 0.147125
0.367257 0.135183 0.147125
0.454240 0.141196 0.147125
0.546920 0.147575 0.147125
0.640076 0.152678 0.147125
0.727802 0.155896 0.147125
0.803914 0.154751 0.147125
0.868817 0.150933 0.147125
0.925315 0.147176 0.147125
0.967072 0.142613 0.147125
0.999844 0.139895 0.147125
0.004544 0.188306 0.141499
0.029913 0.188306 0.147125
0.079543 0.188306 0.147856
0.144095 0.188306 0.147125
0.210998 0.188007 0.147125
0.285102 0.194234 0.147125
0.367257 0.201535 0.147125
0.454240 0.209827 0.147125
0.546920 0.218649 0.147125
0.640076 0.225678 0.147125
0.727802 0.229063 0.147125
0.803914 0.227759 0.147125
0.868817 0.224339 0.147125
0.925315 0.218493 0.147125
0.967072 0.211843 0.147125
0.999844 0.208089 0.147125
0.004544 0.258062 0.142335
0.029969 0.258062 0.147125
0.081494 0.258062 0.147889
0.148455 0.258062 0.147125
0.217442 0.258665 0.147125
0.285102 0.258786 0.147125
0.367257 0.268026 0.147125
0.454240 0.278559 0.147125
0.546920 0.289738 0.147125
0.640076 0.298618 0.147125
0.727802 0.303257 0.147125
0.803914 0.301751 0.147125
0.868817 0.296745 0.147125
0.925315 0.289877 0.147125
0.967072 0.281140 0.147125
0.999844 0.276350 0.147125
0.004544 0.333142 0.143463
0.030095 0.333142 0.147125
0.084460 0.333142 0.146640
0.153999 0.333142 0.147125
0.224925 0.333500 0.147125
0.293670 0.332778 0.147125
0.367257 0.334539 0.147125
0.454240 0.347336 0.147125
0.546920 0.360799 0.147125
0.640076 0.371520 0.147125
0.727802 0.377464 0.147125
0.803914 0.375682 0.147125
0.868817 0.370189 0.147125
0.925315 0.360260 0.147125
0.967072 0.350416 0.147125
0.999844 0.344621 0.147125
0.004544 0.413619 0.144769
0.030265 0.413619 0.147125
0.088456 0.413619 0.147154
0.160693 0.413619 0.147125
0.233047 0.413619 0.147125
0.305443 0.412956 0.147125
0.378628 0.413619 0.147125
0.454240 0.416066 0.147125
0.546920 0.431836 0.147125
0.640076 0.444468 0.147125
0.727802 0.450571 0.147125
0.803914 0.448613 0.147125
0.868817 0.441568 0.147125
0.925315 0.431693 0.147125
0.967072 0.419693 0.147125
0.999844 0.412982 0.147125
0.004544 0.499503 0.146197
0.030472 0.499503 0.147125
0.091512 0.499503 0.147788
0.166388 0.499503 0.147125
0.241598 0.499503 0.147125
0.318033 0.499503 0.147125
0.392559 0.499503 0.147125
0.467875 0.499503 0.147125
0.546920 0.502940 0.147125
0.640076 0.517375 0.147125
0.727802 0.524756 0.147125
0.803914 0.522585 0.147125
0.868817 0.514049 0.147125
0.925315 0.503200 0.147125
0.967072 0.489087 0.147125
0.999844 0.481357 0.147125
0.004544 0.587298 0.147446
0.030662 0.587298 0.147125
0.095639 0.587298 0.147446
0.172023 0.587298 0.147125
0.250451 0.587298 0.147125
0.326825 0.587298 0.147125
0.404585 0.587298 0.147125
0.482025 0.587298 0.147125
0.559483 0.587298 0.147125
0.640076 0.590307 0.147125
0.727489 0.598751 0.147125
0.803914 0.596538 0.147125
0.868817 0.587544 0.147125
0.925315 0.573634 0.147125
0.967072 0.558383 0.147125
0.999844 0.549702 0.147125
0.004544 0.671698 0.148231
0.030774 0.671698 0.147125
0.096690 0.671698 0.146646
0.175409 0.671698 0.147125
0.254779 0.671698 0.147125
0.333514 0.671698 0.147125
0.412120 0.671698 0.147125
0.490881 0.671698 0.147125
0.569604 0.671698 0.147125
0.648327 0.671698 0.147125
0.727966 0.671698 0.147125
0.803499 0.669583 0.147125
0.868817 0.660028 0.147125
0.925315 0.645018 0.147125
0.967072 0.627742 0.147125
0.999844 0.618002 0.147125
0.004544 0.748064 0.148376
0.030759 0.748064 0.147125
0.097727 0.748064 0.147585
0.176446 0.748064 0.147125
0.255159 0.748064 0.147125
0.335192 0.748064 0.147125
0.413582 0.748064 0.147125
0.492519 0.748064 0.147125
0.571545 0.748064 0.147125
0.650396 0.748064 0.147125
0.729883 0.748064 0.147125
0.804605 0.743848 0.147125
0.868817 0.731359 0.147125
0.925315 0.716630 0.147125
0.967072 0.697051 0.147125
0.999844 0.686477 0.147125
0.004544 0.812989 0.147895
0.030604 0.812989 0.147125
0.096690 0.812989 0.147895
0.174082 0.812989 0.147125
0.252606 0.812989 0.147125
0.330759 0.812989 0.147125
0.408878 0.812989 0.147125
0.487019 0.812989 0.147125
0.565228 0.812989 0.147125
0.643412 0.812989 0.147125
0.721481 0.812989 0.147125
0.799691 0.812989 0.147125
0.868817 0.804826 0.147125
0.925315 0.786992 0.147125
0.967072 0.766368 0.147125
0.999844 0.754736 0.147125
0.004544 0.869005 0.147019
0.030374 0.869005 0.147125
0.093566 0.869005 0.147813
0.169449 0.869005 0.147125
0.247293 0.869005 0.147125
0.323994 0.869005 0.147125
0.400393 0.869005 0.147125
0.477068 0.869005 0.147125
0.553867 0.869005 0.147125
0.630507 0.869005 0.147125
0.706950 0.869005 0.147125
0.784657 0.869005 0.147125
0.860262 0.867994 0.147125
0.925315 0.858485 0.147125
0.967072 0.835811 0.147125
0.999844 0.823172 0.147125
0.004544 0.917672 0.145936
0.030141 0.917672 0.147125
0.090494 0.917672 0.147527
0.164780 0.917672 0.147125
0.239011 0.917672 0.147125
0.313939 0.917672 0.147125
0.389959 0.917672 0.147125
0.464853 0.917672 0.147125
0.539781 0.917672 0.147125
0.614777 0.917672 0.147125
0.689627 0.917672 0.147125
0.764674 0.917672 0.147125
0.839948 0.918457 0.147125
0.914250 0.917364 0.147125
0.967072 0.904991 0.147125
0.999844 0.891329 0.147125
0.004544 0.959839 0.144714
0.029972 0.959839 0.147125
0.087457 0.959839 0.147887
0.159166 0.959839 0.147125
0.232422 0.959839 0.147125
0.304261 0.959839 0.147125
0.378031 0.959839 0.147125
0.450926 0.959839 0.147125
0.523860 0.959839 0.147125
0.596809 0.959839 0.147125
0.669436 0.959839 0.147125
0.742411 0.959839 0.147125
0.815719 0.959839 0.147125
0.887774 0.959839 0.147125
0.955803 0.959839 0.147125
0.999844 0.959839 0.147125
0.004544 0.003472 0.185835
0.027982 0.003472 0.185835
0.078569 0.003472 0.184231
0.142080 0.003472 0.183454
0.210998 0.003472 0.183464
0.285102 0.003472 0.185542
0.367257 0.003472 0.188222
0.454240 0.003472 0.191090
0.546920 0.003472 0.194171
0.640076 0.003472 0.196616
0.727802 0.003472 0.197342
0.803914 0.003472 0.197407
0.868817 0.003472 0.195771
0.925315 0.003472 0.194483
0.967072 0.003472 0.191824
0.999844 0.003472 0.190508
0.004544 0.022205 0.185835
0.030711 0.024952 0.185835
0.078569 0.024545 0.185033
0.141056 0.024952 0.185835
0.210998 0.024952 0.186763
0.285102 0.024952 0.188209
0.367257 0.024952 0.189934
0.454240 0.024952 0.192169
0.546920 0.024952 0.194566
0.640076 0.024952 0.196494
0.727802 0.024952 0.197735
0.803913 0.024952 0.197285
0.868817 0.024952 0.196043
0.925315 0.024952 0.194216
0.967071 0.024952 0.192870
0.999844 0.024952 0.191828
0.004544 0.065569 0.184375
0.030851 0.065569 0.185333
0.077608 0.064695 0.185182
0.141274 0.065569 0.185333
0.210998 0.065919 0.185835
0.285102 0.065519 0.185835
0.367257 0.065919 0.185835
0.454240 0.066403 0.185835
0.546920 0.066956 0.185835
0.640076 0.067417 0.185835
0.727802 0.066956 0.185835
0.803914 0.067417 0.185835
0.868817 0.066569 0.185835
0.925315 0.066429 0.185835
0.967072 0.065683 0.185835
0.999844 0.065550 0.185835
0.004544 0.123448 0.183106
0.030851 0.123448 0.185534
0.076643 0.123448 0.184686
0.141274 0.123448 0.186318
0.210998 0.124941 0.185835
0.285102 0.128310 0.185835
0.367257 0.132221 0.185835
0.454240 0.136637 0.185835
0.546920 0.141345 0.185835
0.640076 0.145137 0.185835
0.727802 0.147588 0.185835
0.803914 0.146174 0.185835
0.868817 0.144144 0.185835
0.925315 0.141099 0.185835
0.967072 0.136853 0.185835
0.999844 0.134860 0.185835
0.004544 0.188306 0.183811
0.030851 0.188306 0.186461
0.077608 0.188306 0.184612
0.143418 0.188306 0.185682
0.210998 0.187534 0.185835
0.285102 0.192692 0.185835
0.367257 0.200048 0.185835
0.454240 0.207251 0.185835
0.546920 0.214952 0.185835
0.640076 0.221090 0.185835
0.727802 0.224332 0.185835
0.803914 0.223165 0.185835
0.868817 0.219579 0.185835
0.925315 0.214184 0.185835
0.967072 0.208151 0.185835
0.999844 0.204823 0.185835
0.004544 0.258062 0.185564
0.030851 0.258062 0.187940
0.077608 0.258062 0.184762
0.146632 0.258062 0.185563
0.216360 0.258063 0.185835
0.285102 0.258412 0.185835
0.367257 0.267435 0.185835
0.454240 0.277134 0.185835
0.546920 0.287464 0.185835
0.640076 0.295656 0.185835
0.727802 0.299940 0.185835
0.803914 0.298783 0.185835
0.868817 0.294140 0.185835
0.925315 0.286529 0.185835
0.967072 0.278533 0.185835
0.999844 0.274034 0.185835
0.004544 0.333142 0.187905
0.030851 0.333142 0.189791
0.077608 0.333142 0.184720
0.150913 0.333142 0.185818
0.222778 0.333535 0.185835
0.293670 0.333169 0.185835
0.367257 0.334574 0.185835
0.454240 0.346695 0.185835
0.546920 0.359470 0.185835
0.640076 0.369645 0.185835
0.727802 0.375070 0.185835
0.803914 0.372772 0.185835
0.868817 0.366215 0.185835
0.925315 0.358550 0.185835
0.967072 0.348535 0.185835
0.999844 0.342945 0.185835
0.004544 0.413619 0.190626
0.030851 0.413619 0.191893
0.078569 0.413619 0.185076
0.155194 0.413619 0.185541
0.230283 0.413619 0.185835
0.303302 0.412953 0.185835
0.378012 0.413619 0.185835
0.454240 0.416063 0.185835
0.546920 0.431261 0.185835
0.640076 0.443343 0.185835
0.727802 0.448941 0.185835
0.803914 0.447485 0.185835
0.868817 0.440144 0.185835
0.925315 0.430402 0.185835
0.967072 0.418284 0.185835
0.999844 0.411676 0.185835
0.004544 0.499503 0.193590
0.030851 0.499503 0.194171
0.079543 0.499503 0.185663
0.160536 0.499503 0.185421
0.238191 0.499503 0.185835
0.314271 0.499503 0.185835
0.391270 0.499503 0.185835
0.467345 0.499503 0.185835
0.546920 0.502906 0.185835
0.640076 0.516850 0.185835
0.727802 0.523705 0.185835
0.803914 0.522062 0.185835
0.868817 0.512954 0.185835
0.925315 0.502182 0.185835
0.967072 0.487975 0.185835
0.999844 0.480344 0.185835
0.004544 0.587298 0.196182
0.030851 0.587298 0.196157
0.080516 0.587298 0.185066
0.164815 0.587298 0.185849
0.245358 0.587298 0.185835
0.323598 0.587298 0.185835
0.402739 0.587298 0.185835
0.480949 0.587298 0.185835
0.559026 0.587298 0.185835
0.640076 0.590277 0.185835
0.727013 0.597690 0.185835
0.803914 0.595460 0.185835
0.868817 0.585681 0.185835
0.925315 0.573896 0.185835
0.967072 0.557598 0.185835
0.999844 0.548924 0.185835
0.004544 0.671698 0.197796
0.030851 0.671698 0.197410
0.080516 0.671698 0.185101
0.166970 0.671698 0.186315
0.249203 0.671698 0.185835
0.329839 0.671698 0.185835
0.409761 0.671698 0.185835
0.489324 0.671698 0.185835
0.568700 0.671698 0.185835
0.647890 0.671698 0.185835
0.727053 0.672711 0.185835
0.803107 0.669583 0.185835
0.868817 0.659375 0.185835
0.925315 0.644467 0.185835
0.967072 0.627113 0.185835
0.999844 0.617446 0.185835
0.004544 0.748064 0.198094
0.030851 0.748064 0.197688
0.080516 0.748064 0.185411
0.168041 0.748064 0.185768
0.250379 0.748064 0.185835
0.330184 0.748064 0.185835
0.410922 0.748064 0.185835
0.490753 0.748064 0.185835
0.570328 0.748064 0.185835
0.649727 0.748064 0.185835
0.728721 0.748064 0.185835
0.804949 0.743848 0.185835
0.868817 0.732027 0.185835
0.925315 0.716105 0.185835
0.967072 0.696666 0.185835
0.999844 0.686067 0.185835
0.004544 0.812989 0.197087
0.030851 0.812989 0.196934
0.079543 0.812989 0.185183
0.165900 0.812989 0.186599
0.246719 0.812989 0.185835
0.327801 0.812989 0.185835
0.406196 0.812989 0.185835
0.485139 0.812989 0.185835
0.563865 0.812989 0.185835
0.642452 0.812989 0.185835
0.721178 0.812989 0.185835
0.799832 0.812989 0.185835
0.868817 0.804583 0.185835
0.925315 0.786597 0.185835
0.967072 0.766028 0.185835
0.999844 0.754333 0.185835
0.004544 0.869005 0.195293
0.030851 0.869005 0.195576
0.079543 0.869005 0.185754
0.162687 0.869005 0.185262
0.241574 0.869005 0.185835
0.320021 0.869005 0.185835
0.397855 0.869005 0.185835
0.475248 0.869005 0.185835
0.552467 0.869005 0.185835
0.629570 0.869005 0.185835
0.706563 0.869005 0.185835
0.783732 0.869005 0.185835
0.860262 0.867941 0.185835
0.925315 0.858385 0.185835
0.967072 0.835699 0.185835
0.999844 0.823021 0.185835
0.004544 0.917672 0.193064
0.030851 0.917672 0.193894
0.078569 0.917672 0.185122
0.158406 0.917672 0.185962
0.235629 0.917672 0.185835
0.312221 0.917672 0.185835
0.387631 0.917672 0.185835
0.463167 0.917672 0.185835
0.538500 0.917672 0.185835
0.613812 0.917672 0.185835
0.689464 0.917672 0.185835
0.763647 0.917672 0.185835
0.838825 0.918478 0.185835
0.913224 0.917340 0.185835
0.967072 0.905011 0.185835
0.999844 0.891340 0.185835
0.004544 0.959839 0.190508
0.030851 0.959839 0.191976
0.077608 0.959839 0.184961
0.154121 0.959839 0.186413
0.228448 0.959839 0.185835
0.302863 0.959839 0.185835
0.376170 0.959839 0.185835
0.449499 0.959839 0.185835
0.522768 0.959839 0.185835
0.595962 0.959839 0.185835
0.668314 0.959839 0.185835
0.742605 0.959839 0.185835
0.815655 0.959839 0.185835
0.887774 0.959839 0.185835
0.955738 0.959839 0.185835
0.999844 0.959839 0.185835
0.004544 0.003472 0.226995
0.027069 0.003472 0.226995
0.078569 0.003472 0.226995
0.141671 0.003472 0.226215
0.210998 0.003472 0.227190
0.285102 0.003472 0.229158
0.367257 0.003472 0.233547
0.454240 0.003472 0.237895
0.546920 0.003472 0.242517
0.640076 0.003472 0.246228
0.727802 0.003472 0.248075
0.803914 0.003472 0.247819
0.868817 0.003472 0.245329
0.925315 0.003472 0.242565
0.967072 0.003472 0.238977
0.999844 0.003472 0.237012
0.004544 0.021449 0.226995
0.030641 0.024952 0.226995
0.078569 0.024945 0.226995
0.140946 0.024952 0.226215
0.210998 0.024952 0.227345
0.285102 0.024952 0.230575
0.367257 0.024952 0.234500
0.454240 0.024952 0.238515
0.546920 0.024952 0.242768
0.640076 0.024952 0.246174
0.727802 0.024952 0.247532
0.803913 0.024952 0.247759
0.868817 0.024952 0.245142
0.925315 0.024952 0.242530
0.967071 0.024952 0.239589
0.999844 0.024952 0.237766
0.004544 0.064944 0.226995
0.030851 0.066080 0.226995
0.078569 0.065822 0.226995
0.141274 0.065199 0.226995
0.210998 0.065569 0.227542
0.285102 0.065569 0.230049
0.367257 0.065569 0.232296
0.454240 0.065569 0.234815
0.546920 0.065569 0.237538
0.640076 0.065569 0.239706
0.727802 0.065569 0.240711
0.803914 0.065569 0.240499
0.868817 0.065569 0.239656
0.925315 0.065569 0.238425
0.967072 0.065569 0.235678
0.999844 0.065569 0.234462
0.004544 0.123448 0.225841
0.030851 0.123448 0.226452
0.077608 0.123448 0.226642
0.141274 0.123448 0.227239
0.210998 0.122896 0.226995
0.285102 0.123874 0.226995
0.367257 0.124972 0.226995
0.454240 0.125959 0.226995
0.546920 0.127039 0.226995
0.640076 0.127911 0.226995
0.727802 0.128076 0.226995
0.803914 0.127911 0.226995
0.868817 0.127562 0.226995
0.925315 0.125207 0.226995
0.967072 0.124443 0.226995
0.999844 0.124161 0.226995
0.004544 0.188306 0.226918
0.030851 0.188306 0.228100
0.077608 0.188306 0.227703
0.141274 0.188306 0.226528
0.210998 0.188062 0.226995
0.285102 0.192023 0.226995
0.367257 0.196386 0.226995
0.454240 0.201384 0.226995
0.546920 0.206797 0.226995
0.640076 0.211057 0.226995
0.727802 0.213033 0.226995
0.803914 0.213127 0.226995
0.868817 0.209749 0.226995
0.925315 0.205362 0.226995
0.967072 0.200376 0.226995
0.999844 0.198069 0.226995
0.004544 0.258062 0.229559
0.030851 0.258062 0.230741
0.077608 0.258062 0.229559
0.142350 0.258062 0.226786
0.215277 0.258578 0.226995
0.285102 0.258314 0.226995
0.367257 0.265863 0.226995
0.454240 0.273924 0.226995
0.546920 0.282514 0.226995
0.640076 0.289296 0.226995
0.727802 0.292917 0.226995
0.803914 0.290343 0.226995
0.868817 0.286678 0.226995
0.925315 0.279756 0.226995
0.967072 0.273148 0.226995
0.999844 0.269349 0.226995
0.004544 0.333142 0.233077
0.030851 0.333142 0.234090
0.077608 0.333142 0.231487
0.143418 0.333142 0.226946
0.219577 0.333458 0.226995
0.292600 0.333830 0.226995
0.367257 0.334506 0.226995
0.454240 0.345261 0.226995
0.546920 0.356615 0.226995
0.640076 0.365589 0.226995
0.727802 0.370141 0.226995
0.803914 0.367677 0.226995
0.868817 0.362341 0.226995
0.925315 0.354041 0.226995
0.967072 0.344601 0.226995
0.999844 0.339475 0.226995
0.004544 0.413619 0.237195
0.030851 0.413619 0.237892
0.077608 0.413619 0.234016
0.144489 0.413619 0.226780
0.224780 0.413619 0.226995
0.301177 0.413860 0.226995
0.376795 0.413619 0.226995
0.454240 0.415927 0.226995
