filters/luts/lut9.cube
LUT_3D_SIZE 6
0.004544 0.003472 0.112989
0.141274 0.003472 0.112989
0.367257 0.003472 0.112989
0.640076 0.003472 0.112989
0.868817 0.003472 0.112989
0.999844 0.003472 0.112989
0.004544 0.123448 0.112989
0.142163 0.123448 0.112989
0.367257 0.134722 0.112989
0.640076 0.153279 0.112989
0.868817 0.152027 0.112989
0.999844 0.139792 0.112989
0.004544 0.333142 0.112989
0.154359 0.333142 0.112989
0.367257 0.334465 0.112989
0.640076 0.371681 0.112989
0.868817 0.370225 0.112989
0.999844 0.344596 0.112989
0.004544 0.587298 0.112989
0.173492 0.587298 0.112989
0.404809 0.587298 0.112989
0.640076 0.590279 0.112989
0.868817 0.587540 0.112989
0.999844 0.549682 0.112989
0.004544 0.812989 0.112989
0.175291 0.812989 0.112989
0.409174 0.812989 0.112989
0.643503 0.812989 0.112989
0.868817 0.804804 0.112989
0.999844 0.754732 0.112989
0.004544 0.959839 0.112989
0.159535 0.959839 0.112989
0.378058 0.959839 0.112989
0.596838 0.959839 0.112989
0.815765 0.959839 0.112989
0.999844 0.959839 0.112989
0.004544 0.003472 0.226995
0.141671 0.003472 0.226215
0.367257 0.003472 0.233547
0.640076 0.003472 0.246228
0.868817 0.003472 0.245329
0.999844 0.003472 0.237012
0.004544 0.123448 0.225841
0.141274 0.123448 0.227239
0.367257 0.124972 0.226995
0.640076 0.127911 0.226995
0.868817 0.127562 0.226995
0.999844 0.124161 0.226995
0.004544 0.333142 0.233077
0.143418 0.333142 0.226946
0.367257 0.334506 0.226995
0.640076 0.365589 0.226995
0.868817 0.362341 0.226995
0.999844 0.339475 0.226995
0.004544 0.587298 0.245565
0.147702 0.587298 0.227309
0.398784 0.587298 0.226995
0.640076 0.590120 0.226995
0.868817 0.584033 0.226995
0.999844 0.547375 0.226995
0.004544 0.812989 0.246949
0.146632 0.812989 0.226237
0.400860 0.812989 0.226995
0.640688 0.812989 0.226995
0.868817 0.805106 0.226995
0.999844 0.753722 0.226995
0.004544 0.959839 0.237012
0.142350 0.959839 0.225926
0.372494 0.959839 0.226995
0.594344 0.959839 0.226995
0.814311 0.959839 0.226995
0.999844 0.959839 0.226995
0.004544 0.003472 0.366999
0.151651 0.003472 0.366999
0.367257 0.003472 0.370229
0.640076 0.003472 0.395620
0.868817 0.003472 0.394543
0.999844 0.003472 0.377143
0.004544 0.132382 0.366999
0.142350 0.122652 0.366999
0.367257 0.123448 0.370074
0.640076 0.123448 0.389871
0.868817 0.123448 0.388069
0.999844 0.123448 0.373598
0.004544 0.333142 0.369262
0.141274 0.333142 0.368653
0.367257 0.333460 0.366999
0.640076 0.339210 0.366999
0.868817 0.335923 0.366999
0.999844 0.329025 0.366999
0.004544 0.587298 0.394236
0.141274 0.587298 0.387952
0.374507 0.587298 0.366999
0.640076 0.588958 0.366999
0.868817 0.575797 0.366999
0.999844 0.542762 0.366999
0.004544 0.812989 0.397055
0.141274 0.812989 0.389926
0.371555 0.812989 0.366999
0.631366 0.812989 0.366999
0.868817 0.804178 0.366999
0.999844 0.751976 0.366999
0.004544 0.959839 0.377143
0.141274 0.959839 0.373463
0.361169 0.959840 0.366999
0.589321 0.959840 0.366999
0.811637 0.959840 0.366999
0.999844 0.959840 0.366999
0.004544 0.003472 0.535700
0.169036 0.003472 0.535700
0.397116 0.003472 0.535700
0.640076 0.003472 0.545144
0.868817 0.003472 0.543203
0.999844 0.003472 0.517394
0.004544 0.148674 0.535700
0.143418 0.123423 0.535700
0.391351 0.123448 0.535700
0.640076 0.123448 0.544510
0.868817 0.123448 0.540689
0.999844 0.123448 0.515859
0.004544 0.362432 0.535700
0.141274 0.356101 0.535700
0.368765 0.333142 0.535700
0.640076 0.333142 0.539778
0.868817 0.333142 0.532424
0.999844 0.333142 0.514667
0.004544 0.587298 0.543128
0.141274 0.587298 0.543208
0.367257 0.587298 0.538734
0.640076 0.587287 0.535700
0.868817 0.577316 0.535700
0.999844 0.565909 0.535700
0.004544 0.812989 0.547337
0.141274 0.812989 0.544182
0.367257 0.812989 0.534922
0.628759 0.812989 0.535700
0.868817 0.804302 0.535700
0.999844 0.761004 0.535700
0.004544 0.959839 0.517394
0.141274 0.959839 0.515988
0.367257 0.959839 0.515616
0.610953 0.959839 0.535700
0.819992 0.959839 0.535700
0.999844 0.959839 0.535700
0.004544 0.003472 0.707708
0.178693 0.003472 0.707708
0.417001 0.003472 0.707708
0.655248 0.003472 0.707708
0.868817 0.003472 0.691798
0.999844 0.003472 0.657653
0.004544 0.157986 0.707708
0.143418 0.122735 0.707708
0.406988 0.123448 0.707708
0.652235 0.123448 0.707708
0.868817 0.123448 0.691328
0.999844 0.123448 0.657115
0.004544 0.381146 0.707708
0.141274 0.370392 0.707708
0.369238 0.333142 0.707708
0.642582 0.333142 0.707708
0.868817 0.333142 0.689816
0.999844 0.333142 0.656778
0.004544 0.604462 0.707708
0.141274 0.602229 0.707708
0.367257 0.590414 0.707708
0.638592 0.587298 0.707708
0.868817 0.587298 0.695119
0.999844 0.587298 0.676931
0.004544 0.812989 0.697656
0.141274 0.812989 0.696827
0.367257 0.812989 0.695640
0.640076 0.812989 0.699746
0.868817 0.810123 0.707708
0.999844 0.797492 0.707708
0.004544 0.959839 0.657653
0.141274 0.959839 0.657030
0.367257 0.959839 0.657287
0.640076 0.959839 0.681209
0.850636 0.959839 0.707708
0.999844 0.959839 0.707708
0.004544 0.003472 0.823755
0.167486 0.003472 0.823755
0.394133 0.003472 0.823755
0.620957 0.003472 0.823755
0.847822 0.003472 0.823639
0.999844 0.003472 0.797978
0.004544 0.147292 0.823755
0.142350 0.123207 0.823755
0.386163 0.123448 0.823755
0.617429 0.123448 0.823755
0.846473 0.123448 0.823655
0.999844 0.123448 0.798052
0.004544 0.359718 0.823755
0.141274 0.352306 0.823755
0.366615 0.333142 0.823755
0.609336 0.333142 0.823755
0.842876 0.333142 0.823910
0.999844 0.333142 0.798326
0.004544 0.572268 0.823755
0.141274 0.568050 0.823755
0.367257 0.561239 0.823755
0.633489 0.587298 0.823755
0.848027 0.587298 0.824292
0.999844 0.587298 0.804429
0.004544 0.784826 0.823755
0.141274 0.783715 0.823755
0.367257 0.780902 0.823755
0.640076 0.789477 0.823755
0.866998 0.811971 0.824021
0.999844 0.812989 0.818913
0.004544 0.959839 0.797978
0.141274 0.959839 0.798063
0.367257 0.959839 0.798497
0.640076 0.959839 0.805709
0.868963 0.959839 0.820552
0.999844 0.959839 0.823755
