filters/luts/Suburbs 04.cube
# Created by: Adobe Photoshop Export Color Lookup Plugin
# LUT by SparkleStock. Enhanced with VOXCOLOR algorithms.
LUT_3D_SIZE 5
DOMAIN_MIN 0.000000 0.000000 0.000000
DOMAIN_MAX 0.903226 0.903226 0.903226
0.046886 0.082051 0.042979
0.225444 0.111024 0.035307
0.408878 0.144929 0.034676
0.562842 0.187554 0.032502
0.654961 0.230801 0.028485
0.092473 0.141999 0.053291
0.212353 0.199740 0.063015
0.424528 0.223468 0.058057
0.600187 0.246756 0.050763
0.679259 0.272538 0.046736
0.159100 0.209146 0.065186
0.259090 0.273287 0.085937
0.411635 0.318855 0.106104
0.611739 0.323992 0.097407
0.700966 0.331603 0.091132
0.246020 0.280641 0.081153
0.335008 0.337457 0.112924
0.449053 0.393912 0.164090
0.607511 0.427492 0.209684
0.720006 0.417928 0.202717
0.341463 0.345906 0.089582
0.416672 0.395704 0.148341
0.505981 0.452368 0.227747
0.621508 0.511207 0.325271
0.738572 0.546742 0.402440
0.044177 0.122195 0.213730
0.194497 0.163153 0.168663
0.418499 0.203676 0.149833
0.582874 0.239469 0.154367
0.658228 0.268770 0.154444
0.059900 0.188805 0.248260
0.241886 0.258896 0.247788
0.444156 0.304448 0.246329
0.617180 0.337448 0.240059
0.707837 0.370189 0.226971
0.103983 0.256733 0.287883
0.302361 0.346231 0.280740
0.456988 0.414985 0.306471
0.639945 0.436969 0.309213
0.736794 0.457559 0.310237
0.174799 0.327228 0.322614
0.394760 0.425076 0.307285
0.520686 0.499907 0.353175
0.638478 0.552054 0.407809
0.756413 0.555379 0.422092
0.261913 0.392708 0.343533
0.495207 0.497390 0.339149
0.598440 0.568010 0.405038
0.683677 0.630852 0.493748
0.774907 0.663641 0.557317
0.038426 0.172642 0.384214
0.159485 0.211789 0.346771
0.410290 0.282944 0.307208
0.596641 0.318316 0.296926
0.663164 0.337500 0.303320
0.045946 0.246439 0.428013
0.219769 0.320533 0.417498
0.440778 0.387726 0.408335
0.629863 0.428813 0.400261
0.723206 0.464014 0.395851
0.058907 0.312735 0.466615
0.284334 0.413018 0.464982
0.481598 0.496511 0.486458
0.661304 0.535106 0.484668
0.761653 0.563291 0.476614
0.095591 0.368582 0.503907
0.364774 0.494527 0.507923
0.559740 0.586893 0.526601
0.677300 0.648169 0.563958
0.787164 0.663209 0.574793
0.165991 0.425914 0.524878
0.461968 0.568125 0.543893
0.651487 0.660544 0.561115
0.737863 0.722482 0.620797
0.810372 0.757927 0.673471
0.035622 0.228524 0.508480
0.122857 0.259995 0.491259
0.354513 0.338341 0.460754
0.600183 0.410223 0.437206
0.667617 0.418063 0.433435
0.040089 0.303094 0.553219
0.195401 0.378995 0.550194
0.409926 0.461480 0.547847
0.629941 0.526125 0.540095
0.732627 0.559573 0.536114
0.046443 0.364763 0.583892
0.262040 0.472157 0.591200
0.468635 0.567514 0.613363
0.664980 0.632841 0.625688
0.779767 0.667414 0.617993
0.051142 0.400123 0.601640
0.357465 0.551615 0.622570
0.558762 0.652651 0.657883
0.707792 0.722720 0.687452
0.812276 0.745535 0.681159
0.088686 0.434583 0.615118
0.442281 0.616800 0.659226
0.646717 0.724380 0.698627
0.780904 0.792975 0.720843
0.842694 0.827135 0.755413
0.035165 0.294702 0.582362
0.103611 0.321789 0.577848
0.305561 0.396409 0.566402
0.549731 0.475264 0.548700
0.663865 0.487581 0.522222
0.039387 0.352415 0.610588
0.185479 0.429934 0.617948
0.385122 0.522399 0.634018
0.607726 0.609573 0.644154
0.741006 0.650074 0.637062
0.044520 0.399488 0.629672
0.252961 0.513064 0.649957
0.462947 0.618014 0.679374
0.662546 0.706328 0.708629
0.794911 0.758691 0.718297
0.047282 0.421767 0.637463
0.343465 0.583384 0.675358
0.561585 0.696948 0.715435
0.714804 0.775715 0.751433
0.833678 0.827618 0.772532
0.052663 0.430142 0.640132
0.463502 0.650800 0.701809
0.672605 0.763988 0.747823
0.793083 0.831251 0.782411
0.864817 0.868240 0.804177
