filters/luts/Suburbs 02.cube
# LUT by SparkleStock. Enhanced with VOXCOLOR algorithms.
LUT_3D_SIZE 5
DOMAIN_MIN 0.000000 0.000000 0.000000
DOMAIN_MAX 0.903226 0.903226 0.903226
0.089866 0.093773 0.082051
0.216180 0.117256 0.083587
0.389878 0.145063 0.092316
0.550672 0.180637 0.100878
0.644697 0.215613 0.105164
0.118256 0.137241 0.086951
0.216630 0.194042 0.097142
0.411943 0.211723 0.108738
0.582817 0.231583 0.116194
0.660138 0.253079 0.117831
0.169380 0.194998 0.092316
0.266654 0.266567 0.107560
0.395018 0.312617 0.128732
0.587612 0.303283 0.140131
0.672002 0.305628 0.142197
0.253732 0.269440 0.102509
0.345917 0.336366 0.122318
0.448034 0.394255 0.158386
0.586532 0.411759 0.204118
0.684382 0.393283 0.212683
0.360873 0.349569 0.109236
0.432937 0.405622 0.144041
0.507071 0.460381 0.196173
0.600814 0.510839 0.280597
0.702892 0.535981 0.363557
0.093946 0.114443 0.176352
0.201359 0.146983 0.154456
0.401082 0.182688 0.155981
0.562165 0.213030 0.170947
0.637746 0.235612 0.176609
0.109520 0.176786 0.222314
0.239583 0.238169 0.220453
0.427400 0.277473 0.232717
0.593028 0.308204 0.240702
0.680977 0.341506 0.238988
0.140043 0.237340 0.260379
0.301530 0.328584 0.250590
0.441357 0.405738 0.277988
0.614883 0.415795 0.297976
0.706263 0.434545 0.309958
0.196598 0.309689 0.293148
0.395862 0.416843 0.273615
0.514920 0.498118 0.317171
0.623572 0.541194 0.375845
0.724850 0.538573 0.407979
0.274964 0.387165 0.316709
0.497410 0.501062 0.304403
0.590917 0.572548 0.366672
0.663689 0.631215 0.460181
0.744701 0.655884 0.534785
0.102808 0.147686 0.313837
0.182164 0.174803 0.282920
0.399513 0.241692 0.262027
0.572404 0.272369 0.269790
0.636859 0.286828 0.278327
0.116823 0.224988 0.387279
0.235148 0.291428 0.371489
0.427924 0.351147 0.366591
0.604993 0.390375 0.372707
0.694333 0.429788 0.374195
0.130664 0.301947 0.443192
0.292020 0.395548 0.436801
0.472226 0.476754 0.454710
0.637199 0.510644 0.462613
0.733510 0.541467 0.461736
0.157751 0.358427 0.486834
0.367651 0.486702 0.487987
0.558084 0.580167 0.491625
0.663824 0.637699 0.539028
0.759889 0.651697 0.565005
0.206675 0.422522 0.514488
0.460944 0.570412 0.530893
0.649595 0.664007 0.530369
0.719117 0.723091 0.606637
0.784964 0.755048 0.671694
0.115499 0.190366 0.450022
0.168992 0.212227 0.430942
0.353938 0.281534 0.405251
0.571717 0.349203 0.393885
0.641035 0.360293 0.392664
0.128535 0.275219 0.527352
0.232886 0.348569 0.518441
0.410177 0.426043 0.514334
0.606347 0.484928 0.511607
0.704908 0.525027 0.509728
0.139507 0.353917 0.576297
0.293514 0.459564 0.579092
0.466590 0.554273 0.599705
0.644797 0.609437 0.610747
0.754314 0.649748 0.606975
0.146941 0.398701 0.602036
0.375057 0.548530 0.620663
0.551707 0.648474 0.653106
0.690615 0.714488 0.680669
0.789970 0.739488 0.683695
0.169462 0.434267 0.618510
0.454487 0.620095 0.663667
0.637481 0.726123 0.700039
0.757509 0.793435 0.727002
0.821683 0.828544 0.768244
0.129639 0.248478 0.562700
0.169372 0.270258 0.555373
0.323788 0.340729 0.540657
0.536105 0.421031 0.522661
0.642280 0.434026 0.492836
0.138234 0.325714 0.608471
0.238256 0.402510 0.612954
0.400066 0.495580 0.626931
0.595462 0.582660 0.636309
0.718092 0.624794 0.627890
0.145915 0.393279 0.637576
0.298804 0.507047 0.657328
0.473118 0.612903 0.685267
0.649960 0.696918 0.713821
0.772953 0.749875 0.725917
0.149291 0.424238 0.647640
0.377421 0.586083 0.687099
0.563971 0.698712 0.727826
0.703726 0.776763 0.765005
0.814822 0.828141 0.789464
0.152594 0.433480 0.651349
0.485521 0.656684 0.715582
0.664392 0.767256 0.761943
0.773736 0.833336 0.799568
0.847490 0.874414 0.825848
