filters/luts/Suburbs 04_S.cube
# LUT by SparkleStock. Enhanced with VOXCOLOR algorithms.
LUT_3D_SIZE 8
DOMAIN_MIN 0.000000 0.000000 0.000000
DOMAIN_MAX 0.903226 0.903226 0.903226
0.046886 0.082051 0.042979
0.146142 0.097712 0.036583
0.252684 0.113372 0.034913
0.360447 0.130939 0.034850
0.460822 0.152019 0.034621
0.546560 0.177289 0.033172
0.613124 0.205049 0.030659
0.658340 0.230683 0.028343
0.069605 0.115136 0.049596
0.126625 0.153309 0.049774
0.248387 0.166223 0.042761
0.373568 0.177386 0.037646
0.485483 0.191486 0.034863
0.576372 0.209357 0.033528
0.641043 0.230009 0.033149
0.677252 0.249779 0.033822
0.098232 0.150388 0.053850
0.153395 0.193996 0.057756
0.235462 0.232192 0.056847
0.365521 0.244118 0.049361
0.492076 0.249910 0.043243
0.592183 0.258120 0.040852
0.660400 0.269091 0.041611
0.694436 0.280775 0.044624
0.135192 0.189365 0.060073
0.190213 0.231821 0.066114
0.258925 0.277072 0.072129
0.358891 0.307201 0.071718
0.484248 0.314550 0.065413
0.595960 0.313565 0.060686
0.671097 0.314256 0.060908
0.707483 0.316849 0.064741
0.179920 0.231533 0.068707
0.232999 0.269976 0.076811
0.295664 0.312478 0.089146
0.375155 0.351051 0.100412
0.481521 0.371435 0.105073
0.592206 0.371904 0.102837
0.675914 0.364114 0.100747
0.717386 0.358399 0.103607
0.229989 0.274765 0.077813
0.280450 0.308426 0.089475
0.336659 0.345817 0.108366
0.404650 0.383085 0.131222
0.490638 0.413525 0.153247
0.591593 0.426464 0.167546
0.679162 0.421665 0.171777
0.726768 0.410500 0.172171
0.283272 0.315845 0.085202
0.330388 0.345373 0.103203
0.381113 0.378166 0.130086
0.438800 0.412089 0.163350
0.509131 0.445175 0.201643
0.595147 0.471658 0.239865
0.681267 0.482370 0.266814
0.738030 0.477531 0.277195
0.339312 0.350585 0.089204
0.381021 0.377082 0.117778
0.427151 0.407618 0.155424
0.476898 0.439568 0.198927
0.534458 0.473157 0.249375
0.603420 0.507447 0.306408
0.681537 0.536501 0.362641
0.745487 0.551448 0.401302
0.046666 0.103005 0.136279
0.117034 0.120857 0.110957
0.239336 0.131594 0.100144
0.363365 0.144479 0.098686
0.473408 0.162663 0.101019
0.561537 0.186767 0.102814
0.623946 0.214776 0.101162
0.661165 0.241049 0.094905
0.054243 0.137684 0.150069
0.142657 0.171210 0.148415
0.259325 0.184252 0.144533
0.379936 0.194949 0.142651
0.492870 0.208531 0.141221
0.589209 0.227240 0.138118
0.661775 0.251805 0.131955
0.705475 0.280505 0.122426
0.077157 0.174352 0.169321
0.172261 0.219811 0.162463
0.257982 0.259881 0.161117
0.380286 0.273284 0.157222
0.503635 0.280689 0.153946
0.608256 0.291513 0.151637
0.686244 0.307253 0.149302
0.731508 0.327184 0.146366
0.109066 0.213941 0.187725
0.211457 0.265497 0.172359
0.286569 0.316531 0.175777
0.380289 0.352222 0.178226
0.500789 0.363341 0.175742
0.615198 0.366213 0.173508
0.700449 0.372447 0.174372
0.750479 0.382687 0.177568
0.149425 0.256372 0.205352
0.260523 0.309712 0.183380
0.330798 0.361275 0.192464
0.405312 0.408138 0.205329
0.502357 0.435995 0.212544
0.611910 0.442490 0.213430
0.705696 0.440757 0.214549
0.762941 0.442669 0.220774
0.196648 0.299917 0.221403
0.316952 0.353282 0.196305
0.381970 0.400777 0.211894
0.446078 0.447249 0.235842
0.521246 0.486600 0.257933
0.613181 0.507241 0.271664
0.704805 0.509336 0.277541
0.769693 0.505606 0.283119
0.247846 0.341673 0.234505
0.377196 0.395403 0.210406
0.436680 0.437319 0.233845
0.491436 0.479863 0.269093
0.553099 0.520732 0.306221
0.625507 0.553849 0.338935
0.705103 0.570156 0.360412
0.772560 0.571189 0.371176
0.301054 0.377622 0.243972
0.438159 0.433462 0.225009
0.490958 0.470517 0.258112
0.537560 0.509291 0.305272
0.588400 0.549269 0.355788
0.645725 0.587127 0.405468
0.710749 0.617060 0.448409
0.772528 0.632554 0.476387
0.043294 0.128095 0.241593
0.100073 0.143513 0.215488
0.224845 0.168683 0.191123
0.361136 0.180533 0.180876
0.480436 0.193915 0.180472
0.571616 0.214819 0.183174
0.631871 0.241369 0.183558
0.663824 0.267495 0.178505
0.049072 0.165968 0.260419
0.135496 0.196489 0.251460
0.248072 0.212903 0.242193
0.376281 0.222121 0.237411
0.497029 0.233785 0.236088
0.597481 0.252791 0.235052
0.671290 0.280207 0.231126
0.715182 0.313769 0.222440
0.058172 0.207082 0.283642
0.160356 0.248385 0.273364
0.266201 0.283526 0.274004
0.389055 0.295901 0.271053
0.510733 0.303604 0.268176
0.618176 0.315738 0.265385
0.702926 0.334831 0.260847
0.757612 0.361415 0.253443
0.079248 0.245733 0.309539
0.192728 0.297375 0.295913
0.299402 0.346413 0.293378
0.397725 0.382217 0.292112
0.514128 0.395008 0.288870
0.629002 0.400483 0.285926
0.721773 0.410564 0.284500
0.784245 0.426888 0.283776
0.110188 0.285823 0.333853
0.236046 0.344414 0.317759
0.347168 0.399404 0.309421
0.429571 0.448851 0.314009
0.521353 0.480381 0.317918
0.629219 0.490841 0.317377
0.729464 0.493457 0.317344
0.799822 0.500892 0.321674
0.149737 0.327597 0.354714
0.288685 0.390240 0.338358
0.405184 0.446097 0.326514
0.478959 0.497147 0.339421
0.548145 0.541118 0.356043
0.634200 0.567039 0.365394
0.728286 0.574351 0.368890
0.806346 0.575743 0.373711
0.195973 0.368333 0.371148
0.346809 0.434193 0.357738
0.467936 0.488800 0.345862
0.533998 0.536403 0.368035
0.589757 0.581169 0.398798
0.653534 0.619198 0.423923
0.729107 0.640648 0.438808
0.804899 0.646487 0.446547
0.246362 0.403827 0.382775
0.406213 0.473484 0.375605
0.529423 0.527202 0.367576
0.587792 0.570246 0.399870
0.632686 0.612443 0.444205
0.682367 0.652992 0.485311
0.739124 0.685727 0.517468
0.800586 0.704177 0.536936
0.039545 0.156973 0.342455
0.083943 0.169560 0.321501
0.198761 0.199344 0.293941
0.351140 0.229939 0.275180
0.482996 0.246017 0.267876
0.578178 0.261084 0.267895
0.637749 0.283162 0.269042
0.666386 0.306352 0.266491
0.044184 0.197764 0.366689
0.122713 0.227188 0.355504
0.230327 0.249021 0.343478
0.367293 0.267813 0.334325
0.496195 0.280722 0.330056
0.600140 0.297507 0.328663
0.674548 0.324286 0.326522
0.718731 0.358768 0.320738
0.049858 0.241820 0.390809
0.147336 0.281133 0.379144
0.257589 0.316480 0.378445
0.384624 0.333117 0.377120
0.510271 0.341373 0.374523
0.620847 0.352905 0.371822
0.708344 0.373509 0.368299
0.767397 0.403870 0.362231
0.058838 0.281002 0.414960
0.177482 0.332001 0.402186
0.293043 0.379180 0.402906
0.403908 0.412667 0.406345
0.522243 0.424369 0.403917
0.636398 0.429946 0.399608
0.732981 0.441472 0.396152
0.803629 0.461352 0.392343
0.076908 0.316850 0.439977
0.213324 0.379328 0.429102
0.335826 0.435330 0.427085
0.440227 0.482731 0.429696
0.536805 0.513187 0.429061
0.642129 0.524319 0.425221
0.745182 0.528748 0.422318
0.824644 0.539106 0.422646
0.105385 0.353540 0.462395
0.257620 0.424690 0.455470
0.388300 0.485789 0.451277
0.492785 0.538540 0.451638
0.570425 0.582670 0.457544
0.652128 0.609925 0.461034
0.746494 0.619796 0.460592
0.832924 0.623870 0.462274
0.143535 0.390828 0.479431
0.310228 0.468216 0.478152
0.448475 0.531440 0.474514
0.553397 0.584099 0.474812
0.620106 0.630108 0.490551
0.677901 0.669347 0.507647
0.750036 0.693565 0.515915
0.830641 0.702333 0.519478
0.189865 0.424225 0.490519
0.367012 0.506976 0.497097
0.509512 0.571705 0.497303
0.612799 0.622394 0.500705
0.670315 0.665991 0.526868
0.713864 0.706460 0.559168
0.764576 0.740940 0.582387
0.825328 0.762068 0.594932
0.036992 0.188097 0.428390
0.069786 0.198165 0.414153
0.169626 0.228073 0.390888
0.321325 0.269758 0.368827
0.473375 0.302714 0.355867
0.581933 0.321104 0.351237
0.642019 0.335864 0.350507
0.668863 0.353084 0.349091
0.040102 0.231001 0.456310
0.110188 0.260554 0.446957
0.209302 0.287896 0.437137
0.346623 0.317881 0.426206
0.487359 0.341366 0.419043
0.598851 0.359421 0.415635
0.673787 0.381661 0.413388
0.718719 0.412550 0.409638
0.044952 0.275970 0.481129
0.134905 0.315219 0.471422
0.242650 0.354296 0.470982
0.371389 0.381151 0.470456
0.503166 0.397417 0.469289
0.617534 0.410237 0.467188
0.705911 0.429008 0.464214
0.767611 0.458486 0.460072
0.049742 0.315467 0.502452
0.164253 0.366561 0.492735
0.281194 0.415390 0.496211
0.398607 0.452578 0.503214
0.520464 0.469148 0.506612
0.635475 0.476068 0.504881
0.733354 0.486794 0.501014
0.808428 0.507292 0.497228
0.057052 0.347244 0.521865
0.201162 0.413543 0.514533
0.326838 0.470844 0.519775
0.439784 0.517912 0.528394
0.543209 0.547873 0.534184
0.649058 0.558109 0.532327
0.751620 0.561772 0.527319
0.835640 0.572526 0.524702
0.072319 0.376315 0.540484
0.240694 0.456459 0.538980
0.375476 0.521204 0.546227
0.490138 0.574698 0.552959
0.581384 0.617006 0.559379
0.666267 0.642191 0.559802
0.758365 0.651231 0.555669
0.848227 0.655524 0.553727
0.099230 0.406515 0.555669
0.285391 0.496894 0.562291
0.428782 0.566964 0.572903
0.546610 0.623595 0.578218
0.633735 0.669998 0.585435
0.698230 0.707620 0.592947
0.766391 0.731106 0.595894
0.847927 0.740464 0.595744
0.138575 0.435693 0.564432
0.338349 0.533647 0.580244
0.487068 0.607101 0.596095
0.605626 0.664222 0.602853
0.688347 0.709823 0.612926
0.740943 0.748909 0.630988
0.786180 0.782403 0.647398
0.844627 0.804410 0.654824
0.035764 0.220237 0.495033
0.059222 0.228256 0.486972
0.143908 0.257054 0.471078
0.283802 0.301657 0.452124
0.443884 0.348177 0.436746
0.572681 0.378487 0.427290
0.644699 0.393173 0.422971
0.670717 0.402375 0.420539
0.037734 0.263910 0.523693
0.100568 0.293881 0.517688
0.189548 0.325749 0.512916
0.320133 0.364667 0.505113
0.466492 0.401486 0.497516
0.590123 0.427304 0.491993
0.671759 0.447379 0.488421
0.716987 0.470922 0.485197
0.041573 0.308046 0.548109
0.124543 0.348024 0.542617
0.228660 0.391846 0.544499
0.354404 0.429989 0.546732
0.489699 0.460146 0.547783
0.609295 0.480396 0.547142
0.699753 0.498007 0.544953
0.762832 0.522347 0.541664
0.045725 0.345982 0.567236
0.152455 0.397977 0.563006
0.269963 0.450846 0.568711
0.388468 0.495549 0.578352
0.513547 0.524597 0.587051
0.629483 0.539772 0.591083
0.726302 0.551086 0.590235
0.803253 0.568689 0.587239
0.048864 0.374661 0.581452
0.190147 0.443462 0.579890
0.319022 0.503984 0.589096
0.434957 0.554871 0.603081
0.543507 0.590667 0.616531
0.649084 0.606538 0.623362
0.748474 0.611762 0.622787
0.833978 0.620587 0.619537
0.054222 0.396283 0.593457
0.233833 0.484438 0.597454
0.373870 0.552938 0.610555
0.489233 0.608172 0.626584
0.586405 0.650847 0.640592
0.673634 0.676360 0.648294
0.762939 0.684779 0.647762
0.852008 0.687273 0.643862
0.068093 0.416662 0.603652
0.277572 0.521301 0.616157
0.428286 0.597221 0.634135
0.544459 0.655949 0.651691
0.638438 0.702216 0.664158
0.710451 0.737510 0.672888
0.778344 0.758081 0.675306
0.856590 0.765479 0.672618
0.096162 0.438225 0.609402
0.323834 0.553859 0.632031
0.482226 0.635435 0.656265
0.599589 0.696577 0.676475
0.691449 0.743959 0.688576
0.756254 0.781639 0.700185
0.803958 0.812134 0.710394
0.857712 0.832328 0.714833
0.035307 0.254094 0.544055
0.052554 0.260597 0.540554
0.124612 0.287811 0.531876
0.251365 0.332777 0.519647
0.405735 0.383722 0.506363
0.547332 0.424781 0.494585
0.638036 0.444772 0.484858
0.671683 0.448111 0.477508
0.036943 0.295639 0.569975
0.094767 0.325754 0.567136
0.174679 0.360844 0.567715
0.296361 0.406392 0.566366
0.440048 0.453797 0.562584
0.572669 0.491016 0.557569
0.666134 0.513923 0.551721
0.716357 0.529999 0.546181
0.040187 0.336956 0.591861
0.117966 0.377799 0.590832
0.219255 0.425704 0.595494
0.339321 0.473002 0.602807
0.473530 0.517091 0.608255
0.598035 0.550548 0.610727
0.692985 0.572478 0.609712
0.757540 0.591398 0.606392
0.043579 0.371340 0.608137
0.144185 0.424614 0.609772
0.262235 0.481896 0.618483
0.380358 0.533930 0.631254
0.506198 0.577231 0.644197
0.623687 0.607440 0.654112
0.719127 0.625961 0.658168
0.794197 0.641436 0.657192
0.046336 0.396446 0.619036
0.179256 0.466707 0.624634
0.310983 0.531835 0.637640
0.431401 0.588683 0.654308
0.542691 0.634032 0.671914
0.648489 0.663286 0.687260
0.743257 0.678155 0.695457
0.824279 0.687756 0.696332
0.047895 0.412566 0.625762
0.226113 0.505293 0.636966
0.371108 0.578351 0.654301
0.491557 0.637739 0.674197
0.590974 0.684601 0.694113
0.679118 0.716632 0.711645
0.763689 0.731699 0.721369
0.845821 0.736345 0.722690
0.051935 0.423995 0.630546
0.277450 0.540717 0.649936
0.435735 0.622012 0.672259
0.553785 0.682864 0.694855
0.645952 0.729937 0.715426
0.719587 0.765248 0.732169
0.785873 0.786101 0.741601
0.856904 0.793381 0.743262
0.066125 0.435574 0.633140
0.325731 0.570837 0.662775
0.495315 0.659810 0.691248
0.612504 0.722668 0.716620
0.698896 0.769793 0.737459
0.765760 0.805858 0.752696
0.816413 0.832917 0.763108
0.865218 0.849494 0.768739
0.035165 0.293544 0.582717
0.049295 0.299208 0.581607
0.113028 0.324972 0.577975
0.229522 0.368918 0.571949
0.376434 0.420652 0.563804
0.518395 0.465746 0.553509
0.621309 0.489520 0.539749
0.669199 0.489132 0.523816
0.037072 0.327306 0.601593
0.092563 0.357146 0.600683
0.166288 0.394302 0.605432
0.280759 0.444537 0.610633
0.419655 0.499278 0.613852
0.553885 0.546589 0.613450
0.656665 0.575961 0.607559
0.717158 0.588196 0.597489
0.040294 0.362655 0.618456
0.115285 0.404203 0.620808
0.215989 0.454628 0.627567
0.330996 0.508284 0.639988
0.461561 0.562839 0.652087
0.588197 0.610191 0.660103
0.688312 0.642318 0.661989
0.756537 0.661132 0.658185
0.043271 0.391704 0.630554
0.140253 0.446186 0.637012
0.260086 0.506974 0.648478
0.378579 0.564338 0.663685
0.502505 0.618339 0.681604
0.621454 0.664250 0.696976
0.717779 0.696565 0.706189
0.789970 0.717116 0.708519
0.045593 0.411741 0.637769
0.172995 0.483414 0.649321
0.307879 0.552928 0.666018
0.432694 0.614935 0.684857
0.545457 0.667980 0.705309
0.652837 0.711628 0.725124
0.744840 0.742787 0.740575
0.818064 0.762009 0.748246
0.046940 0.423469 0.641315
0.216490 0.517757 0.659621
0.365757 0.595590 0.681144
0.493498 0.660442 0.703622
0.598051 0.712840 0.725682
0.688604 0.754178 0.746990
0.768587 0.783164 0.765416
0.840354 0.800017 0.776596
0.047342 0.429040 0.642720
0.273331 0.552062 0.670010
0.437661 0.638569 0.696267
0.561959 0.703346 0.721033
0.657869 0.753390 0.743912
0.732179 0.791735 0.764676
0.794492 0.818600 0.782547
0.856102 0.833969 0.794063
0.050686 0.432241 0.642925
0.333822 0.583962 0.680918
0.513079 0.679367 0.712407
0.632049 0.743410 0.738870
0.716102 0.789612 0.761419
0.779063 0.824557 0.780688
0.827146 0.850088 0.796538
0.870437 0.866006 0.806958
