filters/luts/Suburbs 05.cube
# Created by: Adobe Photoshop Export Color Lookup Plugin
# LUT by SparkleStock. Enhanced with VOXCOLOR algorithms.
LUT_3D_SIZE 32
0.039072 0.035165 0.027350
0.064170 0.041356 0.029903
0.089267 0.047548 0.032455
0.114364 0.053740 0.035007
0.139462 0.059931 0.037560
0.164559 0.066123 0.040112
0.191035 0.072945 0.043334
0.217787 0.079893 0.046690
0.244539 0.086841 0.050045
0.271291 0.093789 0.053401
0.298042 0.100737 0.056757
0.323187 0.108220 0.059924
0.347528 0.115971 0.062996
0.371870 0.123723 0.066068
0.396211 0.131474 0.069140
0.420552 0.139226 0.072212
0.442554 0.147473 0.074977
0.462216 0.156217 0.077435
0.481878 0.164961 0.079893
0.501540 0.173705 0.082351
0.521202 0.182449 0.084808
0.539037 0.191256 0.087077
0.553216 0.200189 0.088968
0.567395 0.209122 0.090858
0.581575 0.218055 0.092749
0.595754 0.226988 0.094639
0.608909 0.235448 0.096388
0.616944 0.241546 0.097428
0.624979 0.247643 0.098468
0.633014 0.253740 0.099508
0.641049 0.259837 0.100547
0.649084 0.265934 0.101587
0.046682 0.044429 0.029761
0.070434 0.051874 0.032377
0.094187 0.059319 0.034994
0.117940 0.066763 0.037610
0.141693 0.074208 0.040226
0.165445 0.081653 0.042843
0.192299 0.088242 0.046106
0.219774 0.094659 0.049498
0.247248 0.101077 0.052890
0.274723 0.107494 0.056283
0.302197 0.113911 0.059675
0.327857 0.120980 0.062854
0.352610 0.128375 0.065926
0.377363 0.135769 0.068998
0.402116 0.143164 0.072071
0.426869 0.150558 0.075143
0.449076 0.158445 0.077889
0.468738 0.166823 0.080311
0.488400 0.175201 0.082732
0.508063 0.183579 0.085153
0.527725 0.191957 0.087574
0.545437 0.200380 0.089788
0.559251 0.208892 0.091587
0.573064 0.217404 0.093386
0.586877 0.225916 0.095185
0.600691 0.234428 0.096984
0.613454 0.242477 0.098639
0.620968 0.248208 0.099569
0.628481 0.253940 0.100499
0.635995 0.259671 0.101429
0.643509 0.265402 0.102359
0.651022 0.271133 0.103289
0.054291 0.053693 0.032171
0.076699 0.062391 0.034852
0.099107 0.071089 0.037532
0.121515 0.079787 0.040212
0.143923 0.088485 0.042893
0.166331 0.097184 0.045573
0.193563 0.103539 0.048877
0.221761 0.109426 0.052306
0.249958 0.115312 0.055735
0.278155 0.121199 0.059164
0.306352 0.127086 0.062593
0.332527 0.133740 0.065784
0.357692 0.140778 0.068857
0.382856 0.147816 0.071929
0.408021 0.154853 0.075001
0.433186 0.161891 0.078073
0.455599 0.169416 0.080802
0.475261 0.177428 0.083186
0.494923 0.185440 0.085571
0.514585 0.193453 0.087955
0.534247 0.201465 0.090340
0.551838 0.209503 0.092499
0.565285 0.217595 0.094206
0.578733 0.225686 0.095914
0.592180 0.233777 0.097622
0.605628 0.241869 0.099329
0.617999 0.249506 0.100889
0.624992 0.254871 0.101709
0.631984 0.260236 0.102530
0.638976 0.265602 0.103350
0.645968 0.270967 0.104170
0.652960 0.276332 0.104990
0.061901 0.062956 0.034582
0.082964 0.072908 0.037326
0.104027 0.082859 0.040071
0.125090 0.092811 0.042815
0.146154 0.102762 0.045559
0.167217 0.112714 0.048304
0.194827 0.118836 0.051649
0.223747 0.124192 0.055115
0.252667 0.129548 0.058580
0.281587 0.134904 0.062046
0.310507 0.140260 0.065511
0.337197 0.146500 0.068715
0.362774 0.153181 0.071787
0.388350 0.159862 0.074859
0.413926 0.166543 0.077931
0.439502 0.173224 0.081004
0.462121 0.180388 0.083714
0.481783 0.188034 0.086062
0.501446 0.195680 0.088410
0.521108 0.203326 0.090758
0.540770 0.210972 0.093106
0.558238 0.218627 0.095210
0.571320 0.226297 0.096826
0.584401 0.233968 0.098442
0.597483 0.241639 0.100058
0.610565 0.249309 0.101674
0.622544 0.256535 0.103139
0.629015 0.261534 0.103850
0.635486 0.266533 0.104560
0.641956 0.271533 0.105271
0.648427 0.276532 0.105981
0.654898 0.281531 0.106692
0.069510 0.072220 0.036992
0.089229 0.083425 0.039801
0.108947 0.094630 0.042609
0.128666 0.105835 0.045418
0.148384 0.117039 0.048226
0.168103 0.128244 0.051035
0.196091 0.134133 0.054421
0.225734 0.138958 0.057923
0.255376 0.143784 0.061425
0.285019 0.148609 0.064928
0.314661 0.153435 0.068430
0.341867 0.159260 0.071645
0.367855 0.165584 0.074717
0.393843 0.171908 0.077790
0.419831 0.178233 0.080862
0.445819 0.184557 0.083934
0.468644 0.191359 0.086626
0.488306 0.198639 0.088937
0.507968 0.205920 0.091249
0.527630 0.213200 0.093560
0.547292 0.220480 0.095871
0.564639 0.227750 0.097920
0.577354 0.235000 0.099445
0.590070 0.242250 0.100970
0.602786 0.249500 0.102494
0.615502 0.256749 0.104019
0.627089 0.263563 0.105390
0.633039 0.268197 0.105991
0.638988 0.272830 0.106591
0.644937 0.277464 0.107192
0.650886 0.282097 0.107793
0.656836 0.286730 0.108393
0.077120 0.081484 0.039403
0.095494 0.093942 0.042275
0.113867 0.106400 0.045148
0.132241 0.118858 0.048020
0.150615 0.131316 0.050893
0.168989 0.143774 0.053765
0.197355 0.149430 0.057193
0.227720 0.153725 0.060732
0.258086 0.158020 0.064270
0.288451 0.162315 0.067809
0.318816 0.166610 0.071348
0.346537 0.172020 0.074576
0.372937 0.177987 0.077648
0.399337 0.183955 0.080720
0.425736 0.189922 0.083792
0.452136 0.195890 0.086864
0.475166 0.202331 0.089538
0.494828 0.209245 0.091813
0.514491 0.216159 0.094087
0.534153 0.223074 0.096362
0.553815 0.229988 0.098637
0.571039 0.236874 0.100631
0.583389 0.243703 0.102065
0.595739 0.250532 0.103498
0.608089 0.257361 0.104931
0.620438 0.264190 0.106364
0.631634 0.270592 0.107640
0.637062 0.274859 0.108131
0.642490 0.279127 0.108622
0.647918 0.283395 0.109113
0.653346 0.287662 0.109604
0.658773 0.291930 0.110095
0.089102 0.092954 0.041892
0.107419 0.105743 0.044844
0.125736 0.118531 0.047796
0.144053 0.131320 0.050747
0.162371 0.144109 0.053699
0.180688 0.156898 0.056651
0.207437 0.163380 0.060122
0.235872 0.168600 0.063698
0.264307 0.173821 0.067273
0.292742 0.179041 0.070848
0.321177 0.184262 0.074424
0.348539 0.189437 0.077694
0.375366 0.194591 0.080812
0.402192 0.199744 0.083930
0.429019 0.204897 0.087048
0.455845 0.210051 0.090166
0.479181 0.215784 0.092855
0.499026 0.222096 0.095116
0.518871 0.228408 0.097377
0.538716 0.234720 0.099639
0.558561 0.241032 0.101900
0.575869 0.247361 0.103869
0.588105 0.253723 0.105257
0.600340 0.260086 0.106644
0.612576 0.266448 0.108032
0.624811 0.272811 0.109419
0.635866 0.278778 0.110650
0.641016 0.282771 0.111100
0.646166 0.286764 0.111550
0.651317 0.290757 0.112000
0.656467 0.294750 0.112450
0.661617 0.298744 0.112899
0.101958 0.104864 0.044397
0.120476 0.117800 0.047431
0.138995 0.130735 0.050465
0.157513 0.143670 0.053499
0.176032 0.156605 0.056534
0.194550 0.169541 0.059568
0.219282 0.177061 0.063083
0.245256 0.183498 0.066695
0.271230 0.189935 0.070307
0.297204 0.196372 0.073919
0.323179 0.202809 0.077531
0.350008 0.207787 0.080850
0.377264 0.212034 0.084023
0.404520 0.216282 0.087196
0.431777 0.220530 0.090369
0.459033 0.224778 0.093541
0.482694 0.229733 0.096254
0.502758 0.235395 0.098506
0.522823 0.241058 0.100758
0.542887 0.246721 0.103010
0.562952 0.252383 0.105261
0.580385 0.258120 0.107213
0.592557 0.264007 0.108564
0.604728 0.269894 0.109915
0.616900 0.275781 0.111266
0.629071 0.281667 0.112616
0.640034 0.287196 0.113813
0.644956 0.290933 0.114235
0.649877 0.294670 0.114657
0.654799 0.298407 0.115080
0.659721 0.302144 0.115502
0.664642 0.305880 0.115924
0.114814 0.116775 0.046902
0.133533 0.129857 0.050019
0.152253 0.142938 0.053135
0.170973 0.156020 0.056251
0.189693 0.169101 0.059368
0.208413 0.182183 0.062484
0.231127 0.190741 0.066044
0.254640 0.198395 0.069693
0.278154 0.206049 0.073341
0.301667 0.213703 0.076990
0.325180 0.221357 0.080638
0.351476 0.226136 0.084006
0.379162 0.229478 0.087234
0.406849 0.232820 0.090462
0.434535 0.236162 0.093689
0.462221 0.239504 0.096917
0.486206 0.243682 0.099652
0.506491 0.248695 0.101895
0.526775 0.253708 0.104138
0.547059 0.258721 0.106381
0.567343 0.263734 0.108623
0.584902 0.268880 0.110557
0.597009 0.274291 0.111871
0.609116 0.279702 0.113185
0.621224 0.285113 0.114499
0.633331 0.290524 0.115814
0.644203 0.295613 0.116975
0.648895 0.299094 0.117370
0.653588 0.302575 0.117764
0.658281 0.306056 0.118159
0.662974 0.309537 0.118554
0.667667 0.313017 0.118949
0.127669 0.128686 0.049407
0.146591 0.141914 0.052606
0.165512 0.155142 0.055805
0.184433 0.168370 0.059003
0.203354 0.181598 0.062202
0.222275 0.194826 0.065401
0.242972 0.204422 0.069005
0.264025 0.213293 0.072690
0.285077 0.222163 0.076375
0.306130 0.231034 0.080060
0.327182 0.239904 0.083745
0.352944 0.244485 0.087162
0.381060 0.246922 0.090445
0.409177 0.249358 0.093727
0.437293 0.251795 0.097010
0.465409 0.254231 0.100293
0.489719 0.257631 0.103051
0.510223 0.261995 0.105284
0.530727 0.266358 0.107518
0.551230 0.270722 0.109752
0.571734 0.275085 0.111985
0.589418 0.279640 0.113900
0.601461 0.284575 0.115178
0.613504 0.289510 0.116456
0.625548 0.294446 0.117733
0.637591 0.299381 0.119011
0.648371 0.304031 0.120137
0.652835 0.307256 0.120504
0.657299 0.310480 0.120872
0.661764 0.313705 0.121239
0.666228 0.316930 0.121607
0.670692 0.320154 0.121974
0.140525 0.140596 0.051912
0.159648 0.153971 0.055193
0.178770 0.167345 0.058474
0.197892 0.180719 0.061755
0.217015 0.194094 0.065037
0.236137 0.207468 0.068318
0.254817 0.218103 0.071966
0.273409 0.228190 0.075688
0.292001 0.238277 0.079409
0.310592 0.248365 0.083131
0.329184 0.258452 0.086853
0.354412 0.262835 0.090318
0.382959 0.264365 0.093656
0.411505 0.265896 0.096993
0.440051 0.267427 0.100331
0.468597 0.268958 0.103668
0.493232 0.271580 0.106449
0.513955 0.275294 0.108674
0.534679 0.279008 0.110898
0.555402 0.282722 0.113123
0.576125 0.286436 0.115347
0.593934 0.290399 0.117244
0.605913 0.294859 0.118485
0.617892 0.299318 0.119726
0.629871 0.303778 0.120967
0.641851 0.308238 0.122208
0.652539 0.312449 0.123299
0.656775 0.315417 0.123639
0.661010 0.318386 0.123979
0.665246 0.321354 0.124319
0.669481 0.324323 0.124659
0.673717 0.327291 0.124999
0.156532 0.154019 0.054827
0.175411 0.167272 0.058135
0.194289 0.180524 0.061444
0.213168 0.193777 0.064752
0.232046 0.207029 0.068061
0.250924 0.220281 0.071369
0.268652 0.231229 0.075144
0.286149 0.241716 0.079012
0.303646 0.252202 0.082880
0.321143 0.262689 0.086749
0.338640 0.273175 0.090617
0.362549 0.277872 0.094249
0.389666 0.279675 0.097763
0.416782 0.281477 0.101278
0.443898 0.283279 0.104792
0.471014 0.285081 0.108306
0.495074 0.287429 0.111192
0.516078 0.290323 0.113450
0.537081 0.293217 0.115708
0.558085 0.296110 0.117967
0.579089 0.299004 0.120225
0.597110 0.302239 0.122142
0.609166 0.306156 0.123377
0.621221 0.310073 0.124611
0.633277 0.313990 0.125846
0.645332 0.317907 0.127081
0.656069 0.321623 0.128167
0.660217 0.324335 0.128504
0.664364 0.327047 0.128841
0.668511 0.329760 0.129178
0.672658 0.332472 0.129515
0.676805 0.335185 0.129852
0.174115 0.168199 0.057946
0.192527 0.181195 0.061255
0.210938 0.194191 0.064563
0.229350 0.207188 0.067872
0.247762 0.220184 0.071180
0.266174 0.233180 0.074489
0.283480 0.244077 0.078431
0.300566 0.254555 0.082501
0.317651 0.265032 0.086570
0.334737 0.275510 0.090639
0.351822 0.285987 0.094709
0.374021 0.291254 0.098567
0.398777 0.293916 0.102319
0.423533 0.296579 0.106071
0.448289 0.299241 0.109823
0.473045 0.301903 0.113575
0.496080 0.304228 0.116608
0.517395 0.306216 0.118921
0.538710 0.308204 0.121234
0.560025 0.310192 0.123547
0.581339 0.312180 0.125860
0.599617 0.314619 0.127816
0.611818 0.317960 0.129060
0.624020 0.321300 0.130305
0.636222 0.324641 0.131549
0.648424 0.327982 0.132793
0.659280 0.331175 0.133887
0.663409 0.333631 0.134233
0.667538 0.336087 0.134579
0.671667 0.338543 0.134926
0.675796 0.341000 0.135272
0.679924 0.343456 0.135618
0.191697 0.182378 0.061066
0.209642 0.195118 0.064374
0.227588 0.207858 0.067683
0.245533 0.220598 0.070991
0.263478 0.233339 0.074300
0.281424 0.246079 0.077608
0.298309 0.256926 0.081719
0.314983 0.267394 0.085989
0.331657 0.277862 0.090260
0.348330 0.288331 0.094530
0.365004 0.298799 0.098801
0.385493 0.304636 0.102885
0.407888 0.308158 0.106875
0.430284 0.311680 0.110865
0.452680 0.315202 0.114855
0.475076 0.318724 0.118845
0.497086 0.321027 0.122024
0.518712 0.322109 0.124391
0.540338 0.323192 0.126759
0.561964 0.324274 0.129127
0.583590 0.325357 0.131495
0.602123 0.327000 0.133491
0.614471 0.329764 0.134744
0.626820 0.332528 0.135998
0.639168 0.335292 0.137251
0.651516 0.338056 0.138504
0.662491 0.340727 0.139608
0.666602 0.342927 0.139963
0.670712 0.345127 0.140318
0.674823 0.347327 0.140674
0.678933 0.349527 0.141029
0.683044 0.351727 0.141384
0.209280 0.196558 0.064185
0.226758 0.209042 0.067494
0.244237 0.221525 0.070802
0.261716 0.234009 0.074111
0.279195 0.246493 0.077419
0.296673 0.258977 0.080728
0.313138 0.269774 0.085006
0.329400 0.280233 0.089478
0.345662 0.290692 0.093950
0.361924 0.301152 0.098421
0.378186 0.311611 0.102893
0.396964 0.318018 0.107202
0.417000 0.322400 0.111430
0.437035 0.326782 0.115658
0.457071 0.331164 0.119886
0.477107 0.335546 0.124114
0.498093 0.337825 0.127439
0.520030 0.338002 0.129862
0.541966 0.338179 0.132285
0.563903 0.338356 0.134707
0.585840 0.338533 0.137130
0.604630 0.339380 0.139166
0.617124 0.341568 0.140428
0.629619 0.343756 0.141691
0.642113 0.345944 0.142953
0.654608 0.348131 0.144216
0.665702 0.350279 0.145328
0.669795 0.352223 0.145693
0.673887 0.354167 0.146057
0.677979 0.356111 0.146422
0.682071 0.358054 0.146786
0.686163 0.359998 0.147150
0.226862 0.210737 0.067305
0.243874 0.222965 0.070613
0.260886 0.235193 0.073922
0.277899 0.247420 0.077230
0.294911 0.259648 0.080539
0.311923 0.271876 0.083847
0.327967 0.282622 0.088293
0.343817 0.293072 0.092966
0.359668 0.303522 0.097639
0.375518 0.313972 0.102312
0.391369 0.324422 0.106985
0.408436 0.331400 0.111520
0.426111 0.336642 0.115986
0.443787 0.341884 0.120452
0.461462 0.347126 0.124917
0.479137 0.352367 0.129383
0.499099 0.354624 0.132855
0.521347 0.353895 0.135332
0.543595 0.353166 0.137810
0.565843 0.352438 0.140288
0.588091 0.351709 0.142765
0.607136 0.351760 0.144841
0.619777 0.353372 0.146112
0.632418 0.354983 0.147384
0.645059 0.356595 0.148655
0.657700 0.358206 0.149927
0.668913 0.359831 0.151049
0.672987 0.361519 0.151422
0.677061 0.363206 0.151796
0.681135 0.364894 0.152170
0.685209 0.366582 0.152543
0.689283 0.368270 0.152917
0.245248 0.225176 0.070519
0.261661 0.237070 0.073855
0.278074 0.248964 0.077191
0.294487 0.260858 0.080527
0.310900 0.272752 0.083863
0.327313 0.284646 0.087199
0.342777 0.295218 0.091797
0.358051 0.305527 0.096649
0.373325 0.315835 0.101500
0.388599 0.326143 0.106352
0.403873 0.336451 0.111203
0.419724 0.343754 0.116048
0.435862 0.349554 0.120889
0.452001 0.355354 0.125729
0.468139 0.361153 0.130570
0.484278 0.366953 0.135411
0.503231 0.369429 0.139317
0.524999 0.368582 0.142289
0.546766 0.367734 0.145260
0.568534 0.366886 0.148232
0.590301 0.366038 0.151203
0.609094 0.365806 0.153614
0.621936 0.366805 0.154904
0.634778 0.367803 0.156194
0.647621 0.368802 0.157484
0.660463 0.369801 0.158774
0.671851 0.370870 0.159912
0.675966 0.372293 0.160290
0.680081 0.373715 0.160668
0.684196 0.375138 0.161046
0.688311 0.376560 0.161424
0.692426 0.377983 0.161802
0.264437 0.239876 0.073827
0.280119 0.251358 0.077218
0.295800 0.262840 0.080609
0.311481 0.274322 0.084000
0.327162 0.285804 0.087391
0.342843 0.297287 0.090782
0.357568 0.307562 0.095519
0.372101 0.317596 0.100526
0.386634 0.327630 0.105533
0.401167 0.337663 0.110540
0.415700 0.347697 0.115547
0.430828 0.355079 0.120785
0.446253 0.361135 0.126138
0.461678 0.367191 0.131491
0.477103 0.373247 0.136844
0.492528 0.379303 0.142197
0.510488 0.382241 0.146826
0.530984 0.382061 0.150731
0.551480 0.381881 0.154635
0.571976 0.381701 0.158540
0.592472 0.381521 0.162445
0.610503 0.381518 0.165487
0.623601 0.381867 0.166804
0.636699 0.382216 0.168122
0.649798 0.382565 0.169439
0.662896 0.382914 0.170756
0.674514 0.383397 0.171917
0.678730 0.384545 0.172295
0.682945 0.385693 0.172673
0.687161 0.386841 0.173051
0.691377 0.387989 0.173429
0.695593 0.389137 0.173808
0.283627 0.254575 0.077136
0.298576 0.265645 0.080582
0.313525 0.276716 0.084027
0.328475 0.287787 0.087473
0.343424 0.298857 0.090919
0.358373 0.309928 0.094364
0.372358 0.319906 0.099241
0.386150 0.329665 0.104403
0.399943 0.339424 0.109566
0.413735 0.349184 0.114728
0.427527 0.358943 0.119891
0.441932 0.366404 0.125522
0.456643 0.372716 0.131387
0.471355 0.379029 0.137253
0.486066 0.385341 0.143118
0.500778 0.391653 0.148983
0.517746 0.395053 0.154335
0.536970 0.395541 0.159173
0.556195 0.396029 0.164011
0.575419 0.396516 0.168848
0.594644 0.397004 0.173686
0.611911 0.397229 0.177360
0.625266 0.396929 0.178704
0.638620 0.396629 0.180049
0.651975 0.396328 0.181394
0.665330 0.396028 0.182739
0.677178 0.395923 0.183922
0.681494 0.396797 0.184300
0.685810 0.397671 0.184678
0.690127 0.398544 0.185057
0.694443 0.399418 0.185435
0.698759 0.400291 0.185813
0.302816 0.269274 0.080444
0.317034 0.279933 0.083945
0.331251 0.290592 0.087446
0.345469 0.301251 0.090946
0.359686 0.311910 0.094447
0.373904 0.322569 0.097947
0.387149 0.332249 0.102963
0.400200 0.341734 0.108281
0.413251 0.351219 0.113599
0.426302 0.360704 0.118917
0.439354 0.370189 0.124235
0.453036 0.377729 0.130259
0.467034 0.384298 0.136637
0.481032 0.390866 0.143014
0.495030 0.397434 0.149392
0.509028 0.404002 0.155770
0.525003 0.407864 0.161844
0.542956 0.409020 0.167615
0.560909 0.410176 0.173386
0.578862 0.411332 0.179157
0.596815 0.412487 0.184927
0.613320 0.412941 0.189232
0.626931 0.411991 0.190604
0.640542 0.411041 0.191976
0.654152 0.410091 0.193349
0.667763 0.409142 0.194721
0.679841 0.408450 0.195927
0.684258 0.409049 0.196305
0.688675 0.409648 0.196684
0.693092 0.410248 0.197062
0.697509 0.410847 0.197440
0.701926 0.411446 0.197818
0.322006 0.283973 0.083753
0.335491 0.294221 0.087308
0.348977 0.304468 0.090864
0.362463 0.314715 0.094419
0.375948 0.324962 0.097975
0.389434 0.335210 0.101530
0.401940 0.344593 0.106684
0.414250 0.353803 0.112158
0.426560 0.363014 0.117631
0.438870 0.372224 0.123105
0.451180 0.381435 0.128578
0.464140 0.389055 0.134996
0.477424 0.395879 0.141886
0.490709 0.402703 0.148776
0.503993 0.409528 0.155666
0.517278 0.416352 0.162556
0.532260 0.420676 0.169353
0.548942 0.422500 0.176057
0.565623 0.424323 0.182761
0.582305 0.426147 0.189465
0.598986 0.427970 0.196169
0.614729 0.428653 0.201105
0.628596 0.427053 0.202504
0.642463 0.425454 0.203904
0.656329 0.423855 0.205304
0.670196 0.422255 0.206703
0.682505 0.420977 0.207933
0.687022 0.421301 0.208311
0.691540 0.421626 0.208689
0.696058 0.421951 0.209067
0.700575 0.422276 0.209445
0.705093 0.422600 0.209823
0.340644 0.298168 0.086904
0.353391 0.308013 0.090560
0.366139 0.317858 0.094216
0.378887 0.327703 0.097872
0.391634 0.337548 0.101528
0.404382 0.347392 0.105184
0.416163 0.356480 0.110513
0.427750 0.365416 0.116175
0.439338 0.374352 0.121838
0.450925 0.383288 0.127500
0.462513 0.392224 0.133163
0.474750 0.399862 0.139957
0.487311 0.406851 0.147317
0.499873 0.413840 0.154676
0.512435 0.420829 0.162036
0.524996 0.427818 0.169395
0.539057 0.432558 0.176884
0.554616 0.435050 0.184503
0.570175 0.437541 0.192122
0.585734 0.440032 0.199741
0.601294 0.442524 0.207359
0.616361 0.443597 0.213129
0.630444 0.441837 0.215199
0.644528 0.440076 0.217270
0.658611 0.438315 0.219340
0.672694 0.436554 0.221411
0.685202 0.435096 0.223197
0.689832 0.435155 0.223566
0.694463 0.435215 0.223935
0.699093 0.435274 0.224304
0.703724 0.435334 0.224673
0.708354 0.435393 0.225042
0.358179 0.311355 0.089740
0.370176 0.320816 0.093588
0.382174 0.330276 0.097436
0.394171 0.339737 0.101284
0.406169 0.349197 0.105133
0.418167 0.358658 0.108981
0.429251 0.367453 0.114555
0.440152 0.376114 0.120473
0.451053 0.384776 0.126392
0.461955 0.393438 0.132311
0.472856 0.402099 0.138230
0.484370 0.409634 0.145365
0.496191 0.416604 0.153109
0.508012 0.423575 0.160852
0.519832 0.430546 0.168596
0.531653 0.437517 0.176340
0.544931 0.442582 0.184460
0.559667 0.445741 0.192957
0.574403 0.448900 0.201454
0.589139 0.452059 0.209951
0.603875 0.455218 0.218448
0.618439 0.457008 0.225456
0.632660 0.456062 0.229484
0.646880 0.455115 0.233512
0.661101 0.454168 0.237540
0.675321 0.453221 0.241568
0.687966 0.452401 0.244982
0.692734 0.452213 0.245323
0.697501 0.452026 0.245665
0.702269 0.451838 0.246006
0.707037 0.451651 0.246348
0.711804 0.451463 0.246690
0.375714 0.324542 0.092576
0.386961 0.333618 0.096616
0.398209 0.342695 0.100656
0.409456 0.351771 0.104697
0.420704 0.360847 0.108737
0.431951 0.369924 0.112777
0.442338 0.378426 0.118596
0.452554 0.386813 0.124771
0.462769 0.395200 0.130946
0.472984 0.403587 0.137121
0.483199 0.411974 0.143296
0.493991 0.419405 0.150773
0.505071 0.426358 0.158901
0.516150 0.433310 0.167029
0.527230 0.440263 0.175157
0.538310 0.447215 0.183285
0.550806 0.452605 0.192036
0.564719 0.456432 0.201412
0.578631 0.460259 0.210787
0.592544 0.464085 0.220162
0.606456 0.467912 0.229537
0.620517 0.470419 0.237782
0.634875 0.470287 0.243768
0.649233 0.470154 0.249754
0.663590 0.470021 0.255740
0.677948 0.469889 0.261726
0.690730 0.469706 0.266766
0.695635 0.469271 0.267080
0.700540 0.468837 0.267394
0.705445 0.468402 0.267709
0.710350 0.467968 0.268023
0.715255 0.467533 0.268337
0.393249 0.337729 0.095411
0.403746 0.346421 0.099644
0.414244 0.355113 0.103876
0.424741 0.363805 0.108109
0.435238 0.372497 0.112341
0.445736 0.381189 0.116574
0.455426 0.389399 0.122638
0.464955 0.397511 0.129069
0.474484 0.405624 0.135500
0.484014 0.413737 0.141931
0.493543 0.421850 0.148362
0.503612 0.429177 0.156181
0.513950 0.436111 0.164693
0.524289 0.443045 0.173205
0.534628 0.449979 0.181718
0.544967 0.456913 0.190230
0.556681 0.462628 0.199612
0.569770 0.467123 0.209866
0.582859 0.471617 0.220119
0.595948 0.476112 0.230373
0.609037 0.480607 0.240626
0.622595 0.483830 0.250109
0.637090 0.484512 0.258053
0.651585 0.485193 0.265996
0.666080 0.485875 0.273940
0.680575 0.486556 0.281883
0.693495 0.487011 0.288551
0.698537 0.486329 0.288837
0.703579 0.485648 0.289124
0.708621 0.484966 0.289411
0.713663 0.484285 0.289697
0.718705 0.483603 0.289984
0.410784 0.350916 0.098247
0.420531 0.359224 0.102672
0.430279 0.367532 0.107096
0.440026 0.375839 0.111521
0.449773 0.384147 0.115946
0.459520 0.392455 0.120370
0.468514 0.400372 0.126680
0.477357 0.408210 0.133367
0.486200 0.416048 0.140055
0.495043 0.423887 0.146742
0.503886 0.431725 0.153429
0.513232 0.438948 0.161589
0.522830 0.445864 0.170485
0.532428 0.452780 0.179382
0.542025 0.459696 0.188278
0.551623 0.466612 0.197175
0.562555 0.472651 0.207189
0.574821 0.477813 0.218320
0.587087 0.482976 0.229452
0.599353 0.488139 0.240583
0.611619 0.493301 0.251715
0.624673 0.497241 0.262436
0.639306 0.498737 0.272337
0.653938 0.500233 0.282239
0.668570 0.501728 0.292140
0.683202 0.503224 0.302041
0.696259 0.504316 0.310335
0.701438 0.503387 0.310594
0.706617 0.502459 0.310853
0.711797 0.501530 0.311113
0.716976 0.500602 0.311372
0.722155 0.499673 0.311631
0.427689 0.363598 0.100894
0.436701 0.371540 0.105547
0.445714 0.379482 0.110201
0.454726 0.387424 0.114854
0.463738 0.395366 0.119507
0.472751 0.403308 0.124160
0.481079 0.410955 0.130749
0.489271 0.418544 0.137724
0.497463 0.426132 0.144699
0.505655 0.433720 0.151675
0.513847 0.441308 0.158650
0.522512 0.448433 0.167162
0.531413 0.455326 0.176443
0.540314 0.462219 0.185724
0.549215 0.469112 0.195004
0.558116 0.476005 0.204285
0.568308 0.482333 0.214903
0.579792 0.488094 0.226857
0.591276 0.493856 0.238812
0.602760 0.499618 0.250767
0.614243 0.505379 0.262722
0.626775 0.509998 0.274603
0.641403 0.512331 0.286335
0.656030 0.514664 0.298067
0.670658 0.516996 0.309800
0.685286 0.519329 0.321532
0.698383 0.521113 0.331421
0.703827 0.520154 0.332097
0.709272 0.519195 0.332772
0.714716 0.518236 0.333448
0.720161 0.517277 0.334123
0.725606 0.516318 0.334799
0.441443 0.373760 0.102596
0.449797 0.381428 0.107661
0.458150 0.389095 0.112725
0.466504 0.396763 0.117790
0.474858 0.404430 0.122855
0.483211 0.412098 0.127920
0.491034 0.419593 0.134951
0.498750 0.427053 0.142374
0.506466 0.434513 0.149798
0.514183 0.441973 0.157222
0.521899 0.449433 0.164645
0.530088 0.456485 0.173563
0.538513 0.463332 0.183228
0.546939 0.470179 0.192893
0.555364 0.477027 0.202557
0.563789 0.483874 0.212222
0.573456 0.490307 0.223307
0.584363 0.496324 0.235810
0.595270 0.502342 0.248314
0.606178 0.508360 0.260818
