filters/luts/Suburbs 04_S.cube
# LUT by SparkleStock. Enhanced with VOXCOLOR algorithms.
LUT_3D_SIZE 5
DOMAIN_MIN 0.000000 0.000000 0.000000
DOMAIN_MAX 0.903226 0.903226 0.903226
0.046886 0.082051 0.042979
0.225830 0.109457 0.035188
0.412407 0.140770 0.034842
0.565914 0.184127 0.032620
0.658340 0.230683 0.028343
0.090898 0.141510 0.052858
0.214366 0.207900 0.054008
0.433081 0.230466 0.042903
0.609677 0.248506 0.038647
0.690192 0.272669 0.041764
0.156209 0.209918 0.063965
0.259692 0.284235 0.077867
0.414529 0.344842 0.085194
0.620326 0.341066 0.076399
0.712925 0.336563 0.080294
0.243003 0.285572 0.080019
0.333619 0.344945 0.108053
0.450163 0.407372 0.152313
0.618764 0.441267 0.190272
0.729199 0.425106 0.193425
0.339312 0.350585 0.089204
0.415486 0.399863 0.145741
0.504027 0.456034 0.222815
0.622179 0.516027 0.321399
0.745487 0.551448 0.401302
0.044232 0.121698 0.214904
0.195419 0.153455 0.172649
0.424284 0.176921 0.158837
0.588331 0.213560 0.163359
0.663165 0.260401 0.157093
0.059447 0.188572 0.249308
0.235538 0.251539 0.239525
0.447119 0.274637 0.234527
0.634851 0.297451 0.230338
0.742250 0.341175 0.219477
0.101956 0.257428 0.291026
0.293787 0.353028 0.271816
0.450936 0.427909 0.274876
0.654605 0.436546 0.271213
0.785037 0.451031 0.275320
0.173213 0.331263 0.326218
0.390409 0.432651 0.302811
0.515823 0.518252 0.332043
0.653836 0.573529 0.359370
0.798035 0.576856 0.367515
0.260528 0.397301 0.348553
0.496223 0.501428 0.338711
0.598029 0.575892 0.399384
0.686942 0.646468 0.476143
0.793541 0.686556 0.522235
0.037985 0.172216 0.388578
0.155138 0.205507 0.351254
0.417009 0.268231 0.315272
0.600222 0.292834 0.310365
0.667639 0.328530 0.309218
0.045882 0.247792 0.433469
0.215720 0.309647 0.419404
0.440872 0.346707 0.413970
0.639972 0.368227 0.409584
0.756496 0.418107 0.402506
0.056547 0.316440 0.473283
0.277767 0.413006 0.464112
0.475077 0.481000 0.474117
0.671488 0.491878 0.466515
0.823787 0.513752 0.459886
0.093271 0.374173 0.511821
0.359197 0.500664 0.512063
0.556951 0.594558 0.511197
0.684408 0.653397 0.518894
0.843648 0.664427 0.517004
0.162998 0.431705 0.533606
0.460364 0.574146 0.552911
0.660400 0.669044 0.554796
0.738943 0.739321 0.601626
0.836045 0.786108 0.624377
0.035598 0.228343 0.509260
0.116063 0.256585 0.492401
0.351895 0.333498 0.462913
0.596174 0.397402 0.443187
0.671069 0.414733 0.436845
0.040011 0.304816 0.555914
0.190292 0.374061 0.552228
0.408443 0.444149 0.553723
0.628821 0.489659 0.550971
0.750024 0.526403 0.545832
0.046658 0.368786 0.587997
0.259209 0.472115 0.592404
0.465308 0.556906 0.614486
0.664269 0.590645 0.629954
0.818379 0.609526 0.627039
0.052693 0.405111 0.606324
0.355129 0.555051 0.624716
0.556037 0.652928 0.654997
0.701243 0.707247 0.675817
0.854900 0.713170 0.670874
0.086765 0.437837 0.617517
0.445124 0.621949 0.660838
0.649917 0.729723 0.698752
0.772109 0.796963 0.719907
0.860219 0.837679 0.729669
0.035165 0.293544 0.582717
0.095607 0.317928 0.578959
0.298797 0.393959 0.568244
0.551390 0.475465 0.550671
0.669199 0.489132 0.523816
0.039449 0.353770 0.614301
0.179628 0.427812 0.620431
0.381768 0.519938 0.638329
0.609878 0.605249 0.649736
0.746950 0.643682 0.643401
0.044561 0.403438 0.635026
0.250337 0.514593 0.654302
0.463519 0.618327 0.683819
0.664964 0.699000 0.716608
0.804963 0.741296 0.730326
0.047143 0.425486 0.641838
0.344312 0.586685 0.679012
0.565375 0.699608 0.719415
0.718218 0.773201 0.757050
0.845194 0.808879 0.782279
0.050686 0.432241 0.642925
0.471381 0.657206 0.704730
0.679257 0.769147 0.750797
0.792791 0.832172 0.785135
0.870437 0.866006 0.806958
