filters/luts/Suburbs 02_S.cube
# LUT by SparkleStock. Enhanced with VOXCOLOR algorithms.
LUT_3D_SIZE 8
DOMAIN_MIN 0.000000 0.000000 0.000000
DOMAIN_MAX 0.903226 0.903226 0.903226
0.089866 0.093773 0.082051
0.152728 0.106566 0.080948
0.238631 0.119359 0.083390
0.339777 0.133711 0.087471
0.442081 0.150884 0.092481
0.532357 0.171460 0.097397
0.601505 0.194147 0.101414
0.645524 0.214786 0.104171
0.103982 0.117153 0.085580
0.148316 0.153056 0.084278
0.246287 0.164767 0.081541
0.360041 0.174822 0.081409
0.470314 0.186936 0.084256
0.562667 0.201678 0.089826
0.627211 0.218281 0.097237
0.660401 0.233584 0.104989
0.123219 0.144472 0.087140
0.171616 0.187654 0.088129
0.243575 0.227081 0.085719
0.359518 0.238060 0.083192
0.478923 0.242206 0.084105
0.576911 0.247987 0.089517
0.642551 0.255388 0.098734
0.672039 0.262458 0.109702
0.151215 0.177809 0.089850
0.203881 0.222457 0.092959
0.268192 0.270833 0.094703
0.357804 0.301130 0.094952
0.473046 0.305836 0.095562
0.578348 0.301410 0.099845
0.648685 0.298295 0.108978
0.679587 0.296180 0.120914
0.189515 0.217598 0.094285
0.244010 0.260751 0.099386
0.304927 0.307589 0.105905
0.377332 0.347333 0.113197
0.471701 0.364642 0.120755
0.572184 0.360084 0.126820
0.648974 0.347288 0.134227
0.684499 0.336818 0.144817
0.237820 0.262500 0.099736
0.291489 0.302579 0.107285
0.347261 0.344589 0.118411
0.409619 0.383410 0.133387
0.483747 0.411193 0.152063
0.570979 0.418186 0.170248
0.648205 0.406752 0.182458
0.689721 0.390244 0.189928
0.294647 0.309480 0.104856
0.344275 0.345604 0.116212
0.393852 0.382267 0.132428
0.445883 0.417279 0.154196
0.505435 0.448018 0.183452
0.576535 0.468767 0.218767
0.649056 0.472337 0.249135
0.698011 0.461516 0.264881
0.358722 0.353704 0.108244
0.399897 0.385018 0.125861
0.442076 0.417481 0.148731
0.484498 0.448981 0.177214
0.531314 0.479611 0.214982
0.586724 0.508744 0.263946
0.650761 0.531580 0.318728
0.704808 0.541126 0.360670
0.091630 0.103478 0.127268
0.137359 0.117665 0.119391
0.234590 0.127228 0.120574
0.346565 0.138422 0.126718
0.454305 0.153417 0.133976
0.543983 0.172997 0.139746
0.607232 0.195748 0.142468
0.642542 0.217056 0.141369
0.099571 0.134827 0.145340
0.160421 0.164387 0.151300
0.256776 0.178144 0.155233
0.367915 0.189192 0.159697
0.478894 0.201448 0.163732
0.575662 0.217405 0.166454
0.646949 0.238095 0.167211
0.685774 0.262267 0.165554
0.114410 0.163711 0.159309
0.185017 0.208075 0.159424
0.263092 0.252013 0.163788
0.375221 0.266817 0.166576
0.493177 0.273867 0.169372
0.595750 0.282775 0.172962
0.670554 0.295073 0.177091
0.709831 0.310547 0.181027
0.136345 0.197063 0.172449
0.219639 0.251260 0.164029
0.291587 0.307935 0.171348
0.379745 0.346709 0.177877
0.493083 0.357483 0.181697
0.602075 0.358040 0.186116
0.682543 0.360791 0.193047
0.726316 0.366577 0.201845
0.167259 0.236652 0.185629
0.265634 0.296110 0.170172
0.334334 0.354036 0.181355
0.405782 0.404545 0.195305
0.495702 0.432192 0.206451
0.597677 0.435567 0.214098
0.685074 0.429673 0.222080
0.736270 0.427378 0.233294
0.207225 0.281582 0.198337
0.320969 0.343364 0.178901
0.385203 0.397018 0.194440
0.446411 0.446680 0.216825
0.514807 0.485793 0.239371
0.597725 0.502706 0.257798
0.681260 0.499694 0.270580
0.740382 0.491649 0.281564
0.255287 0.328855 0.209754
0.382014 0.391790 0.189922
0.440230 0.438475 0.210818
0.491271 0.482999 0.241889
0.546082 0.523085 0.276465
0.609079 0.552325 0.310587
0.679410 0.562954 0.337335
0.740647 0.559147 0.353862
0.310382 0.373193 0.219261
0.444813 0.437551 0.202129
0.494482 0.476929 0.229930
0.535728 0.515672 0.270623
0.579273 0.553766 0.316872
0.627974 0.587833 0.366132
0.683976 0.612388 0.412875
0.738928 0.622772 0.446732
0.094773 0.118303 0.193556
0.130662 0.129083 0.179796
0.228090 0.149988 0.173620
0.347756 0.161364 0.177546
0.461180 0.173465 0.185064
0.551505 0.190752 0.191255
0.611130 0.212049 0.193687
0.640578 0.232920 0.191513
0.102408 0.153886 0.223504
0.159755 0.180976 0.221709
0.251913 0.197220 0.226232
0.367879 0.207850 0.232685
0.483777 0.219503 0.238180
0.582556 0.236204 0.240836
0.653765 0.259458 0.239637
0.692292 0.288317 0.234475
0.111732 0.194258 0.252454
0.180455 0.232988 0.248459
0.270414 0.270280 0.257909
0.383708 0.285545 0.264178
0.501279 0.294540 0.268061
0.606994 0.305723 0.270025
0.688772 0.321972 0.269697
0.737440 0.344558 0.267072
0.126626 0.228844 0.276711
0.207597 0.280839 0.268628
0.301591 0.333360 0.272128
0.395370 0.374052 0.279054
0.507711 0.388842 0.283555
0.619147 0.393724 0.286448
0.708164 0.401494 0.289359
0.764593 0.414101 0.292455
0.148719 0.266271 0.298876
0.245679 0.328422 0.286777
0.347192 0.387965 0.282047
0.427299 0.442660 0.293133
0.515795 0.476602 0.304205
0.619258 0.486318 0.310427
0.714810 0.486367 0.315728
0.779695 0.490418 0.323377
0.178771 0.308993 0.319097
0.294281 0.377513 0.304808
0.403852 0.438298 0.294119
0.475423 0.493697 0.311241
0.541506 0.539640 0.333095
0.622641 0.564408 0.348743
0.711460 0.568655 0.358683
0.784933 0.566846 0.367945
0.216561 0.354163 0.336163
0.350183 0.426988 0.322956
0.465590 0.485930 0.310132
0.528815 0.536289 0.334172
0.580796 0.581851 0.368133
0.639342 0.618211 0.398119
0.709393 0.636100 0.419494
0.781063 0.638549 0.433109
0.261077 0.396442 0.349425
0.409160 0.472931 0.340580
0.525431 0.529575 0.329999
0.579801 0.573150 0.362317
0.620261 0.614600 0.408685
0.664874 0.652984 0.454061
0.716452 0.682065 0.492641
0.773899 0.696802 0.518942
0.099815 0.137209 0.272772
0.126738 0.145256 0.257460
0.212965 0.168766 0.242809
0.342204 0.196256 0.240111
0.463678 0.212028 0.245079
0.555963 0.225504 0.250701
0.613875 0.243308 0.252928
0.639691 0.261530 0.250709
0.107535 0.176577 0.313335
0.158410 0.203762 0.305504
0.243261 0.224015 0.303492
0.362520 0.242551 0.307306
0.482872 0.256310 0.312995
0.583384 0.272214 0.316009
0.654457 0.295699 0.314233
0.693339 0.326272 0.308068
0.115369 0.223479 0.349508
0.179196 0.260851 0.341050
0.268040 0.297504 0.347304
0.381520 0.315342 0.355783
0.501010 0.325484 0.361771
0.608843 0.337521 0.363740
0.692958 0.356252 0.361687
0.746289 0.383451 0.356397
0.124726 0.265225 0.379978
0.204195 0.314846 0.369874
0.299044 0.363727 0.376340
0.400998 0.400235 0.386851
0.515403 0.414815 0.392330
0.627375 0.421621 0.393712
0.721034 0.432127 0.393116
0.786501 0.449289 0.391071
0.138503 0.300993 0.407245
0.234575 0.364346 0.398282
0.338131 0.422541 0.399784
0.436176 0.473372 0.406601
0.530636 0.507228 0.413639
0.634051 0.519794 0.417159
0.734129 0.523464 0.418688
0.809247 0.531688 0.421155
0.158898 0.338220 0.431452
0.273444 0.412712 0.425258
0.387766 0.476530 0.421647
0.487044 0.532057 0.423481
0.562897 0.579059 0.435971
0.642627 0.607431 0.447582
0.734195 0.616348 0.453367
0.817341 0.618618 0.458526
0.186695 0.378763 0.451165
0.320999 0.460922 0.449252
0.445482 0.526704 0.443732
0.545394 0.581110 0.443326
0.609612 0.628608 0.463995
0.665120 0.668131 0.488670
0.734750 0.690944 0.504199
0.813131 0.697832 0.513252
0.221623 0.417269 0.465171
0.373736 0.505095 0.470040
0.504324 0.571352 0.466880
0.601462 0.622552 0.468319
0.655700 0.665975 0.498393
0.696816 0.705660 0.537753
0.745248 0.738468 0.568588
0.804361 0.757543 0.588001
0.106227 0.159156 0.354973
0.125537 0.165488 0.341696
0.197843 0.188573 0.324156
0.321521 0.224776 0.313166
0.456352 0.256250 0.312358
0.558310 0.274445 0.315822
0.616008 0.286990 0.317367
0.640098 0.300230 0.314797
0.113947 0.202309 0.402516
0.158816 0.230716 0.392651
0.234450 0.255850 0.387028
0.349061 0.283586 0.384622
0.475213 0.306838 0.387246
0.580394 0.325124 0.390025
0.651703 0.346043 0.388460
0.691621 0.374631 0.382301
0.121546 0.252373 0.441902
0.180440 0.290973 0.432208
0.264080 0.331059 0.435100
0.374175 0.357164 0.440586
0.494546 0.373772 0.447111
0.603665 0.387557 0.450353
0.688434 0.406123 0.448209
0.744902 0.434309 0.442203
0.128600 0.298734 0.473371
0.204952 0.348725 0.463939
0.297053 0.398605 0.470761
0.399692 0.437085 0.481882
0.513605 0.454637 0.491154
0.625069 0.462891 0.494560
0.720236 0.474239 0.492782
0.790998 0.493928 0.488663
0.136382 0.335008 0.498835
0.235518 0.400700 0.491530
0.336306 0.458525 0.499292
0.437147 0.507311 0.510633
0.536064 0.539223 0.521155
0.640394 0.551376 0.524807
0.741187 0.555968 0.523412
0.822026 0.566032 0.521891
0.148112 0.366187 0.521346
0.269141 0.447490 0.519973
0.380031 0.512829 0.527849
0.484310 0.567486 0.535153
0.572545 0.611736 0.544680
0.656822 0.638846 0.551199
0.747931 0.648699 0.552716
0.835806 0.652488 0.553423
0.166572 0.398553 0.540032
0.307926 0.491870 0.546938
0.429612 0.562591 0.556169
0.538114 0.619694 0.559714
0.622075 0.667086 0.568234
0.685685 0.705846 0.581752
0.753263 0.729696 0.591933
0.834070 0.738673 0.596474
0.193057 0.431035 0.551981
0.354099 0.532647 0.568027
0.484318 0.606135 0.581293
0.593845 0.662923 0.585070
0.672714 0.708564 0.595617
0.723910 0.747828 0.619241
0.768715 0.781183 0.643441
0.827233 0.802723 0.657199
0.113569 0.183859 0.431825
0.127159 0.189139 0.422419
0.186908 0.211653 0.407403
0.297053 0.249960 0.393207
0.433681 0.293271 0.385665
0.550345 0.323574 0.383576
0.617931 0.337972 0.382632
0.641450 0.344806 0.379234
0.120947 0.230001 0.480762
0.161149 0.259823 0.472224
0.227715 0.289678 0.467681
0.333237 0.325531 0.462798
0.459238 0.360475 0.460986
0.571725 0.386421 0.461076
0.648199 0.406787 0.459248
0.689097 0.429992 0.453611
0.128129 0.281224 0.519841
0.182928 0.321778 0.512393
0.261959 0.366546 0.514761
0.365962 0.402974 0.518461
0.484504 0.431632 0.523336
0.594559 0.452106 0.527157
0.680152 0.470518 0.526383
0.738752 0.495558 0.520800
0.134241 0.328099 0.549233
0.206730 0.380151 0.543848
0.297614 0.433941 0.550465
0.396992 0.479062 0.561417
0.508892 0.506965 0.572393
0.617567 0.522038 0.579823
0.710644 0.534505 0.580726
0.784072 0.553331 0.576482
0.139165 0.364578 0.570377
0.237592 0.432836 0.567861
0.338981 0.493261 0.578118
0.437948 0.544845 0.593692
0.537339 0.580917 0.608655
0.638691 0.597166 0.618165
0.735931 0.603414 0.619899
0.819321 0.613377 0.616970
0.144675 0.390716 0.586830
0.273669 0.478771 0.590279
0.385748 0.546605 0.603884
0.486195 0.601872 0.620803
0.577087 0.645402 0.635597
0.662594 0.672058 0.645919
0.751545 0.681659 0.648717
0.839941 0.684994 0.646658
0.154560 0.413341 0.600226
0.310687 0.519099 0.613213
0.433942 0.594295 0.630759
0.536851 0.652467 0.647616
0.625652 0.699072 0.659707
0.696816 0.735610 0.670935
0.765332 0.757443 0.677911
0.844061 0.765512 0.678864
0.172731 0.436678 0.608420
0.350082 0.554371 0.632671
0.483191 0.635018 0.655823
0.588519 0.695015 0.674166
0.675234 0.742288 0.685085
0.738780 0.780852 0.698973
0.787022 0.812341 0.714578
0.841838 0.833172 0.724285
0.121289 0.212446 0.499902
0.131207 0.217299 0.494508
0.181186 0.239564 0.484262
0.278611 0.278941 0.472404
0.405904 0.326185 0.461854
0.529726 0.366587 0.453947
0.612375 0.386968 0.446612
0.643246 0.389501 0.438518
0.127792 0.259128 0.542991
0.165222 0.289848 0.537681
0.224558 0.323744 0.536825
0.321012 0.366827 0.535075
0.440999 0.411927 0.532680
0.557403 0.448536 0.530281
0.642583 0.472017 0.525802
0.688662 0.489070 0.518547
0.134098 0.309419 0.577325
0.186469 0.351643 0.574297
0.262663 0.400637 0.578297
0.360182 0.446288 0.584493
0.474393 0.488360 0.589972
0.584833 0.521085 0.594334
0.672267 0.543562 0.594604
0.732541 0.564140 0.589679
0.139313 0.354015 0.602207
0.209170 0.408237 0.602623
0.299963 0.466440 0.611203
0.396780 0.518519 0.623490
0.505785 0.559872 0.635734
0.611891 0.588614 0.646614
0.701273 0.607546 0.651939
0.772954 0.624965 0.650140
0.143126 0.388009 0.618613
0.237837 0.458562 0.623642
0.341248 0.523537 0.636771
0.441541 0.580419 0.653656
0.539585 0.625255 0.670999
0.637178 0.653266 0.686797
0.727705 0.668025 0.696078
0.806859 0.679501 0.697164
0.145604 0.410054 0.628719
0.275932 0.502612 0.639738
0.391425 0.574614 0.657266
0.493655 0.633229 0.677615
0.583072 0.680285 0.697934
0.666589 0.712412 0.715956
0.749570 0.727900 0.726853
0.831434 0.733902 0.729408
0.149217 0.424330 0.635688
0.318702 0.540871 0.655672
0.446438 0.620781 0.678030
0.548282 0.680398 0.700641
0.632803 0.727391 0.721543
0.704355 0.763769 0.738978
0.771214 0.786024 0.750213
0.843384 0.794462 0.754155
0.158977 0.436838 0.639698
0.359842 0.572334 0.671134
0.498972 0.659811 0.699367
0.601461 0.721255 0.724108
0.681629 0.768184 0.744885
0.747108 0.805473 0.761115
0.798816 0.834418 0.774212
0.849511 0.852526 0.783200
0.129639 0.248478 0.562700
0.137665 0.253686 0.560110
0.181368 0.276485 0.553772
0.269295 0.317043 0.545363
0.387429 0.366507 0.536073
0.507543 0.410860 0.525790
0.598576 0.434673 0.511621
0.642280 0.433466 0.493285
0.134164 0.290649 0.591118
0.170987 0.321313 0.589242
0.225769 0.358499 0.592339
0.315539 0.408020 0.595749
0.429429 0.461891 0.597907
0.544099 0.508751 0.597124
0.635330 0.538332 0.590737
0.690599 0.551269 0.578564
0.138810 0.337178 0.615635
0.190757 0.380278 0.617553
0.266704 0.431824 0.623924
0.359435 0.484582 0.634369
0.468818 0.538042 0.644874
0.578514 0.584766 0.652561
0.668349 0.617017 0.654578
0.731392 0.637069 0.649483
0.142827 0.377242 0.633339
0.211807 0.433049 0.639745
0.304448 0.494590 0.651408
0.400818 0.551855 0.665665
0.506356 0.604039 0.681751
0.611244 0.648369 0.696387
0.699017 0.680513 0.706228
0.766992 0.702356 0.708460
0.145714 0.406072 0.644055
0.238424 0.478605 0.656161
0.344891 0.547845 0.673235
0.447912 0.609445 0.691959
0.545305 0.661653 0.711485
0.641679 0.703748 0.730556
0.726995 0.734080 0.746587
0.797485 0.754444 0.755094
0.147387 0.423548 0.649413
0.273722 0.518043 0.668965
0.393143 0.594709 0.690943
0.500408 0.658343 0.713583
0.592265 0.710383 0.735636
0.675442 0.751455 0.756846
0.751513 0.780278 0.776090
0.822026 0.798046 0.788717
0.148354 0.431884 0.651796
0.320826 0.554195 0.680688
0.453536 0.639038 0.707384
0.559374 0.702270 0.732302
0.645363 0.751819 0.755652
0.715663 0.790985 0.777277
0.777158 0.819250 0.796558
0.839468 0.836044 0.809768
0.151821 0.435641 0.652838
0.372621 0.585842 0.692649
0.518552 0.679421 0.724294
0.620848 0.742151 0.750730
0.697684 0.788274 0.773999
0.758780 0.824399 0.795020
0.808047 0.852303 0.813048
0.853781 0.870631 0.825484
