filters/luts/Suburbs 04_S.cube
# LUT by SparkleStock. Enhanced with VOXCOLOR algorithms.
LUT_3D_SIZE 32
0.046886 0.082051 0.042979
0.071700 0.085966 0.041380
0.096514 0.089881 0.039781
0.121328 0.093797 0.038182
0.146142 0.097712 0.036583
0.172122 0.101627 0.035740
0.198976 0.105542 0.035464
0.225830 0.109457 0.035188
0.252684 0.113372 0.034913
0.279554 0.117374 0.034684
0.306519 0.121895 0.034739
0.333483 0.126417 0.034795
0.360447 0.130939 0.034850
0.387412 0.135460 0.034905
0.412407 0.140770 0.034842
0.436614 0.146394 0.034732
0.460822 0.152019 0.034621
0.485029 0.157643 0.034511
0.507850 0.163614 0.034275
0.527205 0.170452 0.033723
0.546560 0.177289 0.033172
0.565914 0.184127 0.032620
0.585269 0.190965 0.032069
0.599614 0.197991 0.031376
0.613124 0.205049 0.030659
0.626634 0.212108 0.029942
0.640143 0.219166 0.029225
0.651006 0.225444 0.028674
0.658340 0.230683 0.028343
0.665674 0.235921 0.028012
0.673008 0.241160 0.027681
0.680342 0.246398 0.027350
0.052566 0.090323 0.044634
0.074740 0.095645 0.043445
0.096914 0.100967 0.042257
0.119089 0.106289 0.041069
0.141263 0.111611 0.039881
0.166901 0.115923 0.038972
0.195137 0.119477 0.038273
0.223374 0.123031 0.037574
0.251610 0.126585 0.036875
0.279809 0.130218 0.036243
0.307782 0.134329 0.036011
0.335754 0.138440 0.035780
0.363727 0.142550 0.035549
0.391700 0.146661 0.035318
0.417402 0.151533 0.035102
0.442194 0.156709 0.034892
0.466987 0.161885 0.034682
0.491779 0.167062 0.034472
0.515054 0.172577 0.034189
0.534533 0.178942 0.033725
0.554013 0.185306 0.033261
0.573492 0.191671 0.032797
0.592971 0.198035 0.032332
0.606992 0.204642 0.031812
0.620104 0.211289 0.031282
0.633215 0.217937 0.030751
0.646326 0.224584 0.030221
0.656593 0.230505 0.029857
0.663068 0.235457 0.029713
0.669543 0.240409 0.029569
0.676018 0.245361 0.029424
0.682492 0.250313 0.029280
0.058246 0.098594 0.046288
0.077780 0.105323 0.045510
0.097315 0.112052 0.044733
0.116849 0.118781 0.043956
0.136384 0.125510 0.043178
0.161680 0.130219 0.042204
0.191299 0.133412 0.041082
0.220917 0.136604 0.039959
0.250535 0.139797 0.038837
0.280063 0.143063 0.037801
0.309044 0.146763 0.037283
0.338026 0.150462 0.036765
0.367008 0.154162 0.036248
0.395989 0.157862 0.035730
0.422397 0.162296 0.035361
0.447774 0.167024 0.035052
0.473152 0.171752 0.034742
0.498530 0.176480 0.034433
0.522258 0.181541 0.034104
0.541862 0.187432 0.033727
0.561466 0.193323 0.033350
0.581070 0.199215 0.032973
0.600673 0.205106 0.032596
0.614371 0.211293 0.032247
0.627084 0.217529 0.031904
0.639797 0.223766 0.031561
0.652509 0.230002 0.031217
0.662181 0.235565 0.031040
0.667796 0.240231 0.031082
0.673412 0.244897 0.031125
0.679027 0.249562 0.031168
0.684643 0.254228 0.031210
0.063925 0.106865 0.047942
0.080820 0.115001 0.047576
0.097715 0.123137 0.047209
0.114610 0.131274 0.046843
0.131504 0.139410 0.046476
0.156460 0.144515 0.045436
0.187460 0.147347 0.043890
0.218461 0.150178 0.042344
0.249461 0.153010 0.040799
0.280317 0.155907 0.039359
0.310307 0.159196 0.038555
0.340297 0.162485 0.037751
0.370288 0.165774 0.036947
0.400278 0.169063 0.036143
0.427391 0.173060 0.035621
0.453354 0.177339 0.035212
0.479317 0.181619 0.034803
0.505280 0.185899 0.034394
0.529462 0.190504 0.034019
0.549190 0.195922 0.033729
0.568919 0.201340 0.033439
0.588647 0.206758 0.033149
0.608375 0.212176 0.032859
0.621749 0.217944 0.032683
0.634064 0.223769 0.032527
0.646378 0.229595 0.032370
0.658692 0.235420 0.032214
0.667768 0.240626 0.032222
0.672524 0.245005 0.032452
0.677281 0.249385 0.032681
0.682037 0.253764 0.032911
0.686793 0.258143 0.033140
0.069605 0.115136 0.049596
0.083860 0.124680 0.049641
0.098115 0.134223 0.049685
0.112370 0.143766 0.049730
0.126625 0.153309 0.049774
0.151239 0.158811 0.048668
0.183622 0.161281 0.046699
0.216004 0.163752 0.044730
0.248387 0.166223 0.042761
0.280572 0.168752 0.040917
0.311570 0.171630 0.039827
0.342569 0.174508 0.038736
0.373568 0.177386 0.037646
0.404566 0.180264 0.036556
0.432386 0.183823 0.035881
0.458934 0.187655 0.035372
0.485483 0.191486 0.034863
0.512031 0.195318 0.034354
0.536666 0.199467 0.033933
0.556519 0.204412 0.033730
0.576372 0.209357 0.033528
0.596225 0.214302 0.033325
0.616078 0.219247 0.033122
0.629127 0.224595 0.033119
0.641043 0.230009 0.033149
0.652959 0.235424 0.033179
0.664875 0.240838 0.033210
0.673355 0.245687 0.033405
0.677252 0.249779 0.033822
0.681149 0.253872 0.034238
0.685047 0.257965 0.034654
0.688944 0.262058 0.035070
0.076230 0.123754 0.050872
0.089460 0.134021 0.051214
0.102691 0.144289 0.051555
0.115921 0.154556 0.051897
0.129152 0.164823 0.052239
0.152600 0.171193 0.051319
0.183710 0.174640 0.049453
0.214821 0.178087 0.047587
0.245932 0.181535 0.045721
0.277183 0.184842 0.043924
0.309276 0.187309 0.042540
0.341368 0.189776 0.041156
0.373461 0.192243 0.039772
0.405554 0.194710 0.038388
0.434206 0.197776 0.037528
0.461481 0.201081 0.036877
0.488757 0.204386 0.036226
0.516033 0.207691 0.035575
0.541274 0.211301 0.035062
0.561429 0.215673 0.034897
0.581585 0.220045 0.034732
0.601740 0.224417 0.034566
0.621895 0.228790 0.034401
0.634872 0.233612 0.034539
0.646653 0.238509 0.034727
0.658434 0.243406 0.034916
0.670215 0.248303 0.035104
0.678374 0.252708 0.035461
0.681704 0.256458 0.036043
0.685034 0.260207 0.036625
0.688363 0.263957 0.037206
0.691693 0.267706 0.037788
0.083564 0.132632 0.051865
0.096981 0.143111 0.052418
0.110398 0.153590 0.052971
0.123816 0.164069 0.053525
0.137233 0.174547 0.054078
0.158897 0.182139 0.053533
0.186745 0.187566 0.052165
0.214594 0.192993 0.050797
0.242442 0.198420 0.049430
0.271062 0.203366 0.048017
0.304313 0.205422 0.046334
0.337564 0.207478 0.044651
0.370814 0.209535 0.042969
0.404065 0.211591 0.041286
0.433643 0.214121 0.040216
0.461753 0.216841 0.039390
0.489863 0.219561 0.038565
0.517973 0.222280 0.037739
0.543935 0.225287 0.037103
0.564526 0.229012 0.036937
0.585117 0.232737 0.036772
0.605708 0.236462 0.036606
0.626299 0.240186 0.036441
0.639392 0.244404 0.036696
0.651235 0.248703 0.037022
0.663078 0.253002 0.037347
0.674921 0.257301 0.037673
0.682967 0.261200 0.038172
0.685948 0.264563 0.038903
0.688929 0.267927 0.039634
0.691910 0.271291 0.040365
0.694891 0.274654 0.041097
0.090898 0.141510 0.052858
0.104502 0.152201 0.053622
0.118106 0.162891 0.054387
0.131710 0.173581 0.055152
0.145314 0.184272 0.055917
0.165193 0.193086 0.055748
0.189780 0.200493 0.054878
0.214366 0.207900 0.054008
0.238952 0.215306 0.053138
0.264942 0.221890 0.052110
0.299350 0.223535 0.050128
0.333759 0.225181 0.048147
0.368167 0.226826 0.046165
0.402576 0.228472 0.044183
0.433081 0.230466 0.042903
0.462026 0.232601 0.041904
0.490970 0.234735 0.040904
0.519914 0.236870 0.039904
0.546596 0.239274 0.039143
0.567623 0.242351 0.038978
0.588650 0.245428 0.038812
0.609677 0.248506 0.038647
0.630704 0.251583 0.038481
0.643912 0.255195 0.038854
0.655817 0.258897 0.039316
0.667723 0.262599 0.039779
0.679628 0.266300 0.040241
0.687559 0.269692 0.040883
0.690192 0.272669 0.041764
0.692825 0.275647 0.042644
0.695457 0.278625 0.043525
0.698090 0.281602 0.044405
0.098232 0.150388 0.053850
0.112022 0.161290 0.054827
0.125813 0.172192 0.055803
0.139604 0.183094 0.056780
0.153395 0.193996 0.057756
0.171490 0.204032 0.057962
0.192814 0.213419 0.057591
0.214138 0.222806 0.057219
0.235462 0.232192 0.056847
0.258821 0.240414 0.056203
0.294387 0.241649 0.053922
0.329954 0.242883 0.051642
0.365521 0.244118 0.049361
0.401087 0.245352 0.047081
0.432519 0.246811 0.045591
0.462298 0.248361 0.044417
0.492076 0.249910 0.043243
0.521855 0.251459 0.042069
0.549257 0.253260 0.041183
0.570720 0.255690 0.041018
0.592183 0.258120 0.040852
0.613645 0.260550 0.040687
0.635108 0.262980 0.040521
0.648432 0.265987 0.041012
0.660400 0.269091 0.041611
0.672367 0.272195 0.042211
0.684335 0.275299 0.042810
0.692152 0.278183 0.043594
0.694436 0.280775 0.044624
0.696720 0.283367 0.045654
0.699004 0.285958 0.046684
0.701288 0.288550 0.047714
0.105912 0.159423 0.054945
0.119854 0.170486 0.056119
0.133796 0.181548 0.057293
0.147738 0.192610 0.058467
0.161680 0.203672 0.059641
0.178218 0.214755 0.060213
0.196703 0.225852 0.060334
0.215188 0.236950 0.060455
0.233673 0.248048 0.060576
0.254678 0.257723 0.060330
0.290803 0.258859 0.057885
0.326928 0.259996 0.055439
0.363054 0.261133 0.052993
0.399179 0.262269 0.050547
0.431375 0.263297 0.048879
0.462000 0.264280 0.047522
0.492626 0.265264 0.046165
0.523251 0.266248 0.044807
0.551391 0.267459 0.043786
0.573318 0.269242 0.043605
0.595245 0.271024 0.043423
0.617172 0.272806 0.043242
0.639098 0.274589 0.043060
0.652571 0.276986 0.043649
0.664635 0.279485 0.044366
0.676698 0.281984 0.045083
0.688762 0.284483 0.045799
0.696509 0.286852 0.046710
0.698502 0.289047 0.047878
0.700494 0.291242 0.049047
0.702486 0.293437 0.050216
0.704478 0.295632 0.051384
0.115672 0.169404 0.056654
0.129552 0.180317 0.057941
0.143432 0.191230 0.059227
0.157311 0.202142 0.060513
0.171191 0.213055 0.061799
0.187532 0.224131 0.062682
0.205718 0.235328 0.063264
0.223904 0.246525 0.063846
0.242090 0.257723 0.064427
0.262405 0.267737 0.064667
0.295492 0.270654 0.062856
0.328579 0.273572 0.061045
0.361666 0.276489 0.059235
0.394753 0.279406 0.057424
0.426740 0.280622 0.055768
0.458286 0.281157 0.054174
0.489833 0.281693 0.052581
0.521379 0.282228 0.050987
0.550359 0.282935 0.049765
0.572921 0.284070 0.049471
0.595483 0.285205 0.049178
0.618045 0.286339 0.048884
0.640607 0.287474 0.048591
0.654426 0.289224 0.049163
0.666789 0.291075 0.049880
0.679151 0.292927 0.050597
0.691514 0.294779 0.051314
0.699453 0.296580 0.052256
0.701495 0.298314 0.053499
0.703537 0.300049 0.054743
0.705579 0.301783 0.055986
0.707621 0.303517 0.057230
0.125432 0.179385 0.058364
0.139250 0.190148 0.059762
0.153067 0.200911 0.061160
0.166885 0.211675 0.062558
0.180702 0.222438 0.063956
0.196845 0.233507 0.065151
0.214733 0.244804 0.066194
0.232620 0.256100 0.067236
0.250508 0.267397 0.068278
0.270132 0.277752 0.069004
0.300181 0.282449 0.067828
0.330230 0.287147 0.066652
0.360279 0.291845 0.065476
0.390328 0.296543 0.064301
0.422104 0.297947 0.062657
0.454572 0.298034 0.060827
0.487040 0.298121 0.058997
0.519508 0.298209 0.057166
0.549327 0.298410 0.055743
0.572524 0.298898 0.055337
0.595721 0.299385 0.054932
0.618918 0.299872 0.054526
0.642115 0.300360 0.054121
0.656282 0.301462 0.054677
0.668943 0.302666 0.055394
0.681604 0.303870 0.056111
0.694266 0.305074 0.056828
0.702397 0.306308 0.057802
0.704489 0.307582 0.059120
0.706581 0.308855 0.060438
0.708673 0.310129 0.061756
0.710765 0.311403 0.063075
0.135192 0.189365 0.060073
0.148948 0.199979 0.061583
0.162703 0.210593 0.063094
0.176458 0.221207 0.064604
0.190213 0.231821 0.066114
0.206159 0.242882 0.067620
0.223748 0.254279 0.069123
0.241336 0.265676 0.070626
0.258925 0.277072 0.072129
0.277859 0.287766 0.073340
0.304870 0.294245 0.072800
0.331881 0.300723 0.072259
0.358891 0.307201 0.071718
0.385902 0.313679 0.071177
0.417469 0.315272 0.069547
0.450858 0.314911 0.067480
0.484248 0.314550 0.065413
0.517637 0.314189 0.063346
0.548296 0.313885 0.061721
0.572128 0.313725 0.061204
0.595960 0.313565 0.060686
0.619792 0.313405 0.060169
0.643624 0.313245 0.059651
0.658137 0.313699 0.060191
0.671097 0.314256 0.060908
0.684057 0.314813 0.061625
0.697017 0.315370 0.062342
0.705341 0.316036 0.063348
0.707483 0.316849 0.064741
0.709624 0.317662 0.066134
0.711766 0.318475 0.067527
0.713908 0.319288 0.068920
0.144953 0.199346 0.061783
0.158646 0.209811 0.063405
0.172339 0.220275 0.065027
0.186032 0.230740 0.066649
0.199725 0.241204 0.068272
0.215473 0.252258 0.070089
0.232762 0.263755 0.072053
0.250052 0.275251 0.074017
0.267342 0.286747 0.075980
0.285586 0.297781 0.077677
0.309559 0.306040 0.077771
0.333531 0.314298 0.077866
0.357504 0.322557 0.077960
0.381476 0.330816 0.078054
0.412833 0.332598 0.076436
0.447144 0.331788 0.074132
0.481455 0.330979 0.071829
0.515766 0.330170 0.069525
0.547264 0.329361 0.067700
0.571731 0.328553 0.067070
0.596198 0.327746 0.066441
0.620665 0.326938 0.065811
0.645132 0.326131 0.065181
0.659992 0.325937 0.065706
0.673251 0.325847 0.066422
0.686510 0.325756 0.067139
0.699769 0.325665 0.067856
0.708285 0.325764 0.068895
0.710476 0.326117 0.070362
0.712668 0.326469 0.071830
0.714859 0.326821 0.073297
0.717051 0.327173 0.074765
0.156209 0.209918 0.063965
0.169778 0.220126 0.065717
0.183346 0.230334 0.067469
0.196915 0.240543 0.069221
0.210483 0.250751 0.070973
0.225941 0.261595 0.073089
0.242817 0.272915 0.075478
0.259692 0.284235 0.077867
0.276567 0.295555 0.080256
0.294251 0.306532 0.082434
0.316786 0.315451 0.083350
0.339321 0.324370 0.084266
0.361857 0.333289 0.085182
0.384392 0.342207 0.086099
0.414529 0.344842 0.085194
0.447707 0.344963 0.083561
0.480884 0.345084 0.081928
0.514062 0.345205 0.080295
0.544940 0.344924 0.078891
0.570069 0.343638 0.078061
0.595198 0.342352 0.077230
0.620326 0.341066 0.076399
0.645455 0.339780 0.075569
0.660750 0.339024 0.075988
0.674405 0.338357 0.076616
0.688061 0.337690 0.077244
0.701717 0.337023 0.077872
0.710541 0.336618 0.078850
0.712925 0.336563 0.080294
0.715309 0.336508 0.081738
0.717692 0.336453 0.083183
0.720076 0.336398 0.084627
0.168065 0.220726 0.066336
0.181484 0.230635 0.068225
0.194903 0.240545 0.070114
0.208322 0.250454 0.072003
0.221741 0.260364 0.073892
0.236872 0.270916 0.076302
0.253286 0.281949 0.079101
0.269701 0.292983 0.081901
0.286116 0.304017 0.084701
0.303291 0.314779 0.087360
0.325029 0.323909 0.089172
0.346767 0.333040 0.090985
0.368506 0.342170 0.092797
0.390244 0.351300 0.094610
0.418757 0.355054 0.094700
0.449980 0.356657 0.094100
0.481203 0.358259 0.093501
0.512426 0.359862 0.092901
0.542099 0.360522 0.092168
0.567901 0.358825 0.091101
0.593702 0.357128 0.090034
0.619503 0.355431 0.088966
0.645304 0.353734 0.087899
0.661068 0.352450 0.088178
0.675160 0.351235 0.088682
0.689251 0.350021 0.089185
0.703342 0.348806 0.089688
0.712523 0.347922 0.090568
0.715156 0.347481 0.091950
0.717788 0.347040 0.093333
0.720421 0.346599 0.094715
0.723053 0.346158 0.096097
0.179920 0.231533 0.068707
0.193190 0.241144 0.070733
0.206460 0.250755 0.072759
0.219729 0.260365 0.074785
0.232999 0.269976 0.076811
0.247803 0.280236 0.079514
0.263756 0.290984 0.082725
0.279710 0.301731 0.085935
0.295664 0.312478 0.089146
0.312330 0.323025 0.092285
0.333272 0.332367 0.094994
0.354213 0.341709 0.097703
0.375155 0.351051 0.100412
0.396096 0.360394 0.103121
0.422985 0.365266 0.104205
0.452253 0.368350 0.104639
0.481521 0.371435 0.105073
0.510789 0.374519 0.105507
0.539259 0.376120 0.105445
0.565732 0.374012 0.104141
0.592206 0.371904 0.102837
0.618679 0.369796 0.101533
0.645153 0.367689 0.100230
0.661387 0.365877 0.100368
0.675914 0.364114 0.100747
0.690441 0.362351 0.101126
0.704968 0.360588 0.101505
0.714505 0.359226 0.102287
0.717386 0.358399 0.103607
0.720268 0.357572 0.104927
0.723149 0.356745 0.106246
0.726031 0.355918 0.107566
0.191776 0.242341 0.071078
0.204896 0.251653 0.073241
0.218016 0.260965 0.075404
0.231137 0.270277 0.077567
0.244257 0.279589 0.079730
0.258733 0.289557 0.082726
0.274226 0.300018 0.086348
0.289719 0.310479 0.089970
0.305212 0.320940 0.093591
0.321370 0.331271 0.097211
0.341515 0.340825 0.100816
0.361659 0.350379 0.104422
0.381804 0.359933 0.108027
0.401949 0.369487 0.111633
0.427213 0.375478 0.113711
0.454527 0.380044 0.115179
0.481840 0.384610 0.116646
0.509153 0.389176 0.118114
0.536418 0.391718 0.118722
0.563564 0.389199 0.117181
0.590710 0.386681 0.115641
0.617856 0.384162 0.114100
0.645001 0.381643 0.112560
0.661705 0.379303 0.112558
0.676668 0.376992 0.112812
0.691631 0.374681 0.113067
0.706594 0.372371 0.113321
0.716486 0.370531 0.114005
0.719617 0.369317 0.115263
0.722747 0.368104 0.116521
0.725878 0.366891 0.117778
0.729009 0.365678 0.119036
0.203962 0.253149 0.073402
0.216926 0.262162 0.075745
0.229890 0.271175 0.078087
0.242853 0.280188 0.080430
0.255817 0.289201 0.082772
0.269971 0.298868 0.086087
0.285018 0.309025 0.090130
0.300064 0.319181 0.094173
0.315111 0.329338 0.098216
0.330772 0.339423 0.102318
0.350120 0.349074 0.106774
0.369468 0.358726 0.111230
0.388815 0.368378 0.115686
0.408163 0.378029 0.120142
0.431967 0.384911 0.123267
0.457552 0.390685 0.125861
0.483138 0.396459 0.128454
0.508724 0.402233 0.131048
0.534861 0.405674 0.132554
0.562373 0.403281 0.131343
0.589885 0.400889 0.130131
0.617397 0.398496 0.128920
0.644910 0.396104 0.127709
0.662045 0.393391 0.127622
0.677451 0.390625 0.127724
0.692857 0.387859 0.127825
0.708263 0.385093 0.127927
0.718518 0.382846 0.128488
0.721905 0.381289 0.129662
0.725291 0.379733 0.130836
0.728678 0.378176 0.132010
0.732065 0.376620 0.133184
0.216976 0.263957 0.075608
0.229765 0.272671 0.078237
0.242555 0.281385 0.080866
0.255344 0.290099 0.083495
0.268133 0.298814 0.086124
0.281978 0.308153 0.089817
0.296614 0.317961 0.094308
0.311249 0.327769 0.098800
0.325885 0.337577 0.103291
0.341080 0.347337 0.107882
0.359631 0.356801 0.113073
0.378182 0.366266 0.118263
0.396733 0.375731 0.123454
0.415283 0.385196 0.128644
0.438032 0.392398 0.132949
0.462460 0.398695 0.136900
0.486888 0.404992 0.140850
0.511316 0.411289 0.144801
0.536511 0.415523 0.147775
0.563625 0.414599 0.148307
0.590739 0.413676 0.148839
0.617853 0.412753 0.149371
0.644967 0.411830 0.149902
0.662440 0.409135 0.149873
0.678307 0.406145 0.149750
0.694173 0.403155 0.149628
0.710040 0.400165 0.149505
0.720676 0.397688 0.149879
0.724336 0.395895 0.150916
0.727997 0.394102 0.151953
0.731658 0.392309 0.152990
0.735318 0.390516 0.154027
0.229989 0.274765 0.077813
0.242604 0.283180 0.080729
0.255219 0.291595 0.083644
0.267835 0.300011 0.086559
0.280450 0.308426 0.089475
0.293985 0.317438 0.093547
0.308209 0.326898 0.098487
0.322434 0.336357 0.103426
0.336659 0.345817 0.108366
0.351388 0.355250 0.113446
0.369142 0.364528 0.119371
0.386896 0.373807 0.125297
0.404650 0.383085 0.131222
0.422404 0.392363 0.137147
0.444098 0.399885 0.142631
0.467368 0.406705 0.147939
0.490638 0.413525 0.153247
0.513908 0.420344 0.158555
0.538162 0.425372 0.162996
0.564877 0.425918 0.165271
0.591593 0.426464 0.167546
0.618308 0.427010 0.169821
0.645024 0.427556 0.172096
0.662835 0.424879 0.172124
0.679162 0.421665 0.171777
0.695490 0.418450 0.171430
0.711817 0.415236 0.171083
0.722833 0.412530 0.171271
0.726768 0.410500 0.172171
0.730703 0.408471 0.173071
0.734637 0.406441 0.173971
0.738572 0.404411 0.174871
0.243003 0.285572 0.080019
0.255444 0.293689 0.083221
0.267884 0.301806 0.086422
0.280325 0.309922 0.089624
0.292766 0.318039 0.092826
0.305991 0.326723 0.097277
0.319805 0.335834 0.102665
0.333619 0.344945 0.108053
0.347433 0.354056 0.113441
0.361696 0.363164 0.119010
0.378653 0.372255 0.125670
0.395610 0.381347 0.132330
0.412567 0.390438 0.138990
0.429524 0.399529 0.145649
0.450163 0.407372 0.152313
0.472275 0.414715 0.158978
0.494387 0.422057 0.165643
0.516499 0.429400 0.172308
0.539813 0.435221 0.178217
0.566130 0.437236 0.182235
0.592447 0.439251 0.186253
0.618764 0.441267 0.190272
0.645080 0.443282 0.194290
0.663230 0.440623 0.194375
0.680018 0.437185 0.193804
0.696806 0.433746 0.193233
0.713594 0.430308 0.192662
0.724991 0.427372 0.192662
0.729199 0.425106 0.193425
0.733408 0.422839 0.194188
0.737617 0.420573 0.194952
0.741825 0.418307 0.195715
0.256016 0.296380 0.082225
0.268283 0.304198 0.085713
0.280549 0.312016 0.089201
0.292816 0.319833 0.092689
0.305082 0.327651 0.096177
0.317998 0.336009 0.101007
0.331401 0.344771 0.106843
0.344804 0.353533 0.112679
0.358207 0.362295 0.118516
0.372004 0.371078 0.124574
0.388164 0.379982 0.131969
0.404324 0.388887 0.139363
0.420485 0.397792 0.146757
0.436645 0.406696 0.154152
0.456229 0.414859 0.161995
0.477183 0.422724 0.170017
0.498137 0.430590 0.178039
0.519091 0.438456 0.186062
0.541463 0.445070 0.193438
0.567382 0.448554 0.199199
0.593300 0.452039 0.204961
0.619219 0.455524 0.210722
0.645137 0.459008 0.216484
0.663625 0.456367 0.216625
0.680873 0.452704 0.215830
0.698122 0.449042 0.215035
0.715371 0.445379 0.214240
0.727149 0.442214 0.214054
0.731631 0.439711 0.214680
0.736114 0.437208 0.215306
0.740596 0.434706 0.215932
0.745079 0.432203 0.216558
0.269597 0.306196 0.083769
0.281625 0.313789 0.087746
0.293653 0.321383 0.091723
0.305681 0.328976 0.095701
0.317709 0.336570 0.099678
0.330343 0.344693 0.105041
0.343431 0.353213 0.111442
0.356520 0.361734 0.117844
0.369608 0.370254 0.124246
0.383041 0.378803 0.130882
0.398543 0.387520 0.138926
0.414045 0.396238 0.146970
0.429547 0.404956 0.155013
0.445049 0.413674 0.163057
0.463694 0.421905 0.171811
0.483597 0.429941 0.180849
0.503500 0.437978 0.189887
0.523402 0.446014 0.198925
0.544694 0.453045 0.207521
0.569456 0.457561 0.215015
0.594218 0.462078 0.222509
0.618981 0.466594 0.230003
0.643743 0.471110 0.237497
0.662899 0.469833 0.239716
0.681121 0.467590 0.241055
0.699342 0.465347 0.242395
0.717564 0.463104 0.243734
0.730015 0.460762 0.244700
0.734772 0.458290 0.245168
0.739528 0.455817 0.245636
0.744284 0.453345 0.246104
0.749041 0.450872 0.246571
0.283272 0.315845 0.085202
0.295051 0.323227 0.089703
0.306830 0.330609 0.094203
0.318609 0.337991 0.098703
0.330388 0.345373 0.103203
0.342745 0.353277 0.109125
0.355534 0.361574 0.116112
0.368324 0.369870 0.123099
0.381113 0.378166 0.130086
0.394199 0.386496 0.137314
0.409066 0.395027 0.145993
0.423933 0.403558 0.154672
0.438800 0.412089 0.163350
0.453667 0.420620 0.172029
0.471393 0.428878 0.181649
0.490262 0.437026 0.191646
0.509131 0.445175 0.201643
0.528001 0.453323 0.211639
0.548187 0.460708 0.221415
0.571667 0.466183 0.230640
0.595147 0.471658 0.239865
0.618627 0.477133 0.249090
0.642106 0.482608 0.258314
0.661986 0.482919 0.262947
0.681267 0.482370 0.266814
0.700547 0.481820 0.270681
0.719827 0.481270 0.274548
0.733000 0.479929 0.276889
0.738030 0.477531 0.277195
0.743061 0.475133 0.277501
0.748091 0.472735 0.277807
0.753121 0.470338 0.278113
0.296947 0.325495 0.086636
0.308478 0.332666 0.091659
0.320008 0.339836 0.096682
0.331538 0.347006 0.101706
0.343068 0.354176 0.106729
0.355146 0.361862 0.113209
0.367637 0.369934 0.120781
0.380128 0.378006 0.128353
0.392618 0.386078 0.135926
0.405357 0.394189 0.143747
0.419589 0.402533 0.153060
0.433821 0.410877 0.162374
0.448053 0.419222 0.171688
0.462285 0.427566 0.181001
0.479091 0.435850 0.191488
0.496927 0.444111 0.202443
0.514763 0.452372 0.213398
0.532599 0.460632 0.224354
0.551681 0.468371 0.235309
0.573878 0.474805 0.246265
0.596075 0.481239 0.257220
0.618273 0.487672 0.268176
0.640470 0.494106 0.279131
0.661074 0.496006 0.286178
0.681412 0.497150 0.292572
0.701751 0.498293 0.298967
0.722089 0.499437 0.305362
0.735985 0.499095 0.309077
0.741289 0.496772 0.309222
0.746593 0.494449 0.309366
0.751898 0.492126 0.309510
0.757202 0.489803 0.309654
0.310623 0.335145 0.088070
0.321904 0.342104 0.093616
0.333185 0.349062 0.099162
0.344466 0.356021 0.104708
0.355747 0.362979 0.110255
0.367548 0.370446 0.117293
0.379740 0.378294 0.125450
0.391931 0.386142 0.133608
0.404123 0.393990 0.141765
0.416516 0.401882 0.150179
0.430113 0.410040 0.160127
0.443710 0.418197 0.170076
0.457307 0.426355 0.180025
0.470903 0.434512 0.189973
0.486790 0.442823 0.201326
0.503592 0.451196 0.213240
0.520395 0.459569 0.225154
0.537197 0.467941 0.237069
0.555174 0.476034 0.249203
0.576089 0.483427 0.261890
0.597004 0.490819 0.274576
0.617919 0.498212 0.287262
0.638833 0.505604 0.299948
0.660161 0.509092 0.309408
0.681558 0.511929 0.318331
0.702955 0.514766 0.327253
0.724352 0.517604 0.336175
0.738970 0.518261 0.341266
0.744548 0.516013 0.341248
0.750126 0.513765 0.341231
0.755704 0.511516 0.341213
0.761282 0.509268 0.341195
0.324700 0.343637 0.088983
0.335625 0.350411 0.095218
0.346550 0.357184 0.101453
0.357475 0.363958 0.107687
0.368401 0.370731 0.113922
0.379891 0.378052 0.121651
0.391805 0.385782 0.130500
0.403719 0.393513 0.139349
0.415634 0.401243 0.148199
0.427711 0.409020 0.157295
0.440769 0.417070 0.167874
0.453827 0.425121 0.178452
0.466885 0.433172 0.189030
0.479943 0.441223 0.199609
0.495040 0.449576 0.211708
0.510953 0.458050 0.224415
0.526866 0.466524 0.237123
0.542779 0.474998 0.249831
0.559790 0.483374 0.262927
0.579545 0.491507 0.276998
0.599300 0.499640 0.291068
0.619055 0.507772 0.305138
