filters/luts/Suburbs 05.cube
# Created by: Adobe Photoshop Export Color Lookup Plugin
# LUT by SparkleStock. Enhanced with VOXCOLOR algorithms.
LUT_3D_SIZE 8
DOMAIN_MIN 0.000000 0.000000 0.000000
DOMAIN_MAX 0.903226 0.903226 0.903226
0.039072 0.035165 0.027350
0.139462 0.059931 0.037560
0.244539 0.086841 0.050045
0.347528 0.115971 0.062996
0.442554 0.147473 0.074977
0.521202 0.182449 0.084808
0.581575 0.218055 0.092749
0.624979 0.247643 0.098468
0.069510 0.072220 0.036992
0.148384 0.117039 0.048226
0.255376 0.143784 0.061425
0.367855 0.165584 0.074717
0.468644 0.191359 0.086626
0.547292 0.220480 0.095871
0.602786 0.249500 0.102494
0.638988 0.272830 0.106591
0.114814 0.116775 0.046902
0.189693 0.169101 0.059368
0.278154 0.206049 0.073341
0.379162 0.229478 0.087234
0.486206 0.243682 0.099652
0.567343 0.263734 0.108623
0.621224 0.285113 0.114499
0.653588 0.302575 0.117764
0.174115 0.168199 0.057946
0.247762 0.220184 0.071180
0.317651 0.265032 0.086570
0.398777 0.293916 0.102319
0.496080 0.304228 0.116608
0.581339 0.312180 0.125860
0.636222 0.324641 0.131549
0.667538 0.336087 0.134579
0.245248 0.225176 0.070519
0.310900 0.272752 0.083863
0.373325 0.315835 0.101500
0.435862 0.349554 0.120889
0.503231 0.369429 0.139317
0.590301 0.366038 0.151203
0.647621 0.368802 0.157484
0.680081 0.373715 0.160668
0.322006 0.283973 0.083753
0.375948 0.324962 0.097975
0.426560 0.363014 0.117631
0.477424 0.395879 0.141886
0.532260 0.420676 0.169353
0.598986 0.427970 0.196169
0.656329 0.423855 0.205304
0.691540 0.421626 0.208689
0.393249 0.337729 0.095411
0.435238 0.372497 0.112341
0.474484 0.405624 0.135500
0.513950 0.436111 0.164693
0.556681 0.462628 0.199612
0.609037 0.480607 0.240626
0.666080 0.485875 0.273940
0.703579 0.485648 0.289124
0.455197 0.383922 0.104297
0.485977 0.413495 0.126203
0.515470 0.442894 0.154896
0.545614 0.471338 0.190012
0.578603 0.498281 0.231710
0.619927 0.523377 0.283921
0.670817 0.541678 0.339720
0.710739 0.551924 0.378503
0.050416 0.056528 0.083501
0.125923 0.082759 0.078049
0.235043 0.112998 0.085863
0.350633 0.145007 0.100252
0.452519 0.177149 0.115893
0.530728 0.209051 0.129383
0.585905 0.239022 0.138422
0.623241 0.263176 0.142427
0.067974 0.101927 0.104852
0.156640 0.138804 0.112663
0.265669 0.171032 0.125964
0.376894 0.201206 0.141120
0.476428 0.231135 0.155115
0.554750 0.260695 0.164961
0.611582 0.289386 0.170000
0.650763 0.313931 0.171004
0.100293 0.148915 0.126886
0.200937 0.194168 0.134762
0.296084 0.236177 0.148962
0.394434 0.268486 0.165137
0.497194 0.289413 0.179796
0.577235 0.312615 0.190000
0.633557 0.336297 0.195703
0.670693 0.357310 0.198149
0.146811 0.199668 0.149127
0.256007 0.250199 0.151134
0.338137 0.299613 0.165342
0.418551 0.336419 0.184348
0.510906 0.355298 0.202255
0.594456 0.367741 0.214703
0.651049 0.383625 0.223246
0.686242 0.399157 0.229264
0.206143 0.255072 0.171067
0.318959 0.307426 0.166852
0.396581 0.355959 0.182465
0.458010 0.397233 0.206697
0.520248 0.426547 0.230507
0.604844 0.427873 0.246907
0.663675 0.434476 0.258776
0.699674 0.443828 0.268640
0.275583 0.312552 0.191620
0.386321 0.363758 0.183636
0.454859 0.408124 0.200636
0.505210 0.446533 0.230141
0.555439 0.478120 0.262422
0.612778 0.492737 0.292392
0.671237 0.491951 0.308494
0.710586 0.493519 0.321160
0.343533 0.365722 0.209011
0.448739 0.414825 0.200978
0.507503 0.454678 0.220863
0.546885 0.489310 0.255665
0.586548 0.520653 0.295517
0.630727 0.542801 0.337192
0.682287 0.549693 0.370478
0.720983 0.551774 0.392174
0.404578 0.411476 0.223233
0.502697 0.459051 0.217797
0.552198 0.495097 0.242341
0.582230 0.526432 0.283380
0.613648 0.557233 0.330795
0.649382 0.583910 0.382175
0.692384 0.600948 0.431374
0.730270 0.609076 0.467617
0.067250 0.086730 0.156524
0.125650 0.108722 0.144742
0.233004 0.145916 0.144217
0.354540 0.184769 0.152884
0.463366 0.216735 0.167972
0.541758 0.245564 0.183359
0.592792 0.270590 0.193806
0.624976 0.289971 0.198227
0.081673 0.135495 0.183883
0.164309 0.169404 0.187648
0.268879 0.206120 0.194538
0.380580 0.241799 0.205446
0.485879 0.273940 0.219775
0.564979 0.302816 0.231266
0.620338 0.329743 0.237775
0.658459 0.353574 0.239676
0.102088 0.186256 0.212633
0.202666 0.228487 0.220354
0.302166 0.270386 0.231974
0.404267 0.306205 0.245952
0.507274 0.333462 0.260407
0.586782 0.359044 0.270810
0.643625 0.383703 0.276205
0.682916 0.406447 0.277879
0.133119 0.237081 0.241907
0.246948 0.286315 0.247621
0.344076 0.333838 0.260028
0.434433 0.372964 0.276386
0.523802 0.399967 0.293669
0.605208 0.417496 0.305692
0.662845 0.436463 0.313300
0.701368 0.455071 0.318114
0.177359 0.287205 0.270778
0.300823 0.343140 0.272889
0.400055 0.393178 0.282127
0.476480 0.437164 0.299507
0.537801 0.472204 0.323218
0.619097 0.480147 0.340229
0.677889 0.491093 0.353114
0.716157 0.504160 0.364262
0.234192 0.339843 0.297301
0.362563 0.398785 0.296295
0.459556 0.448102 0.302488
0.528689 0.490148 0.321480
0.577291 0.525484 0.353939
0.628591 0.546274 0.384284
0.686374 0.549615 0.402700
0.727729 0.554828 0.418801
0.294426 0.389507 0.319336
0.423244 0.449513 0.318146
0.515157 0.497029 0.323971
0.575744 0.536108 0.345621
0.613850 0.569414 0.385491
0.652691 0.594608 0.426104
0.699468 0.604337 0.458466
0.738079 0.609151 0.482745
0.351722 0.432921 0.337072
0.477792 0.493403 0.338142
0.563032 0.539170 0.346350
0.615283 0.575551 0.372298
0.645165 0.606726 0.419296
0.677008 0.634069 0.468600
0.713987 0.651537 0.513137
0.749754 0.659852 0.547273
0.087290 0.122462 0.237520
0.133005 0.139087 0.225445
0.231976 0.179079 0.218735
0.354678 0.225174 0.220457
0.474186 0.264427 0.231391
0.553688 0.290242 0.245814
0.601686 0.310772 0.256781
0.629633 0.325769 0.262000
0.102225 0.172423 0.268416
0.173489 0.205497 0.269556
0.269698 0.244226 0.270664
0.380976 0.284090 0.276095
0.494394 0.320982 0.287647
0.575775 0.348771 0.299554
0.629315 0.373349 0.307615
0.665169 0.395498 0.311354
0.116042 0.225355 0.299545
0.206239 0.267224 0.307921
0.304270 0.308475 0.317277
0.408937 0.346485 0.328027
0.514854 0.379452 0.339867
0.596121 0.406389 0.349622
0.652889 0.431031 0.355010
0.692772 0.454470 0.356932
0.134361 0.275501 0.330422
0.240611 0.324846 0.342472
0.344066 0.370570 0.355475
0.442455 0.410510 0.369443
0.533895 0.442942 0.383589
0.615055 0.464892 0.393356
0.673241 0.486058 0.398874
0.713986 0.506832 0.401679
0.161634 0.320001 0.360639
0.282961 0.378998 0.374698
0.393740 0.429521 0.384491
0.484350 0.473645 0.397573
0.554039 0.510588 0.416940
0.632380 0.525782 0.430846
0.690528 0.540695 0.440642
0.730383 0.556377 0.448559
0.202953 0.364271 0.389651
0.334039 0.430185 0.404843
0.448678 0.483943 0.410253
0.537141 0.528623 0.420808
0.596831 0.565874 0.444678
0.645241 0.591035 0.471860
0.701588 0.598879 0.488485
0.743654 0.607582 0.503285
0.252204 0.407662 0.413920
0.388812 0.477542 0.430934
0.503413 0.532587 0.434382
0.587184 0.576336 0.444019
0.638325 0.611612 0.471509
0.674397 0.638414 0.508581
0.717244 0.651398 0.538361
0.755013 0.659155 0.561747
0.303323 0.446886 0.432980
0.441207 0.518807 0.453367
0.552563 0.574332 0.457818
0.630182 0.616908 0.468964
0.673818 0.649923 0.500605
0.703132 0.676756 0.545791
0.735573 0.695263 0.586074
0.769119 0.705091 0.617683
0.108299 0.160770 0.318130
0.143458 0.173956 0.309037
0.228399 0.209030 0.301914
0.348135 0.259518 0.299896
0.480956 0.314738 0.304689
0.565269 0.340353 0.315069
0.611828 0.357129 0.324783
0.636481 0.367919 0.329792
0.123161 0.211645 0.352008
0.185143 0.244000 0.353213
0.271396 0.281866 0.353798
0.379258 0.325237 0.356354
0.498676 0.370677 0.362540
0.585166 0.398888 0.372330
0.638438 0.421350 0.380002
0.672804 0.441464 0.384290
0.137073 0.263548 0.382491
0.217828 0.306334 0.390441
0.307840 0.349124 0.399988
0.409359 0.390474 0.409249
0.518409 0.428384 0.417267
0.604762 0.456346 0.425838
0.662045 0.480424 0.431452
0.702008 0.503991 0.434669
0.148963 0.311347 0.409847
0.248361 0.362550 0.423439
0.344809 0.410408 0.440510
0.442081 0.452541 0.456021
0.540205 0.487234 0.466881
0.624312 0.512469 0.474501
0.683098 0.534781 0.478546
0.725059 0.556953 0.480626
0.160458 0.351778 0.434948
0.281893 0.413700 0.454770
0.386850 0.465848 0.476108
0.480447 0.509892 0.494958
0.566403 0.546179 0.508757
0.643705 0.568136 0.517676
0.701756 0.586106 0.521868
0.743229 0.603402 0.524015
0.185182 0.385015 0.461197
0.321192 0.458232 0.487860
0.432798 0.516396 0.509812
0.528512 0.563345 0.524677
0.611339 0.601734 0.533977
0.661233 0.629366 0.554771
0.716557 0.641688 0.566290
0.758795 0.653564 0.576168
0.221117 0.419524 0.484183
0.366922 0.499891 0.516204
0.482150 0.561626 0.538591
0.577473 0.609962 0.550193
0.656676 0.648676 0.555722
0.694722 0.676149 0.585545
0.735116 0.692171 0.610395
0.771800 0.702794 0.629856
0.263857 0.452654 0.502086
0.414442 0.537095 0.539548
0.529756 0.600629 0.563774
0.622034 0.649465 0.574708
0.696230 0.688000 0.579260
0.727273 0.714092 0.616002
0.756946 0.733519 0.650899
0.788253 0.745326 0.678891
0.126827 0.198582 0.386002
0.154374 0.209865 0.381300
0.227142 0.241377 0.378257
0.335022 0.288413 0.377995
0.463178 0.343945 0.381050
0.571643 0.388441 0.386746
0.621372 0.405071 0.392752
0.644050 0.411750 0.395358
0.141104 0.249603 0.420173
0.196947 0.281189 0.423842
0.274106 0.318312 0.428267
0.373379 0.361791 0.433552
0.489222 0.409652 0.439628
0.590345 0.448246 0.445867
0.646240 0.470183 0.451059
0.680122 0.487495 0.453761
0.154326 0.299165 0.449496
0.229052 0.342073 0.459430
0.312820 0.386129 0.471917
0.408690 0.430104 0.483889
0.514655 0.472105 0.493417
0.609171 0.505724 0.501176
0.669172 0.529796 0.505136
0.710390 0.552320 0.507173
0.165667 0.343291 0.473877
0.258205 0.395410 0.489990
0.350421 0.445978 0.509422
0.444286 0.492118 0.527664
0.539730 0.531533 0.541690
0.628771 0.560998 0.551236
0.690689 0.584365 0.554178
0.735442 0.607426 0.555467
0.174784 0.378965 0.493526
0.290010 0.443107 0.517116
0.392029 0.498936 0.541488
0.483193 0.547056 0.564330
0.566697 0.587256 0.583474
0.649670 0.614010 0.594900
0.711117 0.634357 0.597661
0.755990 0.654137 0.598745
0.182529 0.402836 0.508943
0.327061 0.483144 0.541414
0.439304 0.544965 0.570046
0.530196 0.593762 0.594483
0.607937 0.633556 0.614568
0.672566 0.663379 0.629823
0.729964 0.679532 0.634509
0.772693 0.693274 0.636917
0.202949 0.425537 0.525245
0.363037 0.516924 0.566908
0.481999 0.584559 0.599408
0.573959 0.635906 0.623983
0.649525 0.676753 0.642146
0.709012 0.707871 0.656119
0.751731 0.726236 0.672213
0.787898 0.738825 0.684726
0.234193 0.449702 0.538721
0.402904 0.548044 0.588605
0.524876 0.619401 0.624879
0.616086 0.672378 0.650098
0.688797 0.713775 0.667115
0.744873 0.745349 0.680127
0.777152 0.765686 0.705521
0.806733 0.779069 0.728139
0.142361 0.237181 0.438434
0.164737 0.247293 0.437391
0.228031 0.275976 0.438906
0.325234 0.319733 0.442850
0.445217 0.373151 0.448604
0.557463 0.421404 0.453519
0.620996 0.442685 0.453114
0.649941 0.449742 0.451010
0.155077 0.285300 0.468628
0.207411 0.315903 0.475352
0.277693 0.352338 0.484480
0.369156 0.395886 0.495022
0.479027 0.445184 0.505722
0.582628 0.488574 0.513352
0.648662 0.513384 0.514792
0.687530 0.530071 0.514190
0.166894 0.330766 0.494512
0.238273 0.373242 0.507672
0.318161 0.418071 0.523868
0.409249 0.464073 0.540535
0.510413 0.509509 0.555529
0.606680 0.548988 0.566449
0.673330 0.575263 0.570365
0.718758 0.597326 0.570967
0.176923 0.369951 0.515418
0.265481 0.422258 0.535241
0.356036 0.474689 0.557664
0.447855 0.523922 0.579654
0.540013 0.567549 0.598819
0.630211 0.603770 0.612944
0.696182 0.629895 0.619523
0.744994 0.653692 0.621311
0.184500 0.400151 0.531033
0.295087 0.465040 0.558882
0.396357 0.523663 0.586651
0.487566 0.575473 0.612881
0.570201 0.619837 0.636089
0.653828 0.653560 0.652909
0.718048 0.678371 0.661951
0.767369 0.700900 0.665072
0.188805 0.418313 0.540986
0.329643 0.500275 0.578812
0.442094 0.565584 0.611801
0.534120 0.618524 0.640627
0.612241 0.662348 0.665576
0.678657 0.696345 0.684697
0.738703 0.719172 0.695518
0.785993 0.737932 0.699942
0.196171 0.431037 0.549465
0.367358 0.531201 0.598900
0.490935 0.603859 0.636982
0.582683 0.657780 0.666879
0.655395 0.700002 0.690985
0.714654 0.732939 0.708962
0.761994 0.755723 0.724229
0.801985 0.771893 0.733035
0.213255 0.444992 0.556866
0.403755 0.557777 0.616662
0.534621 0.636146 0.659645
0.626212 0.691539 0.690873
0.695243 0.733282 0.714370
0.750616 0.765770 0.731111
0.789698 0.789088 0.749742
0.822297 0.804850 0.765115
0.157194 0.282492 0.484194
0.176393 0.291897 0.485475
0.233045 0.318269 0.490453
0.321895 0.358848 0.498169
0.433897 0.409083 0.507181
0.543550 0.456165 0.513365
0.615494 0.480163 0.510051
0.650921 0.483857 0.499987
0.166806 0.322262 0.505673
0.217601 0.351789 0.514995
0.283421 0.387770 0.528118
0.369040 0.431562 0.543785
0.473398 0.481969 0.560171
0.575545 0.528177 0.572002
0.647984 0.556480 0.573673
0.692879 0.571332 0.568356
0.176400 0.360523 0.525291
0.246397 0.402428 0.541660
0.324568 0.447717 0.561214
0.412536 0.495418 0.582493
0.509340 0.543999 0.603705
0.604980 0.588782 0.620390
0.676370 0.619402 0.627472
0.727048 0.641382 0.626958
0.184701 0.393105 0.541441
0.271307 0.445534 0.565052
0.362136 0.499157 0.590395
0.453472 0.550683 0.615947
0.543080 0.597934 0.640244
0.632652 0.640630 0.660682
0.702082 0.672065 0.672797
0.755487 0.697777 0.676888
0.190787 0.417005 0.553057
0.298609 0.482419 0.585052
0.400725 0.543220 0.616222
0.493712 0.597909 0.645391
0.577059 0.645609 0.671733
0.659377 0.685656 0.694580
0.726169 0.716833 0.710675
0.779812 0.743515 0.718887
0.193964 0.429714 0.559412
0.330654 0.512254 0.601861
0.444293 0.580471 0.638508
0.539421 0.637288 0.670372
0.619918 0.684979 0.698252
0.686414 0.722713 0.721699
0.748532 0.752824 0.739825
0.800056 0.778167 0.750936
0.195307 0.435721 0.562946
0.368891 0.539866 0.618146
0.495717 0.616302 0.660263
0.590205 0.673527 0.693359
0.664137 0.718440 0.720717
0.722428 0.753624 0.743520
0.772835 0.781095 0.761645
0.816599 0.803220 0.773826
0.201849 0.441754 0.566137
0.406853 0.565077 0.634234
0.544979 0.649131 0.681791
0.638652 0.706980 0.715796
0.706427 0.749407 0.741988
0.758671 0.782229 0.763421
0.800850 0.807688 0.780754
0.835690 0.826785 0.794649
