filters/luts/Suburbs 02_S.cube
# LUT by SparkleStock. Enhanced with VOXCOLOR algorithms.
LUT_3D_SIZE 5
DOMAIN_MIN 0.000000 0.000000 0.000000
DOMAIN_MAX 0.903226 0.903226 0.903226
0.089866 0.093773 0.082051
0.216464 0.116161 0.082674
0.391461 0.141731 0.089834
0.552869 0.177029 0.098554
0.645524 0.214786 0.104171
0.118256 0.137524 0.086809
0.223676 0.203393 0.085248
0.420567 0.224454 0.082474
0.594741 0.238218 0.091237
0.669227 0.254937 0.108407
0.168451 0.196534 0.091748
0.269490 0.277245 0.098992
0.410106 0.338772 0.104429
0.600018 0.327554 0.111522
0.682428 0.315096 0.130249
0.251054 0.274245 0.101170
0.344890 0.343821 0.118496
0.451222 0.408440 0.148363
0.594521 0.432393 0.188564
0.691230 0.405473 0.204201
0.358722 0.353704 0.108244
0.431501 0.409331 0.142856
0.506874 0.464431 0.194220
0.601801 0.515796 0.277582
0.704808 0.541126 0.360670
0.093946 0.114443 0.176352
0.203573 0.139268 0.160676
0.405846 0.160663 0.168063
0.569011 0.190934 0.179293
0.641038 0.228546 0.178589
0.109438 0.176905 0.222314
0.242607 0.238739 0.226129
0.437588 0.265360 0.236125
0.622328 0.285967 0.240574
0.721257 0.322792 0.238396
0.139617 0.238428 0.260096
0.297096 0.340230 0.250118
0.448290 0.423043 0.264073
0.642974 0.430003 0.272002
0.763801 0.438493 0.283364
0.194963 0.313307 0.292584
0.390787 0.425759 0.272535
0.511402 0.517553 0.305528
0.639060 0.570100 0.341763
0.774134 0.567052 0.359960
0.273432 0.390517 0.316309
0.495352 0.504275 0.303961
0.589178 0.579380 0.362147
0.667818 0.645789 0.443880
0.765131 0.678523 0.501305
0.102808 0.147686 0.313837
0.183356 0.171729 0.285961
0.402174 0.227032 0.274655
0.576722 0.251031 0.283418
0.639650 0.279208 0.282078
0.116295 0.225381 0.387546
0.237345 0.286130 0.379052
0.433697 0.323371 0.389723
0.625297 0.346558 0.395155
0.733377 0.392403 0.386738
0.130242 0.302574 0.443277
0.290277 0.398450 0.438542
0.469591 0.470667 0.456696
0.662943 0.485214 0.460489
0.809031 0.505088 0.457313
0.156656 0.361550 0.486742
0.364026 0.492106 0.487070
0.548704 0.589065 0.486707
0.674409 0.651244 0.508625
0.830018 0.660915 0.514873
0.205405 0.425638 0.514350
0.459113 0.573017 0.530231
0.645977 0.668272 0.528031
0.721660 0.738187 0.587169
0.817297 0.783019 0.622471
0.115499 0.190366 0.450022
0.169207 0.211697 0.431472
0.354952 0.278245 0.408153
0.572708 0.341278 0.400228
0.641873 0.356425 0.395156
0.128008 0.275434 0.527738
0.233746 0.345637 0.521447
0.412725 0.412559 0.524827
0.611518 0.457469 0.529301
0.724673 0.495687 0.522533
0.138178 0.355245 0.577216
0.292988 0.458883 0.580957
0.466275 0.544646 0.604599
0.651903 0.576820 0.623660
0.801027 0.598404 0.621045
0.145706 0.401273 0.603488
0.373116 0.550424 0.621414
0.547649 0.647777 0.652759
0.689175 0.703921 0.676458
0.843061 0.711870 0.675465
0.168469 0.437122 0.619001
0.453018 0.622092 0.663635
0.635266 0.727879 0.699196
0.754567 0.796711 0.722283
0.844501 0.839105 0.740613
0.129639 0.248478 0.562700
0.169372 0.270258 0.555469
0.323788 0.340676 0.540822
0.536228 0.420577 0.523072
0.642280 0.433466 0.493285
0.137645 0.325415 0.609623
0.238333 0.401537 0.614657
0.400621 0.492562 0.629560
0.596594 0.576778 0.640122
0.721419 0.616579 0.632184
0.144497 0.393867 0.639942
0.298273 0.506372 0.659655
0.473088 0.609812 0.688285
0.651711 0.687016 0.719169
0.783171 0.730449 0.734041
0.147662 0.426617 0.650216
0.376114 0.586861 0.689185
0.562650 0.697576 0.729917
0.703373 0.771413 0.767793
0.827396 0.808123 0.795532
0.151821 0.435641 0.652838
0.484315 0.657725 0.716628
0.663058 0.767592 0.762841
0.772525 0.832447 0.800032
0.853781 0.870631 0.825484
