filters/luts/Suburbs 01.cube
# LUT by SparkleStock. Enhanced with VOXCOLOR algorithms.
LUT_3D_SIZE 8
DOMAIN_MIN 0.000000 0.000000 0.000000
DOMAIN_MAX 0.903226 0.903226 0.903226
0.031258 0.046886 0.046886
0.107826 0.059931 0.044618
0.210642 0.074048 0.040340
0.331120 0.090969 0.034448
0.459821 0.112498 0.027453
0.578928 0.143125 0.020458
0.671094 0.180369 0.015353
0.734113 0.215046 0.012572
0.044681 0.074111 0.054449
0.101636 0.115258 0.060816
0.214698 0.134046 0.055843
0.353508 0.146417 0.046023
0.493095 0.163903 0.036211
0.612202 0.189847 0.028191
0.696684 0.221066 0.023281
0.749927 0.248893 0.020860
0.065201 0.110174 0.061877
0.122450 0.165013 0.072318
0.216974 0.202555 0.075160
0.348482 0.222757 0.068999
0.505889 0.229992 0.055137
0.632564 0.246586 0.044952
0.716152 0.269534 0.039530
0.765076 0.290659 0.037296
0.095971 0.156178 0.070590
0.159696 0.215847 0.082616
0.236203 0.269011 0.094008
0.347466 0.301868 0.096711
0.498591 0.309430 0.087076
0.639732 0.312680 0.073647
0.728649 0.324916 0.066809
0.777927 0.338527 0.064280
0.139360 0.212328 0.081413
0.206122 0.272180 0.094318
0.281286 0.327691 0.110268
0.370541 0.371425 0.124291
0.480945 0.396336 0.130958
0.635186 0.387384 0.117309
0.733710 0.387279 0.108742
0.787311 0.391970 0.105193
0.199291 0.277742 0.093891
0.264736 0.333935 0.108699
0.334021 0.386409 0.128418
0.412348 0.431265 0.150515
0.505114 0.463952 0.171947
0.625836 0.471100 0.185230
0.730362 0.462091 0.178712
0.792239 0.456603 0.173107
0.270566 0.345677 0.104951
0.330546 0.396016 0.124223
0.391879 0.443256 0.148804
0.458159 0.485260 0.177837
0.533303 0.519640 0.210344
0.627460 0.539473 0.244948
0.728676 0.540507 0.268614
0.793995 0.535772 0.276679
0.347182 0.410737 0.112962
0.397301 0.453989 0.139668
0.449337 0.495327 0.171001
0.504464 0.533089 0.207034
0.564605 0.566022 0.248242
0.637313 0.592465 0.298288
0.722945 0.607423 0.350565
0.788408 0.612916 0.386648
0.031447 0.061255 0.114380
0.099672 0.080740 0.094401
0.210112 0.099638 0.081537
0.341677 0.119498 0.072949
0.475867 0.141722 0.066557
0.591753 0.168691 0.062343
0.675454 0.198983 0.059166
0.729753 0.226127 0.055842
0.037991 0.103262 0.136872
0.117085 0.138045 0.133121
0.231892 0.162134 0.126832
0.364386 0.182601 0.119520
0.498555 0.204847 0.112294
0.615235 0.231890 0.105469
0.700544 0.264127 0.100050
0.756856 0.295736 0.096199
0.052047 0.144674 0.157675
0.144097 0.192303 0.154593
0.244528 0.235231 0.156886
0.367607 0.264785 0.155853
0.514118 0.279240 0.147294
0.636510 0.300088 0.140329
0.722017 0.327274 0.136576
0.776053 0.355116 0.135710
0.075790 0.190922 0.177902
0.181910 0.248499 0.168804
0.270605 0.306989 0.177797
0.375478 0.348884 0.187160
0.512675 0.365855 0.185820
0.647296 0.374673 0.178935
0.736396 0.391901 0.177658
0.789441 0.411795 0.180750
0.111184 0.245444 0.198184
0.231361 0.309862 0.183123
0.322178 0.370764 0.194980
0.404406 0.422864 0.216872
0.498763 0.459037 0.234186
0.643722 0.455792 0.229730
0.741404 0.460633 0.230128
0.798473 0.471185 0.236208
0.163504 0.308077 0.217688
0.295168 0.376088 0.199770
0.383600 0.434544 0.214169
0.456543 0.484244 0.243370
0.535459 0.523872 0.273537
0.633527 0.540240 0.295786
0.735737 0.535534 0.300084
0.802051 0.534742 0.306989
0.228022 0.372255 0.234066
0.366649 0.441758 0.217836
0.449441 0.495331 0.236380
0.510705 0.539420 0.272288
0.575458 0.577459 0.312373
0.650304 0.601810 0.351845
0.738162 0.606080 0.379270
0.802500 0.604831 0.397054
0.297813 0.433284 0.246340
0.438501 0.502636 0.236024
0.513211 0.550266 0.260652
0.562391 0.587711 0.303519
0.614785 0.622357 0.352228
0.673640 0.649552 0.404111
0.742677 0.664517 0.452739
0.802331 0.669568 0.488489
0.031234 0.084060 0.207854
0.089665 0.102313 0.179910
0.207305 0.131245 0.153003
0.349914 0.159912 0.133243
0.489683 0.182287 0.123827
0.603801 0.206322 0.120942
0.680489 0.230905 0.120314
0.727349 0.251866 0.118833
0.037845 0.135356 0.237810
0.117641 0.167179 0.225499
0.234024 0.197490 0.209426
0.369616 0.225056 0.195497
0.507809 0.249923 0.187169
0.623594 0.276705 0.181852
0.705777 0.307244 0.178915
0.759852 0.338342 0.177288
0.049666 0.187049 0.267387
0.146522 0.228418 0.257174
0.256157 0.270020 0.252440
0.383208 0.303066 0.247710
0.524048 0.324425 0.240093
0.642292 0.348752 0.234335
0.726651 0.378067 0.231337
0.782152 0.409428 0.230887
0.067896 0.237671 0.296484
0.180755 0.288321 0.282312
0.288274 0.341445 0.283152
0.402187 0.384465 0.287978
0.528154 0.410423 0.288927
0.654281 0.425951 0.284265
0.741815 0.448089 0.283631
0.797347 0.473464 0.286829
0.094361 0.287545 0.324722
0.224160 0.348943 0.306133
0.338844 0.407667 0.304243
0.435832 0.461453 0.316565
0.523260 0.504445 0.336390
0.656200 0.509467 0.336836
0.749782 0.520426 0.340843
0.807627 0.536430 0.350032
0.136685 0.344287 0.350111
0.282991 0.413079 0.328642
0.402256 0.473658 0.324444
0.494691 0.526278 0.339959
0.566635 0.569679 0.372300
0.648946 0.593413 0.398903
0.745517 0.594585 0.408808
0.811957 0.598877 0.421508
0.192061 0.402116 0.370062
0.351041 0.475828 0.350167
0.471237 0.535877 0.347019
0.556038 0.584592 0.366485
0.614154 0.623695 0.407916
0.675849 0.651444 0.449062
0.751752 0.659833 0.478540
0.812952 0.662475 0.501293
0.253317 0.456625 0.384227
0.420300 0.533283 0.369973
0.537639 0.591366 0.371329
0.613015 0.635096 0.396232
0.658720 0.668591 0.445421
0.707638 0.696138 0.496842
0.763784 0.712178 0.542805
0.817595 0.718317 0.578047
0.031013 0.114042 0.313443
0.079235 0.128270 0.285450
0.195573 0.162680 0.249267
0.346322 0.201292 0.217474
0.500239 0.232712 0.198606
0.613979 0.254051 0.194136
0.685348 0.273784 0.194860
0.726160 0.289477 0.195416
0.041101 0.171509 0.347425
0.112812 0.202045 0.330579
0.226179 0.236226 0.306490
0.366155 0.270110 0.283866
0.514817 0.300776 0.268829
0.631603 0.326535 0.263305
0.710208 0.354343 0.262547
0.760774 0.383140 0.263703
0.054488 0.231983 0.381009
0.143833 0.270136 0.367756
0.256363 0.309646 0.356608
0.388091 0.344715 0.345574
0.529880 0.372560 0.334194
0.647507 0.398832 0.327775
0.730222 0.428506 0.325215
0.785550 0.461101 0.325618
0.070434 0.287653 0.413476
0.176554 0.332838 0.400111
0.293398 0.379700 0.395231
0.416039 0.421182 0.393792
0.540117 0.452695 0.391766
0.660705 0.473923 0.386136
0.746303 0.499582 0.384096
0.803076 0.528723 0.385761
0.089721 0.334921 0.444279
0.214663 0.391212 0.430151
0.341718 0.444939 0.421632
0.454186 0.495697 0.424749
0.548774 0.539499 0.438927
0.669675 0.553363 0.439136
0.758019 0.570286 0.441570
0.815344 0.590836 0.448256
0.120641 0.382601 0.472766
0.263525 0.449137 0.459148
0.400201 0.508949 0.446487
0.513300 0.561677 0.448183
0.595637 0.606147 0.469965
0.668639 0.635106 0.495510
0.758151 0.642844 0.506073
0.822162 0.652354 0.518882
0.165111 0.431733 0.494168
0.323315 0.505238 0.483626
0.466613 0.568655 0.470360
0.577353 0.620989 0.472502
0.648610 0.662002 0.499476
0.702379 0.691675 0.538309
0.768263 0.704457 0.567228
0.825155 0.711282 0.590576
0.216769 0.478002 0.508128
0.386096 0.556003 0.503721
0.531734 0.621234 0.494005
0.637179 0.671865 0.499448
0.697416 0.708101 0.531439
0.739502 0.735105 0.579283
0.785976 0.752628 0.622068
0.834060 0.760910 0.655661
0.031297 0.149892 0.418370
0.069804 0.160772 0.396049
0.173070 0.191329 0.361429
0.325725 0.236719 0.323044
0.501967 0.287375 0.289722
0.620647 0.308915 0.279123
0.689257 0.324809 0.278505
0.725512 0.335765 0.279530
0.045629 0.212006 0.455407
0.109566 0.241673 0.439276
0.213417 0.275864 0.415495
0.352726 0.314916 0.388047
0.513157 0.356008 0.362231
0.634995 0.381982 0.352916
0.712312 0.407311 0.351643
0.760838 0.433584 0.353775
0.063352 0.275819 0.488794
0.145478 0.314457 0.475161
0.250209 0.354713 0.462949
0.379665 0.393045 0.448148
0.527163 0.426800 0.430193
0.649846 0.453873 0.421276
0.732439 0.482581 0.418795
0.787664 0.514826 0.420716
0.080850 0.334463 0.518429
0.181797 0.379274 0.505492
0.291188 0.425140 0.501767
0.412623 0.466354 0.498631
0.544481 0.499274 0.490936
0.665367 0.523996 0.482727
0.750129 0.551065 0.479183
0.807583 0.581853 0.480116
0.096599 0.383168 0.544980
0.220992 0.436575 0.532925
0.340228 0.486514 0.532497
0.455597 0.532360 0.537058
0.568423 0.571889 0.540812
0.680551 0.593309 0.536926
0.764966 0.614906 0.534104
0.822146 0.638845 0.534836
0.115993 0.419796 0.571985
0.260821 0.486579 0.564873
0.390305 0.544099 0.564566
0.509438 0.594230 0.565566
0.617638 0.637695 0.567005
0.688821 0.669522 0.586147
0.771928 0.683583 0.592899
0.832619 0.698019 0.601244
0.148356 0.458214 0.592286
0.310999 0.534411 0.590476
0.449102 0.597056 0.591411
0.570223 0.649875 0.590522
0.674423 0.694708 0.590001
0.727581 0.725263 0.621019
0.786349 0.742141 0.645851
0.838726 0.753164 0.665843
0.189696 0.495063 0.604260
0.366115 0.577460 0.609511
0.509351 0.643164 0.614527
0.629052 0.697211 0.615178
0.726895 0.741970 0.615347
0.768480 0.768588 0.653960
0.808745 0.787572 0.691454
0.851455 0.798530 0.721547
0.033566 0.190539 0.504770
0.064022 0.199224 0.489913
0.153432 0.226445 0.464003
0.292645 0.268945 0.431362
0.464863 0.320826 0.396906
0.617939 0.363443 0.371085
0.690940 0.379191 0.364514
0.724633 0.385598 0.362709
0.052142 0.254996 0.541661
0.110069 0.284054 0.529821
0.203227 0.318020 0.513101
0.331919 0.357827 0.491464
0.488140 0.401943 0.466455
0.631003 0.438796 0.446337
0.711521 0.462561 0.440697
0.759346 0.484993 0.440467
0.073384 0.318662 0.573553
0.150015 0.357716 0.563848
0.247226 0.398989 0.555879
0.368894 0.440015 0.545015
0.511608 0.478463 0.529325
0.644994 0.510229 0.515229
0.730643 0.537563 0.509701
0.787582 0.567842 0.509687
0.093736 0.375830 0.600163
0.188696 0.422039 0.592136
0.293068 0.469416 0.590646
0.409079 0.513431 0.589519
0.535740 0.550647 0.584653
0.660862 0.577938 0.576439
0.749040 0.604923 0.570939
0.810326 0.636097 0.570523
0.110510 0.422065 0.621518
0.229724 0.478017 0.615139
0.345620 0.529682 0.617118
0.456666 0.576678 0.623729
0.563988 0.617326 0.630730
0.679374 0.641980 0.628795
0.767043 0.665458 0.624106
0.828491 0.691915 0.623413
0.121707 0.452253 0.637692
0.274954 0.522034 0.633649
0.403699 0.579325 0.638521
0.515357 0.627707 0.648116
0.615289 0.669388 0.659020
0.701742 0.701049 0.668780
0.783495 0.719352 0.667905
0.842303 0.736934 0.668399
0.141239 0.478376 0.652773
0.316644 0.560479 0.656241
0.455985 0.624399 0.664994
0.570230 0.675891 0.675693
0.667320 0.719152 0.686134
0.744736 0.753225 0.697005
0.803413 0.773007 0.711772
0.852590 0.787115 0.724427
0.170723 0.504376 0.661283
0.362827 0.595096 0.673267
0.509711 0.663767 0.687209
0.624731 0.717445 0.700348
0.717995 0.761483 0.711257
0.788787 0.795981 0.722325
0.830466 0.816590 0.748723
0.869030 0.829743 0.772830
0.040088 0.236543 0.569113
0.064934 0.244130 0.560013
0.142668 0.268767 0.542745
0.267820 0.308275 0.519153
0.428450 0.358272 0.491506
0.586161 0.404768 0.464489
0.679328 0.424618 0.444344
0.722723 0.430784 0.433437
0.061568 0.298463 0.601100
0.115923 0.326782 0.594111
0.199967 0.360583 0.585047
0.317240 0.401200 0.572446
0.463719 0.447556 0.555856
0.608800 0.489421 0.537640
0.703431 0.514456 0.523332
0.758577 0.534361 0.516313
0.084728 0.358486 0.628729
0.158235 0.397668 0.624239
0.249926 0.439685 0.621604
0.363627 0.483017 0.617667
0.497619 0.525833 0.610447
0.631314 0.563611 0.600480
0.725141 0.590965 0.591804
0.787770 0.618438 0.587804
0.105921 0.411048 0.651125
0.197369 0.458335 0.649350
0.299173 0.507008 0.651603
0.410741 0.553478 0.654848
0.530575 0.595027 0.656553
0.654384 0.629320 0.654023
0.745891 0.656692 0.650479
0.812009 0.686385 0.648916
0.122378 0.451931 0.667833
0.237577 0.509743 0.668895
0.352312 0.563555 0.674890
0.461871 0.612647 0.684236
0.565751 0.655837 0.694568
0.678729 0.687841 0.698868
0.766642 0.713577 0.699807
0.832684 0.741084 0.700323
0.131721 0.476533 0.678420
0.281425 0.549005 0.682612
0.410057 0.608806 0.692253
0.521779 0.659225 0.705303
0.620182 0.702539 0.719725
0.706040 0.736923 0.732321
0.787158 0.760427 0.737279
0.850106 0.782422 0.739559
0.140597 0.492536 0.686715
0.327914 0.581955 0.696631
0.471232 0.649029 0.710174
0.583522 0.700980 0.725672
0.675353 0.743459 0.741519
0.750494 0.777673 0.755305
0.811875 0.801193 0.767783
0.863805 0.819135 0.775909
0.157056 0.508144 0.691212
0.371667 0.610017 0.708536
0.526423 0.683070 0.727111
0.639699 0.736930 0.745636
0.726774 0.779344 0.762907
0.795406 0.813428 0.776926
0.843264 0.837344 0.794699
0.883625 0.853588 0.810183
0.054732 0.292528 0.625153
0.076120 0.299950 0.618932
0.144897 0.322980 0.607363
0.257641 0.359785 0.590983
0.405191 0.406572 0.570555
0.556748 0.451208 0.547368
0.660869 0.472654 0.521345
0.714654 0.473513 0.497136
0.075834 0.344672 0.646291
0.128219 0.372141 0.642893
0.205454 0.406209 0.639623
0.312997 0.448044 0.634860
0.449193 0.496455 0.627385
0.589245 0.541393 0.616077
0.691711 0.569051 0.600533
0.755644 0.584764 0.585219
0.098140 0.396617 0.665904
0.170124 0.435596 0.665942
0.258467 0.478215 0.667673
0.365883 0.523722 0.670034
0.491171 0.570712 0.671800
0.620656 0.614491 0.670057
0.719300 0.645341 0.664118
0.788609 0.670230 0.656738
0.117851 0.441845 0.682182
0.207678 0.489935 0.685928
0.308958 0.539498 0.691611
0.417900 0.587929 0.698971
0.531781 0.633372 0.707219
0.651367 0.674934 0.713085
0.745063 0.706720 0.715329
0.815933 0.735983 0.714751
0.132245 0.475571 0.693897
0.245396 0.534902 0.701455
0.360732 0.590661 0.711470
0.470987 0.641676 0.723321
0.573659 0.687159 0.736186
0.681871 0.726016 0.748060
0.770012 0.757231 0.756694
0.839532 0.787018 0.761648
0.139734 0.493806 0.700185
0.285789 0.568335 0.712101
0.415746 0.630802 0.726083
0.530104 0.683833 0.741588
0.629648 0.729413 0.758044
0.713398 0.766637 0.774560
0.794019 0.796675 0.787433
0.859973 0.824143 0.796251
0.142934 0.502608 0.703667
0.333375 0.596330 0.720775
0.480119 0.666510 0.738585
0.594707 0.720498 0.756891
0.686660 0.764147 0.775445
0.758967 0.799096 0.793710
0.821812 0.826739 0.808597
0.876255 0.850296 0.819421
0.149567 0.510013 0.705749
0.380564 0.621309 0.729700
0.542692 0.698865 0.752078
0.656987 0.753986 0.773103
0.741083 0.795864 0.792971
0.804641 0.828753 0.811637
0.854680 0.854529 0.827212
0.896150 0.874303 0.840150
