filters/luts/Suburbs 03.cube
# LUT by SparkleStock. Enhanced with VOXCOLOR algorithms.
LUT_3D_SIZE 32
0.105495 0.085958 0.070330
0.129505 0.089929 0.069526
0.153515 0.093899 0.068723
0.177526 0.097869 0.067919
0.201536 0.101839 0.067116
0.225546 0.105810 0.066312
0.253259 0.111040 0.065942
0.281713 0.116523 0.065658
0.310166 0.122006 0.065375
0.338619 0.127488 0.065091
0.367072 0.132971 0.064808
0.394927 0.139525 0.064902
0.422482 0.146615 0.065186
0.450037 0.153704 0.065469
0.477593 0.160794 0.065753
0.505148 0.167884 0.066036
0.529844 0.175659 0.066438
0.551680 0.184119 0.066958
0.573516 0.192579 0.067478
0.595352 0.201040 0.067998
0.617189 0.209500 0.068518
0.636520 0.218055 0.069069
0.650841 0.226799 0.069684
0.665162 0.235543 0.070298
0.679483 0.244287 0.070913
0.693804 0.253031 0.071527
0.706936 0.261381 0.072110
0.714120 0.267762 0.072535
0.721305 0.274142 0.072961
0.728489 0.280523 0.073386
0.735673 0.286904 0.073811
0.742857 0.293284 0.074237
0.109843 0.093663 0.072220
0.131420 0.099270 0.072030
0.152997 0.104878 0.071839
0.174574 0.110486 0.071649
0.196151 0.116093 0.071458
0.217728 0.121701 0.071267
0.246186 0.126801 0.070763
0.276021 0.131799 0.070196
0.305856 0.136796 0.069629
0.335690 0.141794 0.069061
0.365525 0.146792 0.068494
0.394389 0.152941 0.068391
0.422767 0.159664 0.068519
0.451146 0.166388 0.068647
0.479524 0.173112 0.068775
0.507903 0.179836 0.068903
0.533125 0.187249 0.069195
0.555190 0.195353 0.069651
0.577255 0.203456 0.070107
0.599319 0.211560 0.070562
0.621384 0.219664 0.071018
0.640780 0.227856 0.071515
0.654836 0.236224 0.072093
0.668891 0.244593 0.072671
0.682947 0.252962 0.073248
0.697003 0.261331 0.073826
0.709839 0.269311 0.074374
0.716575 0.275344 0.074772
0.723311 0.281377 0.075170
0.730047 0.287410 0.075568
0.736783 0.293443 0.075966
0.743519 0.299476 0.076364
0.114191 0.101367 0.074111
0.133335 0.108612 0.074533
0.152479 0.115857 0.074955
0.171622 0.123102 0.075378
0.190766 0.130348 0.075800
0.209910 0.137593 0.076222
0.239113 0.142561 0.075584
0.270329 0.147074 0.074733
0.301545 0.151587 0.073882
0.332761 0.156100 0.073032
0.363977 0.160613 0.072181
0.393851 0.166356 0.071879
0.423052 0.172714 0.071852
0.452254 0.179072 0.071824
0.481456 0.185430 0.071797
0.510658 0.191787 0.071769
0.536406 0.198840 0.071951
0.558699 0.206587 0.072343
0.580993 0.214333 0.072735
0.603287 0.222080 0.073127
0.625580 0.229827 0.073519
0.645040 0.237656 0.073960
0.658830 0.245650 0.074502
0.672621 0.253644 0.075043
0.686411 0.261638 0.075584
0.700202 0.269631 0.076125
0.712742 0.277240 0.076638
0.719030 0.282926 0.077009
0.725317 0.288611 0.077379
0.731605 0.294297 0.077750
0.737893 0.299982 0.078120
0.744181 0.305668 0.078491
0.118540 0.109071 0.076001
0.135250 0.117954 0.077037
0.151960 0.126836 0.078072
0.168670 0.135719 0.079107
0.185381 0.144602 0.080142
0.202091 0.153484 0.081178
0.232041 0.158322 0.080405
0.264638 0.162350 0.079271
0.297235 0.166378 0.078136
0.329832 0.170406 0.077002
0.362430 0.174434 0.075868
0.393312 0.179772 0.075367
0.423338 0.185763 0.075184
0.453363 0.191755 0.075001
0.483388 0.197747 0.074819
0.513413 0.203739 0.074636
0.539687 0.210430 0.074708
0.562209 0.217820 0.075036
0.584732 0.225210 0.075364
0.607254 0.232600 0.075691
0.629776 0.239990 0.076019
0.649299 0.247457 0.076406
0.662825 0.255075 0.076911
0.676350 0.262694 0.077415
0.689875 0.270313 0.077920
0.703401 0.277932 0.078425
0.715645 0.285170 0.078902
0.721484 0.290508 0.079245
0.727324 0.295846 0.079588
0.733163 0.301184 0.079931
0.739003 0.306522 0.080275
0.744842 0.311859 0.080618
0.122888 0.116775 0.077892
0.137165 0.127295 0.079540
0.151442 0.137815 0.081188
0.165719 0.148336 0.082836
0.179996 0.158856 0.084485
0.194273 0.169376 0.086133
0.224968 0.174082 0.085226
0.258946 0.177625 0.083808
0.292925 0.181169 0.082390
0.326904 0.184712 0.080972
0.360882 0.188255 0.079554
0.392774 0.193187 0.078856
0.423623 0.198813 0.078517
0.454471 0.204439 0.078179
0.485320 0.210065 0.077840
0.516168 0.215691 0.077502
0.542968 0.222021 0.077465
0.565719 0.229054 0.077728
0.588470 0.236087 0.077992
0.611221 0.243121 0.078256
0.633972 0.250154 0.078520
0.653559 0.257257 0.078852
0.666819 0.264501 0.079320
0.680079 0.271745 0.079788
0.693339 0.278988 0.080256
0.706599 0.286232 0.080724
0.718548 0.293100 0.081166
0.723939 0.298090 0.081482
0.729330 0.303080 0.081798
0.734722 0.308071 0.082113
0.740113 0.313061 0.082429
0.745504 0.318051 0.082744
0.127236 0.124479 0.079783
0.139080 0.136637 0.082044
0.150923 0.148794 0.084305
0.162767 0.160952 0.086566
0.174611 0.173110 0.088827
0.186454 0.185267 0.091088
0.217895 0.189842 0.090047
0.253255 0.192901 0.088345
0.288615 0.195959 0.086644
0.323975 0.199018 0.084942
0.359335 0.202076 0.083241
0.392236 0.206603 0.082344
0.423908 0.211863 0.081850
0.455580 0.217123 0.081356
0.487251 0.222383 0.080862
0.518923 0.227643 0.080368
0.546249 0.233611 0.080221
0.569229 0.240288 0.080421
0.592208 0.246964 0.080621
0.615188 0.253641 0.080820
0.638168 0.260317 0.081020
0.657819 0.267058 0.081297
0.670814 0.273926 0.081729
0.683809 0.280795 0.082160
0.696803 0.287664 0.082592
0.709798 0.294532 0.083023
0.721451 0.301030 0.083431
0.726394 0.305672 0.083719
0.731337 0.310315 0.084007
0.736280 0.314958 0.084295
0.741223 0.319600 0.084583
0.746166 0.324243 0.084871
0.133239 0.134546 0.082028
0.144860 0.147152 0.084406
0.156481 0.159758 0.086785
0.168102 0.172364 0.089163
0.179723 0.184970 0.091542
0.191344 0.197576 0.093920
0.220455 0.203334 0.093361
0.253065 0.207722 0.092214
0.285674 0.212110 0.091068
0.318284 0.216498 0.089921
0.350893 0.220886 0.088775
0.383777 0.225342 0.087838
0.416798 0.229832 0.087005
0.449819 0.234322 0.086173
0.482841 0.238812 0.085340
0.515862 0.243302 0.084508
0.544224 0.248578 0.084121
0.567928 0.254638 0.084181
0.591632 0.260699 0.084240
0.615336 0.266759 0.084300
0.639040 0.272820 0.084359
0.659220 0.278989 0.084530
0.672354 0.285376 0.084925
0.685487 0.291763 0.085320
0.698621 0.298149 0.085715
0.711754 0.304536 0.086110
0.723491 0.310586 0.086488
0.728245 0.314949 0.086779
0.732999 0.319313 0.087070
0.737753 0.323677 0.087361
0.742507 0.328040 0.087652
0.747261 0.332404 0.087944
0.139572 0.145086 0.084344
0.151413 0.157903 0.086740
0.163253 0.170719 0.089137
0.175094 0.183535 0.091534
0.186934 0.196352 0.093931
0.198775 0.209168 0.096327
0.224942 0.216371 0.096374
0.253975 0.222451 0.095950
0.283008 0.228532 0.095526
0.312040 0.234612 0.095102
0.341073 0.240693 0.094678
0.373734 0.245146 0.093732
0.408210 0.248785 0.092524
0.442685 0.252424 0.091317
0.477161 0.256064 0.090109
0.511637 0.259703 0.088902
0.541138 0.264219 0.088250
0.565666 0.269612 0.088154
0.590193 0.275005 0.088058
0.614720 0.280397 0.087962
0.639247 0.285790 0.087866
0.660050 0.291346 0.087921
0.673403 0.297230 0.088280
0.686756 0.303114 0.088638
0.700109 0.308997 0.088996
0.713462 0.314881 0.089354
0.725359 0.320467 0.089703
0.729976 0.324566 0.090003
0.734592 0.328664 0.090304
0.739209 0.332762 0.090604
0.743826 0.336860 0.090904
0.748442 0.340959 0.091205
0.145906 0.155626 0.086660
0.157966 0.168653 0.089075
0.170026 0.181680 0.091490
0.182086 0.194707 0.093905
0.194146 0.207733 0.096320
0.206206 0.220760 0.098735
0.229429 0.229408 0.099386
0.254885 0.237181 0.099685
0.280341 0.244954 0.099984
0.305797 0.252727 0.100283
0.331252 0.260499 0.100582
0.363691 0.264949 0.099626
0.399621 0.267738 0.098044
0.435552 0.270527 0.096461
0.471482 0.273315 0.094879
0.507412 0.276104 0.093296
0.538052 0.279861 0.092379
0.563403 0.284586 0.092127
0.588754 0.289310 0.091876
0.614104 0.294035 0.091624
0.639455 0.298760 0.091373
0.660879 0.303704 0.091312
0.674452 0.309084 0.091634
0.688024 0.314465 0.091955
0.701597 0.319845 0.092277
0.715170 0.325226 0.092599
0.727227 0.330349 0.092919
0.731706 0.334182 0.093228
0.736185 0.338015 0.093538
0.740665 0.341848 0.093847
0.745144 0.345681 0.094157
0.749624 0.349514 0.094466
0.152239 0.166166 0.088976
0.164519 0.179404 0.091409
0.176798 0.192641 0.093842
0.189078 0.205878 0.096276
0.201358 0.219115 0.098709
0.213637 0.232352 0.101142
0.233916 0.242446 0.102399
0.255795 0.251911 0.103421
0.277674 0.261376 0.104442
0.299553 0.270841 0.105464
0.321432 0.280306 0.106485
0.353648 0.284753 0.105521
0.391033 0.286691 0.103563
0.428418 0.288629 0.101605
0.465802 0.290567 0.099648
0.503187 0.292505 0.097690
0.534967 0.295502 0.096508
0.561140 0.299559 0.096101
0.587314 0.303616 0.095693
0.613488 0.307674 0.095286
0.639662 0.311731 0.094879
0.661709 0.316061 0.094703
0.675501 0.320939 0.094988
0.689293 0.325816 0.095273
0.703085 0.330693 0.095558
0.716877 0.335571 0.095843
0.729094 0.340230 0.096134
0.733437 0.343798 0.096453
0.737779 0.347365 0.096771
0.742121 0.350933 0.097090
0.746463 0.354501 0.097409
0.750805 0.358068 0.097727
0.158573 0.176706 0.091292
0.171072 0.190154 0.093743
0.183571 0.203602 0.096195
0.196070 0.217049 0.098646
0.208569 0.230497 0.101098
0.221069 0.243944 0.103550
0.238403 0.255483 0.105412
0.256706 0.266641 0.107156
0.275008 0.277798 0.108900
0.293310 0.288956 0.110645
0.311612 0.300113 0.112389
0.343605 0.304557 0.111415
0.382445 0.305644 0.109082
0.421284 0.306731 0.106750
0.460123 0.307818 0.104417
0.498962 0.308905 0.102084
0.531881 0.311144 0.100636
0.558878 0.314533 0.100074
0.585875 0.317922 0.099511
0.612872 0.321312 0.098949
0.639869 0.324701 0.098386
0.662538 0.328419 0.098094
0.676550 0.332793 0.098342
0.690561 0.337167 0.098591
0.704573 0.341541 0.098839
0.718585 0.345916 0.099088
0.730962 0.350111 0.099350
0.735167 0.353414 0.099677
0.739372 0.356716 0.100005
0.743577 0.360018 0.100333
0.747782 0.363321 0.100661
0.751987 0.366623 0.100989
0.166734 0.188979 0.093954
0.179282 0.202387 0.096400
0.191830 0.215795 0.098845
0.204378 0.229203 0.101291
0.216926 0.242611 0.103736
0.229474 0.256019 0.106182
0.245676 0.268032 0.108345
0.262609 0.279766 0.110452
0.279541 0.291499 0.112560
0.296474 0.303233 0.114667
0.313407 0.314967 0.116774
0.343861 0.320012 0.116208
0.381075 0.321712 0.114305
0.418289 0.323412 0.112402
0.455503 0.325112 0.110499
0.492717 0.326812 0.108596
0.525374 0.328934 0.107237
0.553475 0.331479 0.106422
0.581576 0.334023 0.105606
0.609678 0.336568 0.104790
0.637779 0.339113 0.103974
0.661340 0.342065 0.103485
0.675821 0.345832 0.103648
0.690302 0.349600 0.103811
0.704784 0.353367 0.103974
0.719265 0.357135 0.104138
0.732035 0.360775 0.104329
0.736249 0.363782 0.104659
0.740463 0.366789 0.104990
0.744677 0.369795 0.105321
0.748892 0.372802 0.105652
0.753106 0.375808 0.105983
0.175808 0.202119 0.096790
0.188320 0.215362 0.099217
0.200831 0.228605 0.101644
0.213343 0.241849 0.104072
0.225854 0.255092 0.106499
0.238365 0.268335 0.108926
0.254340 0.280336 0.111239
0.271008 0.292088 0.113529
0.287676 0.303840 0.115819
0.304343 0.315592 0.118109
0.321011 0.327344 0.120399
0.349266 0.333291 0.120449
0.383315 0.336336 0.119379
0.417363 0.339381 0.118309
0.451412 0.342426 0.117238
0.485461 0.345470 0.116168
0.517158 0.347799 0.115074
0.546503 0.349410 0.113956
0.575848 0.351022 0.112839
0.605194 0.352633 0.111721
0.634539 0.354245 0.110604
0.659127 0.356355 0.109876
0.674203 0.359464 0.109930
0.689279 0.362573 0.109983
0.704355 0.365682 0.110036
0.719431 0.368791 0.110090
0.732710 0.371831 0.110189
0.737007 0.374526 0.110520
0.741303 0.377222 0.110851
0.745600 0.379917 0.111182
0.749896 0.382613 0.111513
0.754193 0.385309 0.111844
0.184883 0.215259 0.099626
0.197358 0.228337 0.102035
0.209833 0.241416 0.104444
0.222308 0.254494 0.106853
0.234782 0.267573 0.109262
0.247257 0.280651 0.111671
0.263005 0.292640 0.114133
0.279407 0.304410 0.116606
0.295810 0.316181 0.119079
0.312212 0.327951 0.121552
0.328614 0.339721 0.124025
0.354671 0.346571 0.124691
0.385554 0.350961 0.124453
0.416438 0.355350 0.124215
0.447321 0.359740 0.123977
0.478205 0.364129 0.123739
0.508942 0.366663 0.122911
0.539531 0.367342 0.121491
0.570120 0.368020 0.120072
0.600709 0.368699 0.118652
0.631299 0.369377 0.117233
0.656915 0.370646 0.116268
0.672586 0.373096 0.116211
0.688256 0.375546 0.116155
0.703927 0.377997 0.116099
0.719597 0.380447 0.116042
0.733386 0.382886 0.116050
0.737765 0.385270 0.116381
0.742143 0.387655 0.116712
0.746522 0.390040 0.117043
0.750901 0.392424 0.117374
0.755280 0.394809 0.117705
0.193958 0.228398 0.102462
0.206396 0.241312 0.104852
0.218834 0.254226 0.107243
0.231273 0.267140 0.109634
0.243711 0.280054 0.112024
0.256149 0.292968 0.114415
0.271670 0.304944 0.117027
0.287807 0.316733 0.119683
0.303944 0.328521 0.122339
0.320081 0.340310 0.124995
0.336218 0.352099 0.127651
0.360076 0.359851 0.128932
0.387794 0.365585 0.129527
0.415512 0.371320 0.130122
0.443231 0.377054 0.130716
0.470949 0.382788 0.131311
0.500725 0.385528 0.130748
0.532559 0.385273 0.129026
0.564392 0.385019 0.127305
0.596225 0.384764 0.125583
0.628059 0.384509 0.123862
0.654703 0.384937 0.122659
0.670968 0.386728 0.122493
0.687233 0.388520 0.122327
0.703498 0.390311 0.122161
0.719763 0.392103 0.121994
0.734061 0.393941 0.121911
0.738522 0.396015 0.122242
0.742983 0.398088 0.122573
0.747445 0.400162 0.122904
0.751906 0.402235 0.123234
0.756367 0.404309 0.123565
0.203033 0.241538 0.105298
0.215434 0.254287 0.107670
0.227836 0.267036 0.110042
0.240238 0.279785 0.112415
0.252639 0.292535 0.114787
0.265041 0.305284 0.117159
0.280334 0.317248 0.119921
0.296206 0.329055 0.122760
0.312078 0.340862 0.125598
0.327949 0.352669 0.128437
0.343821 0.364476 0.131276
0.365481 0.373131 0.133174
0.390034 0.380210 0.134601
0.414587 0.387289 0.136028
0.439140 0.394368 0.137455
0.463693 0.401447 0.138882
0.492509 0.404393 0.138584
0.525586 0.403205 0.136561
0.558664 0.402017 0.134538
0.591741 0.400829 0.132515
0.624819 0.399642 0.130491
0.652491 0.399228 0.129051
0.669350 0.400360 0.128775
0.686210 0.401493 0.128499
0.703070 0.402626 0.128223
0.719930 0.403759 0.127947
0.734737 0.404997 0.127772
0.739280 0.406759 0.128103
0.743824 0.408522 0.128434
0.748367 0.410284 0.128764
0.752911 0.412047 0.129095
0.757454 0.413809 0.129426
0.213195 0.255244 0.108110
0.225505 0.267737 0.110496
0.237815 0.280231 0.112882
0.250125 0.292724 0.115268
0.262435 0.305217 0.117654
0.274745 0.317710 0.120040
0.289730 0.329517 0.122952
0.305250 0.341187 0.125970
0.320769 0.352856 0.128987
0.336289 0.364526 0.132004
0.351808 0.376196 0.135022
0.372005 0.385311 0.137442
0.394541 0.393150 0.139565
0.417077 0.400988 0.141687
0.439614 0.408826 0.143809
0.462150 0.416665 0.145932
0.489892 0.420024 0.146230
0.522842 0.418905 0.144706
0.555791 0.417786 0.143181
0.588741 0.416667 0.141656
0.621690 0.415548 0.140132
0.649507 0.414943 0.138975
0.667057 0.415367 0.138552
0.684608 0.415791 0.138130
0.702158 0.416215 0.137708
0.719708 0.416638 0.137285
0.735116 0.417229 0.136982
0.739811 0.418653 0.137277
0.744505 0.420077 0.137571
0.749199 0.421501 0.137865
0.753894 0.422925 0.138159
0.758588 0.424349 0.138454
0.224444 0.269518 0.110898
0.236607 0.281664 0.113330
0.248771 0.293809 0.115762
0.260935 0.305955 0.118194
0.273099 0.318100 0.120626
0.285262 0.330246 0.123058
0.299857 0.341751 0.126122
0.314937 0.353128 0.129313
0.330018 0.364505 0.132504
0.345098 0.375882 0.135696
0.360179 0.387259 0.138887
0.379650 0.396393 0.141737
0.401317 0.404405 0.144418
0.422984 0.412417 0.147098
0.444651 0.420429 0.149778
0.466318 0.428441 0.152459
0.492876 0.432423 0.153686
0.524325 0.432374 0.153460
0.555775 0.432325 0.153235
0.587224 0.432276 0.153009
0.618673 0.432228 0.152783
0.645752 0.432083 0.152431
0.664089 0.431748 0.151826
0.682426 0.431412 0.151221
0.700763 0.431077 0.150615
0.719100 0.430742 0.150010
0.735200 0.430638 0.149543
0.740114 0.431696 0.149764
0.745028 0.432755 0.149985
0.749942 0.433813 0.150206
0.754856 0.434871 0.150427
0.759770 0.435929 0.150648
0.235693 0.283792 0.113687
0.247710 0.295590 0.116165
0.259727 0.307388 0.118642
0.271745 0.319186 0.121120
0.283762 0.330984 0.123597
0.295780 0.342781 0.126075
0.309984 0.353985 0.129292
0.324625 0.365069 0.132657
0.339266 0.376153 0.136022
0.353908 0.387238 0.139387
0.368549 0.398322 0.142752
0.387295 0.407474 0.146032
0.408093 0.415660 0.149271
0.428891 0.423846 0.152509
0.449689 0.432032 0.155747
0.470486 0.440218 0.158986
0.495860 0.444821 0.161142
0.525809 0.445843 0.162215
0.555758 0.446864 0.163288
0.585707 0.447886 0.164362
0.615656 0.448907 0.165435
0.641996 0.449224 0.165888
0.661120 0.448129 0.165100
0.680244 0.447034 0.164311
0.699368 0.445939 0.163523
0.718492 0.444845 0.162735
0.735284 0.444048 0.162103
0.740417 0.444740 0.162251
0.745551 0.445432 0.162398
0.750685 0.446124 0.162546
0.755818 0.446817 0.162694
0.760952 0.447509 0.162842
0.246942 0.298066 0.116476
0.258813 0.309516 0.118999
0.270684 0.320967 0.121522
0.282555 0.332417 0.124046
0.294426 0.343867 0.126569
0.306297 0.355317 0.129092
0.320110 0.366219 0.132462
0.334313 0.377010 0.136000
0.348515 0.387802 0.139539
0.362717 0.398593 0.143078
0.376919 0.409385 0.146617
0.394939 0.418555 0.150327
0.414868 0.426915 0.154124
0.434797 0.435275 0.157920
0.454726 0.443634 0.161716
0.474655 0.451994 0.165513
0.498844 0.457220 0.168597
0.527292 0.459312 0.170970
0.555741 0.461404 0.173342
0.584190 0.463495 0.175714
0.612638 0.465587 0.178087
0.638241 0.466364 0.179345
0.658152 0.464510 0.178373
0.678062 0.462656 0.177402
0.697973 0.460802 0.176431
0.717883 0.458948 0.175460
0.735368 0.457457 0.174663
0.740721 0.457783 0.174738
0.746074 0.458110 0.174812
0.751427 0.458436 0.174887
0.756780 0.458762 0.174962
0.762133 0.459089 0.175036
0.258191 0.312340 0.119264
0.269915 0.323443 0.121833
0.281640 0.334545 0.124402
0.293365 0.345648 0.126971
0.305089 0.356750 0.129540
0.316814 0.367853 0.132110
0.330237 0.378452 0.135632
0.344000 0.388951 0.139344
0.357764 0.399450 0.143057
0.371527 0.409949 0.146769
0.385290 0.420448 0.150482
0.402584 0.429636 0.154622
0.421644 0.438170 0.158977
0.440704 0.446703 0.163331
0.459763 0.455237 0.167686
0.478823 0.463771 0.172040
0.501827 0.469618 0.176053
0.528776 0.472781 0.179724
0.555724 0.475943 0.183396
0.582673 0.479105 0.187067
0.609621 0.482267 0.190738
0.634486 0.483504 0.192801
0.655183 0.480891 0.191647
0.675880 0.478277 0.190493
0.696578 0.475664 0.189339
0.717275 0.473051 0.188185
0.735452 0.470867 0.187223
0.741024 0.470827 0.187225
0.746597 0.470787 0.187226
0.752170 0.470748 0.187228
0.757742 0.470708 0.187229
0.763315 0.470668 0.187231
0.269881 0.326504 0.121754
0.281422 0.337234 0.124420
0.292964 0.347965 0.127087
0.304506 0.358695 0.129753
0.316047 0.369426 0.132420
0.327589 0.380157 0.135087
0.340626 0.390435 0.138795
0.353963 0.400623 0.142712
0.367299 0.410810 0.146629
0.380635 0.420998 0.150546
0.393971 0.431186 0.154463
0.410554 0.440314 0.159025
0.428760 0.448911 0.163910
0.446966 0.457509 0.168795
0.465172 0.466106 0.173680
0.483378 0.474704 0.178565
0.505239 0.481024 0.183444
0.530754 0.485068 0.188317
0.556269 0.489111 0.193190
0.581784 0.493155 0.198062
0.607300 0.497198 0.202935
0.631428 0.498967 0.205998
0.652784 0.496186 0.205442
0.674140 0.493405 0.204885
0.695496 0.490624 0.204329
0.716852 0.487843 0.203772
0.735616 0.485458 0.203293
0.741417 0.485052 0.203196
0.747218 0.484647 0.203100
0.753020 0.484241 0.203004
0.758821 0.483835 0.202908
0.764622 0.483430 0.202812
0.282453 0.340447 0.123644
0.293739 0.350756 0.126512
0.305024 0.361066 0.129380
0.316310 0.371376 0.132248
0.327595 0.381686 0.135116
0.338881 0.391996 0.137984
0.351540 0.401914 0.141947
0.364474 0.411754 0.146129
0.377407 0.421594 0.150311
0.390341 0.431434 0.154493
0.403275 0.441275 0.158675
0.419174 0.450183 0.163643
0.436557 0.458625 0.169004
0.453940 0.467067 0.174365
0.471322 0.475509 0.179725
0.488705 0.483951 0.185086
0.509505 0.490445 0.190706
0.533721 0.494992 0.196585
0.557937 0.499538 0.202464
0.582153 0.504085 0.208343
0.606370 0.508632 0.214222
0.629767 0.511074 0.218676
0.651525 0.509308 0.220278
0.673283 0.507543 0.221881
0.695042 0.505777 0.223483
0.716800 0.504012 0.225086
0.735941 0.502412 0.226380
0.741989 0.501640 0.226138
0.748037 0.500869 0.225896
0.754086 0.500097 0.225653
0.760134 0.499326 0.225411
0.766182 0.498554 0.225168
0.295025 0.354390 0.125535
0.306055 0.364279 0.128604
0.317084 0.374168 0.131673
0.328114 0.384057 0.134742
0.339143 0.393946 0.137811
0.350172 0.403835 0.140880
0.362453 0.413393 0.145098
0.374985 0.422886 0.149546
0.387516 0.432378 0.153993
0.400047 0.441871 0.158440
0.412578 0.451363 0.162888
0.427795 0.460052 0.168261
0.444354 0.468338 0.174098
0.460914 0.476625 0.179934
0.477473 0.484912 0.185771
0.494032 0.493198 0.191607
0.513771 0.499866 0.197968
0.536688 0.504916 0.204853
0.559605 0.509966 0.211739
0.582522 0.515015 0.218624
0.605439 0.520065 0.225509
0.628105 0.523181 0.231353
0.650266 0.522431 0.235115
0.672427 0.521681 0.238876
0.694588 0.520931 0.242637
0.716749 0.520181 0.246399
0.736265 0.519366 0.249468
0.742561 0.518229 0.249080
0.748856 0.517091 0.248691
0.755151 0.515954 0.248302
0.761447 0.514817 0.247913
0.767742 0.513679 0.247525
0.307598 0.368333 0.127425
0.318371 0.377801 0.130696
0.329144 0.387269 0.133966
0.339918 0.396737 0.137236
0.350691 0.406205 0.140507
0.361464 0.415674 0.143777
0.373367 0.424872 0.148250
0.385496 0.434017 0.152962
0.397624 0.443162 0.157675
0.409753 0.452307 0.162388
0.421882 0.461452 0.167101
0.436415 0.469921 0.172880
0.452151 0.478052 0.179192
0.467887 0.486183 0.185504
0.483623 0.494314 0.191816
0.499360 0.502445 0.198128
0.518037 0.509287 0.205230
0.539655 0.514840 0.213122
0.561273 0.520393 0.221013
0.582891 0.525946 0.228905
0.604509 0.531498 0.236796
0.626443 0.535289 0.244031
0.649006 0.535554 0.249951
0.671570 0.535819 0.255872
0.694133 0.536085 0.261792
0.716697 0.536350 0.267712
0.736590 0.536320 0.272556
0.743132 0.534817 0.272021
0.749675 0.533314 0.271486
0.756217 0.531810 0.270951
0.762759 0.530307 0.270416
0.769302 0.528804 0.269881
0.320170 0.382276 0.129316
0.330687 0.391323 0.132788
0.341204 0.400370 0.136259
0.351722 0.409418 0.139731
0.362239 0.418465 0.143202
0.372756 0.427513 0.146674
0.384280 0.436352 0.151401
0.396007 0.445149 0.156379
0.407733 0.453946 0.161357
0.419459 0.462743 0.166335
0.431185 0.471541 0.171313
0.445036 0.479790 0.177498
0.459948 0.487766 0.184286
0.474861 0.495741 0.191073
0.489774 0.503717 0.197861
0.504687 0.511692 0.204649
0.522303 0.518708 0.212492
0.542622 0.524764 0.221390
0.562941 0.530820 0.230288
0.583260 0.536876 0.239186
0.603579 0.542932 0.248084
0.624781 0.547396 0.256709
0.647747 0.548677 0.264788
0.670713 0.549958 0.272867
0.693679 0.551238 0.280946
0.716645 0.552519 0.289025
0.736915 0.553275 0.295644
0.743704 0.551405 0.294963
0.750493 0.549536 0.294281
0.757283 0.547667 0.293600
0.764072 0.545798 0.292918
0.770861 0.543928 0.292237
0.332845 0.395943 0.130954
0.343085 0.404567 0.134668
0.353324 0.413190 0.138383
0.363564 0.421814 0.142097
0.373803 0.430437 0.145811
0.384043 0.439061 0.149525
0.395205 0.447553 0.154539
0.406552 0.456020 0.159812
0.417898 0.464486 0.165086
0.429245 0.472953 0.170360
0.440591 0.481419 0.175634
0.453798 0.489451 0.182230
0.467935 0.497267 0.189487
0.482071 0.505082 0.196745
0.496208 0.512898 0.204002
0.510345 0.520713 0.211260
0.526953 0.527863 0.219815
0.546033 0.534347 0.229669
0.565112 0.540832 0.239523
0.584192 0.547316 0.249377
0.603271 0.553801 0.259231
0.623687 0.558875 0.269170
0.646773 0.561130 0.279280
0.669860 0.563385 0.289390
0.692946 0.565640 0.299500
0.716032 0.567895 0.309610
0.736471 0.569439 0.317981
0.743672 0.567430 0.317655
0.750873 0.565420 0.317328
0.758074 0.563411 0.317002
0.765275 0.561401 0.316676
0.772476 0.559392 0.316350
0.346032 0.408232 0.131332
0.355887 0.416416 0.135495
0.365743 0.424601 0.139657
0.375598 0.432785 0.143819
0.385453 0.440969 0.147982
0.395309 0.449154 0.152144
0.406186 0.457367 0.157606
0.417267 0.465587 0.163328
0.428348 0.473806 0.169050
0.439430 0.482026 0.174772
0.450511 0.490245 0.180494
0.463269 0.498073 0.187533
0.476866 0.505706 0.195229
0.490463 0.513338 0.202926
0.504060 0.520971 0.210622
0.517657 0.528603 0.218319
0.533524 0.535689 0.227446
0.551662 0.542228 0.238005
0.569799 0.548768 0.248563
0.587936 0.555307 0.259121
0.606074 0.561846 0.269679
0.625431 0.567214 0.280552
