filters/luts/Suburbs 03_S.cube
# LUT by SparkleStock. Enhanced with VOXCOLOR algorithms.
LUT_3D_SIZE 5
DOMAIN_MIN 0.000000 0.000000 0.000000
DOMAIN_MAX 0.903226 0.903226 0.903226
0.105495 0.085958 0.070330
0.281390 0.114758 0.065146
0.480145 0.155579 0.064500
0.637410 0.213352 0.068108
0.723833 0.274095 0.072913
0.138131 0.143818 0.083879
0.251373 0.225021 0.084290
0.473713 0.252076 0.068013
0.656696 0.282874 0.068948
0.740717 0.324880 0.082793
0.191091 0.227823 0.101682
0.285888 0.322953 0.110337
0.437096 0.391762 0.105838
0.651065 0.389081 0.096770
0.750623 0.397755 0.109873
0.266801 0.330174 0.120666
0.351247 0.406605 0.137846
0.463643 0.475189 0.160540
0.638729 0.503917 0.185809
0.754463 0.488139 0.193536
0.356595 0.424467 0.131356
0.426201 0.479207 0.164773
0.508913 0.533112 0.212377
0.627042 0.579504 0.287314
0.754581 0.597641 0.364253
0.117673 0.117405 0.207854
0.245473 0.144305 0.162492
0.474504 0.179062 0.149959
0.642526 0.227478 0.153242
0.717152 0.284562 0.150890
0.129504 0.196704 0.242891
0.265947 0.249378 0.229736
0.471450 0.276778 0.225976
0.661684 0.309786 0.223856
0.773542 0.372442 0.220143
0.161507 0.275655 0.282686
0.313937 0.366789 0.262145
0.460290 0.442760 0.263892
0.666914 0.453649 0.261792
0.802444 0.480911 0.270448
0.217331 0.362637 0.317206
0.401816 0.467153 0.290176
0.519113 0.551119 0.313669
0.658120 0.598172 0.338962
0.807195 0.601843 0.351797
0.289220 0.442343 0.338888
0.500102 0.550397 0.321206
0.596364 0.616874 0.371294
0.684684 0.671356 0.443958
0.795629 0.698613 0.496271
0.136776 0.169688 0.373075
0.225630 0.194757 0.326439
0.461516 0.257116 0.274499
0.644578 0.294128 0.269302
0.713321 0.336058 0.264814
0.145268 0.263468 0.418477
0.265785 0.309553 0.399979
0.463761 0.337077 0.388546
0.661006 0.367503 0.384304
0.779007 0.430435 0.375356
0.157016 0.351586 0.459050
0.314078 0.420229 0.445832
0.483806 0.475640 0.453350
0.678157 0.489135 0.450864
0.833116 0.521570 0.447054
0.184362 0.415321 0.497973
0.385593 0.513379 0.491595
0.559995 0.599029 0.487769
0.684446 0.652706 0.501141
0.846853 0.665437 0.504997
0.233536 0.472644 0.518070
0.476208 0.588008 0.530792
0.658346 0.679317 0.528251
0.735303 0.737892 0.579782
0.836033 0.776787 0.611564
0.151223 0.227539 0.492962
0.212304 0.249858 0.471087
0.410899 0.317986 0.429121
0.636792 0.386560 0.398033
0.710171 0.409371 0.387617
0.159434 0.324656 0.541557
0.267153 0.379937 0.534768
0.448006 0.434167 0.529754
0.652193 0.476455 0.522487
0.769084 0.523275 0.515220
0.167967 0.408735 0.575915
0.321823 0.484241 0.578125
0.489862 0.549335 0.598055
0.674360 0.574450 0.613636
0.825548 0.601721 0.611609
0.175501 0.455461 0.597284
0.399630 0.563016 0.611081
0.568713 0.640602 0.640503
0.703715 0.690600 0.664729
0.857895 0.701691 0.665465
0.197665 0.485883 0.607803
0.477157 0.622202 0.646783
0.656166 0.711678 0.684594
0.771794 0.778240 0.710551
0.861929 0.819258 0.728636
0.162133 0.301067 0.568679
0.206513 0.320614 0.562030
0.370706 0.384483 0.545206
0.591372 0.459309 0.520502
0.702335 0.476386 0.486886
0.166809 0.380384 0.600732
0.269981 0.438580 0.606214
0.434873 0.511750 0.619738
0.634999 0.583838 0.628082
0.762536 0.626281 0.621267
0.173517 0.447067 0.624871
0.327552 0.529192 0.642558
0.500578 0.609212 0.671206
0.679140 0.674099 0.703106
0.811011 0.717670 0.720864
0.176303 0.476897 0.634548
0.403640 0.594235 0.668371
0.587772 0.682752 0.709266
0.726184 0.747706 0.751499
0.849454 0.784889 0.783521
0.180253 0.485762 0.635997
0.509657 0.650143 0.694124
0.687610 0.741764 0.742546
0.795892 0.802857 0.784918
0.876138 0.843495 0.814840
