filters/luts/Suburbs 03_S.cube
# LUT by SparkleStock. Enhanced with VOXCOLOR algorithms.
LUT_3D_SIZE 32
0.105495 0.085958 0.070330
0.128820 0.089708 0.069447
0.152145 0.093458 0.068565
0.175470 0.097207 0.067683
0.198795 0.100957 0.066801
0.224924 0.105274 0.066139
0.253157 0.110016 0.065643
0.281390 0.114758 0.065146
0.309622 0.119501 0.064650
0.337957 0.124424 0.064225
0.366907 0.130434 0.064225
0.395856 0.136445 0.064225
0.424806 0.142455 0.064225
0.453756 0.148466 0.064225
0.480145 0.155579 0.064500
0.505510 0.163134 0.064886
0.530876 0.170688 0.065272
0.556241 0.178243 0.065658
0.579842 0.186222 0.066123
0.599031 0.195266 0.066785
0.618220 0.204309 0.067447
0.637410 0.213352 0.068108
0.656599 0.222396 0.068770
0.670070 0.231675 0.069526
0.682587 0.240994 0.070298
0.695104 0.250313 0.071070
0.707621 0.259632 0.071842
0.717492 0.267699 0.072472
0.723833 0.274095 0.072913
0.730174 0.280492 0.073355
0.736516 0.286888 0.073796
0.742857 0.293284 0.074237
0.109630 0.093292 0.072204
0.130216 0.098984 0.071708
0.150802 0.104677 0.071212
0.171387 0.110369 0.070716
0.191973 0.116061 0.070219
0.217540 0.120904 0.069403
0.246844 0.125111 0.068346
0.276148 0.129318 0.067290
0.305451 0.133524 0.066233
0.334821 0.137920 0.065278
0.364593 0.143444 0.064929
0.394364 0.148969 0.064580
0.424135 0.154494 0.064232
0.453907 0.160019 0.063883
0.480940 0.166665 0.063988
0.506878 0.173758 0.064274
0.532816 0.180852 0.064561
0.558754 0.187946 0.064847
0.582839 0.195476 0.065269
0.602290 0.204095 0.066031
0.621741 0.212715 0.066792
0.641192 0.221335 0.067553
0.660642 0.229955 0.068315
0.674011 0.238897 0.069288
0.686367 0.247892 0.070296
0.698722 0.256887 0.071305
0.711078 0.265883 0.072314
0.720605 0.273743 0.073212
0.726361 0.280090 0.073965
0.732117 0.286436 0.074717
0.737873 0.292783 0.075470
0.743629 0.299130 0.076222
0.113766 0.100626 0.074079
0.131612 0.108261 0.073969
0.149459 0.115895 0.073859
0.167305 0.123530 0.073748
0.185152 0.131164 0.073638
0.210157 0.136534 0.072667
0.240531 0.140205 0.071050
0.270905 0.143877 0.069433
0.301280 0.147548 0.067816
0.331685 0.151415 0.066331
0.362279 0.156454 0.065633
0.392872 0.161494 0.064936
0.423465 0.166533 0.064239
0.454058 0.171572 0.063542
0.481735 0.177750 0.063476
0.508246 0.184383 0.063663
0.534757 0.191016 0.063849
0.561268 0.197649 0.064036
0.585836 0.204729 0.064416
0.605549 0.212925 0.065276
0.625261 0.221122 0.066137
0.644973 0.229319 0.066998
0.664686 0.237515 0.067859
0.677953 0.246119 0.069049
0.690147 0.254790 0.070295
0.702340 0.263462 0.071540
0.714534 0.272133 0.072785
0.723718 0.279787 0.073952
0.728888 0.286084 0.075016
0.734059 0.292381 0.076080
0.739230 0.298678 0.077143
0.744401 0.304975 0.078207
0.117901 0.107960 0.075954
0.133009 0.117537 0.076230
0.148116 0.127114 0.076506
0.163223 0.136691 0.076781
0.178330 0.146268 0.077057
0.202773 0.152164 0.075931
0.234218 0.155300 0.073754
0.265663 0.158436 0.071577
0.297109 0.161572 0.069399
0.328549 0.164911 0.067384
0.359964 0.169464 0.066338
0.391379 0.174018 0.065292
0.422794 0.178572 0.064246
0.454209 0.183125 0.063200
0.482530 0.188835 0.062964
0.509614 0.195007 0.063051
0.536698 0.201180 0.063138
0.563781 0.207352 0.063225
0.588833 0.213982 0.063562
0.608807 0.221755 0.064522
0.628781 0.229528 0.065483
0.648755 0.237302 0.066443
0.668729 0.245075 0.067404
0.681895 0.253341 0.068811
0.693927 0.261688 0.070293
0.705958 0.270036 0.071775
0.717990 0.278384 0.073256
0.726830 0.285831 0.074692
0.731416 0.292078 0.076067
0.736002 0.298326 0.077442
0.740587 0.304573 0.078817
0.745173 0.310820 0.080192
0.122037 0.115294 0.077829
0.134405 0.126813 0.078491
0.146773 0.138333 0.079152
0.159141 0.149852 0.079814
0.171508 0.161371 0.080476
0.195389 0.167794 0.079195
0.227905 0.170395 0.076458
0.260421 0.172995 0.073720
0.292937 0.175596 0.070982
0.325413 0.178406 0.068437
0.357650 0.182474 0.067042
0.389887 0.186542 0.065648
0.422124 0.190610 0.064253
0.454360 0.194678 0.062859
0.483325 0.199920 0.062451
0.510982 0.205632 0.062439
0.538638 0.211344 0.062426
0.566295 0.217055 0.062414
0.591831 0.223235 0.062708
0.612066 0.230585 0.063768
0.632301 0.237935 0.064828
0.652537 0.245285 0.065888
0.672772 0.252635 0.066948
0.685837 0.260562 0.068573
0.697707 0.268586 0.070291
0.709576 0.276611 0.072009
0.721446 0.284635 0.073728
0.729943 0.291876 0.075432
0.733944 0.298073 0.077118
0.737944 0.304270 0.078805
0.741945 0.310467 0.080491
0.745945 0.316665 0.082177
0.126992 0.124077 0.079798
0.138328 0.136664 0.080690
0.149664 0.149251 0.081581
0.161000 0.161837 0.082472
0.172337 0.174424 0.083363
0.194855 0.181950 0.082198
0.225759 0.185680 0.079491
0.256663 0.189410 0.076783
0.287568 0.193140 0.074076
0.318803 0.196828 0.071494
0.352025 0.200269 0.069666
0.385248 0.203709 0.067837
0.418470 0.207149 0.066009
0.451692 0.210589 0.064180
0.481454 0.215206 0.063516
0.509833 0.220293 0.063319
0.538211 0.225380 0.063122
0.566590 0.230468 0.062924
0.592761 0.236032 0.063096
0.613415 0.242787 0.064192
0.634068 0.249543 0.065288
0.654721 0.256299 0.066383
0.675375 0.263055 0.067479
0.688531 0.270492 0.069250
0.700438 0.278043 0.071134
0.712346 0.285594 0.073018
0.724253 0.293145 0.074901
0.732627 0.300030 0.076803
0.736291 0.306028 0.078730
0.739956 0.312026 0.080656
0.743620 0.318024 0.082583
0.747284 0.324022 0.084509
0.132561 0.133948 0.081839
0.144146 0.146945 0.082842
0.155732 0.159943 0.083845
0.167317 0.172940 0.084848
0.178902 0.185938 0.085852
0.199456 0.194999 0.085005
0.226737 0.201107 0.082771
0.254018 0.207215 0.080537
0.281299 0.213324 0.078302
0.309587 0.218946 0.076055
0.343918 0.221651 0.073728
0.378248 0.224357 0.071402
0.412578 0.227062 0.069075
0.446909 0.229768 0.066748
0.477584 0.233641 0.065765
0.506797 0.237981 0.065318
0.536009 0.242321 0.064872
0.565222 0.246662 0.064425
0.592142 0.251486 0.064416
0.613331 0.257519 0.065499
0.634520 0.263553 0.066583
0.655709 0.269586 0.067666
0.676897 0.275620 0.068749
0.690291 0.282453 0.070615
0.702384 0.289418 0.072610
0.714478 0.296384 0.074606
0.726572 0.303350 0.076602
0.734989 0.309767 0.078648
0.738504 0.315454 0.080761
0.742019 0.321141 0.082874
0.745534 0.326827 0.084988
0.749049 0.332514 0.087101
0.138131 0.143818 0.083879
0.149965 0.157227 0.084994
0.161799 0.170635 0.086109
0.173633 0.184043 0.087225
0.185467 0.197452 0.088340
0.204058 0.208048 0.087812
0.227716 0.216534 0.086051
0.251373 0.225021 0.084290
0.275031 0.233507 0.082529
0.300372 0.241063 0.080616
0.335810 0.243034 0.077791
0.371249 0.245005 0.074966
0.406687 0.246976 0.072142
0.442126 0.248947 0.069317
0.473713 0.252076 0.068013
0.503760 0.255669 0.067318
0.533807 0.259262 0.066622
0.563854 0.262856 0.065927
0.591523 0.266940 0.065736
0.613248 0.272251 0.066807
0.634972 0.277562 0.067878
0.656696 0.282874 0.068948
0.678420 0.288185 0.070019
0.692050 0.294413 0.071979
0.704330 0.300793 0.074087
0.716611 0.307174 0.076195
0.728892 0.313554 0.078302
0.737352 0.319504 0.080493
0.740717 0.324880 0.082793
0.744082 0.330255 0.085092
0.747448 0.335630 0.087392
0.750813 0.341006 0.089692
0.143700 0.153689 0.085919
0.155783 0.167508 0.087146
0.167866 0.181327 0.088374
0.179950 0.195146 0.089601
0.192033 0.208966 0.090829
0.208660 0.221097 0.090619
0.228694 0.231962 0.089331
0.248728 0.242826 0.088043
0.268763 0.253691 0.086755
0.291156 0.263180 0.085177
0.327702 0.264417 0.081854
0.364249 0.265653 0.078531
0.400796 0.266889 0.075208
0.437343 0.268125 0.071886
0.469843 0.270511 0.070262
0.500724 0.273357 0.069317
0.531605 0.276203 0.068373
0.562486 0.279049 0.067428
0.590904 0.282394 0.067056
0.613164 0.286983 0.068114
0.635424 0.291572 0.069172
0.657683 0.296161 0.070231
0.679943 0.300751 0.071289
0.693809 0.306373 0.073343
0.706276 0.312169 0.075563
0.718744 0.317964 0.077783
0.731211 0.323759 0.080003
0.739714 0.329241 0.082337
0.742930 0.334305 0.084824
0.746146 0.339369 0.087311
0.749362 0.344434 0.089797
0.752578 0.349498 0.092284
0.149616 0.163937 0.088054
0.161918 0.178100 0.089383
0.174220 0.192262 0.090711
0.186522 0.206425 0.092040
0.198824 0.220588 0.093369
0.213748 0.234045 0.093460
0.230640 0.246973 0.092622
0.247531 0.259901 0.091784
0.264422 0.272829 0.090946
0.284189 0.284039 0.089703
0.321207 0.284943 0.086030
0.358225 0.285847 0.082357
0.395243 0.286750 0.078684
0.432261 0.287654 0.075011
0.465507 0.289401 0.073092
0.497244 0.291486 0.071875
0.528980 0.293571 0.070659
0.560717 0.295655 0.069442
0.589904 0.298244 0.068865
0.612717 0.302093 0.069886
0.635530 0.305943 0.070907
0.658343 0.309792 0.071928
0.681156 0.313641 0.072949
0.695284 0.318634 0.075077
0.707965 0.323817 0.077389
0.720646 0.329001 0.079702
0.733326 0.334184 0.082014
0.741901 0.339172 0.084472
0.745002 0.343898 0.087124
0.748102 0.348624 0.089776
0.751203 0.353350 0.092428
0.754303 0.358076 0.095081
0.157612 0.176454 0.090756
0.169951 0.190555 0.092122
0.182290 0.204655 0.093488
0.194630 0.218755 0.094854
0.206969 0.232856 0.096220
0.221760 0.246386 0.096505
0.238390 0.259488 0.095978
0.255020 0.272591 0.095452
0.271649 0.285693 0.094925
0.290713 0.297350 0.094026
0.324382 0.300333 0.090888
0.358050 0.303316 0.087750
0.391719 0.306299 0.084612
0.425388 0.309282 0.081475
0.458379 0.311019 0.079416
0.491100 0.312257 0.077788
0.523820 0.313495 0.076160
0.556541 0.314733 0.074533
0.586619 0.316475 0.073609
0.610092 0.319477 0.074443
0.633564 0.322480 0.075277
0.657037 0.325483 0.076111
0.680510 0.328485 0.076946
0.695053 0.332695 0.079026
0.708107 0.337107 0.081313
0.721161 0.341518 0.083601
0.734216 0.345929 0.085888
0.743042 0.350262 0.088348
0.746229 0.354490 0.091037
0.749417 0.358718 0.093727
0.752604 0.362947 0.096416
0.755792 0.367175 0.099106
0.165607 0.188972 0.093458
0.177984 0.203010 0.094861
0.190361 0.217048 0.096265
0.202737 0.231086 0.097668
0.215114 0.245124 0.099072
0.229772 0.258727 0.099550
0.246140 0.272004 0.099335
0.262508 0.285281 0.099120
0.278876 0.298557 0.098904
0.297238 0.310661 0.098348
0.327557 0.315723 0.095746
0.357876 0.320785 0.093143
0.388195 0.325848 0.090541
0.418514 0.330910 0.087939
0.451252 0.332636 0.085739
0.484956 0.333027 0.083701
0.518660 0.333419 0.081662
0.552364 0.333810 0.079624
0.583334 0.334706 0.078353
0.607466 0.336861 0.079000
0.631599 0.339017 0.079648
0.655732 0.341173 0.080295
0.679864 0.343329 0.080943
0.694821 0.346756 0.082974
0.708249 0.350396 0.085237
0.721677 0.354035 0.087500
0.735105 0.357675 0.089762
0.744182 0.361353 0.092224
0.747457 0.365083 0.094951
0.750731 0.368813 0.097678
0.754006 0.372543 0.100404
0.757281 0.376273 0.103131
0.173603 0.201489 0.096160
0.186017 0.215465 0.097601
0.198431 0.229440 0.099041
0.210845 0.243416 0.100482
0.223259 0.257392 0.101923
0.237783 0.271068 0.102595
0.253890 0.284519 0.102691
0.269997 0.297970 0.102787
0.286104 0.311421 0.102884
0.303762 0.323971 0.102671
0.330732 0.331113 0.100604
0.357702 0.338255 0.098537
0.384672 0.345396 0.096470
0.411641 0.352538 0.094403
0.444124 0.354253 0.092063
0.478812 0.353798 0.089613
0.513500 0.353343 0.087164
0.548188 0.352887 0.084715
0.580048 0.352936 0.083097
0.604841 0.354245 0.083557
0.629633 0.355555 0.084018
0.654426 0.356864 0.084479
0.679218 0.358173 0.084940
0.694590 0.360818 0.086923
0.708392 0.363685 0.089161
0.722193 0.366552 0.091399
0.735995 0.369420 0.093636
0.745322 0.372443 0.096100
0.748684 0.375676 0.098864
0.752046 0.378908 0.101628
0.755408 0.382140 0.104392
0.758770 0.385372 0.107157
0.181598 0.214006 0.098862
0.194050 0.227920 0.100340
0.206501 0.241833 0.101818
0.218953 0.255747 0.103296
0.231404 0.269660 0.104774
0.245795 0.283409 0.105641
0.261640 0.297035 0.106048
0.277485 0.310660 0.106455
0.293331 0.324285 0.106863
0.310287 0.337282 0.106993
0.333907 0.346503 0.105461
0.357527 0.355724 0.103930
0.381148 0.364945 0.102398
0.404768 0.374166 0.100867
0.436996 0.375871 0.098386
0.472668 0.374569 0.095526
0.508340 0.373267 0.092666
0.544011 0.371965 0.089805
0.576763 0.371167 0.087841
0.602215 0.371629 0.088115
0.627668 0.372092 0.088389
0.653120 0.372554 0.088662
0.678573 0.373017 0.088936
0.694359 0.374879 0.090872
0.708534 0.376974 0.093085
0.722709 0.379070 0.095298
0.736884 0.381165 0.097511
0.746462 0.383534 0.099976
0.749911 0.386268 0.102777
0.753360 0.389002 0.105579
0.756809 0.391736 0.108380
0.760258 0.394470 0.111182
0.191091 0.227823 0.101682
0.203499 0.241488 0.103224
0.215908 0.255152 0.104766
0.228317 0.268817 0.106308
0.240726 0.282481 0.107851
0.254898 0.296030 0.108917
0.270393 0.309492 0.109627
0.285888 0.322953 0.110337
0.301382 0.336415 0.111046
0.317819 0.349376 0.111523
0.339904 0.359334 0.110598
0.361989 0.369292 0.109673
0.384075 0.379249 0.108748
0.406160 0.389207 0.107823
0.437096 0.391762 0.105838
0.471572 0.391356 0.103430
0.506048 0.390951 0.101021
0.540524 0.390545 0.098613
0.572621 0.390153 0.096882
0.598769 0.389796 0.096844
0.624917 0.389438 0.096807
0.651065 0.389081 0.096770
0.677213 0.388723 0.096732
0.693434 0.389822 0.098518
0.708000 0.391163 0.100608
0.722567 0.392504 0.102699
0.737133 0.393845 0.104789
0.747007 0.395555 0.107150
0.750623 0.397755 0.109873
0.754239 0.399956 0.112597
0.757855 0.402156 0.115320
0.761472 0.404356 0.118043
0.201182 0.242160 0.104549
0.213516 0.255501 0.106166
0.225850 0.268842 0.107783
0.238184 0.282182 0.109400
0.250518 0.295523 0.111017
0.264437 0.308762 0.112286
0.279546 0.321925 0.113295
0.294655 0.335088 0.114303
0.309764 0.348251 0.115312
0.325754 0.360985 0.116135
0.347030 0.371141 0.115845
0.368306 0.381298 0.115555
0.389582 0.391455 0.115265
0.410858 0.401612 0.114975
0.440086 0.405362 0.113741
0.472495 0.406551 0.112130
0.504904 0.407739 0.110518
0.537314 0.408927 0.108906
0.568137 0.409442 0.107641
0.594995 0.408276 0.107243
0.621852 0.407109 0.106845
0.648710 0.405942 0.106446
0.675568 0.404775 0.106048
0.692231 0.405118 0.107644
0.707196 0.405712 0.109572
0.722161 0.406306 0.111500
0.737126 0.406900 0.113428
0.747312 0.407948 0.115644
0.751128 0.409600 0.118242
0.754943 0.411253 0.120841
0.758759 0.412905 0.123440
0.762574 0.414557 0.126039
0.211273 0.256497 0.107417
0.223532 0.269514 0.109108
0.235791 0.282531 0.110800
0.248051 0.295548 0.112491
0.260310 0.308565 0.114183
0.273977 0.321495 0.115655
0.288700 0.334359 0.116963
0.303423 0.347223 0.118270
0.318146 0.360087 0.119577
0.333689 0.372593 0.120747
0.354156 0.382949 0.121092
0.374622 0.393305 0.121437
0.395089 0.403661 0.121782
0.415555 0.414017 0.122128
0.443076 0.418963 0.121644
0.473418 0.421745 0.120830
0.503761 0.424527 0.120015
0.534103 0.427309 0.119200
0.563653 0.428732 0.118401
0.591220 0.426755 0.117642
0.618787 0.424779 0.116882
0.646355 0.422803 0.116123
0.673922 0.420827 0.115363
0.691029 0.420413 0.116769
0.706392 0.420260 0.118535
0.721756 0.420107 0.120301
0.737119 0.419954 0.122068
0.747618 0.420340 0.124137
0.751633 0.421445 0.126612
0.755648 0.422550 0.129086
0.759662 0.423654 0.131560
0.763677 0.424759 0.134034
0.221364 0.270834 0.110284
0.233548 0.283527 0.112050
0.245733 0.296220 0.113817
0.257917 0.308914 0.115583
0.270102 0.321607 0.117349
0.283516 0.334227 0.119024
0.297853 0.346793 0.120630
0.312190 0.359358 0.122237
0.326527 0.371923 0.123843
0.341624 0.384201 0.125360
0.361281 0.394756 0.126340
0.380939 0.405312 0.127320
0.400596 0.415867 0.128300
0.420253 0.426422 0.129280
0.446066 0.432564 0.129547
0.474342 0.436939 0.129530
0.502617 0.441315 0.129512
0.530892 0.445691 0.129494
0.559168 0.448021 0.129161
0.587445 0.445235 0.128040
0.615723 0.442449 0.126920
0.644000 0.439664 0.125799
0.672277 0.436878 0.124679
0.689827 0.435709 0.125894
0.705588 0.434809 0.127498
0.721350 0.433909 0.129103
0.737112 0.433009 0.130707
0.747924 0.432733 0.132631
0.752138 0.433290 0.134981
0.756352 0.433847 0.137330
0.760566 0.434403 0.139680
0.764780 0.434960 0.142030
0.231896 0.285344 0.113057
0.243984 0.297678 0.114912
0.256073 0.310012 0.116767
0.268161 0.322346 0.118623
0.280250 0.334680 0.120478
0.293403 0.346947 0.122364
0.307354 0.359164 0.124272
0.321305 0.371380 0.126181
0.335255 0.383597 0.128090
0.349905 0.395586 0.129954
0.368750 0.406209 0.131551
0.387594 0.416832 0.133148
0.406438 0.427454 0.134746
0.425283 0.438077 0.136343
0.449545 0.445140 0.137397
0.475974 0.450779 0.138233
0.502403 0.456417 0.139069
0.528832 0.462056 0.139905
0.555909 0.465228 0.140226
0.584608 0.462235 0.139260
0.613307 0.459241 0.138294
0.642005 0.456247 0.137328
0.670704 0.453254 0.136362
0.688656 0.451451 0.137418
0.704816 0.449846 0.138811
0.720976 0.448242 0.140204
0.737136 0.446637 0.141597
0.748260 0.445740 0.143334
0.752670 0.445784 0.145531
0.757079 0.445829 0.147727
0.761489 0.445873 0.149924
0.765899 0.445918 0.152121
0.243531 0.300288 0.115593
0.255470 0.312173 0.117573
0.267409 0.324059 0.119553
0.279348 0.335945 0.121533
0.291287 0.347831 0.123512
0.304155 0.359635 0.125629
0.317720 0.371379 0.127849
0.331285 0.383122 0.130069
0.344850 0.394865 0.132289
0.359052 0.406411 0.134502
0.377074 0.416773 0.136672
0.395097 0.427134 0.138842
0.413119 0.437496 0.141012
0.431142 0.447857 0.143182
0.454244 0.455156 0.145111
0.479378 0.461231 0.146943
0.504512 0.467305 0.148775
0.529646 0.473380 0.150608
0.555714 0.477233 0.152053
0.584114 0.475535 0.152531
0.612513 0.473836 0.153010
0.640913 0.472137 0.153488
0.669313 0.470438 0.153967
0.687563 0.468308 0.154941
0.704122 0.466106 0.155997
0.720681 0.463904 0.157054
0.737239 0.461702 0.158111
0.748671 0.460281 0.159560
0.753268 0.459902 0.161532
0.757864 0.459523 0.163505
0.762460 0.459144 0.165478
0.767057 0.458766 0.167450
0.255166 0.315231 0.118130
0.266955 0.326669 0.120234
0.278745 0.338106 0.122338
0.290535 0.349544 0.124443
0.302324 0.360981 0.126547
0.314908 0.372323 0.128895
0.328087 0.383593 0.131426
0.341266 0.394864 0.133958
0.354445 0.406134 0.136489
0.368198 0.417237 0.139050
0.385399 0.427337 0.141793
0.402600 0.437437 0.144536
0.419801 0.447537 0.147279
0.437001 0.457637 0.150022
0.458944 0.465172 0.152826
0.482783 0.471683 0.155654
0.506622 0.478193 0.158482
0.530461 0.484703 0.161310
0.555518 0.489238 0.163880
0.583619 0.488835 0.165803
0.611720 0.488431 0.167726
0.639821 0.488027 0.169649
0.667922 0.487623 0.171571
0.686471 0.485166 0.172464
0.703428 0.482366 0.173184
0.720385 0.479566 0.173904
0.737342 0.476766 0.174625
0.749082 0.474823 0.175786
0.753865 0.474020 0.177534
0.758648 0.473218 0.179283
0.763431 0.472416 0.181031
0.768215 0.471614 0.182780
0.266801 0.330174 0.120666
0.278441 0.341164 0.122895
0.290081 0.352153 0.125124
0.301721 0.363142 0.127353
0.313362 0.374132 0.129582
0.325661 0.385011 0.132161
0.338454 0.395808 0.135004
0.351247 0.406605 0.137846
0.364040 0.417403 0.140689
0.377345 0.428063 0.143599
0.393724 0.437901 0.146914
0.410103 0.447739 0.150230
0.426482 0.457578 0.153546
0.442861 0.467416 0.156861
0.463643 0.475189 0.160540
0.486187 0.482135 0.164365
0.508732 0.489081 0.168189
0.531276 0.496027 0.172013
0.555322 0.501243 0.175707
0.583125 0.502134 0.179074
0.610927 0.503026 0.182441
0.638729 0.503917 0.185809
0.666531 0.504808 0.189176
0.685379 0.502023 0.189986
0.702735 0.498626 0.190370
0.720090 0.495228 0.190755
0.737446 0.491831 0.191139
0.749493 0.489364 0.192012
0.754463 0.488139 0.193536
0.759433 0.486913 0.195061
0.764403 0.485687 0.196585
0.769373 0.484462 0.198109
0.278436 0.345118 0.123203
0.289926 0.355659 0.125556
0.301417 0.366200 0.127910
0.312908 0.376741 0.130263
0.324399 0.387282 0.132616
0.336413 0.397699 0.135427
0.348820 0.408023 0.138581
0.361227 0.418347 0.141734
0.373634 0.428671 0.144888
0.386491 0.438888 0.148147
0.402048 0.448465 0.152035
0.417606 0.458042 0.155924
0.433163 0.467619 0.159812
0.448720 0.477196 0.163701
0.468343 0.485205 0.168255
0.489592 0.492587 0.173075
0.510841 0.499969 0.177896
0.532090 0.507351 0.182716
0.555127 0.513248 0.187534
0.582630 0.515434 0.192346
0.610133 0.517620 0.197157
0.637637 0.519807 0.201969
0.665140 0.521993 0.206780
0.684287 0.518881 0.207509
0.702041 0.514885 0.207557
0.719795 0.510890 0.207605
0.737549 0.506895 0.207653
0.749904 0.503906 0.208238
0.755061 0.502257 0.209538
0.760217 0.500608 0.210838
0.765374 0.498959 0.212139
0.770531 0.497310 0.213439
0.291016 0.359163 0.124936
0.302251 0.369224 0.127531
0.313485 0.379285 0.130126
0.324720 0.389346 0.132722
0.335955 0.399406 0.135317
0.347675 0.409378 0.138452
0.359760 0.419282 0.141992
0.371845 0.429186 0.145531
0.383930 0.439090 0.149071
0.396412 0.448898 0.152733
0.411276 0.458128 0.157131
0.426139 0.467358 0.161528
0.441003 0.476588 0.165925
0.455866 0.485818 0.170322
0.474465 0.493750 0.175603
0.494558 0.501162 0.181239
0.514651 0.508574 0.186874
0.534744 0.515986 0.192509
0.556567 0.522147 0.198300
0.582715 0.525180 0.204481
0.608863 0.528213 0.210662
0.635011 0.531246 0.216844
0.661159 0.534279 0.223025
0.681066 0.532120 0.225637
0.699934 0.529096 0.227654
0.718801 0.526072 0.229671
0.737669 0.523048 0.231688
0.750731 0.520514 0.233275
0.756053 0.518634 0.234287
0.761375 0.516754 0.235299
0.766697 0.514874 0.236311
0.772019 0.512994 0.237323
0.303754 0.373059 0.126535
0.314714 0.382634 0.129392
0.325675 0.392209 0.132249
0.336636 0.401785 0.135105
0.347597 0.411360 0.137962
0.359022 0.420888 0.141437
0.370796 0.430381 0.145375
0.382570 0.439875 0.149313
0.394343 0.449368 0.153251
0.406462 0.458772 0.157326
0.420653 0.467641 0.162221
0.434844 0.476510 0.167117
0.449035 0.485379 0.172012
0.463227 0.494248 0.176907
0.480824 0.502050 0.182891
0.499784 0.509425 0.189311
0.518744 0.516799 0.195730
0.537704 0.524174 0.202150
0.558280 0.530529 0.208889
0.582896 0.534334 0.216427
0.607513 0.538139 0.223966
0.632129 0.541943 0.231504
0.656746 0.545748 0.239043
0.677491 0.544756 0.243866
0.697591 0.542965 0.248236
0.717691 0.541174 0.252607
0.737791 0.539383 0.256977
0.751628 0.537468 0.259780
0.757111 0.535389 0.260494
0.762595 0.533309 0.261207
0.768079 0.531230 0.261920
0.773563 0.529150 0.262633
0.316491 0.386955 0.128134
0.327178 0.396045 0.131252
0.337865 0.405134 0.134371
0.348552 0.414224 0.137489
0.359239 0.423313 0.140607
0.370369 0.432399 0.144421
0.381831 0.441481 0.148758
0.393294 0.450563 0.153095
0.404756 0.459646 0.157431
0.416512 0.468646 0.161919
0.430031 0.477154 0.167312
0.443550 0.485662 0.172705
0.457068 0.494170 0.178099
0.470587 0.502678 0.183492
0.487183 0.510350 0.190179
0.505010 0.517687 0.197383
0.522837 0.525024 0.204587
0.540664 0.532362 0.211791
0.559993 0.538911 0.219478
0.583078 0.543487 0.228374
0.606163 0.548064 0.237269
0.629248 0.552641 0.246165
0.652333 0.557218 0.255061
0.673916 0.557393 0.262095
0.695249 0.556834 0.268818
0.716581 0.556276 0.275542
0.737914 0.555717 0.282266
0.752524 0.554421 0.286286
0.758170 0.552143 0.286700
0.763816 0.549864 0.287115
0.769462 0.547586 0.287529
0.775107 0.545307 0.287944
0.329229 0.400851 0.129733
0.339642 0.409455 0.133113
0.350055 0.418059 0.136493
0.360468 0.426663 0.139872
0.370881 0.435266 0.143252
0.381716 0.443909 0.147406
0.392867 0.452581 0.152141
0.404018 0.461252 0.156876
0.415169 0.469924 0.161612
0.426562 0.478520 0.166512
0.439409 0.486667 0.172403
0.452255 0.494814 0.178294
0.465101 0.502961 0.184186
0.477948 0.511107 0.190077
0.493542 0.518649 0.197466
0.510236 0.525949 0.205455
0.526930 0.533249 0.213443
0.543624 0.540550 0.221432
0.561706 0.547292 0.230067
0.583259 0.552641 0.240320
0.604813 0.557990 0.250573
0.626366 0.563338 0.260826
0.647919 0.568687 0.271079
0.670340 0.570029 0.280324
0.692906 0.570703 0.289401
0.715471 0.571377 0.298478
0.738037 0.572052 0.307555
0.753421 0.571375 0.312791
0.759228 0.568897 0.312907
0.765036 0.566419 0.313023
0.770844 0.563941 0.313138
0.776651 0.561464 0.313254
0.342534 0.413494 0.130860
0.352582 0.421623 0.134602
0.362631 0.429752 0.138345
0.372679 0.437881 0.142087
0.382727 0.446010 0.145830
0.393240 0.454254 0.150395
0.404101 0.462584 0.155576
0.414963 0.470914 0.160758
0.425824 0.479244 0.165940
0.436886 0.487505 0.171293
0.449156 0.495355 0.177677
0.461426 0.503205 0.184061
0.473696 0.511054 0.190445
0.485966 0.518904 0.196829
0.500697 0.526308 0.204855
0.516413 0.533533 0.213537
0.532128 0.540759 0.222219
0.547844 0.547984 0.230901
0.564838 0.554825 0.240366
0.585031 0.560706 0.251790
0.605223 0.566586 0.263213
0.625416 0.572467 0.274636
