filters/luts/Suburbs 01.cube
# LUT by SparkleStock. Enhanced with VOXCOLOR algorithms.
LUT_3D_SIZE 32
0.031258 0.046886 0.046886
0.050400 0.050148 0.046319
0.069542 0.053409 0.045752
0.088684 0.056670 0.045185
0.107826 0.059931 0.044618
0.126968 0.063193 0.044051
0.153830 0.066769 0.042893
0.182236 0.070408 0.041616
0.210642 0.074048 0.040340
0.239048 0.077687 0.039064
0.267454 0.081327 0.037788
0.298602 0.085911 0.036197
0.331120 0.090969 0.034448
0.363638 0.096026 0.032699
0.396156 0.101083 0.030950
0.428674 0.106140 0.029202
0.459821 0.112498 0.027453
0.489598 0.120154 0.025704
0.519375 0.127811 0.023955
0.549151 0.135468 0.022206
0.578928 0.143125 0.020458
0.606010 0.151444 0.018898
0.627705 0.161086 0.017716
0.649399 0.170727 0.016535
0.671094 0.180369 0.015353
0.692788 0.190011 0.014171
0.712655 0.199354 0.013140
0.723384 0.207200 0.012856
0.734113 0.215046 0.012572
0.744842 0.222892 0.012289
0.755571 0.230738 0.012005
0.766300 0.238584 0.011722
0.034613 0.053693 0.048777
0.052530 0.058710 0.048750
0.070446 0.063728 0.048722
0.088362 0.068746 0.048695
0.106279 0.073763 0.048667
0.124195 0.078781 0.048640
0.152027 0.082391 0.047335
0.181842 0.085719 0.045776
0.211656 0.089047 0.044216
0.241471 0.092376 0.042656
0.271286 0.095704 0.041097
0.303421 0.100020 0.039283
0.336717 0.104831 0.037342
0.370012 0.109641 0.035401
0.403308 0.114451 0.033460
0.436604 0.119262 0.031519
0.468140 0.125349 0.029642
0.497916 0.132713 0.027829
0.527693 0.140077 0.026017
0.557470 0.147441 0.024204
0.587246 0.154805 0.022391
0.614137 0.162798 0.020798
0.635255 0.172046 0.019644
0.656373 0.181295 0.018489
0.677491 0.190544 0.017335
0.698609 0.199792 0.016181
0.717889 0.208731 0.015175
0.727978 0.216119 0.014910
0.738067 0.223508 0.014644
0.748155 0.230896 0.014379
0.758244 0.238285 0.014114
0.768333 0.245673 0.013849
0.037969 0.060499 0.050668
0.054660 0.067273 0.051180
0.071350 0.074047 0.051692
0.088041 0.080821 0.052204
0.104731 0.087595 0.052717
0.121422 0.094369 0.053229
0.150223 0.098012 0.051778
0.181447 0.101030 0.049935
0.212670 0.104047 0.048092
0.243894 0.107064 0.046248
0.275117 0.110082 0.044405
0.308241 0.114130 0.042369
0.342314 0.118693 0.040236
0.376387 0.123256 0.038103
0.410460 0.127820 0.035970
0.444533 0.132383 0.033837
0.476458 0.138200 0.031832
0.506235 0.145272 0.029955
0.536012 0.152343 0.028078
0.565788 0.159414 0.026201
0.595565 0.166486 0.024324
0.622263 0.174152 0.022697
0.642805 0.183007 0.021571
0.663347 0.191862 0.020444
0.683889 0.200718 0.019317
0.704431 0.209573 0.018191
0.723123 0.218107 0.017210
0.732572 0.225039 0.016963
0.742020 0.231970 0.016716
0.751468 0.238901 0.016469
0.760917 0.245832 0.016222
0.770365 0.252763 0.015975
0.041325 0.067305 0.052558
0.056790 0.075835 0.053610
0.072254 0.084366 0.054662
0.087719 0.092896 0.055714
0.103184 0.101427 0.056766
0.118648 0.109957 0.057818
0.148419 0.113634 0.056221
0.181052 0.116340 0.054094
0.213684 0.119047 0.051967
0.246316 0.121753 0.049840
0.278949 0.124459 0.047714
0.313060 0.128239 0.045455
0.347911 0.132555 0.043129
0.382762 0.136872 0.040804
0.417612 0.141188 0.038479
0.452463 0.145504 0.036154
0.484777 0.151052 0.034021
0.514554 0.157830 0.032080
0.544330 0.164609 0.030139
0.574107 0.171388 0.028198
0.603884 0.178166 0.026257
0.630390 0.185506 0.024597
0.650355 0.193968 0.023498
0.670321 0.202430 0.022399
0.690286 0.210892 0.021299
0.710252 0.219354 0.020200
0.728358 0.227484 0.019246
0.737166 0.233958 0.019017
0.745974 0.240432 0.018788
0.754782 0.246905 0.018560
0.763590 0.253379 0.018331
0.772397 0.259853 0.018102
0.044681 0.074111 0.054449
0.058920 0.084398 0.056041
0.073158 0.094685 0.057632
0.087397 0.104972 0.059224
0.101636 0.115258 0.060816
0.115875 0.125545 0.062408
0.146616 0.129256 0.060664
0.180657 0.131651 0.058254
0.214698 0.134046 0.055843
0.248739 0.136442 0.053433
0.282780 0.138837 0.051022
0.317880 0.142348 0.048540
0.353508 0.146417 0.046023
0.389136 0.150487 0.043506
0.424765 0.154556 0.040989
0.460393 0.158625 0.038472
0.493095 0.163903 0.036211
0.522872 0.170389 0.034206
0.552649 0.176875 0.032201
0.582425 0.183361 0.030196
0.612202 0.189847 0.028191
0.638516 0.196860 0.026497
0.657905 0.204929 0.025425
0.677295 0.212997 0.024353
0.696684 0.221066 0.023281
0.716073 0.229134 0.022210
0.733592 0.236861 0.021281
0.741759 0.242877 0.021071
0.749927 0.248893 0.020860
0.758095 0.254910 0.020650
0.766262 0.260926 0.020440
0.774430 0.266942 0.020229
0.048037 0.080917 0.056339
0.061050 0.092960 0.058471
0.074063 0.105004 0.060602
0.087076 0.117047 0.062734
0.100089 0.129090 0.064865
0.113102 0.141134 0.066997
0.144812 0.144878 0.065107
0.180262 0.146962 0.062413
0.215712 0.149046 0.059719
0.251162 0.151130 0.057025
0.286612 0.153214 0.054331
0.322699 0.156457 0.051626
0.359105 0.160280 0.048917
0.395511 0.164102 0.046208
0.431917 0.167924 0.043498
0.468323 0.171747 0.040789
0.501414 0.176754 0.038400
0.531191 0.182948 0.036331
0.560967 0.189141 0.034262
0.590744 0.195334 0.032193
0.620521 0.201527 0.030124
0.646643 0.208214 0.028397
0.665456 0.215890 0.027352
0.684268 0.223565 0.026308
0.703081 0.231240 0.025263
0.721894 0.238915 0.024219
0.738826 0.246237 0.023317
0.746353 0.251796 0.023125
0.753880 0.257355 0.022932
0.761408 0.262914 0.022740
0.768935 0.268473 0.022548
0.776462 0.274032 0.022356
0.053480 0.090323 0.058191
0.066731 0.103063 0.060526
0.079982 0.115803 0.062862
0.093232 0.128543 0.065198
0.106483 0.141283 0.067534
0.119734 0.154023 0.069869
0.149666 0.159206 0.068629
0.182934 0.162877 0.066673
0.216202 0.166549 0.064716
0.249470 0.170220 0.062760
0.282739 0.173891 0.060804
0.318952 0.177184 0.058157
0.356639 0.180286 0.055164
0.394326 0.183389 0.052171
0.432012 0.186492 0.049178
0.469699 0.189594 0.046185
0.503709 0.193924 0.043580
0.534042 0.199482 0.041363
0.564375 0.205039 0.039146
0.594708 0.210597 0.036930
0.625042 0.216154 0.034713
0.651505 0.222243 0.032881
0.670230 0.229395 0.031818
0.688954 0.236547 0.030755
0.707678 0.243700 0.029693
0.726403 0.250852 0.028630
0.743209 0.257684 0.027718
0.750424 0.262915 0.027559
0.757638 0.268146 0.027401
0.764853 0.273377 0.027242
0.772068 0.278608 0.027084
0.779282 0.283839 0.026925
0.059341 0.100248 0.060034
0.073122 0.113473 0.062507
0.086904 0.126698 0.064980
0.100685 0.139923 0.067453
0.114466 0.153148 0.069926
0.128248 0.166373 0.072399
0.155852 0.173275 0.071966
0.186220 0.178914 0.070952
0.216588 0.184552 0.069938
0.246956 0.190190 0.068924
0.277325 0.195828 0.067911
0.313493 0.199233 0.065376
0.352561 0.201522 0.062081
0.391629 0.203810 0.058786
0.430697 0.206099 0.055492
0.469765 0.208387 0.052197
0.504799 0.211958 0.049359
0.535800 0.216811 0.046977
0.566801 0.221664 0.044596
0.597802 0.226517 0.042214
0.628803 0.231370 0.039833
0.655715 0.236807 0.037882
0.674448 0.243410 0.036791
0.693182 0.250013 0.035701
0.711915 0.256617 0.034611
0.730649 0.263220 0.033521
0.747421 0.269544 0.032592
0.754389 0.274473 0.032470
0.761357 0.279403 0.032348
0.768325 0.284332 0.032226
0.775292 0.289261 0.032104
0.782260 0.294190 0.031982
0.065201 0.110174 0.061877
0.079513 0.123883 0.064487
0.093825 0.137593 0.067098
0.108138 0.151303 0.069708
0.122450 0.165013 0.072318
0.136762 0.178723 0.074928
0.162037 0.187345 0.075304
0.189505 0.194950 0.075232
0.216974 0.202555 0.075160
0.244442 0.210160 0.075089
0.271910 0.217765 0.075017
0.308033 0.221283 0.072595
0.348482 0.222757 0.068999
0.388931 0.224232 0.065402
0.429381 0.225706 0.061805
0.469830 0.227180 0.058209
0.505889 0.229992 0.055137
0.537558 0.234141 0.052591
0.569227 0.238289 0.050045
0.600895 0.242438 0.047499
0.632564 0.246586 0.044952
0.659924 0.251370 0.042882
0.678667 0.257425 0.041765
0.697410 0.263479 0.040647
0.716152 0.269534 0.039530
0.734895 0.275588 0.038412
0.751634 0.281405 0.037467
0.758355 0.286032 0.037381
0.765076 0.290659 0.037296
0.771796 0.295287 0.037210
0.778517 0.299914 0.037125
0.785238 0.304541 0.037040
0.071062 0.120099 0.063721
0.085905 0.134294 0.066468
0.100747 0.148488 0.069215
0.115590 0.162683 0.071963
0.130433 0.176878 0.074710
0.145275 0.191072 0.077458
0.168223 0.201415 0.078641
0.192791 0.210986 0.079512
0.217360 0.220558 0.080382
0.241928 0.230130 0.081253
0.266496 0.239702 0.082123
0.302573 0.243333 0.079815
0.344404 0.243993 0.075916
0.386234 0.244653 0.072017
0.428065 0.245313 0.068119
0.469896 0.245973 0.064220
0.506979 0.248026 0.060916
0.539316 0.251470 0.058205
0.571652 0.254914 0.055494
0.603989 0.258358 0.052783
0.636326 0.261802 0.050072
0.664134 0.265934 0.047883
0.682886 0.271439 0.046738
0.701638 0.276945 0.045593
0.720389 0.282450 0.044448
0.739141 0.287956 0.043303
0.755847 0.293265 0.042341
0.762320 0.297590 0.042292
0.768794 0.301916 0.042243
0.775268 0.306241 0.042195
0.781742 0.310567 0.042146
0.788215 0.314892 0.042097
0.076923 0.130025 0.065564
0.092296 0.144704 0.068448
0.107669 0.159384 0.071333
0.123043 0.174063 0.074218
0.138416 0.188743 0.077102
0.153789 0.203422 0.079987
0.174408 0.215484 0.081979
0.196077 0.227023 0.083791
0.217745 0.238562 0.085604
0.239414 0.250100 0.087417
0.261082 0.261639 0.089230
0.297113 0.265382 0.087034
0.340325 0.265228 0.082833
0.383537 0.265074 0.078633
0.426749 0.264920 0.074433
0.469961 0.264766 0.070232
0.508069 0.266059 0.066694
0.541074 0.268799 0.063819
0.574078 0.271539 0.060943
0.607083 0.274279 0.058068
0.640087 0.277019 0.055192
0.668344 0.280497 0.052884
0.687105 0.285454 0.051712
0.705866 0.290411 0.050539
0.724626 0.295367 0.049367
0.743387 0.300324 0.048194
0.760059 0.305125 0.047215
0.766286 0.309149 0.047203
0.772513 0.313172 0.047191
0.778740 0.317196 0.047179
0.784966 0.321220 0.047166
0.791193 0.325243 0.047154
0.085714 0.142471 0.067943
0.101417 0.157343 0.070904
0.117119 0.172214 0.073865
0.132822 0.187086 0.076825
0.148524 0.201957 0.079786
0.164227 0.216829 0.082747
0.184009 0.229612 0.085232
0.204607 0.241977 0.087621
0.225205 0.254342 0.090010
0.245804 0.266707 0.092399
0.266402 0.279072 0.094788
0.300907 0.283569 0.093258
0.342366 0.284131 0.089768
0.383824 0.284694 0.086278
0.425283 0.285256 0.082788
0.466742 0.285819 0.079298
0.504496 0.287014 0.076003
0.538546 0.288842 0.072902
0.572597 0.290670 0.069800
0.606647 0.292499 0.066699
0.640697 0.294327 0.063598
0.669766 0.296968 0.061110
0.688872 0.301235 0.059849
0.707977 0.305503 0.058588
0.727083 0.309770 0.057328
0.746188 0.314038 0.056067
0.763134 0.318207 0.055016
0.769278 0.321886 0.055016
0.775422 0.325565 0.055016
0.781567 0.329244 0.055016
0.787711 0.332923 0.055016
0.793856 0.336602 0.055016
0.095971 0.156178 0.070590
0.111902 0.171095 0.073596
0.127833 0.186012 0.076603
0.143764 0.200930 0.079610
0.159696 0.215847 0.082616
0.175627 0.230764 0.085623
0.195318 0.243768 0.088443
0.215760 0.256389 0.091225
0.236203 0.269011 0.094008
0.256646 0.281632 0.096790
0.277088 0.294253 0.099573
0.309328 0.299823 0.098985
0.347466 0.301868 0.096711
0.385604 0.303912 0.094438
0.423742 0.305957 0.092165
0.461879 0.308001 0.089892
0.498591 0.309430 0.087076
0.533876 0.310243 0.083719
0.569162 0.311055 0.080362
0.604447 0.311868 0.077004
0.639732 0.312680 0.073647
0.669795 0.314392 0.070949
0.689413 0.317900 0.069569
0.709031 0.321408 0.068189
0.728649 0.324916 0.066809
0.748266 0.328425 0.065430
0.765639 0.331900 0.064280
0.771783 0.335213 0.064280
0.777927 0.338527 0.064280
0.784072 0.341840 0.064280
0.790216 0.345153 0.064280
0.796361 0.348466 0.064280
0.106227 0.169885 0.073236
0.122387 0.184848 0.076289
0.138547 0.199811 0.079341
0.154707 0.214774 0.082394
0.170867 0.229737 0.085446
0.187027 0.244700 0.088498
0.206626 0.257925 0.091654
0.226913 0.270802 0.094829
0.247200 0.283679 0.098005
0.267487 0.296557 0.101181
0.287775 0.309434 0.104357
0.317748 0.316077 0.104711
0.352566 0.319604 0.103655
0.387383 0.323131 0.102598
0.422200 0.326657 0.101542
0.457017 0.330184 0.100485
0.492686 0.331846 0.098150
0.529206 0.331643 0.094536
0.565727 0.331440 0.090923
0.602247 0.331237 0.087310
0.638767 0.331034 0.083696
0.669824 0.331816 0.080788
0.689954 0.334564 0.079289
0.710084 0.337313 0.077790
0.730214 0.340062 0.076291
0.750345 0.342811 0.074793
0.768144 0.345593 0.073544
0.774288 0.348541 0.073544
0.780432 0.351488 0.073544
0.786577 0.354435 0.073544
0.792721 0.357382 0.073544
0.798866 0.360329 0.073544
0.116484 0.183591 0.075883
0.132872 0.198600 0.078981
0.149261 0.213609 0.082079
0.165649 0.228618 0.085178
0.182038 0.243626 0.088276
0.198427 0.258635 0.091374
0.217934 0.272081 0.094865
0.238066 0.285215 0.098434
0.258198 0.298348 0.102003
0.278329 0.311482 0.105572
0.298461 0.324615 0.109142
0.326169 0.332332 0.110438
0.357666 0.337340 0.110598
0.389162 0.342349 0.110758
0.420659 0.347357 0.110918
0.452155 0.352366 0.111078
0.486781 0.354261 0.109224
0.524536 0.353043 0.105354
0.562292 0.351825 0.101484
0.600047 0.350606 0.097615
0.637802 0.349388 0.093745
0.669853 0.349239 0.090626
0.690495 0.351229 0.089009
0.711138 0.353219 0.087391
0.731780 0.355208 0.085773
0.752423 0.357198 0.084156
0.770649 0.359286 0.082808
0.776793 0.361868 0.082808
0.782937 0.364449 0.082808
0.789082 0.367030 0.082808
0.795226 0.369611 0.082808
0.801371 0.372193 0.082808
0.126740 0.197298 0.078530
0.143357 0.212353 0.081674
0.159975 0.227407 0.084818
0.176592 0.242462 0.087962
0.193209 0.257516 0.091105
0.209826 0.272571 0.094249
0.229243 0.286238 0.098075
0.249219 0.299627 0.102038
0.269195 0.313017 0.106001
0.289171 0.326407 0.109963
0.309147 0.339796 0.113926
0.334590 0.348586 0.116165
0.362766 0.355077 0.117541
0.390941 0.361567 0.118918
0.419117 0.368058 0.120295
0.447293 0.374548 0.121672
0.480876 0.376677 0.120297
0.519866 0.374443 0.116171
0.558856 0.372209 0.112046
0.597847 0.369976 0.107920
0.636837 0.367742 0.103794
0.669882 0.366663 0.100465
0.691037 0.367894 0.098728
0.712191 0.369124 0.096992
0.733346 0.370354 0.095255
0.754501 0.371585 0.093519
0.773154 0.372979 0.092071
0.779298 0.375195 0.092071
0.785443 0.377410 0.092071
0.791587 0.379625 0.092071
0.797731 0.381841 0.092071
0.803876 0.384056 0.092071
0.139360 0.212328 0.081413
0.156050 0.227291 0.084639
0.172741 0.242254 0.087866
0.189431 0.257217 0.091092
0.206122 0.272180 0.094318
0.222812 0.287143 0.097544
0.241974 0.300830 0.101666
0.261630 0.314260 0.105967
0.281286 0.327691 0.110268
0.300942 0.341122 0.114569
0.320598 0.354553 0.118870
0.344506 0.363988 0.121899
0.370541 0.371425 0.124291
0.396577 0.378862 0.126683
0.422612 0.386300 0.129075
0.448647 0.393737 0.131468
0.480945 0.396336 0.130958
0.519505 0.394098 0.127545
0.558065 0.391860 0.124133
0.596625 0.389622 0.120721
0.635186 0.387384 0.117309
0.668174 0.386030 0.114405
0.690020 0.386447 0.112517
0.711865 0.386863 0.110630
0.733710 0.387279 0.108742
0.755556 0.387695 0.106855
0.774803 0.388344 0.105275
0.781057 0.390157 0.105234
0.787311 0.391970 0.105193
0.793565 0.393783 0.105151
0.799819 0.395596 0.105110
0.806073 0.397408 0.105069
0.154342 0.228682 0.084533
0.170951 0.243416 0.087878
0.187559 0.258150 0.091223
0.204167 0.272885 0.094568
0.220775 0.287619 0.097913
0.237383 0.302353 0.101258
0.256127 0.315857 0.105636
0.275298 0.329114 0.110221
0.294469 0.342371 0.114806
0.313641 0.355627 0.119390
0.332812 0.368884 0.123975
0.355918 0.378536 0.127641
0.380993 0.386385 0.130847
0.406068 0.394234 0.134053
0.431142 0.402083 0.137260
0.456217 0.409932 0.140466
0.486987 0.413240 0.141205
0.523452 0.412009 0.139476
0.559918 0.410777 0.137747
0.596383 0.409545 0.136018
0.632848 0.408313 0.134289
0.664730 0.407340 0.132446
0.687445 0.406888 0.130376
0.710159 0.406435 0.128305
0.732873 0.405982 0.126235
0.755588 0.405529 0.124164
0.775595 0.405381 0.122418
0.782069 0.406755 0.122295
0.788543 0.408128 0.122171
0.795017 0.409502 0.122048
0.801490 0.410876 0.121924
0.807964 0.412249 0.121801
0.169325 0.245035 0.087652
0.185851 0.259541 0.091116
0.202377 0.274047 0.094580
0.218903 0.288552 0.098044
0.235429 0.303058 0.101508
0.251954 0.317563 0.104972
0.270281 0.330884 0.109607
0.288967 0.343967 0.114475
0.307653 0.357050 0.119343
0.326339 0.370133 0.124211
0.345026 0.383216 0.129080
0.367331 0.393084 0.133383
0.391445 0.401345 0.137403
0.415559 0.409606 0.141424
0.439673 0.417866 0.145444
0.463787 0.426127 0.149465
0.493029 0.430144 0.151452
0.527400 0.429919 0.151406
0.561770 0.429693 0.151361
0.596141 0.429467 0.151315
0.630511 0.429242 0.151269
0.661286 0.428651 0.150488
0.684869 0.427329 0.148234
0.708453 0.426007 0.145981
0.732036 0.424685 0.143727
0.755620 0.423363 0.141474
0.776388 0.422417 0.139562
0.783082 0.423352 0.139356
0.789775 0.424287 0.139150
0.796468 0.425221 0.138944
0.803161 0.426156 0.138738
0.809855 0.427090 0.138532
0.184308 0.261389 0.090772
0.200752 0.275666 0.094355
0.217195 0.289943 0.097938
0.233639 0.304220 0.101520
0.250082 0.318497 0.105103
0.266526 0.332774 0.108686
0.284434 0.345911 0.113577
0.302636 0.358820 0.118729
0.320837 0.371729 0.123880
0.339038 0.384639 0.129032
0.357240 0.397548 0.134184
0.378743 0.407633 0.139125
0.401896 0.416305 0.143959
0.425050 0.424977 0.148794
0.448203 0.433650 0.153629
0.471357 0.442322 0.158463
0.499071 0.447048 0.161699
0.531347 0.447829 0.163337
0.563623 0.448610 0.164974
0.595898 0.449390 0.166612
0.628174 0.450171 0.168249
0.657842 0.449961 0.168529
0.682294 0.447770 0.166093
0.706747 0.445579 0.163656
0.731199 0.443388 0.161220
0.755652 0.441197 0.158783
0.777181 0.439454 0.156705
0.784094 0.439949 0.156417
0.791007 0.440445 0.156129
0.797920 0.440941 0.155840
0.804832 0.441436 0.155552
0.811745 0.441932 0.155264
0.199291 0.277742 0.093891
0.215652 0.291791 0.097593
0.232013 0.305839 0.101295
0.248375 0.319887 0.104997
0.264736 0.333935 0.108699
0.281097 0.347984 0.112400
0.298588 0.360938 0.117547
0.316304 0.373673 0.122982
0.334021 0.386409 0.128418
0.351737 0.399144 0.133853
0.369454 0.411880 0.139289
0.390155 0.422181 0.144866
0.412348 0.431265 0.150515
0.434541 0.440349 0.156164
0.456734 0.449433 0.161813
0.478927 0.458517 0.167462
0.505114 0.463952 0.171947
0.535294 0.465739 0.175267
0.565475 0.467526 0.178588
0.595656 0.469313 0.181909
0.625836 0.471100 0.185230
0.654397 0.471271 0.186570
0.679719 0.468211 0.183951
0.705041 0.465151 0.181332
0.730362 0.462091 0.178712
0.755684 0.459031 0.176093
0.777974 0.456491 0.173848
0.785106 0.456547 0.173478
0.792239 0.456603 0.173107
0.799371 0.456660 0.172737
0.806503 0.456716 0.172366
0.813636 0.456773 0.171996
0.215408 0.294348 0.096869
0.231583 0.308113 0.100754
0.247759 0.321877 0.104638
0.263934 0.335642 0.108523
0.280109 0.349407 0.112408
0.296284 0.363171 0.116293
0.313314 0.375888 0.121716
0.330516 0.388395 0.127448
0.347717 0.400901 0.133179
0.364918 0.413408 0.138910
0.382119 0.425915 0.144641
0.401992 0.436307 0.150803
0.423200 0.445641 0.157181
0.444408 0.454975 0.163559
0.465616 0.464309 0.169936
0.486824 0.473643 0.176314
0.511558 0.479663 0.181935
0.539817 0.482371 0.186798
0.568077 0.485079 0.191662
0.596337 0.487787 0.196526
0.624596 0.490495 0.201389
0.652062 0.491185 0.203989
0.677938 0.487842 0.202058
0.703815 0.484498 0.200128
0.729691 0.481155 0.198198
0.755568 0.477811 0.196268
0.778364 0.474962 0.194582
0.785759 0.474589 0.194117
0.793153 0.474215 0.193652
0.800548 0.473842 0.193187
0.807943 0.473468 0.192722
0.815337 0.473095 0.192256
0.233794 0.311458 0.099563
0.249576 0.324829 0.103759
0.265358 0.338200 0.107955
0.281140 0.351572 0.112150
0.296921 0.364943 0.116346
0.312703 0.378314 0.120542
0.329188 0.390683 0.126284
0.345812 0.402851 0.132336
0.362437 0.415020 0.138387
0.379062 0.427188 0.144438
0.395687 0.439356 0.150490
0.414678 0.449586 0.157131
0.434853 0.458847 0.164066
0.455027 0.468108 0.171002
0.475201 0.477369 0.177938
0.495376 0.486630 0.184874
0.518806 0.492989 0.191404
0.545492 0.496447 0.197531
0.572178 0.499905 0.203657
0.598865 0.503363 0.209783
0.625551 0.506821 0.215909
0.651943 0.508307 0.220161
0.677746 0.505851 0.220664
0.703550 0.503395 0.221167
0.729353 0.500939 0.221670
0.755156 0.498482 0.222173
0.777950 0.496305 0.222495
0.785692 0.495519 0.221911
0.793434 0.494734 0.221327
0.801176 0.493949 0.220743
0.808919 0.493164 0.220159
0.816661 0.492379 0.219575
0.252180 0.328567 0.102257
0.267569 0.341545 0.106764
0.282957 0.354523 0.111271
0.298345 0.367501 0.115778
0.313734 0.380479 0.120285
0.329122 0.393457 0.124791
0.345061 0.405478 0.130852
0.361109 0.417308 0.137224
0.377158 0.429138 0.143595
0.393207 0.440968 0.149967
0.409255 0.452798 0.156338
0.427365 0.462866 0.163458
0.446506 0.472054 0.170952
0.465646 0.481241 0.178446
0.484787 0.490429 0.185939
0.503928 0.499617 0.193433
0.526054 0.506315 0.200874
0.551167 0.510523 0.208263
0.576280 0.514731 0.215651
0.601393 0.518939 0.223040
0.626505 0.523147 0.230428
0.651824 0.525429 0.236333
0.677554 0.523860 0.239269
0.703284 0.522291 0.242206
0.729014 0.520723 0.245142
0.754745 0.519154 0.248079
0.777535 0.517647 0.250409
0.785625 0.516450 0.249706
0.793715 0.515253 0.249003
0.801804 0.514056 0.248300
0.809894 0.512859 0.247597
0.817984 0.511663 0.246894
0.270566 0.345677 0.104951
0.285561 0.358262 0.109769
0.300556 0.370846 0.114587
0.315551 0.383431 0.119405
0.330546 0.396016 0.124223
0.345541 0.408600 0.129041
0.360934 0.420274 0.135420
0.376406 0.431765 0.142112
0.391879 0.443256 0.148804
0.407351 0.454748 0.155495
0.422823 0.466239 0.162187
0.440052 0.476146 0.169785
0.458159 0.485260 0.177837
0.476266 0.494375 0.185889
0.494373 0.503489 0.193941
0.512479 0.512604 0.201992
0.533303 0.519640 0.210344
0.556842 0.524598 0.218995
0.580381 0.529556 0.227646
0.603920 0.534515 0.236297
0.627460 0.539473 0.244948
0.651705 0.542551 0.252505
0.677362 0.541870 0.257875
0.703019 0.541188 0.263245
0.728676 0.540507 0.268614
0.754333 0.539825 0.273984
0.777120 0.538989 0.278322
0.785558 0.537381 0.277500
0.793995 0.535772 0.276679
0.802433 0.534164 0.275857
0.810870 0.532555 0.275035
0.819308 0.530946 0.274213
0.288952 0.362787 0.107645
0.303554 0.374978 0.112774
0.318155 0.387169 0.117903
0.332757 0.399361 0.123032
0.347359 0.411552 0.128161
0.361960 0.423743 0.133290
0.376807 0.435069 0.139988
0.391703 0.446222 0.147000
0.406599 0.457375 0.154012
0.421495 0.468528 0.161024
0.436391 0.479681 0.168036
0.452739 0.489426 0.176113
0.469812 0.498467 0.184723
0.486885 0.507508 0.193332
0.503958 0.516550 0.201942
0.521031 0.525591 0.210552
0.540551 0.532966 0.219814
0.562517 0.538674 0.229727
0.584482 0.544382 0.239640
0.606448 0.550091 0.249554
0.628414 0.555799 0.259467
0.651586 0.559673 0.268677
0.677170 0.559879 0.276480
0.702754 0.560085 0.284283
0.728338 0.560291 0.292087
0.753921 0.560496 0.299890
0.776705 0.560331 0.306236
0.785491 0.558311 0.305295
0.794276 0.556291 0.304354
0.803061 0.554271 0.303414
0.811846 0.552251 0.302473
0.820631 0.550230 0.301532
0.307574 0.379637 0.110126
0.321714 0.391419 0.115614
0.335854 0.403202 0.121101
0.349993 0.414985 0.126588
0.364133 0.426767 0.132075
0.378273 0.438550 0.137563
0.392565 0.449526 0.144609
0.406888 0.460340 0.151967
0.421210 0.471155 0.159325
0.435533 0.481969 0.166683
0.449856 0.492783 0.174041
0.465354 0.502349 0.182590
0.481441 0.511289 0.191735
0.497528 0.520230 0.200880
0.513615 0.529170 0.210025
0.529701 0.538111 0.219170
0.547977 0.545759 0.229285
0.568441 0.552114 0.240369
0.588905 0.558468 0.251453
0.609369 0.564823 0.262538
0.629833 0.571178 0.273622
0.651894 0.575787 0.284374
0.677150 0.576903 0.294463
0.702406 0.578019 0.304552
0.727662 0.579135 0.314640
0.752918 0.580251 0.324729
0.775509 0.580815 0.333047
0.784775 0.578623 0.332510
0.794040 0.576430 0.331974
0.803305 0.574238 0.331437
0.812571 0.572046 0.330900
0.821836 0.569853 0.330364
0.327378 0.395187 0.111544
0.340713 0.406485 0.117626
0.354047 0.417782 0.123708
0.367382 0.429080 0.129790
0.380717 0.440378 0.135872
0.394052 0.451676 0.141954
0.407745 0.462289 0.149496
0.421509 0.472765 0.157329
0.435274 0.483241 0.165163
0.449039 0.493716 0.172997
0.462803 0.504192 0.180830
0.477616 0.513486 0.189819
0.492952 0.522189 0.199385
0.508289 0.530892 0.208950
0.523626 0.539595 0.218516
0.538962 0.548297 0.228082
0.556291 0.555890 0.238764
0.575611 0.562373 0.250561
0.594932 0.568856 0.262359
0.614252 0.575339 0.274157
0.633573 0.581822 0.285955
0.654338 0.586857 0.297698
