filters/luts/Suburbs 02.cube
# LUT by SparkleStock. Enhanced with VOXCOLOR algorithms.
LUT_3D_SIZE 8
DOMAIN_MIN 0.000000 0.000000 0.000000
DOMAIN_MAX 0.903226 0.903226 0.903226
0.089866 0.093773 0.082051
0.152728 0.106786 0.081390
0.238237 0.120785 0.084470
0.338595 0.136461 0.089558
0.440167 0.154658 0.095073
0.530159 0.175233 0.099831
0.599716 0.196644 0.103305
0.644697 0.215613 0.105164
0.103982 0.117153 0.085580
0.144531 0.149292 0.089102
0.241702 0.159647 0.093520
0.354825 0.170983 0.098979
0.463483 0.185530 0.104287
0.553703 0.202406 0.108419
0.617575 0.219847 0.110818
0.653918 0.234489 0.111354
0.123219 0.144078 0.087337
0.169204 0.182713 0.093086
0.233681 0.214119 0.100538
0.349468 0.221775 0.107802
0.468986 0.227367 0.113787
0.565049 0.237214 0.117801
0.629297 0.249103 0.119812
0.662173 0.259522 0.120091
0.151735 0.176801 0.090267
0.203042 0.217442 0.096913
0.261839 0.257169 0.107065
0.344740 0.278936 0.117560
0.459801 0.280611 0.125518
0.565825 0.279475 0.130235
0.635341 0.283385 0.132421
0.668893 0.288697 0.132830
0.190996 0.215180 0.095073
0.244523 0.255665 0.102316
0.302725 0.296270 0.114298
0.369092 0.327862 0.129253
0.459196 0.338779 0.143980
0.559801 0.333724 0.152544
0.637638 0.327043 0.155398
0.675008 0.325942 0.156054
0.240277 0.258191 0.100965
0.293178 0.297082 0.109489
0.347502 0.335865 0.123540
0.407050 0.369922 0.142871
0.476701 0.392208 0.166383
0.561930 0.396032 0.187632
0.639440 0.387039 0.198217
0.682313 0.378087 0.199063
0.297680 0.303801 0.106322
0.346739 0.339853 0.117933
0.395353 0.375677 0.135371
0.445898 0.408935 0.158952
0.503574 0.437285 0.190450
0.572509 0.455545 0.227750
0.643954 0.458761 0.258275
0.693221 0.451233 0.271160
0.360873 0.349569 0.109236
0.401749 0.381181 0.126853
0.443362 0.413810 0.149991
0.485069 0.445107 0.178889
0.531138 0.475337 0.217309
0.585886 0.503936 0.266849
0.649465 0.526244 0.322010
0.702892 0.535981 0.363557
0.091630 0.103478 0.127268
0.136363 0.120675 0.116446
0.232203 0.136900 0.115057
0.342551 0.154256 0.120274
0.448897 0.172424 0.128201
0.537921 0.190837 0.135605
0.602029 0.208228 0.140268
0.639922 0.222216 0.140718
0.099571 0.134827 0.145340
0.158159 0.162332 0.147699
0.251863 0.181521 0.152789
0.358858 0.199317 0.159379
0.463769 0.217370 0.165389
0.554100 0.236222 0.168826
0.621385 0.255658 0.168873
0.662877 0.274356 0.165905
0.114410 0.163495 0.159328
0.185523 0.201533 0.157487
0.257450 0.243443 0.166518
0.366253 0.259186 0.175801
0.478432 0.270057 0.183384
0.572083 0.283769 0.188364
0.638644 0.299371 0.190438
0.676707 0.315111 0.190156
0.136708 0.196432 0.172646
0.222255 0.243326 0.163283
0.291234 0.293133 0.175777
0.370977 0.327726 0.191588
0.478590 0.336778 0.203594
0.579852 0.339813 0.211803
0.649876 0.348032 0.217454
0.687804 0.359151 0.221475
0.168114 0.234946 0.186061
0.269062 0.288759 0.170059
0.337739 0.338923 0.185484
0.402653 0.382686 0.208013
0.484028 0.405150 0.229285
0.577983 0.406605 0.243919
0.655660 0.403865 0.253396
0.697418 0.408627 0.261931
0.208914 0.278156 0.199011
0.324454 0.337085 0.179072
0.389460 0.384837 0.197475
0.448103 0.428247 0.226046
0.509388 0.461595 0.257408
0.584118 0.473946 0.284669
0.658195 0.469963 0.302788
0.706424 0.466098 0.314910
0.257750 0.323965 0.210558
0.385116 0.386533 0.190236
0.443801 0.430276 0.212629
0.493826 0.470958 0.247437
0.545521 0.506754 0.287719
0.602649 0.531648 0.329358
0.665268 0.538893 0.363204
0.716551 0.534686 0.384653
0.312234 0.369505 0.219805
0.446636 0.434433 0.202404
0.496370 0.473104 0.230740
0.537152 0.510373 0.273083
0.579448 0.546452 0.322185
0.625762 0.577903 0.375410
0.678358 0.599558 0.427176
0.727205 0.607696 0.466388
0.094773 0.118303 0.193556
0.129559 0.131146 0.177554
0.225490 0.159324 0.165561
0.343858 0.180353 0.164833
0.455626 0.198385 0.171531
0.544725 0.215220 0.180337
0.604805 0.229810 0.187084
0.637098 0.240546 0.189085
0.102408 0.153708 0.223504
0.157495 0.181377 0.216827
0.246214 0.208217 0.211921
0.359961 0.230498 0.215461
0.470603 0.250555 0.221908
0.561813 0.270062 0.227329
0.627173 0.289643 0.229809
0.666763 0.309132 0.228753
0.111891 0.194182 0.252454
0.180107 0.229527 0.245393
0.268023 0.269736 0.251473
0.377686 0.293181 0.259186
0.486386 0.311236 0.265563
0.578567 0.329194 0.269323
0.646566 0.348020 0.269674
0.688519 0.367793 0.267113
0.126890 0.228170 0.276884
0.209152 0.274954 0.267401
0.305096 0.323857 0.270527
0.392486 0.365653 0.283597
0.495515 0.383747 0.294916
0.592266 0.393758 0.302295
0.662361 0.407141 0.306812
0.704005 0.423327 0.309590
0.149310 0.264564 0.299270
0.248305 0.322124 0.286625
0.353909 0.375882 0.282501
0.430436 0.425789 0.301015
0.508510 0.457371 0.323510
0.596947 0.466997 0.339212
0.672497 0.470324 0.349668
0.716467 0.480530 0.359602
0.180079 0.305864 0.319609
0.297132 0.371875 0.305107
0.410494 0.427947 0.295120
0.481875 0.476910 0.318525
0.540169 0.517113 0.352218
0.607998 0.537280 0.381422
0.677697 0.539922 0.401970
0.727505 0.541360 0.417908
0.218487 0.349834 0.336698
0.352746 0.422289 0.323381
0.470452 0.478911 0.310945
0.534162 0.524629 0.339341
0.582680 0.564107 0.382118
0.632381 0.594231 0.425066
0.687888 0.606745 0.460070
0.738285 0.607008 0.485118
0.262496 0.393203 0.349788
0.410700 0.470169 0.340885
0.527763 0.526374 0.330413
0.582229 0.567820 0.365051
0.621218 0.605300 0.416597
0.661760 0.638518 0.470007
0.706185 0.661794 0.519217
0.750491 0.671636 0.557099
0.099815 0.137209 0.272772
0.126105 0.146238 0.256258
0.211025 0.174567 0.237272
0.339346 0.210377 0.228349
0.459751 0.233995 0.229508
0.550837 0.249321 0.236414
0.608565 0.261403 0.243730
0.636521 0.269519 0.247192
0.107691 0.176356 0.313178
0.156738 0.205340 0.301439
0.238576 0.235198 0.289696
0.356317 0.266545 0.284832
0.473894 0.291132 0.287693
0.568348 0.311236 0.293217
0.632809 0.330744 0.297170
0.670645 0.350866 0.298239
0.115879 0.223152 0.349335
0.178593 0.260063 0.337929
0.265971 0.301957 0.338967
0.377035 0.333001 0.340130
0.490357 0.356534 0.343656
0.585761 0.377183 0.347114
0.654367 0.398036 0.348131
0.697370 0.420863 0.347094
0.125071 0.264800 0.379978
0.204816 0.311635 0.368257
0.300905 0.360835 0.372914
0.401410 0.404015 0.382604
0.508139 0.428454 0.389913
0.603215 0.444812 0.393738
0.673476 0.462128 0.394732
0.717674 0.481521 0.394120
0.139046 0.299575 0.407359
0.236150 0.359847 0.397895
0.342825 0.415535 0.399330
0.442672 0.466034 0.408659
0.529313 0.502543 0.423984
0.614759 0.519606 0.435636
0.688203 0.529088 0.442100
0.733638 0.543233 0.448017
0.159955 0.335313 0.431683
0.275619 0.408037 0.425620
0.393048 0.469082 0.422571
0.495921 0.521285 0.427138
0.566980 0.564830 0.450203
0.631692 0.590794 0.476484
0.697512 0.600090 0.494588
0.747091 0.606412 0.508364
0.188305 0.374649 0.451480
0.323305 0.456627 0.449880
0.449674 0.521056 0.444868
0.552360 0.572733 0.446394
0.615025 0.614779 0.475602
0.660944 0.647737 0.515904
0.711287 0.665027 0.548794
0.759407 0.670057 0.572655
0.222946 0.414125 0.465384
0.375208 0.502400 0.470465
0.506463 0.568589 0.467517
0.604673 0.618635 0.469880
0.658237 0.658048 0.505309
0.694825 0.691124 0.555142
0.733526 0.716082 0.600701
0.773583 0.728813 0.636080
0.106227 0.159156 0.354973
0.125367 0.165879 0.341219
0.196834 0.191299 0.321488
0.319690 0.232302 0.306283
0.454032 0.270192 0.300957
0.555397 0.291850 0.303171
0.612669 0.301536 0.308143
0.637830 0.306953 0.311195
0.114168 0.202223 0.402295
0.157792 0.232417 0.389975
0.231378 0.264075 0.377879
0.344685 0.301326 0.367464
0.470060 0.334843 0.364105
0.571785 0.359123 0.366379
0.637371 0.378178 0.369794
0.674550 0.397869 0.371392
0.122184 0.251841 0.441537
0.180035 0.291360 0.429846
0.262217 0.336630 0.428549
0.370594 0.374566 0.425412
0.488517 0.404984 0.425201
0.589553 0.429264 0.426929
0.660599 0.451439 0.427857
0.704918 0.476118 0.427630
0.129304 0.297950 0.473045
0.205305 0.347446 0.462236
0.297350 0.399823 0.467212
0.399904 0.446283 0.474791
0.510391 0.477525 0.479933
0.609154 0.499343 0.481650
0.682242 0.519544 0.480754
0.729305 0.542175 0.479221
0.137100 0.333851 0.498444
0.236489 0.398093 0.490596
0.338552 0.456046 0.498116
0.441610 0.507819 0.509497
0.538288 0.547627 0.521726
0.628392 0.570100 0.528019
0.701702 0.584307 0.528814
0.748842 0.601172 0.529340
0.149097 0.363796 0.521101
0.270717 0.444050 0.519820
0.383345 0.508509 0.528219
0.490872 0.562980 0.536725
0.579477 0.608420 0.551050
0.652418 0.637965 0.567459
0.716250 0.652100 0.578662
0.765264 0.661936 0.585784
0.167974 0.394717 0.540040
0.309883 0.488084 0.547308
0.432841 0.558323 0.557130
0.543841 0.614504 0.561770
0.629432 0.659845 0.574447
0.686530 0.694673 0.600680
0.734169 0.714956 0.627808
0.779819 0.724115 0.646765
0.194178 0.427994 0.552046
0.355460 0.530054 0.568390
0.486158 0.603672 0.581954
0.596653 0.660134 0.586174
0.676286 0.703885 0.599172
0.724622 0.737793 0.631647
0.759678 0.763230 0.671642
0.796063 0.778477 0.702853
0.113569 0.183859 0.431825
0.127159 0.189245 0.422312
0.186520 0.212641 0.406415
0.296059 0.252946 0.390478
0.432398 0.299562 0.380176
0.549022 0.332877 0.376035
0.616464 0.346917 0.376142
0.640313 0.349310 0.376443
0.121168 0.230001 0.480542
0.160579 0.260913 0.470714
0.226059 0.294486 0.462793
0.330670 0.335628 0.453429
0.456519 0.377237 0.446626
0.567987 0.408895 0.443952
0.641025 0.429994 0.444138
0.678591 0.447787 0.444383
0.128767 0.280837 0.519399
0.182777 0.322328 0.510978
0.260810 0.370701 0.510757
0.363558 0.414765 0.509023
0.481161 0.453466 0.507629
0.587932 0.483528 0.507530
0.664571 0.507388 0.507271
0.711576 0.532015 0.506023
0.135326 0.327093 0.548565
0.207117 0.379798 0.542469
0.297599 0.436109 0.547664
0.396570 0.487420 0.555724
0.507187 0.526987 0.561296
0.609959 0.555305 0.564208
0.687751 0.578327 0.563814
0.739273 0.602999 0.561440
0.140322 0.363121 0.569409
0.238416 0.431483 0.566648
0.340084 0.493268 0.576496
0.439802 0.548564 0.591472
0.539261 0.593049 0.604635
0.633771 0.622100 0.611888
0.710578 0.641615 0.612163
0.762277 0.661350 0.609516
0.145842 0.388430 0.585711
0.275006 0.476517 0.589395
0.387831 0.544744 0.603274
0.489739 0.601516 0.620814
0.582350 0.648859 0.636511
0.663105 0.682518 0.649706
0.730988 0.701617 0.655753
0.781579 0.714418 0.656096
0.155884 0.409854 0.599360
0.312451 0.516073 0.612793
0.436422 0.591435 0.630836
0.540585 0.649903 0.648599
0.631426 0.697375 0.662020
0.700857 0.734497 0.678986
0.754285 0.757447 0.696005
0.798398 0.768930 0.707096
0.173724 0.433785 0.608079
0.351373 0.552004 0.632628
0.484777 0.632979 0.656079
0.590573 0.693045 0.674895
0.678304 0.740106 0.686489
0.741506 0.776625 0.704400
0.783100 0.803144 0.731428
0.816781 0.819418 0.756471
0.121289 0.212446 0.499902
0.131207 0.217299 0.494508
0.181072 0.239793 0.483950
0.278268 0.279727 0.471615
0.405392 0.327998 0.460292
0.529253 0.369777 0.451310
0.611972 0.390632 0.443760
0.642957 0.391673 0.436992
0.128013 0.259128 0.542770
0.165012 0.290278 0.536830
0.223907 0.325884 0.534769
0.319907 0.371223 0.531173
0.439683 0.419093 0.526728
0.556121 0.458928 0.522172
0.640188 0.484068 0.517397
0.684055 0.499383 0.512749
0.134654 0.309387 0.576637
0.186473 0.352088 0.573192
0.262182 0.402857 0.576039
0.359004 0.452331 0.579805
0.472508 0.499462 0.582316
0.582204 0.537962 0.583523
0.665972 0.565240 0.582415
0.718630 0.588008 0.578974
0.140463 0.353283 0.601065
0.209594 0.408269 0.601288
0.300046 0.467955 0.609210
0.396489 0.523564 0.619957
0.504532 0.571474 0.629168
0.608828 0.608868 0.636159
0.691295 0.636564 0.638810
0.748248 0.661405 0.636679
0.144552 0.386394 0.617092
0.238743 0.457829 0.622207
0.342041 0.524086 0.635098
0.442439 0.583622 0.651360
0.540088 0.633659 0.667112
0.635616 0.671394 0.679682
0.716452 0.698310 0.685731
0.773825 0.721243 0.685332
0.147049 0.407651 0.626796
0.277293 0.501072 0.638265
0.392910 0.573944 0.655903
0.495615 0.634297 0.676290
0.585345 0.684548 0.696598
0.667961 0.723643 0.713613
0.740630 0.750100 0.722806
0.795599 0.768384 0.724211
0.150616 0.421056 0.633811
0.320420 0.538536 0.654403
0.448406 0.619053 0.677054
0.550751 0.679587 0.700053
0.635853 0.728209 0.721628
0.707819 0.767426 0.739763
0.767487 0.794642 0.753059
0.814106 0.810415 0.760400
0.159900 0.434164 0.638689
0.361127 0.570383 0.670487
0.500429 0.658338 0.698913
0.603135 0.720094 0.723946
0.683674 0.767413 0.745206
0.749700 0.805165 0.762044
0.798786 0.833287 0.779438
0.833884 0.850671 0.796513
0.129639 0.248478 0.562700
0.137665 0.253686 0.560110
0.181368 0.276485 0.553639
0.269295 0.317043 0.545198
0.387429 0.366710 0.535907
0.507458 0.411276 0.525453
0.598480 0.435308 0.511055
0.642280 0.434026 0.492836
0.134527 0.290791 0.590755
0.171022 0.321654 0.588480
0.225591 0.359401 0.591459
0.315212 0.409526 0.594376
0.428968 0.464069 0.596065
0.543571 0.511702 0.594935
0.634831 0.542054 0.588189
0.689669 0.554990 0.576247
0.139472 0.337533 0.614192
0.190936 0.380853 0.615789
0.266583 0.433020 0.621846
0.358998 0.487150 0.631738
0.468053 0.542391 0.641577
0.577301 0.591086 0.648450
0.666491 0.625201 0.649714
0.727170 0.646900 0.644498
0.144016 0.377062 0.631187
0.212327 0.433509 0.637508
0.304681 0.495621 0.649067
0.400752 0.554202 0.662873
0.505794 0.609016 0.678091
0.609748 0.656834 0.691450
0.695915 0.692709 0.699902
0.758627 0.718956 0.701106
0.147242 0.405008 0.641614
0.239446 0.478351 0.653855
0.345662 0.548302 0.670943
0.448513 0.611161 0.689438
0.545467 0.665534 0.708383
0.640734 0.711726 0.726128
0.723729 0.747896 0.740220
0.785947 0.775616 0.746853
0.149013 0.421445 0.646860
0.275059 0.516864 0.666786
0.394354 0.594354 0.688805
0.501629 0.659119 0.711416
0.593230 0.712681 0.733308
0.675652 0.756820 0.753814
0.749392 0.791875 0.771380
0.809424 0.818870 0.781957
0.149780 0.428982 0.649365
0.322312 0.552358 0.678806
0.455110 0.637983 0.705561
0.561063 0.702020 0.730561
0.646975 0.752670 0.754030
0.716980 0.793483 0.775710
0.776983 0.825792 0.794352
0.828558 0.849785 0.806631
0.152594 0.433480 0.651349
0.373698 0.584432 0.691561
0.519795 0.678492 0.723248
0.622165 0.741595 0.749763
0.699018 0.788240 0.773203
0.760029 0.825085 0.794481
0.808867 0.854059 0.812643
0.847490 0.874414 0.825848
