filters/luts/Suburbs 01_S.cube
# LUT by SparkleStock. Enhanced with VOXCOLOR algorithms.
LUT_3D_SIZE 5
DOMAIN_MIN 0.000000 0.000000 0.000000
DOMAIN_MAX 0.903226 0.903226 0.903226
0.031258 0.046886 0.046886
0.179676 0.069132 0.041853
0.396376 0.096884 0.031139
0.607807 0.148403 0.018740
0.738343 0.215589 0.012218
0.057127 0.098854 0.059545
0.184842 0.183953 0.061459
0.428807 0.211846 0.041452
0.651659 0.238955 0.028467
0.767202 0.279047 0.028333
0.111789 0.182654 0.074576
0.236636 0.292262 0.089763
0.417226 0.365590 0.088797
0.664386 0.361814 0.071371
0.788615 0.367363 0.073263
0.211934 0.298460 0.095191
0.328695 0.394824 0.122702
0.465588 0.474518 0.157264
0.660789 0.498081 0.183356
0.798314 0.479038 0.184339
0.344559 0.414873 0.112419
0.435191 0.489883 0.160585
0.531815 0.554998 0.222587
0.656695 0.602425 0.306627
0.795308 0.617159 0.384586
0.031218 0.076364 0.180448
0.171410 0.106784 0.141475
0.419252 0.137471 0.125326
0.626937 0.180626 0.116926
0.731981 0.236503 0.103678
0.043881 0.162369 0.230321
0.212072 0.223997 0.217943
0.437122 0.254138 0.213844
0.656060 0.284969 0.205514
0.795867 0.346725 0.193278
0.077342 0.249075 0.280414
0.274663 0.353058 0.255232
0.445334 0.433729 0.260314
0.672328 0.443688 0.256050
0.828071 0.470087 0.260141
0.151747 0.352779 0.323951
0.388278 0.472435 0.291265
0.525617 0.563639 0.320332
0.673006 0.607583 0.347522
0.835126 0.607306 0.358149
0.260808 0.454671 0.353210
0.516954 0.576001 0.334087
0.623578 0.648907 0.391437
0.713072 0.703013 0.468545
0.825858 0.724220 0.520214
0.030887 0.130623 0.370058
0.143513 0.159762 0.319125
0.429276 0.229336 0.263405
0.641772 0.264595 0.251729
0.729478 0.304451 0.242729
0.053409 0.238911 0.432086
0.208148 0.292431 0.405837
0.443351 0.326376 0.386859
0.662376 0.356004 0.379205
0.800803 0.419067 0.368374
0.082038 0.341532 0.488636
0.277958 0.419871 0.465499
0.474774 0.476047 0.459738
0.681215 0.487813 0.452877
0.849427 0.520411 0.446427
0.122864 0.417726 0.539364
0.368154 0.531677 0.521347
0.568368 0.617988 0.502736
0.695513 0.665986 0.512972
0.863003 0.674317 0.513910
0.199480 0.492453 0.568714
0.483362 0.622586 0.566726
0.685373 0.715237 0.554754
0.761378 0.770212 0.605964
0.858011 0.801552 0.634120
0.034220 0.200662 0.525212
0.113692 0.223903 0.496308
0.367373 0.299238 0.442162
0.640712 0.372725 0.399046
0.727315 0.395030 0.386575
0.069852 0.315090 0.587486
0.204610 0.376174 0.571622
0.424468 0.435524 0.554137
0.659398 0.479528 0.535053
0.791287 0.526352 0.525638
0.105817 0.414539 0.631974
0.289632 0.498372 0.624064
0.481287 0.565647 0.629854
0.683611 0.586721 0.630964
0.844068 0.611797 0.625686
0.127459 0.470338 0.659943
0.388251 0.589519 0.660647
0.575316 0.668311 0.675787
0.716413 0.710141 0.685257
0.872665 0.714893 0.679262
0.165055 0.509479 0.675504
0.481724 0.658679 0.699363
0.674862 0.749395 0.723810
0.795885 0.810575 0.739745
0.881373 0.843182 0.750620
0.053291 0.290709 0.625342
0.113041 0.311015 0.612329
0.323023 0.379504 0.583402
0.591468 0.459714 0.543570
0.720344 0.475132 0.498841
0.092133 0.384913 0.664701
0.217048 0.449559 0.663773
0.412290 0.527966 0.667127
0.643566 0.603368 0.662980
0.785596 0.644588 0.647181
0.126209 0.464145 0.694153
0.305208 0.555188 0.704594
0.496313 0.639408 0.721414
0.692999 0.702632 0.740690
0.833956 0.742680 0.749714
0.140482 0.500290 0.706023
0.399353 0.628637 0.729396
0.597874 0.718717 0.757492
0.743530 0.780100 0.787629
0.870498 0.810468 0.809836
0.147828 0.511729 0.708857
0.515530 0.687964 0.749242
0.705271 0.779324 0.785419
0.817374 0.836148 0.817661
0.897722 0.870407 0.839774
