filters/luts/Suburbs 03.cube
# LUT by SparkleStock. Enhanced with VOXCOLOR algorithms.
LUT_3D_SIZE 5
DOMAIN_MIN 0.000000 0.000000 0.000000
DOMAIN_MAX 0.903226 0.903226 0.903226
0.105495 0.085958 0.070330
0.281713 0.116523 0.065658
0.477593 0.160794 0.065753
0.636520 0.218055 0.069069
0.721305 0.274142 0.072961
0.139572 0.145086 0.084344
0.253975 0.222451 0.095950
0.477161 0.256064 0.090109
0.660050 0.291346 0.087921
0.734592 0.328664 0.090304
0.193958 0.228398 0.102462
0.287807 0.316733 0.119683
0.443231 0.377054 0.130716
0.654703 0.384937 0.122659
0.742983 0.398088 0.122573
0.269881 0.326504 0.121754
0.353963 0.400623 0.142712
0.465172 0.466106 0.173680
0.631428 0.498967 0.205998
0.747218 0.484647 0.203100
0.359219 0.420521 0.131711
0.427982 0.475154 0.166844
0.511912 0.529044 0.217242
0.627175 0.575552 0.291933
0.747245 0.593807 0.365941
0.117760 0.118130 0.207633
0.248103 0.154536 0.158678
0.475583 0.206943 0.139505
0.643848 0.255249 0.144415
0.714203 0.293677 0.149353
0.130342 0.197275 0.243012
0.279717 0.260043 0.231184
0.484372 0.313416 0.224891
0.661995 0.359729 0.222065
0.746839 0.408677 0.222036
0.163865 0.275481 0.281108
0.326347 0.364597 0.267231
0.475386 0.442780 0.285345
0.667083 0.470066 0.288101
0.762231 0.498171 0.298061
0.219818 0.359619 0.315116
0.407661 0.461444 0.294703
0.526095 0.539350 0.331090
0.646017 0.588655 0.379128
0.770110 0.588124 0.399327
0.292006 0.439127 0.335595
0.500059 0.546254 0.323530
0.597458 0.609434 0.377771
0.682343 0.657397 0.460194
0.778298 0.677191 0.527505
0.136445 0.169948 0.369294
0.231617 0.201287 0.322246
0.460872 0.272858 0.267492
0.646834 0.320566 0.255278
0.710796 0.345706 0.260920
0.145409 0.261942 0.413726
0.274857 0.320745 0.394388
0.476988 0.379001 0.371746
0.665512 0.430842 0.361542
0.752215 0.480195 0.362705
0.158193 0.346314 0.453138
0.325071 0.421786 0.443720
0.500170 0.494426 0.454512
0.682325 0.538058 0.451267
0.778138 0.577316 0.451280
0.186333 0.409476 0.490811
0.393391 0.509049 0.487431
0.566595 0.592988 0.499514
0.680424 0.652421 0.535160
0.794507 0.668095 0.553119
0.236710 0.467697 0.510049
0.479074 0.583974 0.522908
0.651104 0.670152 0.535565
0.735088 0.721335 0.596862
0.811433 0.747506 0.656376
0.151160 0.228044 0.492182
0.218597 0.253244 0.469486
0.414603 0.323095 0.426340
0.640955 0.398988 0.389240
0.707554 0.412767 0.383653
0.159775 0.322816 0.538875
0.273330 0.384270 0.531708
0.453877 0.450945 0.520181
0.658964 0.510343 0.503990
0.754997 0.556490 0.500965
0.168595 0.403979 0.571933
0.326604 0.484220 0.576000
0.497686 0.559311 0.593283
0.681600 0.611971 0.600271
0.791015 0.658982 0.595184
0.175166 0.450703 0.592459
0.403611 0.559811 0.608414
0.574352 0.640179 0.641255
0.713203 0.702780 0.670353
0.818225 0.731489 0.668648
0.199569 0.482325 0.605170
0.475949 0.617801 0.645377
0.654573 0.707092 0.684790
0.780890 0.774156 0.710409
0.845230 0.805246 0.752643
0.162440 0.303100 0.568514
0.213585 0.324744 0.560959
0.377242 0.387764 0.543560
0.589873 0.459677 0.518518
0.697309 0.475146 0.485024
0.167448 0.379152 0.597257
0.275569 0.440181 0.603706
0.439258 0.514211 0.615418
0.634071 0.588097 0.621732
0.757471 0.632678 0.613950
0.174500 0.442927 0.619433
0.330784 0.527207 0.638313
0.502210 0.609121 0.666658
0.678435 0.681032 0.694555
0.802426 0.734402 0.707469
0.177645 0.473911 0.630320
0.404586 0.591773 0.664689
0.586504 0.681147 0.705534
0.724186 0.750251 0.746284
0.838925 0.801512 0.772443
0.181883 0.483512 0.632885
0.504441 0.645306 0.691287
0.683263 0.738089 0.739925
0.796853 0.801953 0.782028
0.871241 0.844191 0.811690
