filters/luts/Suburbs 05_S.cube
# LUT by SparkleStock. Enhanced with VOXCOLOR algorithms.
LUT_3D_SIZE 8
DOMAIN_MIN 0.000000 0.000000 0.000000
DOMAIN_MAX 0.903226 0.903226 0.903226
0.039072 0.035165 0.027350
0.138328 0.059207 0.037055
0.246248 0.085218 0.049518
0.351223 0.112852 0.062137
0.445532 0.143708 0.073512
0.524337 0.178810 0.083312
0.585498 0.216086 0.091741
0.627910 0.248399 0.098279
0.066864 0.070897 0.037055
0.139822 0.120838 0.043174
0.256665 0.142687 0.051161
0.373692 0.163490 0.060138
0.476646 0.187096 0.069478
0.558981 0.214058 0.079477
0.616868 0.243415 0.090225
0.648323 0.270192 0.100506
0.110804 0.115294 0.046367
0.186992 0.172812 0.054414
0.268593 0.219506 0.058992
0.383101 0.237418 0.064999
0.493022 0.250050 0.072654
0.580182 0.265900 0.082420
0.639199 0.284339 0.094433
0.667116 0.302201 0.107275
0.171413 0.168356 0.057363
0.245922 0.224523 0.066905
0.315006 0.277856 0.074655
0.397382 0.310824 0.080333
0.498556 0.320607 0.086428
0.590160 0.324048 0.095172
0.652539 0.330489 0.107094
0.681668 0.338337 0.120677
0.243223 0.227539 0.069731
0.309828 0.277544 0.080468
0.370600 0.326698 0.092665
0.432596 0.366279 0.104440
0.510016 0.384448 0.115425
0.593538 0.384822 0.124876
0.659635 0.380304 0.135226
0.692242 0.378799 0.147685
0.318311 0.288007 0.082398
0.374015 0.330100 0.094671
0.424116 0.371697 0.111227
0.474394 0.408617 0.131119
0.531538 0.434236 0.152834
0.600383 0.442009 0.173079
0.664342 0.436208 0.187611
0.701241 0.427850 0.197211
0.389618 0.343700 0.094049
0.433475 0.378457 0.109133
0.472841 0.412789 0.130671
0.511724 0.444805 0.157753
0.555957 0.472100 0.190895
0.610276 0.490194 0.228114
0.668509 0.494864 0.259927
0.710557 0.489267 0.277274
0.453283 0.388601 0.103612
0.485116 0.417766 0.123748
0.514871 0.447433 0.151875
0.544199 0.475712 0.185831
0.577779 0.502582 0.227797
0.619712 0.527585 0.279026
0.670691 0.547010 0.334526
0.715882 0.556095 0.376614
0.049218 0.054795 0.080066
0.115204 0.075650 0.074630
0.236458 0.099719 0.087960
0.356445 0.125716 0.104778
0.459022 0.154708 0.120194
0.538852 0.187931 0.132071
0.594754 0.224062 0.139447
0.628244 0.256759 0.141588
0.064259 0.099891 0.101326
0.149293 0.133328 0.113897
0.263924 0.157913 0.128600
0.380181 0.179818 0.142058
0.486094 0.202446 0.152766
0.574363 0.229098 0.160523
0.639621 0.261403 0.165360
0.677641 0.297125 0.166900
0.095805 0.146359 0.124505
0.193908 0.193659 0.131356
0.278477 0.241116 0.141350
0.391532 0.262534 0.151661
0.503746 0.277435 0.160724
0.598170 0.295024 0.168820
0.667718 0.317303 0.176518
0.706385 0.343673 0.183389
0.143436 0.198738 0.147455
0.252083 0.253606 0.144927
0.325066 0.310392 0.156215
0.406777 0.349313 0.166916
0.510438 0.363912 0.175437
0.609781 0.371140 0.184010
0.684358 0.382352 0.194140
0.727083 0.397818 0.205479
0.204532 0.256320 0.169556
0.320042 0.312925 0.159258
0.385303 0.368392 0.173827
0.445942 0.415529 0.190267
0.522435 0.441803 0.203787
0.611824 0.448501 0.214138
0.691245 0.449540 0.224781
0.740146 0.455238 0.238180
0.272903 0.315450 0.189935
0.390571 0.370183 0.175134
0.446881 0.419177 0.193413
0.495577 0.464041 0.217869
0.549403 0.498718 0.241381
0.618040 0.514666 0.260616
0.691365 0.515555 0.274863
0.746269 0.513975 0.287558
0.341384 0.370794 0.207805
0.456634 0.422479 0.192234
0.503649 0.463375 0.215188
0.542002 0.502622 0.247941
0.583385 0.537597 0.282956
0.632955 0.562898 0.316508
0.692217 0.573352 0.343168
0.747265 0.573170 0.360398
0.404395 0.416236 0.222804
0.513674 0.465940 0.209637
0.551326 0.499804 0.238712
0.581279 0.533895 0.280397
0.613472 0.566967 0.326403
0.651146 0.596126 0.373946
0.697166 0.617197 0.418727
0.745003 0.626991 0.451523
0.066651 0.085651 0.155036
0.115909 0.100828 0.143708
0.232417 0.135393 0.146669
0.359857 0.161266 0.161814
0.469075 0.186678 0.178623
0.550337 0.216422 0.191561
0.602969 0.249559 0.198780
0.630510 0.280506 0.199547
0.081216 0.133173 0.181625
0.156951 0.162719 0.189654
0.259277 0.185018 0.202400
0.380068 0.205336 0.217877
0.492375 0.226844 0.230850
0.583565 0.253123 0.239298
0.649247 0.286533 0.242911
0.686868 0.325656 0.241694
0.098188 0.187479 0.212604
0.189900 0.227029 0.222455
0.283390 0.261334 0.236960
0.397506 0.281624 0.250381
0.510524 0.297409 0.260485
0.609139 0.315569 0.267210
0.686125 0.340128 0.270960
0.734398 0.372478 0.271871
0.129347 0.237943 0.244115
0.234806 0.288886 0.250881
0.329298 0.335195 0.258303
0.415878 0.373351 0.268341
0.519996 0.390667 0.276867
0.623791 0.400533 0.283611
0.707887 0.414848 0.289792
0.763618 0.435837 0.295862
0.174416 0.290126 0.274367
0.292211 0.348465 0.276695
0.390005 0.400266 0.275698
0.458334 0.448614 0.287814
0.534554 0.479512 0.300018
0.627712 0.490801 0.308189
0.716948 0.495926 0.315804
0.780183 0.506592 0.325689
0.229540 0.344207 0.301799
0.356539 0.405339 0.300926
0.456048 0.456952 0.294046
0.514149 0.505005 0.311488
0.566533 0.544916 0.332545
0.635554 0.567142 0.347885
0.716179 0.573595 0.358520
0.786194 0.576714 0.369008
0.289346 0.395729 0.325036
0.420680 0.457209 0.323837
0.518959 0.505924 0.314897
0.568329 0.548899 0.338681
0.607967 0.588146 0.370876
0.655084 0.619506 0.398760
0.716197 0.636011 0.418843
0.782601 0.640632 0.432244
0.348297 0.438777 0.343603
0.478704 0.500338 0.345006
0.572186 0.546230 0.338143
0.613868 0.583176 0.369367
0.644610 0.618734 0.412895
0.679991 0.651614 0.454663
0.723583 0.676706 0.489859
0.775170 0.690095 0.514110
0.087558 0.122360 0.239088
0.124264 0.133751 0.227362
0.226125 0.168661 0.222428
0.361643 0.210557 0.231205
0.477973 0.238607 0.245745
0.560513 0.262712 0.258393
0.611165 0.290525 0.265444
0.635003 0.317106 0.265951
0.102649 0.171632 0.270572
0.168288 0.200709 0.274437
0.260177 0.224729 0.282293
0.380056 0.250570 0.295865
0.495270 0.272370 0.309317
0.588011 0.296199 0.318304
0.653279 0.327774 0.321499
0.690777 0.366184 0.319376
0.116615 0.227359 0.302507
0.198999 0.265371 0.311084
0.289771 0.297949 0.326036
0.399063 0.317149 0.342514
0.512109 0.331846 0.354829
0.612766 0.349295 0.361743
0.691837 0.374307 0.364054
0.744187 0.408877 0.362750
0.133365 0.278230 0.333809
0.234314 0.327041 0.344727
0.329173 0.368759 0.359598
0.421128 0.399433 0.373874
0.526389 0.414651 0.383534
0.630980 0.425037 0.389065
0.719807 0.440348 0.392085
0.784453 0.464278 0.393512
0.160983 0.323930 0.365276
0.278220 0.383960 0.378466
0.379227 0.433855 0.388655
0.463586 0.475755 0.397546
0.545040 0.505206 0.405615
0.638957 0.518202 0.411121
0.733547 0.525274 0.415228
0.807276 0.538709 0.420253
0.200063 0.369255 0.395052
0.330424 0.437061 0.410094
0.437398 0.491419 0.415274
0.520454 0.537748 0.419047
0.581546 0.577795 0.430566
0.650225 0.602943 0.441493
0.734879 0.612761 0.447913
0.815286 0.618587 0.454426
0.247601 0.413986 0.420451
0.386983 0.485657 0.437895
0.497371 0.540745 0.440617
0.578908 0.586423 0.442126
0.629334 0.627038 0.461056
0.674577 0.661307 0.483020
0.736632 0.682069 0.496887
0.810803 0.690192 0.505657
0.299836 0.452633 0.440126
0.442326 0.526313 0.461682
0.551578 0.580921 0.465526
0.629474 0.624011 0.468675
0.672216 0.661129 0.496115
0.705473 0.695319 0.531239
0.747235 0.723990 0.558409
0.801502 0.741372 0.575653
0.108575 0.160896 0.319351
0.135356 0.169911 0.310315
0.221402 0.202317 0.303921
0.351037 0.251159 0.306488
0.479440 0.294134 0.317113
0.570059 0.321353 0.328131
0.619530 0.341654 0.334288
0.641127 0.361469 0.334380
0.123523 0.211691 0.354464
0.181576 0.241142 0.356642
0.263611 0.268634 0.362645
0.377382 0.301598 0.372493
0.495320 0.331130 0.384920
0.590296 0.355408 0.394125
0.654628 0.381967 0.397078
0.692284 0.415526 0.394611
0.137411 0.266024 0.385905
0.212184 0.304493 0.393496
0.297896 0.340705 0.408400
0.402079 0.366243 0.424452
0.512120 0.385013 0.439188
0.611297 0.402206 0.447886
0.689809 0.424761 0.449863
0.744141 0.457108 0.447762
0.149294 0.315331 0.413954
0.244049 0.364048 0.426585
0.335839 0.407500 0.445875
0.428216 0.439479 0.464127
0.529299 0.455274 0.479349
0.630459 0.465115 0.487448
0.719672 0.479443 0.489306
0.788494 0.503051 0.488687
0.163353 0.355215 0.439585
0.281812 0.417566 0.458156
0.380251 0.467959 0.478629
0.467885 0.507612 0.495028
0.551421 0.533710 0.507975
0.644499 0.545070 0.514524
0.739425 0.551975 0.516424
0.818401 0.565752 0.517786
0.185744 0.390350 0.464513
0.323540 0.465053 0.489900
0.429053 0.521863 0.510444
0.517730 0.567153 0.522479
0.589247 0.603884 0.532603
0.661434 0.627573 0.539441
0.745995 0.637941 0.542483
0.831410 0.644547 0.545220
0.218860 0.424936 0.487231
0.369389 0.507808 0.519373
0.480640 0.568593 0.540443
0.571129 0.616754 0.548771
0.638584 0.657109 0.557697
0.690771 0.691078 0.569619
0.751570 0.713082 0.578800
0.828920 0.722929 0.583754
0.261700 0.456915 0.504903
0.419067 0.544460 0.543454
0.531922 0.606610 0.566643
0.621538 0.654736 0.574572
0.685400 0.694116 0.585139
0.727532 0.728590 0.606065
0.766678 0.758466 0.627250
0.821203 0.778551 0.639435
0.127165 0.198708 0.387160
0.146803 0.206300 0.382051
0.219099 0.236317 0.378721
0.335756 0.284734 0.380066
0.466806 0.337952 0.387113
0.570380 0.375742 0.395243
0.627311 0.395859 0.399888
0.647505 0.407506 0.399128
0.141374 0.250100 0.422870
0.194314 0.279928 0.425994
0.267315 0.310641 0.433479
0.372702 0.349670 0.442853
0.489841 0.388935 0.453927
0.589075 0.419035 0.462717
0.655559 0.442983 0.465911
0.692784 0.468734 0.463489
0.154700 0.302033 0.453359
0.224187 0.341002 0.462082
0.306370 0.381745 0.477962
0.405367 0.416363 0.494284
0.512050 0.445112 0.509991
0.608625 0.466915 0.521050
0.684779 0.487270 0.524708
0.739447 0.513891 0.522624
0.165661 0.347506 0.478167
0.254452 0.396788 0.493122
0.345473 0.444481 0.514162
0.436291 0.483492 0.535353
0.533724 0.507935 0.554742
0.628216 0.522343 0.568116
0.712127 0.535805 0.572959
0.781697 0.556006 0.572067
0.173984 0.382528 0.497609
0.289588 0.446315 0.520215
0.388410 0.499699 0.545198
0.475795 0.543109 0.569001
0.559435 0.572822 0.588968
0.646431 0.586663 0.602655
0.734719 0.593632 0.608142
0.814642 0.605509 0.608271
0.183982 0.408520 0.514280
0.328603 0.489211 0.546562
0.435518 0.548956 0.574789
0.522106 0.595602 0.598646
0.596616 0.631645 0.616210
0.668149 0.654361 0.628337
0.748630 0.663985 0.633719
0.833883 0.669606 0.634511
0.201784 0.431314 0.529552
0.368212 0.525941 0.572128
0.482696 0.591590 0.603635
0.569877 0.641188 0.626702
0.642170 0.680797 0.640963
0.700478 0.712807 0.652346
0.761410 0.733394 0.659903
0.836928 0.742864 0.662561
0.232096 0.453814 0.542102
0.409592 0.556672 0.593933
0.528320 0.626098 0.629417
0.616039 0.677461 0.653006
0.687111 0.718498 0.665761
0.739969 0.752769 0.679149
0.782079 0.781819 0.693488
0.833511 0.802170 0.702813
0.142818 0.236890 0.440427
0.157788 0.243671 0.438947
0.219152 0.271288 0.440180
0.323629 0.317725 0.444857
0.447510 0.371973 0.451665
0.558504 0.418001 0.457685
0.627941 0.442824 0.458912
0.652905 0.449106 0.454900
0.155383 0.285970 0.472537
0.205538 0.315578 0.478146
0.271304 0.348573 0.488837
0.368479 0.392169 0.501813
0.480934 0.438682 0.514354
0.583145 0.477220 0.523609
0.655061 0.502898 0.526224
0.694483 0.521330 0.522717
0.167491 0.333983 0.500404
0.233925 0.373094 0.511799
0.314382 0.417535 0.529569
0.407987 0.459484 0.548824
0.511252 0.499239 0.566588
0.606663 0.530990 0.580280
0.681122 0.553770 0.586243
0.734392 0.574660 0.584924
0.177263 0.374225 0.521942
0.262115 0.423927 0.540218
0.353836 0.475717 0.563561
0.443792 0.521511 0.587457
0.539343 0.557937 0.609495
0.629450 0.583728 0.627602
0.706134 0.601716 0.637537
0.770954 0.619054 0.639058
0.184255 0.404002 0.537127
0.294505 0.468294 0.564171
0.395338 0.525832 0.592403
0.485395 0.575131 0.619452
0.569320 0.613481 0.643871
0.651022 0.637367 0.664808
0.728999 0.650675 0.677859
0.801750 0.662329 0.681959
0.188659 0.423226 0.547230
0.333049 0.506861 0.585186
0.443033 0.570415 0.617795
0.532283 0.621003 0.646523
0.607131 0.661026 0.671496
0.676208 0.688497 0.692517
0.748081 0.702561 0.706265
0.824298 0.709554 0.711778
0.194886 0.436267 0.554774
0.373667 0.540235 0.605415
0.493011 0.610292 0.642525
0.580412 0.661716 0.671978
0.650265 0.701988 0.695979
0.709293 0.733845 0.714836
0.767279 0.754674 0.727657
0.834937 0.764389 0.733988
0.210795 0.448088 0.560769
0.412522 0.567184 0.623677
0.539180 0.643115 0.665815
0.626082 0.696117 0.696218
0.692517 0.736872 0.719132
0.747553 0.770058 0.735981
0.792546 0.797123 0.749282
0.839894 0.815528 0.759126
0.157170 0.281098 0.484478
0.169536 0.287423 0.485274
0.223494 0.312807 0.490258
0.318456 0.356259 0.499031
0.434461 0.408410 0.508753
0.543693 0.455318 0.515147
0.620705 0.482306 0.513131
0.655064 0.485417 0.502311
0.166491 0.321569 0.507865
0.215701 0.350284 0.515892
0.276842 0.384499 0.529832
0.367804 0.431010 0.547749
0.475030 0.482057 0.565337
0.576451 0.527191 0.577854
0.652904 0.556999 0.580738
0.697877 0.571494 0.574140
0.176320 0.362637 0.530274
0.241515 0.401451 0.544985
0.322197 0.447817 0.564714
0.411750 0.494577 0.587706
0.511159 0.542379 0.610379
0.606228 0.584767 0.628174
0.681233 0.614958 0.636929
0.733818 0.634780 0.636123
0.184522 0.396246 0.547573
0.267224 0.446088 0.569752
0.360960 0.500635 0.595653
0.451335 0.551089 0.621722
0.544600 0.596349 0.647448
0.633908 0.634958 0.669431
0.707202 0.663739 0.683975
0.765086 0.684328 0.689346
0.190163 0.419613 0.558813
0.297013 0.484205 0.590183
0.400655 0.545147 0.621625
0.494085 0.599206 0.651013
0.578686 0.644467 0.678265
0.659805 0.680679 0.702594
0.731047 0.707144 0.721767
0.792177 0.725994 0.732595
0.193292 0.433380 0.565011
0.332538 0.517211 0.607867
0.445921 0.584526 0.644291
0.540340 0.640157 0.676039
0.618597 0.685563 0.703882
0.688360 0.721298 0.728703
0.752269 0.746592 0.750058
0.814238 0.763147 0.764468
0.194806 0.440119 0.567895
0.375321 0.548181 0.625004
0.499224 0.622383 0.666149
0.590814 0.677470 0.698486
0.662924 0.720745 0.725627
0.721996 0.755380 0.749290
0.774445 0.780966 0.769863
0.830283 0.797225 0.784654
0.199624 0.443701 0.568944
0.419711 0.575612 0.641259
0.553738 0.656926 0.687285
0.641805 0.711308 0.719635
0.706353 0.751656 0.745172
0.758351 0.784021 0.766930
0.801517 0.809893 0.785378
0.843677 0.828052 0.799013
