filters/luts/Suburbs 03_S.cube
# LUT by SparkleStock. Enhanced with VOXCOLOR algorithms.
LUT_3D_SIZE 8
DOMAIN_MIN 0.000000 0.000000 0.000000
DOMAIN_MAX 0.903226 0.903226 0.903226
0.105495 0.085958 0.070330
0.198795 0.100957 0.066801
0.309622 0.119501 0.064650
0.424806 0.142455 0.064225
0.530876 0.170688 0.065272
0.618220 0.204309 0.067447
0.682587 0.240994 0.070298
0.723833 0.274095 0.072913
0.122037 0.115294 0.077829
0.171508 0.161371 0.080476
0.292937 0.175596 0.070982
0.422124 0.190610 0.064253
0.538638 0.211344 0.062426
0.632301 0.237935 0.064828
0.697707 0.268586 0.070291
0.733944 0.298073 0.077118
0.143700 0.153689 0.085919
0.192033 0.208966 0.090829
0.268763 0.253691 0.086755
0.400796 0.266889 0.075208
0.531605 0.276203 0.068373
0.635424 0.291572 0.069172
0.706276 0.312169 0.075563
0.742930 0.334305 0.084824
0.173603 0.201489 0.096160
0.223259 0.257392 0.101923
0.286104 0.311421 0.102884
0.384672 0.345396 0.096470
0.513500 0.353343 0.087164
0.629633 0.355555 0.084018
0.708392 0.363685 0.089161
0.748684 0.375676 0.098864
0.211273 0.256497 0.107417
0.260310 0.308565 0.114183
0.318146 0.360087 0.119577
0.395089 0.403661 0.121782
0.503761 0.424527 0.120015
0.618787 0.424779 0.116882
0.706392 0.420260 0.118535
0.751633 0.421445 0.126612
0.255166 0.315231 0.118130
0.302324 0.360981 0.126547
0.354445 0.406134 0.136489
0.419801 0.447537 0.147279
0.506622 0.478193 0.158482
0.611720 0.488431 0.167726
0.703428 0.482366 0.173184
0.753865 0.474020 0.177534
0.303754 0.373059 0.126535
0.347597 0.411360 0.137962
0.394343 0.449368 0.153251
0.449035 0.485379 0.172012
0.518744 0.516799 0.195730
0.607513 0.538139 0.223966
0.697591 0.542965 0.248236
0.757111 0.535389 0.260494
0.356595 0.424467 0.131356
0.394846 0.455140 0.148318
0.436801 0.487287 0.170465
0.483040 0.518219 0.196934
0.538800 0.547313 0.230887
0.607982 0.573412 0.274969
0.688307 0.591736 0.325203
0.754581 0.597641 0.364253
0.110347 0.099634 0.138706
0.166791 0.112839 0.114657
0.288789 0.128700 0.107639
0.417307 0.148396 0.106887
0.531537 0.173648 0.108738
0.621643 0.204821 0.110998
0.683896 0.240055 0.112142
0.719649 0.273341 0.111057
0.116331 0.139329 0.154373
0.182929 0.167058 0.149816
0.294803 0.182450 0.147004
0.416398 0.197817 0.145629
0.531941 0.217228 0.145081
0.630679 0.243479 0.144561
0.704954 0.278148 0.143496
0.750119 0.319362 0.141354
0.132415 0.178122 0.172054
0.206230 0.221632 0.164599
0.283939 0.266106 0.163866
0.405600 0.282041 0.159246
0.530833 0.293257 0.155932
0.637679 0.310577 0.155760
0.718090 0.335881 0.157815
0.766537 0.368330 0.160709
0.156242 0.223090 0.190022
0.239348 0.277856 0.176184
0.306769 0.334391 0.178780
0.396997 0.372128 0.178858
0.518753 0.384242 0.174863
0.635989 0.390598 0.173633
0.724073 0.404010 0.177691
0.777747 0.424637 0.185069
0.188213 0.274171 0.207775
0.282499 0.335468 0.187987
0.346399 0.392626 0.194817
0.416732 0.440926 0.203083
0.513749 0.467778 0.206611
0.626107 0.474054 0.207138
0.723239 0.475623 0.210714
0.783961 0.484660 0.220234
0.227068 0.328721 0.223981
0.333358 0.393262 0.200343
0.393328 0.445490 0.211934
0.453922 0.492101 0.229281
0.528002 0.528761 0.245293
0.622235 0.545758 0.256533
0.717373 0.546634 0.263898
0.785250 0.545725 0.272530
0.270875 0.382643 0.237182
0.388591 0.448829 0.212890
0.444033 0.493210 0.230016
0.495852 0.533775 0.256846
0.555958 0.569923 0.286005
0.629581 0.596527 0.313938
0.712351 0.607091 0.335547
0.782802 0.605781 0.349313
0.318153 0.430536 0.246870
0.445340 0.498092 0.225093
0.494746 0.534121 0.249016
0.538760 0.567819 0.285800
0.587931 0.600358 0.327463
0.645216 0.629030 0.371533
0.712314 0.649298 0.413847
0.776842 0.657414 0.445280
0.120320 0.123747 0.231896
0.160541 0.133736 0.203514
0.272416 0.158038 0.174147
0.408067 0.176763 0.165380
0.530350 0.198017 0.165571
0.623598 0.225396 0.167255
0.684519 0.257507 0.167530
0.716355 0.288958 0.164791
0.124817 0.168999 0.251640
0.184832 0.191738 0.239838
0.282193 0.204508 0.227930
0.407681 0.218051 0.224543
0.529708 0.236005 0.223912
0.631835 0.261626 0.222655
0.707257 0.297121 0.219659
0.752816 0.341099 0.214552
0.132483 0.219428 0.274504
0.203175 0.250190 0.261799
0.291193 0.280404 0.260137
0.409743 0.294535 0.258504
0.531400 0.306256 0.256960
0.639899 0.323814 0.255540
0.726697 0.351043 0.253520
0.784573 0.389539 0.250533
0.148340 0.263686 0.299106
0.229442 0.306200 0.283753
0.318907 0.351755 0.279717
0.410672 0.388350 0.279039
0.526347 0.402626 0.276777
0.642485 0.411187 0.275387
0.737316 0.427491 0.276347
0.803056 0.453775 0.278783
0.171798 0.309347 0.322573
0.266221 0.361487 0.304582
0.361928 0.415929 0.294952
0.437744 0.465443 0.298954
0.527767 0.495747 0.302789
0.636780 0.506027 0.303375
0.739433 0.511621 0.305525
0.812767 0.525597 0.312195
0.202261 0.357630 0.342900
0.312172 0.416220 0.323981
0.415298 0.474377 0.310023
0.483713 0.524597 0.321062
0.550716 0.564967 0.336235
0.637476 0.587072 0.345844
0.734075 0.593199 0.351557
0.814947 0.597130 0.359041
0.238746 0.405085 0.358800
0.363998 0.468469 0.342134
0.473725 0.527058 0.326666
0.535603 0.572457 0.345520
0.589496 0.611439 0.373638
0.653430 0.642590 0.398041
0.731211 0.658648 0.415059
0.809878 0.662530 0.426350
0.279570 0.446681 0.369860
0.417928 0.514429 0.358886
0.531211 0.571995 0.345522
0.586381 0.610483 0.372878
0.629945 0.644292 0.413922
0.679432 0.675585 0.454119
0.737830 0.699678 0.488582
0.802007 0.712144 0.512724
0.131427 0.153791 0.328063
0.161189 0.161646 0.303708
0.256544 0.186914 0.268052
0.397947 0.219521 0.242242
0.528103 0.242648 0.234064
0.624516 0.264550 0.233864
0.684948 0.291327 0.233326
0.714196 0.318240 0.230084
0.135995 0.202928 0.352646
0.188314 0.225513 0.338741
0.274639 0.241376 0.322250
0.400146 0.258850 0.309295
0.526414 0.276468 0.304595
0.630878 0.299721 0.302663
0.706205 0.333157 0.298961
0.751587 0.375898 0.293030
0.141382 0.259097 0.376943
0.206074 0.287127 0.363210
0.292185 0.313951 0.359445
0.406726 0.326251 0.356323
0.528939 0.336910 0.354378
0.639539 0.353804 0.352307
0.728045 0.381118 0.348665
0.789144 0.420921 0.343568
0.149971 0.308200 0.400970
0.229569 0.344313 0.385915
0.320381 0.381254 0.384436
0.417956 0.409745 0.386646
0.532605 0.421916 0.385878
0.646809 0.430747 0.383725
0.744430 0.447573 0.381721
0.817610 0.476067 0.379651
0.164325 0.349960 0.425793
0.259280 0.396732 0.411951
0.357904 0.443341 0.407797
0.449609 0.486234 0.409151
0.541835 0.515283 0.410158
0.646981 0.526987 0.409119
0.751291 0.534272 0.408630
0.833151 0.550645 0.410794
0.185369 0.390362 0.448019
0.296835 0.446288 0.437202
0.405469 0.500037 0.430221
0.498790 0.549761 0.428868
0.572032 0.591072 0.435717
0.653202 0.615546 0.441959
0.748978 0.624774 0.444745
0.837826 0.631481 0.448936
0.213275 0.430239 0.464499
0.341820 0.492914 0.458793
0.460571 0.550575 0.451563
0.556023 0.601898 0.449329
0.619113 0.643886 0.465226
0.676256 0.677295 0.484664
0.749766 0.697193 0.496721
0.833016 0.704765 0.504184
0.247427 0.464734 0.474478
0.390966 0.533342 0.476990
0.516948 0.593262 0.473184
0.612144 0.643228 0.473152
0.666935 0.681135 0.498858
0.710150 0.713477 0.533275
0.762136 0.740936 0.560617
0.825506 0.757604 0.578318
0.141628 0.186010 0.412557
0.163450 0.192612 0.395331
0.243101 0.216863 0.365000
0.375830 0.255944 0.332972
0.518365 0.292564 0.313315
0.624677 0.317227 0.306608
0.685086 0.336786 0.304684
0.712559 0.356724 0.300916
0.146125 0.238597 0.440967
0.192599 0.262571 0.429056
0.269527 0.283427 0.414793
0.388263 0.307891 0.397887
0.519775 0.331694 0.386583
0.628654 0.354644 0.381519
0.703279 0.383103 0.377719
0.748221 0.420727 0.371937
0.151333 0.296223 0.466278
0.211202 0.325615 0.455057
0.292606 0.355362 0.451831
0.402308 0.373933 0.447592
0.524883 0.387781 0.444387
0.636409 0.403968 0.441833
0.724344 0.428898 0.437987
0.786280 0.466082 0.432616
0.157029 0.347772 0.488264
0.233627 0.383714 0.477032
0.322597 0.419876 0.478446
0.420964 0.448049 0.483172
0.533766 0.460367 0.486335
0.646010 0.468749 0.485804
0.743600 0.484588 0.482630
0.819591 0.512213 0.478905
0.164689 0.387592 0.508731
0.263232 0.434050 0.498913
0.360407 0.476889 0.501992
0.455772 0.515014 0.509046
0.550436 0.540700 0.515305
0.653740 0.551129 0.516009
0.756524 0.558088 0.513542
0.841998 0.574307 0.512197
0.176508 0.420455 0.528104
0.295990 0.478285 0.523089
0.402937 0.528414 0.527614
0.501814 0.574029 0.532764
0.584950 0.612636 0.539622
0.667340 0.636417 0.543140
0.759955 0.646164 0.542903
0.851608 0.653534 0.543509
0.195057 0.451206 0.543120
0.333179 0.518434 0.545708
0.450790 0.574406 0.553156
0.554642 0.624940 0.556567
0.634802 0.668411 0.563989
0.696977 0.703052 0.574484
0.765747 0.724235 0.582062
0.849412 0.733668 0.585991
0.221985 0.478376 0.550700
0.377019 0.552929 0.562842
0.503254 0.612770 0.575747
0.609961 0.665184 0.580540
0.687021 0.708632 0.590635
0.737888 0.743628 0.611502
0.783974 0.772258 0.632898
0.844852 0.791713 0.645672
0.149569 0.219158 0.478790
0.165699 0.224878 0.468651
0.232111 0.248222 0.447846
0.349934 0.287644 0.420964
0.493406 0.333463 0.396680
0.614387 0.367799 0.381971
0.684576 0.387158 0.375494
0.710699 0.398739 0.370648
0.153866 0.273766 0.508339
0.196319 0.299146 0.500353
0.264823 0.324503 0.491994
0.373928 0.355941 0.479062
0.504746 0.388638 0.465801
0.621049 0.416163 0.456855
0.700217 0.441358 0.451527
0.744038 0.470727 0.446357
0.159155 0.330592 0.533848
0.215548 0.361910 0.527085
0.293572 0.396071 0.526786
0.397503 0.424396 0.525300
0.517999 0.447786 0.522808
0.630572 0.467553 0.520628
0.718460 0.489758 0.517620
0.779814 0.520989 0.513010
0.164204 0.380466 0.554086
0.237355 0.418582 0.548834
0.326351 0.458224 0.552945
0.422818 0.492283 0.560556
0.533516 0.512955 0.567430
0.642797 0.525681 0.571376
0.737347 0.540481 0.570901
0.813151 0.564545 0.567517
0.168693 0.418291 0.569929
0.266851 0.466787 0.566506
0.365861 0.511273 0.574082
0.461263 0.550727 0.587030
0.556759 0.579121 0.599966
0.656388 0.592224 0.608211
0.754101 0.599581 0.609642
0.839544 0.613806 0.607364
0.174178 0.445043 0.583504
0.302055 0.507159 0.584572
0.411417 0.557863 0.595639
0.508409 0.601596 0.610879
0.594667 0.638404 0.625204
0.676896 0.661894 0.635162
0.765144 0.671614 0.637970
0.855235 0.677957 0.636689
0.183864 0.466328 0.594166
0.337897 0.541422 0.603261
0.458492 0.598775 0.618917
0.558273 0.646718 0.635674
0.643311 0.688503 0.648806
0.711260 0.722572 0.660079
0.778594 0.743464 0.666670
0.858551 0.752643 0.668104
0.202054 0.485093 0.598936
0.375534 0.569729 0.618441
0.506183 0.632669 0.640702
0.609399 0.683872 0.660469
0.693899 0.728352 0.673545
0.755570 0.765386 0.687996
0.803201 0.794875 0.702800
0.859032 0.814768 0.712283
0.155674 0.255347 0.528205
0.167869 0.260455 0.523161
0.223701 0.282596 0.511433
0.328146 0.321164 0.493838
0.461677 0.367924 0.473959
0.589948 0.409443 0.456210
0.675370 0.432832 0.442589
0.708206 0.438732 0.432484
0.159402 0.308361 0.554858
0.199360 0.334022 0.551060
0.261082 0.362645 0.548917
0.361031 0.399726 0.543815
0.485231 0.440019 0.535703
0.605603 0.475067 0.526904
0.693570 0.500851 0.518726
0.741260 0.522093 0.511714
0.164477 0.362164 0.578202
0.218765 0.394565 0.576408
0.294974 0.432269 0.579641
0.393065 0.468855 0.583799
0.509175 0.503808 0.585995
0.622354 0.532863 0.586605
0.711962 0.556444 0.584976
0.773322 0.581164 0.581243
0.169093 0.407653 0.596139
0.240063 0.447511 0.596935
0.329983 0.490975 0.604530
0.425287 0.531347 0.615782
0.533658 0.564272 0.626650
0.640696 0.588267 0.635845
0.731334 0.607115 0.640583
0.803586 0.627989 0.640228
0.172517 0.441231 0.608780
0.267512 0.491953 0.612933
0.369510 0.540351 0.624667
0.467647 0.584484 0.640798
0.563356 0.620545 0.658124
0.659913 0.643700 0.674092
0.750456 0.657898 0.683976
0.829835 0.672090 0.686493
0.175065 0.462821 0.617238
0.304638 0.528712 0.626054
0.418294 0.582704 0.641876
0.518440 0.629030 0.661583
0.605203 0.668088 0.682603
0.686143 0.696187 0.701955
0.767712 0.711339 0.714474
0.849700 0.719633 0.718743
0.178612 0.476485 0.622990
0.346246 0.559550 0.639431
0.472226 0.620214 0.660111
0.572298 0.668572 0.682726
0.654666 0.709121 0.705076
0.723384 0.742841 0.724540
0.788114 0.765139 0.737680
0.860200 0.775444 0.743321
0.187903 0.486660 0.625006
0.385801 0.584082 0.651812
0.523652 0.651649 0.678945
0.625059 0.702884 0.704891
0.703963 0.744988 0.728210
0.767696 0.781002 0.747031
0.817913 0.810173 0.761622
0.868537 0.829202 0.771697
0.162133 0.301067 0.568679
0.171568 0.305564 0.566239
0.219710 0.326279 0.560495
0.313368 0.362990 0.550922
0.436926 0.408176 0.538661
0.561642 0.449928 0.524321
0.656167 0.474431 0.506782
0.702335 0.476386 0.486886
0.163869 0.345231 0.587207
0.202763 0.369791 0.586553
0.259960 0.400104 0.589063
0.352757 0.441056 0.591539
0.470002 0.486649 0.591914
0.588013 0.528166 0.588953
0.682135 0.557342 0.581099
0.739118 0.573734 0.569451
0.167880 0.392215 0.605220
0.221435 0.424485 0.607707
0.297828 0.463533 0.613661
0.391527 0.505613 0.623430
0.502559 0.549476 0.633033
0.614336 0.589410 0.639731
0.706162 0.619891 0.641477
0.770110 0.642660 0.637977
0.171867 0.431252 0.619337
0.241907 0.471689 0.625288
0.334019 0.517538 0.636006
0.429862 0.561924 0.650181
0.535270 0.604159 0.666311
0.640897 0.641579 0.680963
0.729778 0.671144 0.691391
0.797951 0.694858 0.695583
0.174624 0.458248 0.628602
0.267992 0.510306 0.638878
0.373437 0.562055 0.654409
0.475121 0.610063 0.673073
0.571392 0.652516 0.693754
0.667342 0.688313 0.714080
0.752827 0.716158 0.731485
0.823126 0.737832 0.742075
0.176080 0.474139 0.633712
0.302391 0.542009 0.649911
0.420631 0.599872 0.670096
0.526459 0.650464 0.692683
0.616910 0.693794 0.716421
0.698916 0.729795 0.739953
0.774403 0.756869 0.761530
0.844601 0.775827 0.776441
0.177039 0.482056 0.636098
0.348212 0.570222 0.660542
0.479909 0.635061 0.685526
0.584644 0.686514 0.710792
0.669410 0.729199 0.736076
0.738485 0.764921 0.760502
0.798906 0.792454 0.782662
0.860718 0.810847 0.798481
0.180253 0.485762 0.635997
0.398429 0.594681 0.671087
0.543822 0.667174 0.701621
0.645679 0.719539 0.729318
0.721888 0.760732 0.755217
0.782311 0.794985 0.779184
0.830717 0.823162 0.799865
0.876138 0.843495 0.814840
