filters/luts/Suburbs 03.cube
# LUT by SparkleStock. Enhanced with VOXCOLOR algorithms.
LUT_3D_SIZE 8
DOMAIN_MIN 0.000000 0.000000 0.000000
DOMAIN_MAX 0.903226 0.903226 0.903226
0.105495 0.085958 0.070330
0.201536 0.101839 0.067116
0.310166 0.122006 0.065375
0.422482 0.146615 0.065186
0.529844 0.175659 0.066438
0.617189 0.209500 0.068518
0.679483 0.244287 0.070913
0.721305 0.274142 0.072961
0.122888 0.116775 0.077892
0.179996 0.158856 0.084485
0.292925 0.181169 0.082390
0.423623 0.198813 0.078517
0.542968 0.222021 0.077465
0.633972 0.250154 0.078520
0.693339 0.278988 0.080256
0.729330 0.303080 0.081798
0.145906 0.155626 0.086660
0.194146 0.207733 0.096320
0.280341 0.244954 0.099984
0.399621 0.267738 0.098044
0.538052 0.279861 0.092379
0.639455 0.298760 0.091373
0.701597 0.319845 0.092277
0.736185 0.338015 0.093538
0.175808 0.202119 0.096790
0.225854 0.255092 0.106499
0.287676 0.303840 0.115819
0.383315 0.336336 0.119379
0.517158 0.347799 0.115074
0.634539 0.354245 0.110604
0.704355 0.365682 0.110036
0.741303 0.377222 0.110851
0.213195 0.255244 0.108110
0.262435 0.305217 0.117654
0.320769 0.352856 0.128987
0.394541 0.393150 0.139565
0.489892 0.420024 0.146230
0.621690 0.415548 0.140132
0.702158 0.416215 0.137708
0.744505 0.420077 0.137571
0.258191 0.312340 0.119264
0.305089 0.356750 0.129540
0.357764 0.399450 0.143057
0.421644 0.438170 0.158977
0.501827 0.469618 0.176053
0.609621 0.482267 0.190738
0.696578 0.475664 0.189339
0.746597 0.470787 0.187226
0.307598 0.368333 0.127425
0.350691 0.406205 0.140507
0.397624 0.443162 0.157675
0.452151 0.478052 0.179192
0.518037 0.509287 0.205230
0.604509 0.531498 0.236796
0.694133 0.536085 0.261792
0.749675 0.533314 0.271486
0.359219 0.420521 0.131711
0.397103 0.451502 0.150153
0.438798 0.483127 0.173014
0.485798 0.514145 0.200971
0.540095 0.543515 0.235077
0.608876 0.569892 0.280128
0.688695 0.586928 0.330606
0.747245 0.593807 0.365941
0.111166 0.101272 0.142550
0.179105 0.119495 0.117674
0.291772 0.142832 0.105364
0.418067 0.169552 0.101552
0.533753 0.198248 0.102804
0.622122 0.228284 0.106933
0.680319 0.256948 0.110401
0.716700 0.280930 0.111742
0.118899 0.141895 0.158309
0.188925 0.174193 0.152078
0.300679 0.200555 0.146888
0.425780 0.225645 0.143614
0.541948 0.252684 0.142604
0.633183 0.281884 0.142875
0.694836 0.311829 0.142852
0.733942 0.339350 0.142326
0.135160 0.182259 0.175480
0.211574 0.225301 0.172086
0.301093 0.266874 0.173788
0.412264 0.298278 0.174326
0.541835 0.316875 0.170713
0.640910 0.339548 0.170023
0.705607 0.364468 0.170536
0.744797 0.388391 0.171623
0.159074 0.226056 0.193246
0.243638 0.276867 0.185509
0.315137 0.330328 0.191968
0.405083 0.370737 0.199560
0.527111 0.390214 0.200243
0.640200 0.401773 0.198762
0.711095 0.417678 0.201049
0.751751 0.434593 0.205242
0.190002 0.275376 0.210823
0.282685 0.331359 0.198035
0.354061 0.384561 0.206396
0.421948 0.431633 0.223244
0.503547 0.466882 0.237625
0.629339 0.468227 0.236895
0.710494 0.473610 0.240579
0.756636 0.482658 0.247693
0.229435 0.328666 0.226954
0.330089 0.387359 0.210705
0.399294 0.436990 0.220989
0.459386 0.480024 0.243974
0.527772 0.516590 0.268864
0.616642 0.535966 0.289711
0.703926 0.533947 0.296252
0.759464 0.533732 0.304412
0.273891 0.380731 0.239482
0.381617 0.440781 0.223167
0.447666 0.485795 0.236828
0.499343 0.523211 0.266029
0.556684 0.557379 0.299981
0.626330 0.582598 0.335858
0.705756 0.589999 0.363181
0.762236 0.590582 0.381193
0.320126 0.428650 0.248250
0.433636 0.489443 0.234812
0.495763 0.529669 0.253663
0.539291 0.561397 0.289982
0.587560 0.592476 0.332844
0.643937 0.619302 0.380624
0.709787 0.636381 0.427485
0.764838 0.643258 0.462365
0.120454 0.124889 0.231644
0.170865 0.140788 0.201175
0.278610 0.169828 0.173583
0.409353 0.201733 0.156377
0.534375 0.229888 0.153094
0.625324 0.256740 0.157094
0.681150 0.280421 0.161705
0.713573 0.299550 0.163699
0.125266 0.171482 0.252281
0.191815 0.199686 0.239023
0.295632 0.228713 0.223313
0.418240 0.258110 0.211802
0.541473 0.287491 0.208135
0.635298 0.316454 0.208335
0.696950 0.345118 0.209176
0.735721 0.372495 0.209519
0.134752 0.218409 0.274025
0.214112 0.254612 0.264525
0.307479 0.293301 0.260402
0.419695 0.326765 0.257395
0.546142 0.351626 0.253257
0.644003 0.377512 0.251937
0.709543 0.404533 0.251599
0.750831 0.431522 0.251908
0.150568 0.263942 0.296679
0.241221 0.307540 0.284874
0.329017 0.355930 0.286747
0.426774 0.397325 0.291956
0.539389 0.424752 0.293521
0.646845 0.442278 0.292088
0.717723 0.462668 0.293352
0.761034 0.484271 0.296488
0.173742 0.307824 0.319541
0.275658 0.360112 0.304821
0.368344 0.412316 0.304976
0.449182 0.461815 0.315947
0.524667 0.502908 0.331513
0.641527 0.511339 0.333292
0.720470 0.522217 0.338667
0.768051 0.536178 0.347424
0.205229 0.355131 0.339405
0.319648 0.413746 0.322649
0.416345 0.467224 0.320649
0.493785 0.514668 0.334388
0.556286 0.554512 0.361206
0.631413 0.579553 0.384873
0.715472 0.582911 0.395124
0.772459 0.587566 0.407531
0.242780 0.401437 0.354364
0.369304 0.464915 0.338953
0.468622 0.518359 0.337266
0.541346 0.562294 0.354462
0.593360 0.597605 0.390371
0.651238 0.625250 0.427606
0.721072 0.636238 0.455923
0.776004 0.640627 0.477834
0.282887 0.443549 0.364698
0.419979 0.511201 0.353695
0.520039 0.563833 0.355128
0.587113 0.603836 0.377261
0.630006 0.634318 0.421692
0.677448 0.661315 0.469549
0.732080 0.679458 0.513621
0.782841 0.687833 0.547696
0.131151 0.153972 0.324771
0.170036 0.166420 0.298010
0.266367 0.197684 0.262272
0.395541 0.235330 0.232522
0.531701 0.269609 0.218452
0.626725 0.293717 0.219233
0.681746 0.313170 0.223632
0.711509 0.328005 0.226148
0.135939 0.204286 0.348982
0.193483 0.231531 0.334002
0.286494 0.261911 0.311385
0.406228 0.294363 0.291249
0.538164 0.327250 0.280367
0.636733 0.355527 0.279160
0.698471 0.382077 0.280777
0.736264 0.407811 0.282495
0.141486 0.257196 0.372831
0.213768 0.290513 0.361872
0.306244 0.326058 0.353485
0.419177 0.359664 0.345702
0.545430 0.389086 0.337961
0.645957 0.417215 0.334960
0.712539 0.445044 0.333918
0.755083 0.473446 0.334064
0.150447 0.305712 0.396716
0.236477 0.344189 0.386396
0.332952 0.386665 0.385835
0.437796 0.426239 0.388014
0.547645 0.458154 0.387932
0.652663 0.481047 0.384570
0.723646 0.504971 0.383446
0.768893 0.530056 0.384345
0.164875 0.346379 0.420575
0.265483 0.393712 0.410817
0.370666 0.442046 0.408275
0.465688 0.489720 0.414712
0.547543 0.532115 0.427787
0.655281 0.548058 0.428454
0.730946 0.564256 0.431229
0.778711 0.582191 0.436789
0.187190 0.385649 0.442439
0.302029 0.441433 0.434526
0.415713 0.495198 0.428567
0.512032 0.544341 0.433872
0.583969 0.586375 0.454099
0.650767 0.615794 0.476249
0.729893 0.624862 0.486067
0.785730 0.634248 0.497717
0.216686 0.424689 0.458016
0.345830 0.487029 0.454330
0.466960 0.544775 0.447564
0.563117 0.594004 0.452866
0.627035 0.632614 0.478223
0.677668 0.661823 0.513259
0.739195 0.676572 0.540504
0.791072 0.684899 0.562389
0.250291 0.460153 0.467807
0.392037 0.528067 0.471051
0.518250 0.588635 0.466790
0.612368 0.637118 0.474326
0.668380 0.671763 0.504758
0.709520 0.698312 0.549572
0.755508 0.717802 0.590531
0.801619 0.728501 0.622794
0.141408 0.186088 0.410981
0.171419 0.196304 0.391722
0.252811 0.223690 0.361204
0.376319 0.265151 0.327404
0.522916 0.313019 0.298699
0.625733 0.337109 0.292417
0.681778 0.353174 0.294176
0.710023 0.363898 0.295867
0.146305 0.239037 0.438504
0.196902 0.266358 0.426195
0.279249 0.297076 0.406688
0.393128 0.332399 0.383887
0.528663 0.370822 0.362849
0.634871 0.399491 0.357384
0.698540 0.424256 0.357784
0.736601 0.448173 0.359563
0.151872 0.293817 0.463086
0.217928 0.328435 0.453589
0.302881 0.364741 0.445942
0.410557 0.399805 0.436135
0.536588 0.431788 0.423277
0.644697 0.461181 0.417709
0.713892 0.488972 0.416212
0.758178 0.517855 0.417082
0.157384 0.344010 0.484758
0.240095 0.383381 0.476456
0.331157 0.424818 0.477625
0.434028 0.463206 0.479931
0.547779 0.495337 0.477873
0.655662 0.521885 0.472351
0.728057 0.547891 0.469316
0.775280 0.575099 0.468913
0.163421 0.385151 0.504272
0.266866 0.431893 0.497774
0.367899 0.476915 0.502645
0.467093 0.520126 0.513168
0.565519 0.559438 0.523265
0.666839 0.582260 0.520854
0.740366 0.602918 0.518232
0.788608 0.623770 0.517702
0.176368 0.415272 0.525313
0.296693 0.473058 0.524060
0.407090 0.524448 0.530086
0.510596 0.571579 0.538220
0.605883 0.614870 0.546371
0.671120 0.647216 0.563361
0.745626 0.661832 0.569098
0.799191 0.675449 0.576020
0.197183 0.445835 0.539792
0.333718 0.511966 0.545092
0.453210 0.568541 0.553409
0.560246 0.618783 0.559786
0.653488 0.663616 0.565047
0.703454 0.694078 0.593690
0.758975 0.712322 0.617104
0.807255 0.724379 0.635487
0.224018 0.474215 0.547707
0.374972 0.547004 0.561448
0.501486 0.607581 0.574465
0.609615 0.659912 0.581744
0.699075 0.705101 0.586068
0.739410 0.731816 0.622989
0.779693 0.752537 0.659230
0.821223 0.765778 0.688147
0.149348 0.219363 0.477341
0.172919 0.228114 0.465839
0.242169 0.253208 0.445152
0.351857 0.291973 0.418987
0.490367 0.339567 0.391673
0.618652 0.380928 0.372950
0.680162 0.396700 0.368610
0.708127 0.403222 0.366819
0.154099 0.273921 0.505742
0.200183 0.300799 0.498244
0.273677 0.332009 0.486585
0.377118 0.368527 0.471014
0.505799 0.409267 0.452981
0.628295 0.445010 0.439267
0.696749 0.468820 0.435967
0.736163 0.489966 0.435506
0.159519 0.327823 0.530165
0.221784 0.363339 0.525102
0.301338 0.401083 0.522306
0.402108 0.439106 0.517503
0.522127 0.475477 0.508714
0.638711 0.506560 0.500856
0.712639 0.534074 0.497348
0.760219 0.562259 0.496667
0.164763 0.376235 0.550276
0.243532 0.417741 0.547276
0.331899 0.461004 0.551276
0.430983 0.502219 0.556280
0.539861 0.538327 0.558134
0.650997 0.565857 0.556347
0.728357 0.593184 0.552471
0.780590 0.622038 0.550966
0.169373 0.415272 0.566149
0.269938 0.465154 0.565775
0.370010 0.512476 0.573716
0.467259 0.556875 0.586448
0.562125 0.596708 0.599850
0.666004 0.622906 0.604545
0.744144 0.646866 0.601159
0.797672 0.671339 0.599115
0.173978 0.439831 0.578554
0.304680 0.502457 0.582066
0.417021 0.555278 0.593575
0.516181 0.601387 0.609582
0.605926 0.642635 0.626988
0.684828 0.676091 0.642358
0.759282 0.695047 0.642007
0.811788 0.711591 0.641111
0.185108 0.460808 0.589886
0.336025 0.534327 0.601234
0.459136 0.593385 0.617349
0.562214 0.642796 0.635016
0.650822 0.685961 0.651951
0.722252 0.721594 0.667794
0.777779 0.742887 0.682925
0.823395 0.757720 0.694096
0.203971 0.481094 0.595514
0.371522 0.563071 0.616196
0.503409 0.627342 0.638297
0.609081 0.679599 0.658737
0.695695 0.724052 0.675742
0.761870 0.760158 0.690709
0.802903 0.782653 0.717518
0.840661 0.797930 0.740813
0.155556 0.256261 0.526212
0.174516 0.264036 0.520028
0.234231 0.287325 0.507857
0.332010 0.323831 0.491014
0.459887 0.369611 0.471204
0.589855 0.413363 0.452238
0.668417 0.433375 0.437835
0.705249 0.439685 0.428735
0.159672 0.308526 0.551101
0.203072 0.334598 0.548052
0.269854 0.366005 0.543865
0.364381 0.403715 0.537289
0.484629 0.446685 0.527820
0.607373 0.486234 0.516923
0.689240 0.511468 0.507894
0.736306 0.530763 0.502687
0.164718 0.359202 0.572788
0.224887 0.394737 0.572470
0.301146 0.433367 0.574870
0.396458 0.473892 0.576932
0.509560 0.514652 0.576588
0.625385 0.550959 0.573696
0.708278 0.578673 0.569813
0.762514 0.605100 0.567232
0.169571 0.403465 0.590322
0.246062 0.446046 0.592872
0.333807 0.490791 0.600547
0.430792 0.534638 0.609997
0.534985 0.575079 0.618430
0.644515 0.609186 0.623037
0.726855 0.637271 0.623990
0.785099 0.665893 0.623358
0.173409 0.437684 0.603210
0.271378 0.489623 0.609231
0.372102 0.539546 0.621152
0.470021 0.586331 0.636850
0.563602 0.628605 0.653676
0.665429 0.661909 0.665185
0.745860 0.688896 0.670572
0.805037 0.715748 0.671668
0.175770 0.458023 0.611370
0.304763 0.523556 0.622089
0.418924 0.579333 0.638283
0.520221 0.627892 0.657926
0.610498 0.670953 0.678944
0.689860 0.706887 0.697880
0.765150 0.732113 0.707003
0.822377 0.754226 0.709798
0.179959 0.470957 0.617543
0.343464 0.552232 0.635934
0.471770 0.615153 0.657010
0.574586 0.665695 0.679392
0.659888 0.708499 0.701675
0.730355 0.744375 0.721283
0.788700 0.770097 0.737393
0.837002 0.789112 0.745701
0.190019 0.483084 0.620365
0.379678 0.576520 0.647783
0.519863 0.645909 0.674854
0.624914 0.699077 0.700632
0.706870 0.742342 0.724164
0.771816 0.778235 0.743230
0.818140 0.804546 0.763875
0.857193 0.822864 0.780121
0.162440 0.303100 0.568514
0.178029 0.309997 0.565416
0.230500 0.331691 0.559022
0.318729 0.366019 0.549527
0.436801 0.409310 0.537245
0.562189 0.451208 0.522535
0.650950 0.473051 0.504425
0.697309 0.475146 0.485024
0.164636 0.346504 0.585285
0.206773 0.371513 0.585360
0.269008 0.402944 0.586717
0.356780 0.441720 0.587750
0.469579 0.486704 0.587127
0.588409 0.529060 0.583258
0.678024 0.556815 0.574568
0.733994 0.573154 0.563518
0.168633 0.390055 0.601119
0.228112 0.425196 0.604671
0.303089 0.464203 0.611116
0.394876 0.506659 0.619191
0.502039 0.551344 0.627444
0.614638 0.593415 0.632646
0.702747 0.624449 0.632767
0.764440 0.649553 0.628971
0.172807 0.427964 0.614359
0.248460 0.471044 0.621690
0.337285 0.516607 0.632498
0.433913 0.562328 0.645924
0.534684 0.606433 0.660714
0.641135 0.647691 0.673419
0.726437 0.680150 0.681361
0.790577 0.709598 0.683769
0.175946 0.456019 0.623907
0.272688 0.509166 0.635444
0.375249 0.561143 0.651097
0.475496 0.609938 0.669392
0.569753 0.654336 0.688902
0.668249 0.694402 0.707634
0.749945 0.727105 0.722045
0.813854 0.757504 0.729629
0.177361 0.470979 0.629255
0.303910 0.538400 0.646246
0.420620 0.597047 0.666480
0.525868 0.648546 0.688767
0.618685 0.694073 0.711982
0.697106 0.732468 0.734637
0.772808 0.764719 0.753290
0.834189 0.793499 0.764713
0.178079 0.477859 0.631875
0.345532 0.563719 0.656770
0.478171 0.630245 0.681931
0.584293 0.683333 0.707179
0.670835 0.727652 0.732230
0.739713 0.764266 0.756118
0.799688 0.794469 0.776220
0.851049 0.819643 0.789388
0.181883 0.483512 0.632885
0.387675 0.586543 0.667679
0.535392 0.660967 0.698629
0.641998 0.715955 0.726744
0.721840 0.759045 0.752775
0.782869 0.793886 0.776495
0.831168 0.822295 0.796245
0.871241 0.844191 0.811690
