filters/luts/Suburbs 01_S.cube
# LUT by SparkleStock. Enhanced with VOXCOLOR algorithms.
LUT_3D_SIZE 32
0.031258 0.046886 0.046886
0.049179 0.050085 0.046390
0.067100 0.053283 0.045894
0.085021 0.056481 0.045398
0.102942 0.059679 0.044901
0.125968 0.062846 0.044058
0.152822 0.065989 0.042956
0.179676 0.069132 0.041853
0.206530 0.072275 0.040750
0.234180 0.075537 0.039568
0.266604 0.079507 0.037914
0.299027 0.083477 0.036260
0.331451 0.087447 0.034606
0.363874 0.091418 0.032951
0.396376 0.096884 0.031139
0.428910 0.102950 0.029265
0.461444 0.109016 0.027390
0.493978 0.115081 0.025515
0.525094 0.121935 0.023703
0.552665 0.130757 0.022049
0.580236 0.139580 0.020395
0.607807 0.148403 0.018740
0.635378 0.157226 0.017086
0.655906 0.167419 0.015999
0.675261 0.177841 0.015006
0.694616 0.188263 0.014014
0.713971 0.198684 0.013021
0.729024 0.207925 0.012383
0.738343 0.215589 0.012218
0.747662 0.223254 0.012052
0.756981 0.230919 0.011887
0.766300 0.238584 0.011722
0.034346 0.053338 0.048816
0.051034 0.058566 0.048607
0.067722 0.063794 0.048397
0.084411 0.069022 0.048187
0.101099 0.074249 0.047977
0.124315 0.078236 0.047036
0.152427 0.081292 0.045547
0.180539 0.084348 0.044058
0.208651 0.087404 0.042570
0.237489 0.090566 0.041023
0.270684 0.094361 0.039133
0.303880 0.098157 0.037242
0.337075 0.101953 0.035351
0.370271 0.105749 0.033460
0.403207 0.110935 0.031545
0.436039 0.116677 0.029620
0.468872 0.122419 0.027696
0.501705 0.128161 0.025771
0.532995 0.134640 0.023952
0.560429 0.142965 0.022398
0.587863 0.151290 0.020843
0.615297 0.159614 0.019288
0.642731 0.167939 0.017734
0.662824 0.177592 0.016789
0.681693 0.187466 0.015946
0.700562 0.197340 0.015103
0.719431 0.207214 0.014259
0.733914 0.215986 0.013749
0.742548 0.223290 0.013684
0.751183 0.230593 0.013618
0.759817 0.237897 0.013552
0.768451 0.245201 0.013486
0.037434 0.059790 0.050746
0.052889 0.067047 0.050823
0.068345 0.074304 0.050899
0.083801 0.081562 0.050976
0.099257 0.088819 0.051052
0.122663 0.093626 0.050014
0.152032 0.096595 0.048139
0.181402 0.099564 0.046264
0.210771 0.102532 0.044389
0.240797 0.105594 0.042478
0.274765 0.109216 0.040351
0.308732 0.112838 0.038224
0.342700 0.116459 0.036096
0.376667 0.120081 0.033969
0.410037 0.124986 0.031951
0.443169 0.130404 0.029976
0.476300 0.135822 0.028002
0.509432 0.141240 0.026027
0.540896 0.147346 0.024201
0.568193 0.155173 0.022746
0.595490 0.162999 0.021291
0.622787 0.170826 0.019836
0.650084 0.178653 0.018381
0.669741 0.187765 0.017579
0.688125 0.197091 0.016885
0.706509 0.206417 0.016191
0.724892 0.215743 0.015497
0.738804 0.224047 0.015116
0.746753 0.230990 0.015149
0.754703 0.237933 0.015183
0.762652 0.244875 0.015217
0.770601 0.251818 0.015251
0.040521 0.066241 0.052676
0.054745 0.075528 0.053039
0.068968 0.084815 0.053402
0.083191 0.094102 0.053765
0.097414 0.103389 0.054128
0.121010 0.109016 0.052991
0.151637 0.111898 0.050731
0.182264 0.114779 0.048470
0.212891 0.117661 0.046209
0.244106 0.120623 0.043933
0.278845 0.124070 0.041569
0.313585 0.127518 0.039205
0.348324 0.130965 0.036841
0.383064 0.134412 0.034477
0.416868 0.139036 0.032356
0.450298 0.144130 0.030332
0.483728 0.149225 0.028308
0.517159 0.154319 0.026283
0.548797 0.160052 0.024450
0.575958 0.167381 0.023095
0.603118 0.174709 0.021739
0.630278 0.182038 0.020384
0.657438 0.189366 0.019029
0.676659 0.197937 0.018368
0.694557 0.206716 0.017824
0.712455 0.215494 0.017280
0.730353 0.224272 0.016735
0.743694 0.232109 0.016482
0.750958 0.238690 0.016615
0.758223 0.245272 0.016748
0.765487 0.251853 0.016882
0.772752 0.258435 0.017015
0.043609 0.072693 0.054606
0.056600 0.084009 0.055256
0.069590 0.095326 0.055905
0.082581 0.106643 0.056554
0.095571 0.117959 0.057203
0.119358 0.124406 0.055969
0.151243 0.127200 0.053322
0.183127 0.129995 0.050675
0.215012 0.132789 0.048029
0.247414 0.135652 0.045388
0.282926 0.138925 0.042788
0.318437 0.142198 0.040187
0.353949 0.145471 0.037587
0.389460 0.148744 0.034986
0.423698 0.153087 0.032762
0.457427 0.157857 0.030688
0.491157 0.162628 0.028614
0.524886 0.167399 0.026540
0.556699 0.172758 0.024699
0.583722 0.179588 0.023443
0.610745 0.186419 0.022188
0.637768 0.193249 0.020932
0.664791 0.200080 0.019676
0.683577 0.208110 0.019158
0.700989 0.216341 0.018763
0.718402 0.224571 0.018368
0.735814 0.232801 0.017973
0.748584 0.240170 0.017848
0.755163 0.246391 0.018081
0.761743 0.252611 0.018314
0.768323 0.258831 0.018547
0.774903 0.265052 0.018780
0.047643 0.080657 0.056347
0.060432 0.093228 0.057233
0.073221 0.105798 0.058119
0.086011 0.118369 0.059005
0.098800 0.130939 0.059891
0.121951 0.138711 0.058834
0.152873 0.142884 0.056321
0.183796 0.147057 0.053807
0.214718 0.151230 0.051294
0.246430 0.155225 0.048728
0.282885 0.158153 0.045848
0.319339 0.161081 0.042968
0.355793 0.164009 0.040088
0.392247 0.166937 0.037209
0.427111 0.170828 0.034828
0.461338 0.175104 0.032647
0.495565 0.179380 0.030467
0.529792 0.183656 0.028286
0.561989 0.188488 0.026386
0.589110 0.194706 0.025187
0.616231 0.200925 0.023988
0.643352 0.207143 0.022789
0.670473 0.213362 0.021590
0.689075 0.220762 0.021208
0.706258 0.228359 0.020963
0.723441 0.235956 0.020717
0.740624 0.243554 0.020472
0.753082 0.250391 0.020486
0.759240 0.256214 0.020847
0.765399 0.262038 0.021209
0.771557 0.267862 0.021570
0.777715 0.273685 0.021931
0.052385 0.089755 0.057946
0.065747 0.102998 0.059031
0.079109 0.116241 0.060116
0.092471 0.129484 0.061202
0.105833 0.142727 0.062287
0.127729 0.152203 0.061614
0.156024 0.158854 0.059624
0.184319 0.165505 0.057633
0.212614 0.172156 0.055643
0.242227 0.178207 0.053481
0.279752 0.180662 0.050290
0.317277 0.183117 0.047099
0.354802 0.185571 0.043908
0.392327 0.188026 0.040716
0.427959 0.191337 0.038140
0.462834 0.194991 0.035810
0.497708 0.198644 0.033480
0.532583 0.202298 0.031150
0.565321 0.206485 0.029150
0.592715 0.212006 0.027976
0.620110 0.217528 0.026802
0.647505 0.223049 0.025628
0.674900 0.228570 0.024454
0.693510 0.235273 0.024204
0.710655 0.242173 0.024108
0.727801 0.249073 0.024012
0.744947 0.255973 0.023916
0.757287 0.262230 0.024080
0.763221 0.267631 0.024590
0.769155 0.273031 0.025101
0.775089 0.278431 0.025611
0.781023 0.283832 0.026122
0.057127 0.098854 0.059545
0.071062 0.112769 0.060830
0.084997 0.126685 0.062114
0.098932 0.140600 0.063398
0.112867 0.154515 0.064683
0.133506 0.165695 0.064394
0.159174 0.174824 0.062927
0.184842 0.183953 0.061459
0.210509 0.193081 0.059992
0.238024 0.201189 0.058234
0.276620 0.203171 0.054731
0.315216 0.205152 0.051229
0.353811 0.207134 0.047727
0.392407 0.209115 0.044224
0.428807 0.211846 0.041452
0.464330 0.214877 0.038973
0.499852 0.217908 0.036493
0.535374 0.220939 0.034013
0.568652 0.224483 0.031914
0.596321 0.229307 0.030765
0.623990 0.234131 0.029616
0.651659 0.238955 0.028467
0.679327 0.243779 0.027318
0.697944 0.249785 0.027199
0.715053 0.255987 0.027253
0.732161 0.262190 0.027306
0.749269 0.268392 0.027359
0.761492 0.274070 0.027673
0.767202 0.279047 0.028333
0.772912 0.284024 0.028992
0.778622 0.289001 0.029652
0.784332 0.293978 0.030312
0.061869 0.107952 0.061145
0.076377 0.122540 0.062628
0.090885 0.137128 0.064112
0.105392 0.151715 0.065595
0.119900 0.166303 0.067079
0.139284 0.179187 0.067175
0.162324 0.190794 0.066230
0.185365 0.202400 0.065286
0.208405 0.214007 0.064341
0.233821 0.224171 0.062987
0.273487 0.225679 0.059173
0.313154 0.227188 0.055359
0.352821 0.228696 0.051546
0.392487 0.230204 0.047732
0.429656 0.232356 0.044764
0.465826 0.234764 0.042135
0.501995 0.237173 0.039506
0.538165 0.239581 0.036877
0.571984 0.242480 0.034678
0.599927 0.246607 0.033554
0.627869 0.250734 0.032430
0.655812 0.254861 0.031306
0.683755 0.258987 0.030181
0.702379 0.264296 0.030195
0.719450 0.269801 0.030397
0.736521 0.275306 0.030600
0.753592 0.280812 0.030803
0.765697 0.285909 0.031266
0.771183 0.290463 0.032075
0.776669 0.295017 0.032884
0.782155 0.299570 0.033694
0.787640 0.304124 0.034503
0.067124 0.117547 0.062838
0.082170 0.132734 0.064510
0.097217 0.147921 0.066182
0.112264 0.163108 0.067854
0.127310 0.178296 0.069526
0.145629 0.192685 0.069999
0.166401 0.206476 0.069572
0.187174 0.220267 0.069145
0.207946 0.234057 0.068718
0.231485 0.246076 0.067783
0.271621 0.247460 0.063797
0.311758 0.248844 0.059811
0.351894 0.250227 0.055824
0.392030 0.251611 0.051838
0.429823 0.253272 0.048704
0.466680 0.255044 0.045912
0.503536 0.256816 0.043119
0.540392 0.258587 0.040326
0.574790 0.260827 0.038012
0.603044 0.264237 0.036895
0.631299 0.267647 0.035778
0.659553 0.271057 0.034661
0.687807 0.274467 0.033544
0.706475 0.279066 0.033673
0.723546 0.283863 0.034009
0.740617 0.288660 0.034345
0.757688 0.293458 0.034681
0.769712 0.297963 0.035281
0.775007 0.302079 0.036233
0.780303 0.306195 0.037185
0.785598 0.310311 0.038136
0.790894 0.314428 0.039088
0.075450 0.130119 0.065099
0.090833 0.145468 0.066896
0.106216 0.160817 0.068692
0.121599 0.176166 0.070489
0.136981 0.191516 0.072285
0.155380 0.206216 0.073089
0.176040 0.220430 0.073148
0.196701 0.234644 0.073206
0.217361 0.248859 0.073265
0.240356 0.261521 0.072840
0.277354 0.264872 0.069514
0.314353 0.268223 0.066187
0.351351 0.271575 0.062861
0.388350 0.274926 0.059535
0.425905 0.276633 0.056412
0.463682 0.277682 0.053370
0.501460 0.278732 0.050328
0.539238 0.279781 0.047287
0.574447 0.281267 0.044766
0.603237 0.283843 0.043550
0.632026 0.286418 0.042333
0.660816 0.288994 0.041116
0.689605 0.291570 0.039900
0.708542 0.295388 0.040046
0.725837 0.299413 0.040420
0.743132 0.303438 0.040793
0.760427 0.307464 0.041167
0.772585 0.311304 0.041831
0.777893 0.314897 0.042882
0.783200 0.318490 0.043933
0.788508 0.322083 0.044984
0.793816 0.325676 0.046036
0.083776 0.142692 0.067360
0.099495 0.158203 0.069281
0.115214 0.173714 0.071202
0.130934 0.189224 0.073123
0.146653 0.204735 0.075044
0.165131 0.219747 0.076179
0.185680 0.234385 0.076723
0.206228 0.249022 0.077267
0.226776 0.263660 0.077811
0.249227 0.276966 0.077897
0.283087 0.282285 0.075231
0.316948 0.287603 0.072564
0.350809 0.292922 0.069898
0.384670 0.298240 0.067232
0.421986 0.299994 0.064119
0.460685 0.300321 0.060828
0.499384 0.300648 0.057538
0.538083 0.300975 0.054247
0.574104 0.301707 0.051520
0.603429 0.303448 0.050204
0.632754 0.305190 0.048888
0.662078 0.306931 0.047572
0.691403 0.308672 0.046255
0.710609 0.311710 0.046419
0.728128 0.314963 0.046830
0.745647 0.318217 0.047241
0.763166 0.321470 0.047652
0.775457 0.324645 0.048380
0.780778 0.327715 0.049531
0.786098 0.330785 0.050682
0.791418 0.333855 0.051833
0.796739 0.336925 0.052984
0.092103 0.155264 0.069621
0.108158 0.170937 0.071666
0.124213 0.186610 0.073712
0.140269 0.202282 0.075757
0.156324 0.217955 0.077803
0.174882 0.233278 0.079268
0.195319 0.248339 0.080298
0.215755 0.263400 0.081328
0.236191 0.278461 0.082358
0.258097 0.292411 0.082954
0.288820 0.299697 0.080948
0.319543 0.306983 0.078941
0.350266 0.314269 0.076935
0.380989 0.321555 0.074928
0.418068 0.323354 0.071827
0.457688 0.322959 0.068287
0.497308 0.322564 0.064747
0.536929 0.322169 0.061207
0.573761 0.322147 0.058274
0.603621 0.323054 0.056859
0.633481 0.323961 0.055443
0.663341 0.324868 0.054027
0.693202 0.325775 0.052611
0.712676 0.328032 0.052793
0.730419 0.330513 0.053241
0.748162 0.332995 0.053689
0.765906 0.335476 0.054137
0.778330 0.337986 0.054930
0.783663 0.340533 0.056180
0.788996 0.343080 0.057431
0.794329 0.345627 0.058681
0.799661 0.348174 0.059931
0.100429 0.167836 0.071882
0.116821 0.183671 0.074052
0.133212 0.199506 0.076222
0.149604 0.215340 0.078392
0.165995 0.231175 0.080562
0.184634 0.246809 0.082358
0.204958 0.262294 0.083874
0.225282 0.277778 0.085389
0.245606 0.293262 0.086905
0.266968 0.307856 0.088011
0.294553 0.317109 0.086665
0.322138 0.326363 0.085318
0.349724 0.335616 0.083972
0.377309 0.344869 0.082625
0.414149 0.346715 0.079534
0.454691 0.345598 0.075745
0.495233 0.344481 0.071956
0.535774 0.343364 0.068168
0.573417 0.342587 0.065028
0.603813 0.342659 0.063513
0.634209 0.342732 0.061997
0.664604 0.342805 0.060482
0.695000 0.342878 0.058966
0.714743 0.344354 0.059166
0.732710 0.346063 0.059652
0.750678 0.347773 0.060137
0.768645 0.349482 0.060623
0.781203 0.351326 0.061479
0.786548 0.353351 0.062829
0.791893 0.355375 0.064179
0.797239 0.357399 0.065529
0.802584 0.359423 0.066879
0.111789 0.182654 0.074576
0.128347 0.198410 0.076879
0.144906 0.214167 0.079183
0.161464 0.229923 0.081486
0.178023 0.245679 0.083790
0.196568 0.261283 0.085885
0.216602 0.276773 0.087824
0.236636 0.292262 0.089763
0.256671 0.307752 0.091701
0.277568 0.322475 0.093289
0.303643 0.332602 0.092772
0.329718 0.342729 0.092254
0.355793 0.352855 0.091736
0.381868 0.362982 0.091219
0.417226 0.365590 0.088797
0.456297 0.365192 0.085613
0.495367 0.364793 0.082429
0.534438 0.364395 0.079245
0.571219 0.363911 0.076483
0.602275 0.363212 0.074779
0.633330 0.362513 0.073075
0.664386 0.361814 0.071371
0.695441 0.361114 0.069667
0.715547 0.361826 0.069788
0.733827 0.362772 0.070213
0.752108 0.363718 0.070638
0.770388 0.364665 0.071064
0.783168 0.365853 0.071893
0.788615 0.367363 0.073263
0.794062 0.368873 0.074633
0.799508 0.370383 0.076002
0.804955 0.371893 0.077372
0.124361 0.198369 0.077443
0.141019 0.213951 0.079883
0.157677 0.229533 0.082324
0.174336 0.245116 0.084764
0.190994 0.260698 0.087205
0.209375 0.276134 0.089586
0.229048 0.291462 0.091924
0.248721 0.306790 0.094261
0.268395 0.322117 0.096598
0.288860 0.336764 0.098656
0.314076 0.347327 0.099035
0.339291 0.357889 0.099414
0.364507 0.368451 0.099793
0.389723 0.379014 0.100171
0.423101 0.382672 0.098681
0.459744 0.383568 0.096444
0.496387 0.384465 0.094206
0.533029 0.385361 0.091968
0.568279 0.385589 0.089819
0.600044 0.384142 0.087891
0.631809 0.382696 0.085963
0.663575 0.381250 0.084034
0.695340 0.379804 0.082106
0.715846 0.379758 0.082110
0.734475 0.379944 0.082435
0.753104 0.380131 0.082761
0.771733 0.380318 0.083086
0.784771 0.380853 0.083854
0.790355 0.381853 0.085211
0.795938 0.382852 0.086568
0.801522 0.383852 0.087926
0.807105 0.384852 0.089283
0.136933 0.214085 0.080310
0.153691 0.229493 0.082888
0.170449 0.244900 0.085465
0.187207 0.260308 0.088043
0.203965 0.275716 0.090620
0.222182 0.290985 0.093288
0.241494 0.306151 0.096024
0.260806 0.321317 0.098760
0.280119 0.336483 0.101495
0.300151 0.351053 0.104022
0.324508 0.362051 0.105298
0.348865 0.373050 0.106573
0.373222 0.384048 0.107849
0.397578 0.395046 0.109124
0.428976 0.399754 0.108566
0.463191 0.401945 0.107275
0.497406 0.404136 0.105983
0.531621 0.406328 0.104692
0.565338 0.407267 0.103154
0.597813 0.405073 0.101002
0.630288 0.402880 0.098850
0.662764 0.400687 0.096697
0.695239 0.398494 0.094545
0.716145 0.397689 0.094431
0.735122 0.397117 0.094657
0.754100 0.396544 0.094883
0.773078 0.395971 0.095109
0.786374 0.395853 0.095814
0.792094 0.396343 0.097159
0.797815 0.396832 0.098504
0.803535 0.397321 0.099849
0.809256 0.397810 0.101193
0.149506 0.229800 0.083178
0.166363 0.245034 0.085892
0.183221 0.260267 0.088607
0.200078 0.275501 0.091321
0.216935 0.290734 0.094035
0.234989 0.305836 0.096990
0.253940 0.320840 0.100124
0.272891 0.335844 0.103258
0.291842 0.350848 0.106392
0.311443 0.365342 0.109389
0.334941 0.376776 0.111561
0.358438 0.388210 0.113733
0.381936 0.399644 0.115905
0.405433 0.411078 0.118077
0.434852 0.416835 0.118451
0.466638 0.420321 0.118106
0.498425 0.423808 0.117760
0.530212 0.427294 0.117415
0.562398 0.428944 0.116490
0.595583 0.426004 0.114113
0.628768 0.423064 0.111737
0.661952 0.420124 0.109361
0.695137 0.417183 0.106984
0.716443 0.415621 0.106753
0.735770 0.414289 0.106879
0.755096 0.412957 0.107005
0.774423 0.411624 0.107132
0.787977 0.410854 0.107775
0.793834 0.410832 0.109107
0.799692 0.410811 0.110439
0.805549 0.410790 0.111772
0.811407 0.410768 0.113104
0.163134 0.246020 0.086092
0.180020 0.261026 0.088962
0.196905 0.276031 0.091831
0.213791 0.291037 0.094700
0.230677 0.306043 0.097569
0.248517 0.320912 0.100817
0.267071 0.335680 0.104350
0.285625 0.350447 0.107883
0.304180 0.365215 0.111415
0.323313 0.379544 0.114873
0.345919 0.391247 0.117881
0.368526 0.402949 0.120889
0.391132 0.414652 0.123897
0.413739 0.426354 0.126905
0.441356 0.432991 0.128272
0.470978 0.437602 0.128984
0.500600 0.442212 0.129695
0.530222 0.446823 0.130407
0.560941 0.449200 0.130318
0.594401 0.445993 0.128230
0.627862 0.442786 0.126142
0.661322 0.439578 0.124053
0.694783 0.436371 0.121965
0.716445 0.434172 0.121656
0.736142 0.432141 0.121644
0.755838 0.430109 0.121631
0.775534 0.428078 0.121619
0.789360 0.426706 0.122161
0.795358 0.426213 0.123441
0.801356 0.425721 0.124722
0.807354 0.425228 0.126003
0.813352 0.424735 0.127283
0.179401 0.263500 0.089125
0.196137 0.278145 0.092194
0.212873 0.292789 0.095262
0.229610 0.307434 0.098330
0.246346 0.322079 0.101399
0.263844 0.336551 0.104960
0.281913 0.350895 0.108891
0.299982 0.365239 0.112822
0.318051 0.379583 0.116753
0.336629 0.393529 0.120650
0.358264 0.405082 0.124343
0.379899 0.416635 0.128036
0.401535 0.428188 0.131729
0.423170 0.439741 0.135421
0.449434 0.446834 0.137936
0.477549 0.452141 0.139980
0.505664 0.457449 0.142024
0.533780 0.462757 0.144068
0.563191 0.465899 0.145379
0.595842 0.463626 0.144860
0.628493 0.461352 0.144340
0.661144 0.459079 0.143821
0.693796 0.456806 0.143302
0.715705 0.454270 0.143014
0.735825 0.451691 0.142765
0.755945 0.449112 0.142516
0.776065 0.446533 0.142267
0.790196 0.444688 0.142609
0.796344 0.443821 0.143741
0.802491 0.442955 0.144872
0.808638 0.442089 0.146003
0.814786 0.441223 0.147135
0.195667 0.280980 0.092158
0.212254 0.295264 0.095426
0.228842 0.309547 0.098693
0.245429 0.323831 0.101961
0.262016 0.338114 0.105228
0.279172 0.352190 0.109103
0.296755 0.366111 0.113432
0.314338 0.380032 0.117762
0.331921 0.393952 0.122091
0.349945 0.407514 0.126428
0.370609 0.418917 0.130805
0.391273 0.430321 0.135183
0.411937 0.441725 0.139561
0.432601 0.453128 0.143938
0.457511 0.460676 0.147600
0.484120 0.466681 0.150976
0.510728 0.472686 0.154353
0.537337 0.478691 0.157729
0.565441 0.482598 0.160440
0.597283 0.481259 0.161490
0.629125 0.479919 0.162539
0.660966 0.478580 0.163588
0.692808 0.477240 0.164638
0.714965 0.474369 0.164372
0.735509 0.471242 0.163886
0.756052 0.468115 0.163400
0.776595 0.464988 0.162915
0.791032 0.462669 0.163058
0.797329 0.461429 0.164040
0.803626 0.460190 0.165022
0.809923 0.458950 0.166004
0.816220 0.457710 0.166986
0.211934 0.298460 0.095191
0.228372 0.312382 0.098658
0.244810 0.326305 0.102124
0.261247 0.340227 0.105591
0.277685 0.354150 0.109058
0.294500 0.367829 0.113246
0.311597 0.381327 0.117974
0.328695 0.394824 0.122702
0.345792 0.408321 0.127430
0.363261 0.421498 0.132205
0.382954 0.432753 0.137268
0.402646 0.444007 0.142330
0.422339 0.455261 0.147393
0.442032 0.466515 0.152455
0.465588 0.474518 0.157264
0.490691 0.481221 0.161973
0.515793 0.487923 0.166681
0.540895 0.494626 0.171390
0.567691 0.499297 0.175501
0.598724 0.498892 0.178119
0.629756 0.498486 0.180738
0.660789 0.498081 0.183356
0.691821 0.497675 0.185974
0.714225 0.494467 0.185729
0.735192 0.490792 0.185007
0.756158 0.487117 0.184285
0.777125 0.483442 0.183563
0.791868 0.480651 0.183507
0.798314 0.479038 0.184339
0.804761 0.477424 0.185172
0.811207 0.475811 0.186004
0.817653 0.474197 0.186837
0.228201 0.315940 0.098224
0.244489 0.329501 0.101890
0.260778 0.343063 0.105556
0.277066 0.356624 0.109222
0.293354 0.370185 0.112888
0.309827 0.383468 0.117388
0.326439 0.396542 0.122515
0.343051 0.409616 0.127641
0.359663 0.422690 0.132768
0.376577 0.435483 0.137983
0.395298 0.446588 0.143730
0.414020 0.457693 0.149477
0.432741 0.468798 0.155224
0.451463 0.479903 0.160972
0.473666 0.488361 0.166929
0.497261 0.495761 0.172969
0.520857 0.503160 0.179010
0.544452 0.510560 0.185051
0.569941 0.515996 0.190562
0.600164 0.516525 0.194749
0.630388 0.517053 0.198936
0.660611 0.517581 0.203124
0.690834 0.518110 0.207311
0.713486 0.514565 0.207087
0.734875 0.510343 0.206128
0.756265 0.506120 0.205170
0.777655 0.501897 0.204211
0.792704 0.498633 0.203956
0.799300 0.496646 0.204639
0.805896 0.494659 0.205322
0.812491 0.492672 0.206005
0.819087 0.490685 0.206688
0.246879 0.333184 0.100878
0.262729 0.346309 0.104893
0.278580 0.359435 0.108908
0.294431 0.372560 0.112922
0.310281 0.385686 0.116937
0.326259 0.398528 0.121833
0.342332 0.411157 0.127390
0.358405 0.423787 0.132947
0.374478 0.436416 0.138504
0.390800 0.448780 0.144169
0.408614 0.459554 0.150484
0.426429 0.470328 0.156798
0.444243 0.481102 0.163113
0.462057 0.491876 0.169427
0.483024 0.500349 0.176224
0.505252 0.507902 0.183212
0.527479 0.515455 0.190201
0.549707 0.523007 0.197190
0.573725 0.528853 0.203854
0.602221 0.530433 0.209706
0.630717 0.532012 0.215558
0.659213 0.533592 0.221411
0.687709 0.535172 0.227263
0.710843 0.532479 0.229087
0.733083 0.529074 0.230239
0.755323 0.525670 0.231392
0.777563 0.522265 0.232545
0.793171 0.519386 0.233405
0.799938 0.517207 0.233874
0.806704 0.515028 0.234344
0.813471 0.512849 0.234813
0.820237 0.510670 0.235283
0.265958 0.350388 0.103470
0.281323 0.363065 0.107858
0.296688 0.375743 0.112246
0.312053 0.388420 0.116635
0.327418 0.401097 0.121023
0.342874 0.413491 0.126328
0.358400 0.425672 0.132321
0.373925 0.437853 0.138313
0.389450 0.450034 0.144306
0.405174 0.461963 0.150423
0.422092 0.472376 0.157286
0.439010 0.482788 0.164148
0.455928 0.493201 0.171011
0.472846 0.503614 0.177873
0.492596 0.512029 0.185457
0.513478 0.519644 0.193330
0.534361 0.527259 0.201203
0.555244 0.534873 0.209076
0.577765 0.541070 0.216852
0.604381 0.543720 0.224385
0.630996 0.546371 0.231918
0.657612 0.549021 0.239451
0.684228 0.551671 0.246984
0.707883 0.550028 0.251193
0.731044 0.547670 0.254849
0.754206 0.545311 0.258504
0.777367 0.542952 0.262160
0.793577 0.540601 0.264353
0.800518 0.538261 0.264599
0.807458 0.535920 0.264844
0.814399 0.533579 0.265090
0.821340 0.531238 0.265335
0.285037 0.367592 0.106062
0.299916 0.379821 0.110823
0.314796 0.392050 0.115585
0.329675 0.404279 0.120347
0.344555 0.416509 0.125109
0.359490 0.428454 0.130823
0.374467 0.440187 0.137251
0.389445 0.451920 0.143680
0.404422 0.463652 0.150108
0.419548 0.475145 0.156677
0.435570 0.485197 0.164088
0.451591 0.495249 0.171498
0.467612 0.505301 0.178908
0.483634 0.515352 0.186319
0.502167 0.523708 0.194691
0.521705 0.531385 0.203448
0.541243 0.539063 0.212205
0.560781 0.546740 0.220962
0.581804 0.553287 0.229849
0.606540 0.557008 0.239063
0.631276 0.560729 0.248277
0.656011 0.564450 0.257491
0.680747 0.568171 0.266705
0.704923 0.567578 0.273300
0.729006 0.566265 0.279458
0.753089 0.564952 0.285616
0.777171 0.563640 0.291774
0.793982 0.561817 0.295302
0.801098 0.559314 0.295324
0.808213 0.556811 0.295345
0.815328 0.554309 0.295366
0.822443 0.551806 0.295388
0.304116 0.384797 0.108653
0.318510 0.396577 0.113789
0.332904 0.408358 0.118924
0.347297 0.420139 0.124059
0.361691 0.431920 0.129195
0.376105 0.443417 0.135318
0.390535 0.454702 0.142182
0.404964 0.465986 0.149047
0.419394 0.477271 0.155911
0.433922 0.488328 0.162931
0.449047 0.498018 0.170890
0.464172 0.507709 0.178848
0.479297 0.517400 0.186806
0.494422 0.527091 0.194764
0.511739 0.535388 0.203924
0.529932 0.543127 0.213565
0.548125 0.550866 0.223206
0.566319 0.558606 0.232847
0.585844 0.565503 0.242847
0.608699 0.570295 0.253742
0.631555 0.575087 0.264637
0.654410 0.579879 0.275532
0.677266 0.584671 0.286427
0.701963 0.585127 0.295407
0.726967 0.584860 0.304067
0.751972 0.584594 0.312728
0.776976 0.584327 0.321389
0.794388 0.583032 0.326251
0.801677 0.580368 0.326048
0.808967 0.577703 0.325846
0.816256 0.575038 0.325643
0.823546 0.572374 0.325440
0.323880 0.400701 0.110820
0.337591 0.412012 0.116451
0.351302 0.423324 0.122083
0.365013 0.434635 0.127714
0.378724 0.445946 0.133346
0.392520 0.457013 0.139959
0.406380 0.467898 0.147307
0.420240 0.478782 0.154655
0.434100 0.489666 0.162003
0.448028 0.500332 0.169511
0.462357 0.509689 0.177980
0.476687 0.519045 0.186449
0.491017 0.528401 0.194917
0.505347 0.537758 0.203386
0.521590 0.545943 0.213217
0.538599 0.553659 0.223592
0.555607 0.561375 0.233968
0.572616 0.569092 0.244344
0.590825 0.576187 0.255261
0.612035 0.581729 0.267533
0.633245 0.587272 0.279804
0.654455 0.592815 0.292076
