filters/luts/Suburbs 05_S.cube
# LUT by SparkleStock. Enhanced with VOXCOLOR algorithms.
LUT_3D_SIZE 5
DOMAIN_MIN 0.000000 0.000000 0.000000
DOMAIN_MAX 0.903226 0.903226 0.903226
0.039072 0.035165 0.027350
0.219008 0.078656 0.046319
0.400646 0.127606 0.068108
0.541983 0.188129 0.085572
0.627910 0.248399 0.098279
0.099334 0.103935 0.044051
0.242115 0.190314 0.055559
0.438401 0.225464 0.067396
0.593759 0.257532 0.084192
0.662466 0.293893 0.105446
0.205617 0.196991 0.063335
0.326581 0.290126 0.081041
0.450794 0.354216 0.094350
0.613069 0.353841 0.109020
0.687635 0.357731 0.131352
0.337059 0.303005 0.085541
0.425461 0.372705 0.111367
0.509734 0.433444 0.149673
0.620930 0.455953 0.193236
0.703450 0.441410 0.212754
0.453283 0.388601 0.103612
0.507495 0.440001 0.144603
0.559970 0.489387 0.205231
0.631379 0.533576 0.292977
0.715882 0.556095 0.376614
0.062074 0.077601 0.135626
0.201737 0.117500 0.129430
0.417154 0.164275 0.155716
0.564380 0.216965 0.178944
0.629885 0.274108 0.184618
0.091710 0.163703 0.182864
0.253287 0.227685 0.202699
0.450425 0.265106 0.225402
0.622239 0.299595 0.238676
0.717471 0.353777 0.243065
0.154689 0.253952 0.234158
0.335469 0.349567 0.239360
0.469737 0.425179 0.256912
0.648286 0.438804 0.270673
0.764365 0.460161 0.286723
0.255846 0.350901 0.279746
0.449994 0.448472 0.273181
0.546987 0.528207 0.307257
0.652030 0.574411 0.342406
0.776705 0.578263 0.362163
0.362538 0.433294 0.313355
0.549379 0.524626 0.311893
0.620956 0.588665 0.369064
0.682560 0.645553 0.445378
0.767597 0.674553 0.498833
0.098208 0.141486 0.280531
0.197895 0.175975 0.264379
0.425539 0.254599 0.273533
0.581963 0.295854 0.295485
0.637808 0.338160 0.300117
0.123889 0.232857 0.337937
0.263529 0.292768 0.353975
0.451715 0.332452 0.380628
0.629143 0.364602 0.395729
0.732049 0.420770 0.394709
0.147586 0.320425 0.390452
0.328277 0.409057 0.418616
0.487104 0.467118 0.443777
0.664689 0.484179 0.454151
0.806281 0.512094 0.456708
0.199207 0.390755 0.441147
0.417232 0.506936 0.474269
0.573131 0.587804 0.479821
0.678341 0.642041 0.499568
0.826510 0.654843 0.507501
0.278872 0.456520 0.478453
0.512367 0.581247 0.520801
0.664281 0.661602 0.523799
0.725810 0.722173 0.576185
0.812667 0.762597 0.607041
0.131411 0.207972 0.402269
0.199947 0.236712 0.396504
0.395518 0.319485 0.400217
0.590828 0.395511 0.413118
0.649051 0.418906 0.414607
0.155237 0.297785 0.460448
0.278614 0.364169 0.478916
0.450658 0.429290 0.505220
0.624785 0.476771 0.525200
0.726580 0.517715 0.525078
0.173658 0.373887 0.502056
0.344594 0.468639 0.539120
0.500812 0.542085 0.580057
0.659094 0.570001 0.609310
0.797284 0.592971 0.612741
0.186940 0.417648 0.527971
0.424932 0.551996 0.587373
0.575522 0.634887 0.630960
0.691636 0.682508 0.657411
0.836416 0.693053 0.661602
0.225584 0.452309 0.548457
0.501116 0.613610 0.631978
0.654229 0.704578 0.677135
0.753389 0.765592 0.700564
0.835694 0.806521 0.718393
0.157170 0.281098 0.484478
0.208757 0.305889 0.488886
0.373801 0.381294 0.503879
0.568734 0.465673 0.516116
0.655064 0.485417 0.502311
0.173848 0.352352 0.524701
0.291833 0.421234 0.551381
0.449692 0.503089 0.588990
0.621428 0.580431 0.619257
0.725039 0.619642 0.620923
0.187840 0.409869 0.554306
0.355329 0.509732 0.602306
0.516456 0.600617 0.650636
0.667876 0.666883 0.692755
0.779373 0.706317 0.712843
0.193791 0.435750 0.566032
0.430071 0.577285 0.640539
0.593689 0.674075 0.696452
0.711780 0.738612 0.740295
0.819088 0.772023 0.771005
0.199624 0.443701 0.568944
0.522813 0.638116 0.676567
0.677347 0.733459 0.733337
0.770223 0.791357 0.772011
0.843677 0.828052 0.799013
