filters/luts/Suburbs 05.cube
# Created by: Adobe Photoshop Export Color Lookup Plugin
# LUT by SparkleStock. Enhanced with VOXCOLOR algorithms.
LUT_3D_SIZE 5
DOMAIN_MIN 0.000000 0.000000 0.000000
DOMAIN_MAX 0.903226 0.903226 0.903226
0.039072 0.035165 0.027350
0.217787 0.079893 0.046690
0.396211 0.131474 0.069140
0.539037 0.191256 0.087077
0.624979 0.247643 0.098468
0.101958 0.104864 0.044397
0.245256 0.183498 0.066695
0.431777 0.220530 0.090369
0.580385 0.258120 0.107213
0.649877 0.294670 0.114657
0.209280 0.196558 0.064185
0.329400 0.280233 0.089478
0.457071 0.331164 0.119886
0.604630 0.339380 0.139166
0.673887 0.354167 0.146057
0.340644 0.298168 0.086904
0.427750 0.365416 0.116175
0.512435 0.420829 0.162036
0.616361 0.443597 0.213129
0.694463 0.435215 0.223935
0.455197 0.383922 0.104297
0.508229 0.435562 0.147025
0.561513 0.484941 0.210111
0.631215 0.528971 0.297332
0.710739 0.551924 0.378503
0.062476 0.078270 0.136532
0.200859 0.127042 0.125476
0.409079 0.189950 0.146013
0.555784 0.242474 0.172168
0.624185 0.282113 0.183058
0.093205 0.163837 0.183574
0.268452 0.234669 0.200317
0.450090 0.293616 0.225647
0.596564 0.340443 0.244862
0.675474 0.383116 0.249344
0.158447 0.252858 0.232400
0.351911 0.342969 0.240847
0.487329 0.413555 0.274943
0.627917 0.439420 0.302411
0.705378 0.465796 0.318410
0.259363 0.346368 0.276979
0.457596 0.440761 0.276148
0.558319 0.510520 0.321791
0.640745 0.552268 0.379830
0.726351 0.553678 0.410608
0.365166 0.428189 0.309137
0.549305 0.519753 0.313445
0.622348 0.579904 0.374235
0.679015 0.628407 0.460255
0.744887 0.647815 0.528333
0.097972 0.141652 0.278735
0.201754 0.182193 0.262267
0.418951 0.268627 0.263697
0.576625 0.320934 0.283187
0.633006 0.346724 0.296055
0.123452 0.231298 0.334624
0.273187 0.302720 0.346559
0.458927 0.371839 0.360915
0.614033 0.423696 0.377264
0.691119 0.465229 0.384551
0.149681 0.315237 0.385038
0.341397 0.408123 0.411764
0.504899 0.480608 0.439089
0.647523 0.522206 0.456587
0.728388 0.555486 0.463224
0.202220 0.384563 0.433756
0.425611 0.500284 0.467462
0.582586 0.578937 0.488027
0.670755 0.629904 0.528781
0.754703 0.643780 0.554346
0.282890 0.450393 0.469852
0.514754 0.575041 0.511756
0.658889 0.652568 0.529727
0.723014 0.701658 0.591428
0.778733 0.725673 0.649141
0.131159 0.208114 0.401426
0.205004 0.239975 0.396092
0.396408 0.324110 0.397595
0.593209 0.407813 0.405393
0.645774 0.422124 0.410759
0.155035 0.295668 0.457363
0.283991 0.368222 0.474810
0.454142 0.445511 0.493766
0.625456 0.511167 0.507077
0.705436 0.548861 0.511418
0.173869 0.368850 0.497219
0.348567 0.467761 0.534599
0.508253 0.550326 0.571471
0.659532 0.605706 0.593251
0.748785 0.643704 0.595472
0.185166 0.412334 0.522748
0.427033 0.548019 0.582979
0.580993 0.632573 0.628727
0.697341 0.689513 0.657036
0.780229 0.713671 0.662239
0.227650 0.448788 0.546030
0.499274 0.608531 0.629273
0.653149 0.699331 0.675945
0.760387 0.759030 0.698647
0.811062 0.786708 0.739224
0.157194 0.282492 0.484194
0.215026 0.309929 0.488828
0.378063 0.384191 0.502877
0.567193 0.465627 0.513961
0.650921 0.483857 0.499987
0.174003 0.351113 0.520578
0.295690 0.422617 0.548528
0.451488 0.505276 0.583998
0.619640 0.584609 0.612250
0.719307 0.625663 0.613313
0.187952 0.405854 0.547625
0.356983 0.507524 0.596427
0.516295 0.599051 0.643922
0.665801 0.673051 0.682806
0.767941 0.721438 0.698599
0.194575 0.432221 0.560719
0.429684 0.573866 0.635271
0.592213 0.671259 0.690775
0.709591 0.739901 0.733313
0.804747 0.785870 0.758033
0.201849 0.441754 0.566137
0.517332 0.632160 0.672016
0.673649 0.728879 0.729232
0.770726 0.789699 0.768369
0.835690 0.826785 0.794649
