filters/luts/Suburbs 02_S.cube
# LUT by SparkleStock. Enhanced with VOXCOLOR algorithms.
LUT_3D_SIZE 32
0.089866 0.093773 0.082051
0.105581 0.096971 0.081776
0.121297 0.100169 0.081500
0.137012 0.103368 0.081224
0.152728 0.106566 0.080948
0.172130 0.109764 0.081240
0.194297 0.112962 0.081957
0.216464 0.116161 0.082674
0.238631 0.119359 0.083390
0.261365 0.122628 0.084162
0.287502 0.126322 0.085265
0.313640 0.130017 0.086368
0.339777 0.133711 0.087471
0.365914 0.137406 0.088574
0.391461 0.141731 0.089834
0.416771 0.146307 0.091158
0.442081 0.150884 0.092481
0.467391 0.155461 0.093804
0.491331 0.160321 0.095081
0.511844 0.165891 0.096239
0.532357 0.171460 0.097397
0.552869 0.177029 0.098554
0.573382 0.182599 0.099712
0.587940 0.188357 0.100587
0.601505 0.194147 0.101414
0.615070 0.199937 0.102241
0.628634 0.205727 0.103068
0.639127 0.210761 0.103730
0.645524 0.214786 0.104171
0.651920 0.218811 0.104612
0.658317 0.222837 0.105053
0.664713 0.226862 0.105495
0.093395 0.099618 0.082934
0.107952 0.104261 0.082645
0.122510 0.108903 0.082357
0.137067 0.113546 0.082069
0.151625 0.118188 0.081781
0.171093 0.121863 0.081861
0.194243 0.124812 0.082216
0.217394 0.127762 0.082572
0.240545 0.130711 0.082928
0.264227 0.133727 0.083357
0.291099 0.137148 0.084223
0.317971 0.140569 0.085089
0.344843 0.143989 0.085955
0.371715 0.147410 0.086822
0.397747 0.151416 0.087952
0.423443 0.155657 0.089188
0.449139 0.159897 0.090425
0.474836 0.164138 0.091661
0.499033 0.168648 0.092914
0.519484 0.173831 0.094209
0.539934 0.179015 0.095504
0.560385 0.184198 0.096799
0.580835 0.189381 0.098094
0.594914 0.194764 0.099244
0.607931 0.200181 0.100370
0.620948 0.205597 0.101496
0.633965 0.211013 0.102622
0.643756 0.215722 0.103598
0.649243 0.219485 0.104376
0.654731 0.223249 0.105153
0.660218 0.227013 0.105930
0.665706 0.230777 0.106708
0.096924 0.105463 0.083816
0.110323 0.111550 0.083515
0.123723 0.117637 0.083215
0.137122 0.123724 0.082914
0.150522 0.129811 0.082613
0.170056 0.133963 0.082481
0.194190 0.136663 0.082476
0.218324 0.139363 0.082471
0.242459 0.142063 0.082465
0.267089 0.144827 0.082551
0.294696 0.147974 0.083181
0.322302 0.151120 0.083810
0.349909 0.154267 0.084440
0.377516 0.157414 0.085070
0.404033 0.161102 0.086070
0.430115 0.165006 0.087219
0.456198 0.168910 0.088368
0.482280 0.172815 0.089518
0.506735 0.176974 0.090747
0.527123 0.181772 0.092179
0.547512 0.186569 0.093611
0.567900 0.191366 0.095043
0.588288 0.196164 0.096475
0.601889 0.201171 0.097901
0.614358 0.206214 0.099326
0.626827 0.211257 0.100751
0.639296 0.216300 0.102175
0.648384 0.220683 0.103467
0.652962 0.224185 0.104580
0.657541 0.227687 0.105694
0.662120 0.231190 0.106807
0.666698 0.234692 0.107921
0.100453 0.111308 0.084698
0.112694 0.118839 0.084385
0.124936 0.126371 0.084072
0.137178 0.133902 0.083759
0.149419 0.141433 0.083446
0.169019 0.146062 0.083102
0.194137 0.148513 0.082736
0.219255 0.150964 0.082369
0.244373 0.153415 0.082003
0.269951 0.155927 0.081745
0.298293 0.158799 0.082138
0.326634 0.161672 0.082531
0.354975 0.164545 0.082924
0.383316 0.167417 0.083318
0.410319 0.170787 0.084188
0.436788 0.174355 0.085250
0.463256 0.177923 0.086312
0.489724 0.181492 0.087374
0.514437 0.185301 0.088581
0.534763 0.189712 0.090150
0.555089 0.194123 0.091719
0.575415 0.198535 0.093288
0.595741 0.202946 0.094856
0.608863 0.207579 0.096558
0.620785 0.212248 0.098282
0.632706 0.216917 0.100005
0.644627 0.221586 0.101729
0.653012 0.225644 0.103335
0.656682 0.228884 0.104785
0.660352 0.232125 0.106234
0.664021 0.235366 0.107684
0.667691 0.238607 0.109134
0.103982 0.117153 0.085580
0.115066 0.126129 0.085255
0.126149 0.135104 0.084929
0.137233 0.144080 0.084604
0.148316 0.153056 0.084278
0.167982 0.158161 0.083723
0.194083 0.160363 0.082996
0.220185 0.162565 0.082268
0.246287 0.164767 0.081541
0.272813 0.167026 0.080939
0.301889 0.169625 0.081096
0.330965 0.172224 0.081252
0.360041 0.174822 0.081409
0.389117 0.177421 0.081565
0.416606 0.180472 0.082306
0.443460 0.183704 0.083281
0.470314 0.186936 0.084256
0.497168 0.190168 0.085231
0.522139 0.193627 0.086414
0.542403 0.197653 0.088120
0.562667 0.201678 0.089826
0.582931 0.205703 0.091532
0.603194 0.209729 0.093238
0.615838 0.213986 0.095215
0.627211 0.218281 0.097237
0.638585 0.222577 0.099260
0.649958 0.226873 0.101282
0.657641 0.230605 0.103203
0.660401 0.233584 0.104989
0.663162 0.236563 0.106775
0.665923 0.239543 0.108561
0.668683 0.242522 0.110347
0.108330 0.123628 0.086148
0.119160 0.133415 0.085909
0.129989 0.143202 0.085671
0.140818 0.152989 0.085432
0.151647 0.162776 0.085194
0.170729 0.168867 0.084604
0.196000 0.172186 0.083750
0.221271 0.175505 0.082896
0.246542 0.178824 0.082043
0.272456 0.181986 0.081303
0.302231 0.184204 0.081252
0.332006 0.186422 0.081200
0.361781 0.188640 0.081149
0.391556 0.190859 0.081097
0.419581 0.193474 0.081716
0.446907 0.196249 0.082604
0.474232 0.199024 0.083492
0.501558 0.201799 0.084379
0.526901 0.204784 0.085523
0.547287 0.208296 0.087309
0.567674 0.211807 0.089095
0.588060 0.215318 0.090881
0.608447 0.218830 0.092667
0.620876 0.222589 0.094851
0.631979 0.226391 0.097101
0.643082 0.230192 0.099351
0.654186 0.233993 0.101601
0.661452 0.237284 0.103766
0.663602 0.239896 0.105817
0.665753 0.242507 0.107868
0.667903 0.245118 0.109919
0.670054 0.247729 0.111970
0.113293 0.130576 0.086478
0.124546 0.140699 0.086402
0.135798 0.150822 0.086325
0.147051 0.160945 0.086249
0.158303 0.171068 0.086172
0.176314 0.178527 0.085680
0.199394 0.183988 0.084876
0.222473 0.189449 0.084072
0.245553 0.194910 0.083268
0.269685 0.199841 0.082545
0.300132 0.201599 0.082307
0.330580 0.203356 0.082068
0.361027 0.205114 0.081830
0.391474 0.206871 0.081592
0.420074 0.208964 0.082095
0.447935 0.211191 0.082896
0.475796 0.213418 0.083696
0.503657 0.215645 0.084497
0.529457 0.218065 0.085589
0.550105 0.220966 0.087413
0.570753 0.223867 0.089236
0.591401 0.226768 0.091059
0.612049 0.229669 0.092882
0.624462 0.232840 0.095221
0.635503 0.236057 0.097645
0.646544 0.239273 0.100070
0.657585 0.242489 0.102494
0.664650 0.245253 0.104849
0.666415 0.247416 0.107112
0.668179 0.249579 0.109375
0.669944 0.251742 0.111637
0.671708 0.253905 0.113900
0.118256 0.137524 0.086809
0.129932 0.147983 0.086895
0.141608 0.158443 0.086980
0.153284 0.168902 0.087065
0.164959 0.179361 0.087151
0.181899 0.188188 0.086756
0.202788 0.195790 0.086002
0.223676 0.203393 0.085248
0.244564 0.210995 0.084494
0.266914 0.217697 0.083787
0.298033 0.218993 0.083361
0.329153 0.220290 0.082936
0.360273 0.221587 0.082511
0.391392 0.222884 0.082086
0.420567 0.224454 0.082474
0.448963 0.226133 0.083187
0.477359 0.227812 0.083901
0.505756 0.229491 0.084614
0.532013 0.231345 0.085655
0.552922 0.233636 0.087516
0.573832 0.235927 0.089376
0.594741 0.238218 0.091237
0.615651 0.240509 0.093097
0.628048 0.243092 0.095591
0.639027 0.245722 0.098190
0.650005 0.248353 0.100788
0.660984 0.250984 0.103387
0.667848 0.253222 0.105933
0.669227 0.254937 0.108407
0.670605 0.256652 0.110881
0.671984 0.258366 0.113355
0.673362 0.260081 0.115830
0.123219 0.144472 0.087140
0.135318 0.155267 0.087387
0.147417 0.166063 0.087635
0.159516 0.176858 0.087882
0.171616 0.187654 0.088129
0.187485 0.197848 0.087833
0.206181 0.207592 0.087128
0.224878 0.217336 0.086424
0.243575 0.227081 0.085719
0.264142 0.235552 0.085028
0.295934 0.236388 0.084416
0.327726 0.237224 0.083804
0.359518 0.238060 0.083192
0.391310 0.238896 0.082581
0.421059 0.239943 0.082853
0.449991 0.241074 0.083479
0.478923 0.242206 0.084105
0.507855 0.243337 0.084731
0.534569 0.244625 0.085721
0.555740 0.246306 0.087619
0.576911 0.247987 0.089517
0.598082 0.249668 0.091415
0.619253 0.251349 0.093313
0.631634 0.253343 0.095961
0.642551 0.255388 0.098734
0.653467 0.257434 0.101507
0.664383 0.259479 0.104280
0.671047 0.261191 0.107016
0.672039 0.262458 0.109702
0.673032 0.263724 0.112388
0.674024 0.264991 0.115074
0.675017 0.266257 0.117760
0.128552 0.151672 0.087534
0.141046 0.162759 0.087938
0.153540 0.173846 0.088342
0.166034 0.184933 0.088745
0.178528 0.196020 0.089149
0.193483 0.207405 0.088971
0.210284 0.219014 0.088358
0.227084 0.230622 0.087744
0.243885 0.242230 0.087130
0.262855 0.252281 0.086499
0.294844 0.252989 0.085761
0.326834 0.253697 0.085023
0.358823 0.254405 0.084284
0.390813 0.255113 0.083546
0.421001 0.255726 0.083719
0.450468 0.256300 0.084256
0.479935 0.256875 0.084793
0.509402 0.257449 0.085331
0.536581 0.258163 0.086263
0.558038 0.259223 0.088182
0.579496 0.260283 0.090101
0.600953 0.261343 0.092021
0.622410 0.262403 0.093940
0.634816 0.263797 0.096721
0.645712 0.265247 0.099645
0.656609 0.266697 0.102569
0.667506 0.268146 0.105493
0.674018 0.269325 0.108396
0.674683 0.270144 0.111271
0.675348 0.270962 0.114145
0.676014 0.271780 0.117020
0.676679 0.272598 0.119894
0.136106 0.160384 0.088306
0.148824 0.171496 0.088834
0.161543 0.182608 0.089363
0.174261 0.193720 0.089891
0.186979 0.204832 0.090419
0.201959 0.216342 0.090487
0.218635 0.228149 0.090210
0.235311 0.239957 0.089932
0.251987 0.251764 0.089655
0.270472 0.262253 0.089345
0.299809 0.264829 0.088843
0.329146 0.267404 0.088342
0.358484 0.269980 0.087840
0.387821 0.272556 0.087339
0.417633 0.273266 0.087508
0.447636 0.273231 0.087945
0.477639 0.273195 0.088383
0.507641 0.273159 0.088821
0.535327 0.273241 0.089660
0.557220 0.273617 0.091505
0.579113 0.273992 0.093349
0.601006 0.274367 0.095194
0.622899 0.274743 0.097038
0.635570 0.275473 0.099819
0.646703 0.276263 0.102756
0.657837 0.277053 0.105693
0.668970 0.277842 0.108629
0.675628 0.278452 0.111561
0.676318 0.278822 0.114485
0.677008 0.279192 0.117409
0.677698 0.279562 0.120334
0.678388 0.279932 0.123258
0.143661 0.169097 0.089078
0.156603 0.180234 0.089731
0.169545 0.191371 0.090384
0.182488 0.202508 0.091036
0.195430 0.213644 0.091689
0.210435 0.225278 0.092003
0.226986 0.237285 0.092061
0.243538 0.249292 0.092120
0.260089 0.261299 0.092179
0.278088 0.272225 0.092191
0.304774 0.276668 0.091926
0.331459 0.281112 0.091661
0.358144 0.285555 0.091396
0.384829 0.289998 0.091131
0.414266 0.290807 0.091297
0.444804 0.290161 0.091635
0.475342 0.289515 0.091973
0.505880 0.288870 0.092310
0.534073 0.288320 0.093058
0.556402 0.288010 0.094827
0.578731 0.287701 0.096597
0.601060 0.287391 0.098367
0.623389 0.287082 0.100137
0.636324 0.287149 0.102918
0.647694 0.287279 0.105867
0.659064 0.287409 0.108816
0.670434 0.287539 0.111765
0.677237 0.287579 0.114725
0.677952 0.287501 0.117699
0.678668 0.287423 0.120674
0.679383 0.287344 0.123648
0.680098 0.287266 0.126622
0.151215 0.177809 0.089850
0.164382 0.188971 0.090627
0.177548 0.200133 0.091405
0.190715 0.211295 0.092182
0.203881 0.222457 0.092959
0.218911 0.234215 0.093518
0.235338 0.246421 0.093913
0.251765 0.258627 0.094308
0.268192 0.270833 0.094703
0.285705 0.282197 0.095037
0.309738 0.288508 0.095009
0.333771 0.294819 0.094980
0.357804 0.301130 0.094952
0.381837 0.307441 0.094923
0.410899 0.308347 0.095085
0.441972 0.307091 0.095324
0.473046 0.305836 0.095562
0.504119 0.304580 0.095800
0.532819 0.303399 0.096455
0.555584 0.302404 0.098150
0.578348 0.301410 0.099845
0.601113 0.300416 0.101541
0.623878 0.299421 0.103236
0.637078 0.298825 0.106016
0.648685 0.298295 0.108978
0.660291 0.297765 0.111940
0.671898 0.297235 0.114901
0.678847 0.296706 0.117890
0.679587 0.296180 0.120914
0.680327 0.295653 0.123938
0.681067 0.295127 0.126962
0.681807 0.294600 0.129985
0.158770 0.186522 0.090622
0.172160 0.197708 0.091524
0.185551 0.208895 0.092426
0.198941 0.220082 0.093327
0.212332 0.231269 0.094229
0.227387 0.243152 0.095034
0.243689 0.255557 0.095765
0.259991 0.267962 0.096496
0.276294 0.280367 0.097227
0.293322 0.292168 0.097883
0.314703 0.300347 0.098091
0.336084 0.308526 0.098299
0.357464 0.316705 0.098507
0.378845 0.324884 0.098716
0.407532 0.325888 0.098874
0.439141 0.324022 0.099013
0.470749 0.322156 0.099152
0.502358 0.320290 0.099290
0.531565 0.318477 0.099852
0.554765 0.316798 0.101473
0.577966 0.315119 0.103093
0.601166 0.313440 0.104714
0.624367 0.311761 0.106334
0.637832 0.310501 0.109115
0.649676 0.309311 0.112089
0.661519 0.308121 0.115063
0.673362 0.306931 0.118037
0.680457 0.305833 0.121054
0.681222 0.304858 0.124128
0.681987 0.303883 0.127202
0.682752 0.302909 0.130275
0.683516 0.301934 0.133349
0.168451 0.196534 0.091748
0.181950 0.207621 0.092775
0.195449 0.218708 0.093801
0.208948 0.229795 0.094827
0.222447 0.240882 0.095854
0.237401 0.252659 0.096893
0.253446 0.264952 0.097943
0.269490 0.277245 0.098992
0.285535 0.289538 0.100042
0.302166 0.301346 0.101040
0.322318 0.310245 0.101734
0.342469 0.319145 0.102428
0.362621 0.328044 0.103122
0.382773 0.336943 0.103815
0.410106 0.338772 0.104429
0.440311 0.337772 0.105011
0.470516 0.336772 0.105592
0.500722 0.335773 0.106174
0.529055 0.334406 0.107018
0.552710 0.332122 0.108520
0.576364 0.329838 0.110021
0.600018 0.327554 0.111522
0.623672 0.325270 0.113024
0.637504 0.323412 0.115699
0.649699 0.321624 0.118570
0.661895 0.319836 0.121441
0.674090 0.318049 0.124312
0.681470 0.316448 0.127241
0.682428 0.315096 0.130249
0.683387 0.313744 0.133257
0.684346 0.312392 0.136265
0.685305 0.311040 0.139273
0.178983 0.207066 0.093017
0.192544 0.218004 0.094168
0.206106 0.228941 0.095318
0.219667 0.239879 0.096469
0.233229 0.250817 0.097620
0.248031 0.262394 0.098891
0.263764 0.274450 0.100252
0.279497 0.286507 0.101612
0.295231 0.298563 0.102973
0.311501 0.310206 0.104322
0.330993 0.319367 0.105601
0.350485 0.328528 0.106880
0.369976 0.337688 0.108159
0.389468 0.346849 0.109438
0.415056 0.349793 0.110690
0.443082 0.350250 0.111932
0.471109 0.350707 0.113173
0.499135 0.351164 0.114415
0.526044 0.350675 0.115692
0.550159 0.347818 0.117056
0.574274 0.344961 0.118420
0.598388 0.342104 0.119785
0.622503 0.339248 0.121149
0.636743 0.336816 0.123677
0.649337 0.334456 0.126398
0.661930 0.332096 0.129120
0.674524 0.329735 0.131841
0.682243 0.327658 0.134637
0.683464 0.325957 0.137533
0.684684 0.324257 0.140429
0.685904 0.322556 0.143325
0.687124 0.320855 0.146221
0.189515 0.217598 0.094285
0.203139 0.228386 0.095560
0.216762 0.239175 0.096836
0.230386 0.249963 0.098111
0.244010 0.260751 0.099386
0.258661 0.272129 0.100888
0.274083 0.283949 0.102561
0.289505 0.295769 0.104233
0.304927 0.307589 0.105905
0.320836 0.319066 0.107604
0.339668 0.328488 0.109468
0.358500 0.337911 0.111332
0.377332 0.347333 0.113197
0.396163 0.356755 0.115061
0.420006 0.360814 0.116952
0.445854 0.362728 0.118853
0.471701 0.364642 0.120755
0.497548 0.366556 0.122656
0.523032 0.366943 0.124365
0.547608 0.363514 0.125592
0.572184 0.360084 0.126820
0.596759 0.356655 0.128047
0.621335 0.353225 0.129274
0.635982 0.350221 0.131654
0.648974 0.347288 0.134227
0.661966 0.344355 0.136799
0.674958 0.341422 0.139371
0.683017 0.338867 0.142034
0.684499 0.336818 0.144817
0.685981 0.334769 0.147601
0.687462 0.332720 0.150385
0.688944 0.330671 0.153169
0.200047 0.228130 0.095553
0.213733 0.238769 0.096953
0.227419 0.249408 0.098353
0.241105 0.260047 0.099753
0.254791 0.270686 0.101153
0.269291 0.281864 0.102886
0.284402 0.293448 0.104869
0.299512 0.305031 0.106853
0.314623 0.316614 0.108836
0.330171 0.327926 0.110886
0.348343 0.337610 0.113335
0.366515 0.347294 0.115785
0.384687 0.356977 0.118234
0.402859 0.366661 0.120683
0.424957 0.371835 0.123213
0.448625 0.375206 0.125774
0.472293 0.378577 0.128336
0.495962 0.381948 0.130897
0.520021 0.383212 0.133038
0.545057 0.379210 0.134129
0.570093 0.375207 0.135219
0.595130 0.371205 0.136309
0.620166 0.367203 0.137400
0.635220 0.363626 0.139632
0.648611 0.360120 0.142055
0.662001 0.356614 0.144478
0.675392 0.353108 0.146900
0.683791 0.350077 0.149430
0.685534 0.347679 0.152101
0.687277 0.345282 0.154773
0.689021 0.342884 0.157445
0.690764 0.340486 0.160117
0.211351 0.239009 0.096869
0.225043 0.249477 0.098407
0.238734 0.259945 0.099946
0.252425 0.270413 0.101485
0.266116 0.280881 0.103023
0.280429 0.291829 0.104992
0.295207 0.303137 0.107283
0.309985 0.314445 0.109574
0.324763 0.325752 0.111865
0.339928 0.336847 0.114258
0.357419 0.346668 0.117264
0.374910 0.356489 0.120271
0.392400 0.366309 0.123277
0.409891 0.376130 0.126283
0.430469 0.382206 0.129483
0.452282 0.386785 0.132762
0.474095 0.391363 0.136040
0.495908 0.395942 0.139318
0.518665 0.398065 0.142058
0.543782 0.394048 0.143453
0.568898 0.390032 0.144847
0.594014 0.386015 0.146242
0.619130 0.381999 0.147636
0.634541 0.377984 0.149757
0.648333 0.373969 0.151998
0.662126 0.369954 0.154239
0.675919 0.365940 0.156481
0.684671 0.362488 0.158848
0.686705 0.359788 0.161382
0.688738 0.357088 0.163917
0.690771 0.354388 0.166452
0.692804 0.351688 0.168987
0.224585 0.250754 0.098302
0.238140 0.260998 0.100015
0.251694 0.271242 0.101728
0.265248 0.281486 0.103441
0.278802 0.291730 0.105154
0.292835 0.302368 0.107368
0.307228 0.313303 0.109958
0.321620 0.324237 0.112548
0.336012 0.335171 0.115138
0.350741 0.345921 0.117857
0.367497 0.355567 0.121348
0.384254 0.365214 0.124840
0.401010 0.374860 0.128332
0.417766 0.384506 0.131824
0.437387 0.390951 0.135777
0.458154 0.396114 0.139914
0.478921 0.401278 0.144051
0.499688 0.406442 0.148189
0.521449 0.409378 0.151945
0.545694 0.406743 0.154746
0.569938 0.404109 0.157548
0.594183 0.401475 0.160349
0.618428 0.398840 0.163151
0.634066 0.394724 0.165248
0.648269 0.390361 0.167228
0.662473 0.385997 0.169208
0.676676 0.381634 0.171187
0.685819 0.377903 0.173320
0.688213 0.375016 0.175655
0.690607 0.372129 0.177991
0.693001 0.369242 0.180326
0.695396 0.366356 0.182662
0.237820 0.262500 0.099736
0.251237 0.272519 0.101623
0.264654 0.282539 0.103511
0.278071 0.292559 0.105398
0.291489 0.302579 0.107285
0.305242 0.312908 0.109745
0.319248 0.323468 0.112633
0.333255 0.334029 0.115522
0.347261 0.344589 0.118411
0.361555 0.354994 0.121455
0.377576 0.364466 0.125433
0.393597 0.373938 0.129410
0.409619 0.383410 0.133387
0.425640 0.392882 0.137365
0.444304 0.399695 0.142070
0.464026 0.405444 0.147066
0.483747 0.411193 0.152063
0.503468 0.416942 0.157060
0.524233 0.420691 0.161831
0.547606 0.419438 0.166040
0.570979 0.418186 0.170248
0.594352 0.416934 0.174457
0.617725 0.415682 0.178665
0.633591 0.411464 0.180739
0.648205 0.406752 0.182458
0.662820 0.402040 0.184176
0.677434 0.397328 0.185894
0.686966 0.393318 0.187792
0.689721 0.390244 0.189928
0.692477 0.387171 0.192064
0.695232 0.384097 0.194201
0.697987 0.381023 0.196337
0.251054 0.274245 0.101170
0.264334 0.284040 0.103231
0.277614 0.293836 0.105293
0.290895 0.303632 0.107355
0.304175 0.313428 0.109416
0.317649 0.323447 0.112121
0.331269 0.333634 0.115309
0.344890 0.343821 0.118496
0.358510 0.354008 0.121684
0.372368 0.364068 0.125054
0.387655 0.373366 0.129517
0.402941 0.382663 0.133980
0.418228 0.391961 0.138442
0.433515 0.401259 0.142905
0.451222 0.408440 0.148363
0.469897 0.414774 0.154219
0.488573 0.421108 0.160075
0.507248 0.427442 0.165930
0.527017 0.432004 0.171717
0.549518 0.432134 0.177333
0.572020 0.432263 0.182949
0.594521 0.432393 0.188564
0.617023 0.432523 0.194180
0.633116 0.428204 0.196231
0.648141 0.423143 0.197688
0.663167 0.418083 0.199144
0.678192 0.413022 0.200601
0.688113 0.408733 0.202264
0.691230 0.405473 0.204201
0.694346 0.402212 0.206138
0.697463 0.398952 0.208075
0.700579 0.395691 0.210012
0.264288 0.285990 0.102603
0.277431 0.295562 0.104839
0.290574 0.305133 0.107075
0.303718 0.314705 0.109311
0.316861 0.324276 0.111547
0.330056 0.333986 0.114498
0.343290 0.343800 0.117984
0.356524 0.353613 0.121470
0.369759 0.363427 0.124957
0.383181 0.373142 0.128652
0.397733 0.382265 0.133601
0.412285 0.391388 0.138549
0.426837 0.400512 0.143498
0.441390 0.409635 0.148446
0.458140 0.417184 0.154657
0.475769 0.424103 0.161371
0.493399 0.431023 0.168086
0.511028 0.437942 0.174801
0.529800 0.443317 0.181604
0.551430 0.444829 0.188627
0.573060 0.446341 0.195649
0.594690 0.447853 0.202672
0.616320 0.449365 0.209694
0.632641 0.444944 0.211722
0.648077 0.439535 0.212917
0.663513 0.434126 0.214113
0.678950 0.428716 0.215308
0.689261 0.424148 0.216736
0.692738 0.420701 0.218474
0.696216 0.417253 0.220212
0.699693 0.413806 0.221950
0.703171 0.410359 0.223687
0.279318 0.297735 0.103754
0.292111 0.307040 0.106281
0.304904 0.316345 0.108809
0.317697 0.325650 0.111337
0.330490 0.334954 0.113864
0.343296 0.344367 0.117141
0.356112 0.353860 0.120979
0.368928 0.363353 0.124818
0.381744 0.372847 0.128657
0.394709 0.382253 0.132714
0.408569 0.391138 0.138084
0.422430 0.400023 0.143454
0.436290 0.408908 0.148824
0.450150 0.417793 0.154195
0.466009 0.425410 0.161009
0.482667 0.432520 0.168402
0.499325 0.439630 0.175794
0.515983 0.446739 0.183187
0.533740 0.452562 0.190821
0.554242 0.455168 0.199059
0.574744 0.457774 0.207296
0.595246 0.460380 0.215534
0.615749 0.462986 0.223771
0.632453 0.459932 0.227651
0.648524 0.455935 0.230805
0.664595 0.451938 0.233959
0.680666 0.447942 0.237112
0.691481 0.444173 0.239537
0.695288 0.440710 0.240991
0.699094 0.437247 0.242444
0.702901 0.433783 0.243897
0.706708 0.430320 0.245350
0.294647 0.309480 0.104856
0.307054 0.318511 0.107695
0.319461 0.327542 0.110534
0.331868 0.336573 0.113373
0.344275 0.345604 0.116212
0.356674 0.354721 0.119829
0.369067 0.363903 0.124028
0.381459 0.373085 0.128228
0.393852 0.382267 0.132428
0.406357 0.391371 0.136853
0.419532 0.400007 0.142634
0.432707 0.408643 0.148415
0.445883 0.417279 0.154196
0.459058 0.425915 0.159977
0.474036 0.433550 0.167372
0.489736 0.440784 0.175412
0.505435 0.448018 0.183452
0.521135 0.455253 0.191492
0.537872 0.461463 0.199927
0.557204 0.465115 0.209347
0.576535 0.468767 0.218767
0.595867 0.472419 0.228188
0.615199 0.476071 0.237608
0.632312 0.474628 0.243653
0.649056 0.472337 0.249135
0.665799 0.470046 0.254617
0.682543 0.467755 0.260099
0.693881 0.464967 0.263727
0.698011 0.461516 0.264881
0.702142 0.458066 0.266036
0.706272 0.454615 0.267190
0.710402 0.451164 0.268345
0.309977 0.321226 0.105959
0.321998 0.329983 0.109109
0.334019 0.338740 0.112260
0.346040 0.347496 0.115410
0.358061 0.356253 0.118560
0.370052 0.365075 0.122516
0.382021 0.373946 0.127077
0.393991 0.382817 0.131638
0.405960 0.391688 0.136199
0.418004 0.400489 0.140992
0.430495 0.408876 0.147184
0.442985 0.417263 0.153376
0.455476 0.425650 0.159568
0.467966 0.434037 0.165760
0.482064 0.441689 0.173735
0.496805 0.449048 0.182422
0.511545 0.456407 0.191110
0.526286 0.463766 0.199797
0.542004 0.470364 0.209032
0.560165 0.475062 0.219635
0.578327 0.479760 0.230239
0.596488 0.484457 0.240842
0.614649 0.489155 0.251445
0.632172 0.489325 0.259655
0.649588 0.488739 0.267465
0.667004 0.488154 0.275276
0.684420 0.487569 0.283087
0.696280 0.485761 0.287916
0.700735 0.482323 0.288772
0.705189 0.478884 0.289628
0.709643 0.475446 0.290483
0.714097 0.472008 0.291339
0.325306 0.332971 0.107062
0.336941 0.341454 0.110524
0.348576 0.349937 0.113985
0.360211 0.358420 0.117447
0.371846 0.366903 0.120908
0.383430 0.375430 0.125204
0.394976 0.383989 0.130126
0.406522 0.392548 0.135048
0.418068 0.401108 0.139970
0.429651 0.409607 0.145132
0.441457 0.417745 0.151734
0.453263 0.425883 0.158337
0.465069 0.434021 0.164940
0.476874 0.442159 0.171543
0.490092 0.449829 0.180097
0.503874 0.457312 0.189432
0.517655 0.464796 0.198767
0.531437 0.472279 0.208102
0.546136 0.479265 0.218138
0.563127 0.485009 0.229924
0.580118 0.490753 0.241710
0.597109 0.496496 0.253496
0.614100 0.502240 0.265282
0.632031 0.504021 0.275657
0.650119 0.505142 0.285796
0.668208 0.506262 0.295935
0.686296 0.507383 0.306074
0.698680 0.506555 0.312106
0.703458 0.503129 0.312663
0.708236 0.499703 0.313219
0.713013 0.496277 0.313776
0.717791 0.492851 0.314333
0.341463 0.343889 0.107858
0.352541 0.352066 0.111727
0.363619 0.360243 0.115595
0.374697 0.368420 0.119464
0.385776 0.376597 0.123333
0.396858 0.384851 0.128050
0.407943 0.393164 0.133402
0.419029 0.401476 0.138754
0.430114 0.409788 0.144107
0.441212 0.418047 0.149698
0.452386 0.425984 0.156722
0.463560 0.433920 0.163747
0.474735 0.441857 0.170771
0.485909 0.449794 0.177795
0.498337 0.457466 0.186879
0.511267 0.465031 0.196787
0.524197 0.472596 0.206695
0.537127 0.480161 0.216603
0.550919 0.487437 0.227341
0.566868 0.493992 0.240155
0.582816 0.500547 0.252969
0.598765 0.507102 0.265784
