filters/luts/Suburbs 04.cube
# Created by: Adobe Photoshop Export Color Lookup Plugin
# LUT by SparkleStock. Enhanced with VOXCOLOR algorithms.
LUT_3D_SIZE 8
DOMAIN_MIN 0.000000 0.000000 0.000000
DOMAIN_MAX 0.903226 0.903226 0.903226
0.046886 0.082051 0.042979
0.147087 0.098310 0.037307
0.252243 0.115373 0.035118
0.357549 0.134342 0.034676
0.458057 0.156012 0.034487
0.543511 0.181157 0.032975
0.608642 0.207405 0.030517
0.654961 0.230801 0.028485
0.070708 0.115515 0.049218
0.133439 0.148606 0.053060
0.243113 0.165912 0.050742
0.366690 0.178661 0.046752
0.479256 0.194641 0.044001
0.567930 0.214224 0.041464
0.629450 0.234788 0.038836
0.668890 0.252317 0.036962
0.100555 0.151121 0.054520
0.154120 0.189640 0.062588
0.240438 0.217083 0.067192
0.354691 0.233459 0.066426
0.484575 0.241340 0.060362
0.582275 0.253494 0.055867
0.645645 0.267717 0.052567
0.682699 0.280144 0.050718
0.137453 0.189106 0.060932
0.191859 0.227198 0.070684
0.256512 0.263026 0.082889
0.349987 0.287118 0.090052
0.475854 0.295389 0.088020
0.587349 0.298798 0.080939
0.656993 0.305861 0.076364
0.695380 0.313216 0.074157
0.181740 0.229328 0.069558
0.234481 0.265243 0.080718
0.295616 0.301006 0.097456
0.369723 0.332048 0.115011
0.461685 0.353144 0.127768
0.585366 0.350295 0.121438
0.663809 0.349958 0.115600
0.706485 0.351814 0.112501
0.232975 0.270542 0.079011
0.282642 0.303384 0.093245
0.338215 0.337007 0.114819
0.403723 0.369341 0.141229
0.482896 0.397371 0.169081
0.584182 0.411062 0.189243
0.667798 0.407017 0.186113
0.717114 0.403177 0.181599
0.286573 0.309709 0.086258
0.332923 0.339720 0.106737
0.383294 0.371274 0.135195
0.440407 0.403478 0.170268
0.507034 0.434951 0.210271
0.590440 0.461157 0.252169
0.676117 0.472248 0.279414
0.730082 0.473644 0.289138
0.341463 0.345906 0.089582
0.382940 0.373295 0.120429
0.428473 0.403569 0.158659
0.478723 0.435762 0.203194
0.534986 0.469097 0.253373
0.603474 0.503286 0.311060
0.681089 0.531209 0.366643
0.738572 0.546742 0.402440
0.046130 0.103604 0.138076
0.125840 0.125864 0.113815
0.238497 0.145195 0.099672
0.359293 0.164408 0.094157
0.469187 0.185402 0.095193
0.555958 0.208205 0.098365
0.616551 0.230159 0.098883
0.656607 0.248158 0.095759
0.056047 0.139409 0.152365
0.142706 0.174762 0.151556
0.256063 0.198384 0.148253
0.375932 0.217495 0.145156
0.486509 0.237190 0.143589
0.575934 0.257830 0.140637
0.639811 0.278444 0.134469
0.682723 0.296950 0.126177
0.078003 0.176113 0.169656
0.172064 0.218933 0.171200
0.266835 0.253988 0.175659
0.374825 0.278159 0.177648
0.497176 0.291826 0.174401
0.593375 0.307314 0.170492
0.659560 0.324072 0.165042
0.701785 0.339974 0.159239
0.109485 0.214622 0.187607
0.210856 0.261341 0.182684
0.290030 0.305087 0.192088
0.379618 0.336924 0.202671
0.495438 0.352661 0.205731
0.603242 0.360414 0.202371
0.674107 0.371322 0.200073
0.716546 0.383055 0.199393
0.148594 0.255302 0.204612
0.256799 0.304022 0.193421
0.335335 0.348229 0.205619
0.405414 0.387319 0.227669
0.486045 0.417743 0.247178
0.603697 0.419451 0.246735
0.682572 0.423595 0.246982
0.729009 0.430590 0.250352
0.196316 0.297102 0.220652
0.310739 0.346827 0.205849
0.386263 0.389603 0.221013
0.448791 0.428314 0.250993
0.517767 0.463306 0.283400
0.602259 0.484047 0.308544
0.685267 0.484427 0.313142
0.739067 0.485466 0.318109
0.247621 0.336976 0.233022
0.367641 0.388140 0.219289
0.439332 0.429341 0.239574
0.493435 0.466582 0.277527
0.552097 0.503112 0.320481
0.620029 0.533289 0.362581
0.695451 0.546639 0.390605
0.749445 0.551340 0.406763
0.299986 0.373587 0.241493
0.424156 0.426742 0.233071
0.491239 0.466598 0.260898
0.537089 0.502409 0.307594
0.587022 0.539932 0.360072
0.643286 0.575434 0.414374
0.706714 0.602057 0.462905
0.759446 0.616289 0.495940
0.043231 0.128906 0.239868
0.108877 0.150014 0.212466
0.224815 0.178633 0.188746
0.356471 0.205114 0.173379
0.476723 0.224381 0.168837
0.566056 0.244428 0.173064
0.623615 0.262883 0.176731
0.658850 0.277251 0.175751
0.048781 0.167468 0.259511
0.137303 0.202584 0.252724
0.250736 0.234133 0.243133
0.373899 0.260524 0.235062
0.492570 0.281679 0.231126
0.584953 0.302321 0.229908
0.648903 0.322536 0.226554
0.691517 0.341247 0.220037
0.060707 0.206712 0.281691
0.166024 0.250533 0.278335
0.272358 0.291034 0.280820
0.386435 0.321788 0.282220
0.507212 0.340735 0.278758
0.603090 0.359165 0.275461
0.670522 0.377693 0.269793
0.715503 0.395751 0.262440
0.081166 0.245582 0.305159
0.199527 0.295813 0.297895
0.302596 0.344317 0.305719
0.404520 0.382307 0.315769
0.512931 0.405150 0.319318
0.616277 0.418026 0.316401
0.687621 0.432297 0.312709
0.733518 0.447252 0.309289
0.111340 0.283803 0.328535
0.240969 0.340074 0.317219
0.348564 0.391465 0.322176
0.435912 0.437020 0.338036
0.512392 0.473154 0.357286
0.622275 0.480840 0.359092
0.699388 0.489502 0.360765
0.747693 0.500548 0.364804
0.151609 0.323908 0.348880
0.292334 0.384702 0.335052
0.402840 0.436797 0.337464
0.486322 0.482014 0.356060
0.550603 0.520853 0.387268
0.623384 0.547336 0.413673
0.703324 0.552190 0.421394
0.758465 0.557538 0.429819
0.198236 0.362813 0.364265
0.348589 0.427749 0.351978
0.460297 0.480233 0.354997
0.538366 0.524290 0.377384
0.592119 0.562903 0.418017
0.649395 0.595756 0.458328
0.715835 0.611886 0.485832
0.768134 0.619950 0.504563
0.247744 0.398734 0.375024
0.405250 0.467680 0.367686
0.516091 0.520511 0.374677
0.587787 0.563392 0.402603
0.632035 0.601335 0.451724
0.679466 0.637200 0.501864
0.731950 0.663749 0.545100
0.780019 0.678405 0.575921
0.039844 0.157328 0.338745
0.093707 0.174703 0.316150
0.205509 0.209474 0.288958
0.344044 0.245663 0.266046
0.480451 0.272384 0.253651
0.573772 0.289137 0.254389
0.629882 0.304107 0.259193
0.661603 0.315432 0.260855
0.044528 0.198390 0.362512
0.125318 0.232418 0.352249
0.235034 0.269418 0.338102
0.362926 0.303491 0.325074
0.494689 0.330707 0.316833
0.592137 0.350596 0.315469
0.656154 0.369880 0.315587
0.697662 0.388189 0.313325
0.049782 0.240083 0.386058
0.151726 0.283868 0.379840
0.263957 0.327774 0.379678
0.385632 0.364893 0.379080
0.510876 0.391529 0.374509
0.610073 0.411800 0.370824
0.678926 0.431404 0.366486
0.725649 0.450989 0.360578
0.059867 0.279037 0.409940
0.180356 0.330947 0.404204
0.299021 0.382265 0.410914
0.414124 0.425581 0.419699
0.524148 0.456137 0.423117
0.626177 0.473406 0.418852
0.698350 0.490335 0.413603
0.747049 0.507785 0.408018
0.078032 0.313858 0.434118
0.216223 0.375374 0.428847
0.343983 0.431881 0.431843
0.450753 0.482006 0.443527
0.536538 0.522314 0.460269
0.639044 0.536233 0.460620
0.713939 0.548734 0.459756
0.763347 0.562414 0.460042
0.107702 0.349133 0.456183
0.260001 0.418789 0.452754
0.395631 0.478854 0.451423
0.503047 0.530005 0.460771
0.579167 0.572453 0.483893
0.645468 0.602627 0.507257
0.721364 0.611677 0.514065
0.775897 0.620532 0.521254
0.147094 0.384895 0.472475
0.311467 0.461043 0.473232
0.452847 0.523820 0.470587
0.558977 0.574988 0.479264
0.626632 0.616509 0.506899
0.677649 0.650310 0.542558
0.736671 0.669088 0.567681
0.786270 0.680121 0.585615
0.192550 0.418757 0.483218
0.365400 0.500127 0.490462
0.509477 0.565159 0.490068
0.612241 0.616110 0.500765
0.671223 0.656026 0.533092
0.712510 0.690769 0.577320
0.756773 0.717484 0.615690
0.800323 0.733342 0.643939
0.037197 0.188144 0.426681
0.079113 0.202391 0.411056
0.178669 0.234863 0.388049
0.319298 0.278913 0.364400
0.476350 0.324445 0.345810
0.578453 0.340429 0.339120
0.635234 0.351931 0.341679
0.664645 0.359914 0.344245
0.040472 0.230945 0.453924
0.113026 0.264125 0.444838
0.215502 0.302079 0.432213
0.344858 0.343206 0.418414
0.489146 0.383232 0.406028
0.595263 0.403726 0.400749
0.661172 0.421779 0.401144
0.702755 0.439092 0.401387
0.044965 0.273832 0.477862
0.140007 0.318015 0.471242
0.248251 0.363689 0.469213
0.371799 0.407216 0.467146
0.505449 0.444670 0.462336
0.613111 0.466679 0.457225
0.684902 0.486897 0.454863
0.733542 0.507661 0.452692
0.049510 0.312406 0.498655
0.167912 0.366274 0.493280
0.285094 0.419567 0.499079
0.404601 0.467852 0.507876
0.525908 0.506901 0.512966
0.632107 0.528059 0.507798
0.706538 0.547002 0.502926
0.757831 0.566513 0.498426
0.055049 0.344249 0.517209
0.201468 0.410537 0.514184
0.330154 0.470042 0.523441
0.446017 0.523050 0.539273
0.552942 0.567458 0.554686
0.651423 0.587939 0.552269
0.725626 0.603430 0.546828
0.776692 0.618577 0.541441
0.071948 0.371584 0.537573
0.237560 0.450374 0.540157
0.376152 0.516254 0.550290
0.495854 0.572098 0.562444
0.599396 0.619201 0.573895
0.665922 0.651364 0.591077
0.738493 0.664139 0.593848
0.791696 0.675517 0.596442
0.101390 0.401571 0.552651
0.282579 0.489775 0.561725
0.428830 0.560405 0.573731
0.550753 0.617697 0.583194
0.651695 0.664559 0.590322
0.703184 0.698216 0.617861
0.757146 0.719011 0.638239
0.803786 0.732211 0.652454
0.140731 0.431626 0.561683
0.333040 0.526760 0.578673
0.483445 0.600924 0.594543
0.604544 0.659015 0.604047
0.700874 0.704836 0.609450
0.741920 0.737685 0.644045
0.780910 0.764093 0.676580
0.820197 0.781077 0.701160
0.035874 0.220284 0.493607
0.068276 0.232043 0.484569
0.154482 0.262130 0.469081
0.284023 0.305546 0.450470
0.440252 0.355176 0.432136
0.575727 0.391652 0.420323
0.638557 0.402910 0.417394
0.667127 0.406819 0.416856
0.038124 0.263670 0.520997
0.103884 0.295948 0.515778
0.197094 0.334148 0.508836
0.319254 0.377700 0.499734
0.463794 0.423595 0.488936
0.592065 0.457328 0.480461
0.663476 0.475440 0.477954
0.706111 0.490430 0.477199
0.041696 0.305691 0.544355
0.130496 0.350158 0.541130
0.233609 0.397396 0.541897
0.354011 0.444889 0.542382
0.488479 0.489390 0.539959
0.609725 0.521641 0.536067
0.687046 0.542928 0.532802
0.739009 0.563295 0.530795
0.045546 0.342680 0.563234
0.157035 0.397804 0.561943
0.272341 0.453493 0.568591
0.392022 0.505929 0.577574
0.514537 0.551514 0.584458
0.629436 0.583319 0.585805
0.709701 0.604753 0.581645
0.766169 0.625753 0.578122
0.049072 0.371962 0.577653
0.190094 0.441092 0.579505
0.319234 0.503947 0.589944
0.436752 0.560230 0.605330
0.544721 0.608669 0.621428
0.651791 0.641271 0.628657
0.731608 0.660584 0.624403
0.788092 0.678530 0.619843
0.052945 0.391099 0.588503
0.233217 0.479078 0.595171
0.376908 0.549598 0.609305
0.494724 0.607593 0.627396
0.594933 0.656432 0.646331
0.677866 0.693463 0.662507
0.751784 0.709607 0.660346
0.805008 0.722174 0.656529
0.068872 0.411426 0.599677
0.271464 0.512898 0.614215
0.425783 0.590602 0.632670
0.546340 0.651392 0.651778
0.644247 0.700552 0.669212
0.719679 0.738152 0.684338
0.774921 0.759926 0.696450
0.819648 0.773772 0.703937
0.098010 0.434382 0.606167
0.315740 0.545428 0.629634
0.476829 0.628521 0.653401
0.598047 0.691368 0.674382
0.692521 0.740191 0.690797
0.761982 0.776463 0.703753
0.802729 0.801852 0.726556
0.838508 0.818760 0.745482
0.035338 0.254472 0.541943
0.061276 0.264474 0.537540
0.136663 0.292563 0.528830
0.254893 0.334725 0.516995
0.403757 0.385145 0.503414
0.546746 0.428451 0.490869
0.630019 0.444812 0.480032
0.668298 0.448906 0.473732
0.037296 0.295272 0.566064
0.098650 0.326908 0.564271
0.184062 0.365334 0.563179
0.298085 0.410786 0.560899
0.437566 0.460977 0.556303
0.571953 0.502881 0.549967
0.658993 0.524682 0.542927
0.709780 0.539264 0.538657
0.040333 0.334206 0.586464
0.125087 0.379078 0.587036
0.224369 0.427649 0.591527
0.340482 0.478365 0.596972
0.471155 0.528679 0.600968
0.597427 0.570081 0.601296
0.685360 0.595256 0.598078
0.744262 0.615969 0.595148
0.043630 0.367678 0.602391
0.150245 0.424101 0.605916
0.264853 0.481994 0.614947
0.383964 0.537930 0.626630
0.504542 0.588925 0.638205
0.623504 0.630436 0.645230
0.710262 0.657336 0.645796
0.772994 0.680468 0.643974
0.046485 0.393072 0.613529
0.181422 0.464285 0.621191
0.311262 0.530490 0.634502
0.431192 0.590231 0.651194
0.540346 0.642336 0.668754
0.650621 0.684111 0.682041
0.734443 0.711410 0.686228
0.797041 0.733907 0.685606
0.048065 0.407916 0.619988
0.223139 0.499224 0.633278
0.368793 0.573965 0.651096
0.490799 0.636002 0.671377
0.594178 0.688172 0.692104
0.680204 0.728918 0.710108
0.757415 0.755177 0.717241
0.816393 0.774445 0.717973
0.053182 0.418725 0.625471
0.270570 0.531792 0.646781
0.432159 0.615656 0.669373
0.554161 0.679148 0.691926
0.649936 0.729292 0.713132
0.724917 0.767777 0.730450
0.784189 0.794126 0.743403
0.832367 0.811200 0.748883
0.068853 0.432255 0.628954
0.315415 0.560923 0.659030
0.488779 0.652229 0.687107
0.611231 0.717634 0.712314
0.701409 0.766530 0.733809
0.769216 0.802927 0.749403
0.815473 0.828872 0.766027
0.852906 0.845990 0.778314
0.035165 0.294702 0.582362
0.057309 0.303649 0.580618
0.125343 0.330260 0.576615
0.234920 0.371109 0.570403
0.376341 0.421053 0.562099
0.518738 0.466396 0.551683
0.615065 0.487065 0.537475
0.663865 0.487581 0.522222
0.037293 0.327843 0.599280
0.096412 0.358952 0.599609
0.176478 0.397856 0.603019
0.284127 0.445236 0.606945
0.418407 0.499156 0.609338
0.553321 0.547261 0.608374
0.650809 0.574765 0.601679
0.711235 0.587802 0.592379
0.040191 0.360546 0.614064
0.122879 0.405856 0.617619
0.220285 0.455662 0.625231
0.333235 0.509267 0.635499
0.459611 0.564766 0.646575
0.587021 0.614423 0.653639
0.682737 0.646575 0.654163
0.749709 0.668097 0.650274
0.043181 0.388596 0.625583
0.147015 0.446380 0.633331
0.262464 0.506171 0.644754
0.381831 0.565015 0.659399
0.500191 0.620598 0.676042
0.619969 0.670736 0.689935
0.712109 0.705750 0.697019
0.781332 0.732214 0.698008
0.045693 0.408994 0.633185
0.176537 0.482131 0.646012
0.307997 0.551401 0.662521
0.431222 0.614184 0.680965
0.542398 0.669265 0.700021
0.652422 0.718417 0.719254
0.739767 0.754749 0.731843
0.807736 0.783112 0.737144
0.047047 0.419691 0.636752
0.215635 0.513088 0.656034
0.363394 0.591666 0.677415
0.490785 0.657746 0.699573
0.598632 0.713172 0.721370
0.685223 0.756686 0.741515
0.765098 0.792196 0.757517
0.828858 0.819623 0.766185
0.047364 0.424406 0.638511
0.266783 0.543642 0.666281
0.433067 0.632369 0.692551
0.559804 0.699367 0.717225
0.658290 0.751709 0.740142
0.732178 0.791266 0.760336
0.793948 0.821854 0.776552
0.845369 0.844812 0.786092
0.052663 0.430142 0.640132
0.317786 0.572617 0.677501
0.500805 0.670779 0.709123
0.626373 0.738574 0.736023
0.715222 0.787517 0.759048
0.778765 0.823271 0.778053
0.826637 0.849440 0.793128
0.864817 0.868240 0.804177
