filters/luts/Suburbs 02.cube
# LUT by SparkleStock. Enhanced with VOXCOLOR algorithms.
LUT_3D_SIZE 32
0.089866 0.093773 0.082051
0.105581 0.097026 0.081886
0.121297 0.100280 0.081720
0.137012 0.103533 0.081555
0.152728 0.106786 0.081390
0.172067 0.110197 0.081823
0.194123 0.113726 0.082705
0.216180 0.117256 0.083587
0.238237 0.120785 0.084470
0.260845 0.124385 0.085423
0.286762 0.128410 0.086801
0.312679 0.132435 0.088180
0.338595 0.136461 0.089558
0.364512 0.140486 0.090937
0.389878 0.145063 0.092316
0.415022 0.149860 0.093694
0.440167 0.154658 0.095073
0.465312 0.159455 0.096451
0.489133 0.164426 0.097735
0.509646 0.169829 0.098783
0.530159 0.175233 0.099831
0.550672 0.180637 0.100878
0.571184 0.186041 0.101926
0.585931 0.191351 0.102643
0.599716 0.196644 0.103305
0.613502 0.201938 0.103966
0.627287 0.207231 0.104628
0.638024 0.211863 0.105053
0.644697 0.215613 0.105164
0.651369 0.219363 0.105274
0.658041 0.223112 0.105384
0.664713 0.226862 0.105495
0.093395 0.099618 0.082934
0.107716 0.104067 0.083030
0.122037 0.108515 0.083126
0.136358 0.112964 0.083222
0.150678 0.117413 0.083318
0.169982 0.121108 0.083899
0.193022 0.124239 0.084843
0.216063 0.127370 0.085788
0.239103 0.130500 0.086732
0.262661 0.133725 0.087741
0.289325 0.137514 0.089132
0.315989 0.141302 0.090523
0.342653 0.145091 0.091914
0.369317 0.148880 0.093305
0.395109 0.153229 0.094669
0.420552 0.157802 0.096023
0.445996 0.162376 0.097376
0.471440 0.166949 0.098730
0.495417 0.171692 0.099982
0.515731 0.176859 0.100980
0.536045 0.182027 0.101978
0.556358 0.187194 0.102976
0.576672 0.192361 0.103973
0.590931 0.197413 0.104608
0.604181 0.202445 0.105183
0.617431 0.207477 0.105758
0.630681 0.212509 0.106332
0.640877 0.216869 0.106676
0.647002 0.220332 0.106711
0.653126 0.223795 0.106747
0.659250 0.227259 0.106782
0.665375 0.230722 0.106818
0.096924 0.105463 0.083816
0.109850 0.111107 0.084173
0.122777 0.116751 0.084531
0.135703 0.122395 0.084888
0.148629 0.128039 0.085246
0.167897 0.132019 0.085974
0.191921 0.134752 0.086981
0.215945 0.137484 0.087988
0.239970 0.140216 0.088995
0.264478 0.143065 0.090058
0.291888 0.146617 0.091462
0.319299 0.150170 0.092865
0.346710 0.153722 0.094269
0.374121 0.157274 0.095672
0.400340 0.161396 0.097022
0.426083 0.165745 0.098351
0.451825 0.170094 0.099680
0.477568 0.174443 0.101008
0.501702 0.178958 0.102228
0.521816 0.183889 0.103177
0.541931 0.188820 0.104125
0.562045 0.193750 0.105073
0.582159 0.198681 0.106021
0.595931 0.203475 0.106574
0.608646 0.208245 0.107061
0.621361 0.213016 0.107549
0.634075 0.217787 0.108036
0.643731 0.221874 0.108298
0.649307 0.225051 0.108259
0.654884 0.228228 0.108220
0.660460 0.231405 0.108180
0.666036 0.234582 0.108141
0.100453 0.111308 0.084698
0.111985 0.118147 0.085317
0.123517 0.124987 0.085936
0.135048 0.131826 0.086555
0.146580 0.138666 0.087174
0.165812 0.142930 0.088050
0.190820 0.145264 0.089119
0.215828 0.147598 0.090188
0.240836 0.149932 0.091257
0.266294 0.152406 0.092376
0.294452 0.155721 0.093792
0.322610 0.159037 0.095208
0.350768 0.162353 0.096624
0.378926 0.165668 0.098040
0.405572 0.169562 0.099376
0.431613 0.173687 0.100679
0.457654 0.177812 0.101983
0.483695 0.181937 0.103287
0.507986 0.186224 0.104475
0.527901 0.190919 0.105373
0.547817 0.195613 0.106272
0.567732 0.200307 0.107170
0.587647 0.205001 0.108068
0.600931 0.209537 0.108540
0.613111 0.214046 0.108940
0.625290 0.218555 0.109340
0.637469 0.223064 0.109740
0.646584 0.226880 0.109920
0.651612 0.229770 0.109806
0.656641 0.232661 0.109692
0.661670 0.235551 0.109579
0.666698 0.238442 0.109465
0.103982 0.117153 0.085580
0.114119 0.125188 0.086461
0.124257 0.133223 0.087341
0.134394 0.141257 0.088222
0.144531 0.149292 0.089102
0.163728 0.153841 0.090126
0.189719 0.155777 0.091257
0.215711 0.157712 0.092389
0.241702 0.159647 0.093520
0.268110 0.161746 0.094694
0.297015 0.164825 0.096122
0.325920 0.167904 0.097551
0.354825 0.170983 0.098979
0.383730 0.174062 0.100407
0.410803 0.177728 0.101729
0.437143 0.181629 0.103008
0.463483 0.185530 0.104287
0.489823 0.189431 0.105566
0.514271 0.193491 0.106722
0.533987 0.197948 0.107570
0.553703 0.202406 0.108419
0.573419 0.206864 0.109267
0.593134 0.211321 0.110116
0.605931 0.215599 0.110505
0.617575 0.219847 0.110818
0.629219 0.224094 0.111131
0.640863 0.228342 0.111444
0.649437 0.231885 0.111542
0.653918 0.234489 0.111354
0.658398 0.237094 0.111165
0.662879 0.239698 0.110977
0.667360 0.242302 0.110788
0.108330 0.123565 0.086179
0.118183 0.132290 0.087243
0.128036 0.141015 0.088306
0.137888 0.149740 0.089370
0.147741 0.158465 0.090434
0.166166 0.163749 0.091621
0.191021 0.166453 0.092900
0.215876 0.169157 0.094178
0.240731 0.171860 0.095457
0.266280 0.174543 0.096767
0.295996 0.177101 0.098257
0.325712 0.179659 0.099748
0.355429 0.182217 0.101238
0.385145 0.184775 0.102729
0.412800 0.188005 0.104071
0.439631 0.191504 0.105353
0.466462 0.195002 0.106636
0.493293 0.198501 0.107918
0.518106 0.202178 0.109067
0.537871 0.206299 0.109880
0.557637 0.210421 0.110693
0.577403 0.214542 0.111505
0.597168 0.218664 0.112318
0.609715 0.222651 0.112665
0.621058 0.226616 0.112933
0.632401 0.230581 0.113202
0.643745 0.234546 0.113471
0.651979 0.237826 0.113529
0.656068 0.240193 0.113309
0.660158 0.242561 0.113088
0.664247 0.244929 0.112868
0.668337 0.247296 0.112647
0.113293 0.130403 0.086565
0.123694 0.139439 0.087753
0.134094 0.148475 0.088941
0.144495 0.157511 0.090130
0.154895 0.166548 0.091318
0.171997 0.172904 0.092679
0.194125 0.177252 0.094170
0.216253 0.181599 0.095660
0.238381 0.185946 0.097151
0.261716 0.189933 0.098656
0.292291 0.191756 0.100246
0.322866 0.193580 0.101836
0.353442 0.195403 0.103426
0.384017 0.197226 0.105017
0.412371 0.199864 0.106405
0.439837 0.202827 0.107712
0.467303 0.205791 0.109020
0.494770 0.208754 0.110327
0.520103 0.211931 0.111486
0.540105 0.215642 0.112274
0.560108 0.219352 0.113062
0.580110 0.223063 0.113850
0.600112 0.226773 0.114638
0.612586 0.230445 0.114970
0.623805 0.234112 0.115226
0.635023 0.237778 0.115482
0.646242 0.241444 0.115738
0.654288 0.244468 0.115790
0.658103 0.246636 0.115570
0.661919 0.248804 0.115349
0.665734 0.250973 0.115129
0.669550 0.253141 0.114908
0.118256 0.137241 0.086951
0.129204 0.146588 0.088264
0.140153 0.155935 0.089577
0.151101 0.165283 0.090889
0.162049 0.174630 0.092202
0.177828 0.182060 0.093737
0.197229 0.188051 0.095440
0.216630 0.194042 0.097142
0.236031 0.200033 0.098844
0.257151 0.205323 0.100545
0.288586 0.206412 0.102235
0.320020 0.207500 0.103924
0.351455 0.208589 0.105614
0.382889 0.209678 0.107304
0.411943 0.211723 0.108738
0.440044 0.214151 0.110071
0.468145 0.216579 0.111403
0.496246 0.219007 0.112735
0.522101 0.221684 0.113905
0.542340 0.224984 0.114668
0.562578 0.228283 0.115431
0.582817 0.231583 0.116194
0.603056 0.234883 0.116957
0.615457 0.238240 0.117275
0.626551 0.241607 0.117519
0.637645 0.244975 0.117763
0.648739 0.248342 0.118006
0.656597 0.251110 0.118051
0.660138 0.253079 0.117831
0.663680 0.255048 0.117610
0.667221 0.257017 0.117389
0.670763 0.258986 0.117169
0.123219 0.144078 0.087337
0.134715 0.153737 0.088774
0.146211 0.163396 0.090212
0.157707 0.173054 0.091649
0.169204 0.182713 0.093086
0.183659 0.191215 0.094796
0.200333 0.198850 0.096710
0.217007 0.206484 0.098624
0.233681 0.214119 0.100538
0.252587 0.220713 0.102434
0.284881 0.221067 0.104223
0.317174 0.221421 0.106013
0.349468 0.221775 0.107802
0.381761 0.222129 0.109592
0.411514 0.223582 0.111072
0.440250 0.225475 0.112429
0.468986 0.227367 0.113787
0.497722 0.229260 0.115144
0.524098 0.231437 0.116324
0.544574 0.234326 0.117062
0.565049 0.237214 0.117801
0.585525 0.240103 0.118539
0.606000 0.242992 0.119277
0.618328 0.246035 0.119581
0.629297 0.249103 0.119812
0.640267 0.252171 0.120043
0.651237 0.255240 0.120274
0.658906 0.257752 0.120312
0.662173 0.259522 0.120091
0.665441 0.261291 0.119871
0.668708 0.263061 0.119650
0.671976 0.264831 0.119430
0.128575 0.151160 0.087786
0.140580 0.161096 0.089335
0.152585 0.171032 0.090885
0.164590 0.180969 0.092434
0.176595 0.190905 0.093983
0.189948 0.200353 0.095859
0.204311 0.209436 0.097979
0.218675 0.218518 0.100099
0.233039 0.227600 0.102220
0.249999 0.235375 0.104310
0.282542 0.235304 0.106218
0.315085 0.235233 0.108127
0.347627 0.235162 0.110036
0.380170 0.235091 0.111944
0.410465 0.236003 0.113485
0.439861 0.237309 0.114877
0.469257 0.238614 0.116270
0.498653 0.239920 0.117663
0.525582 0.241551 0.118864
0.546344 0.243997 0.119584
0.567106 0.246443 0.120304
0.587868 0.248889 0.121025
0.608630 0.251334 0.121745
0.620930 0.254042 0.122039
0.631819 0.256794 0.122261
0.642709 0.259546 0.122483
0.653599 0.262298 0.122706
0.661118 0.264545 0.122739
0.664144 0.266119 0.122520
0.667169 0.267693 0.122301
0.670195 0.269267 0.122083
0.673221 0.270842 0.121864
0.136295 0.159707 0.088613
0.148574 0.169718 0.090200
0.160853 0.179729 0.091787
0.173132 0.189740 0.093373
0.185411 0.199751 0.094960
0.198988 0.209388 0.096951
0.213538 0.218744 0.099246
0.228088 0.228100 0.101540
0.242639 0.237457 0.103835
0.259272 0.245671 0.106108
0.288403 0.247032 0.108253
0.317534 0.248392 0.110399
0.346665 0.249753 0.112544
0.375796 0.251114 0.114689
0.405694 0.251795 0.116368
0.435900 0.252204 0.117860
0.466105 0.252613 0.119353
0.496310 0.253022 0.120845
0.523985 0.253832 0.122124
0.545332 0.255643 0.122869
0.566679 0.257453 0.123615
0.588026 0.259264 0.124360
0.609373 0.261075 0.125105
0.621917 0.263329 0.125413
0.632993 0.265658 0.125648
0.644070 0.267986 0.125883
0.655146 0.270315 0.126117
0.662751 0.272245 0.126163
0.665727 0.273645 0.125957
0.668703 0.275045 0.125750
0.671678 0.276445 0.125544
0.674654 0.277845 0.125338
0.144015 0.168254 0.089440
0.156568 0.178340 0.091064
0.169121 0.188425 0.092688
0.181674 0.198511 0.094312
0.194226 0.208597 0.095936
0.208027 0.218422 0.098043
0.222764 0.228052 0.100512
0.237502 0.237683 0.102981
0.252239 0.247313 0.105450
0.268545 0.255966 0.107907
0.294264 0.258759 0.110288
0.319983 0.261552 0.112670
0.345703 0.264344 0.115052
0.371422 0.267137 0.117434
0.400924 0.267587 0.119251
0.431938 0.267099 0.120843
0.462953 0.266612 0.122435
0.493968 0.266125 0.124027
0.522388 0.266112 0.125385
0.544320 0.267288 0.126155
0.566252 0.268464 0.126925
0.588184 0.269640 0.127695
0.610117 0.270816 0.128465
0.622904 0.272616 0.128787
0.634167 0.274521 0.129035
0.645430 0.276427 0.129282
0.656694 0.278332 0.129529
0.664384 0.279945 0.129587
0.667310 0.281171 0.129393
0.670236 0.282397 0.129199
0.673162 0.283622 0.129006
0.676088 0.284848 0.128812
0.151735 0.176801 0.090267
0.164562 0.186961 0.091929
0.177388 0.197122 0.093590
0.190215 0.207282 0.095252
0.203042 0.217442 0.096913
0.217067 0.227456 0.099135
0.231991 0.237361 0.101779
0.246915 0.247265 0.104422
0.261839 0.257169 0.107065
0.277818 0.266262 0.109705
0.300125 0.270486 0.112323
0.322433 0.274711 0.114942
0.344740 0.278936 0.117560
0.367048 0.283160 0.120178
0.396153 0.283379 0.122135
0.427977 0.281995 0.123826
0.459801 0.280611 0.125518
0.491625 0.279227 0.127210
0.520790 0.278393 0.128645
0.543308 0.278934 0.129440
0.565825 0.279475 0.130235
0.588343 0.280015 0.131030
0.610860 0.280556 0.131825
0.623891 0.281903 0.132162
0.635341 0.283385 0.132421
0.646791 0.284867 0.132681
0.658241 0.286349 0.132941
0.666017 0.287646 0.133011
0.668893 0.288697 0.132830
0.671769 0.289748 0.132649
0.674645 0.290800 0.132467
0.677522 0.291851 0.132286
0.159455 0.185348 0.091095
0.172556 0.195583 0.092793
0.185656 0.205818 0.094492
0.198757 0.216053 0.096191
0.211858 0.226288 0.097889
0.226107 0.236491 0.100228
0.241217 0.246669 0.103045
0.256328 0.256847 0.105863
0.271439 0.267025 0.108680
0.287090 0.276557 0.111503
0.305986 0.282214 0.114358
0.324882 0.287870 0.117213
0.343778 0.293527 0.120068
0.362674 0.299183 0.122923
0.391382 0.299171 0.125018
0.424016 0.296890 0.126809
0.456649 0.294610 0.128601
0.489283 0.292330 0.130392
0.519193 0.290674 0.131905
0.542296 0.290579 0.132726
0.565398 0.290485 0.133546
0.588501 0.290391 0.134366
0.611604 0.290297 0.135186
0.624878 0.291190 0.135536
0.636515 0.292249 0.135808
0.648152 0.293307 0.136080
0.659789 0.294365 0.136352
0.667650 0.295346 0.136436
0.670476 0.296223 0.136267
0.673303 0.297100 0.136098
0.676129 0.297977 0.135929
0.678955 0.298854 0.135760
0.169380 0.194998 0.092316
0.182613 0.205219 0.094052
0.195845 0.215440 0.095788
0.209077 0.225660 0.097524
0.222310 0.235881 0.099260
0.236575 0.246107 0.101683
0.251614 0.256337 0.104622
0.266654 0.266567 0.107560
0.281693 0.276796 0.110499
0.297114 0.286477 0.113472
0.314822 0.292863 0.116652
0.332529 0.299248 0.119833
0.350237 0.305634 0.123013
0.367945 0.312020 0.126194
0.395018 0.312617 0.128732
0.425837 0.310899 0.131015
0.456656 0.309181 0.133297
0.487475 0.307462 0.135579
0.516282 0.305978 0.137463
0.540059 0.305080 0.138353
0.563835 0.304182 0.139242
0.587612 0.303283 0.140131
0.611389 0.302385 0.141021
0.625065 0.302725 0.141392
0.637058 0.303271 0.141676
0.649050 0.303817 0.141961
0.661043 0.304363 0.142245
0.669127 0.304961 0.142345
0.672002 0.305628 0.142197
0.674876 0.306295 0.142050
0.677751 0.306962 0.141902
0.680625 0.307629 0.141754
0.180188 0.205089 0.093694
0.193495 0.215260 0.095468
0.206802 0.225431 0.097241
0.220109 0.235602 0.099014
0.233416 0.245773 0.100788
0.247614 0.255956 0.103284
0.262479 0.266149 0.106322
0.277344 0.276341 0.109360
0.292209 0.286533 0.112398
0.307438 0.296246 0.115508
0.324847 0.303080 0.119050
0.342256 0.309914 0.122592
0.359665 0.316748 0.126133
0.377073 0.323582 0.129675
0.402015 0.325126 0.132779
0.429971 0.324553 0.135709
0.457926 0.323980 0.138638
0.485881 0.323407 0.141568
0.512845 0.322492 0.143940
0.537332 0.320723 0.144916
0.561818 0.318953 0.145893
0.586305 0.317183 0.146869
0.610792 0.315413 0.147846
0.624932 0.315159 0.148240
0.637348 0.315157 0.148537
0.649763 0.315155 0.148834
0.662179 0.315153 0.149131
0.670543 0.315342 0.149248
0.673505 0.315785 0.149126
0.676467 0.316228 0.149003
0.679428 0.316671 0.148880
0.682390 0.317114 0.148757
0.190996 0.215180 0.095073
0.204378 0.225301 0.096883
0.217760 0.235422 0.098694
0.231141 0.245543 0.100505
0.244523 0.255665 0.102316
0.258653 0.265805 0.104885
0.273344 0.275960 0.108023
0.288035 0.286115 0.111160
0.302725 0.296270 0.114298
0.317762 0.306015 0.117545
0.334872 0.313297 0.121448
0.351982 0.320580 0.125350
0.369092 0.327862 0.129253
0.386202 0.335144 0.133156
0.409013 0.337634 0.136826
0.434104 0.338207 0.140403
0.459196 0.338779 0.143980
0.484287 0.339352 0.147557
0.509409 0.339007 0.150416
0.534605 0.336365 0.151480
0.559801 0.333724 0.152544
0.584998 0.331082 0.153607
0.610194 0.328441 0.154671
0.624798 0.327592 0.155088
0.637638 0.327043 0.155398
0.650477 0.326493 0.155707
0.663316 0.325943 0.156017
0.671959 0.325723 0.156152
0.675008 0.325942 0.156054
0.678057 0.326161 0.155956
0.681106 0.326379 0.155858
0.684155 0.326598 0.155760
0.201804 0.225271 0.096451
0.215260 0.235342 0.098299
0.228717 0.245414 0.100148
0.242173 0.255485 0.101996
0.255630 0.265556 0.103844
0.269692 0.275654 0.106486
0.284208 0.285772 0.109723
0.298725 0.295890 0.112961
0.313242 0.306007 0.116198
0.328086 0.315784 0.119582
0.344897 0.323515 0.123846
0.361708 0.331245 0.128109
0.378520 0.338976 0.132373
0.395331 0.346706 0.136637
0.416011 0.350142 0.140873
0.438238 0.351861 0.145097
0.460466 0.353579 0.149322
0.482693 0.355297 0.153546
0.505972 0.355521 0.156893
0.531878 0.352008 0.158044
0.557784 0.348495 0.159194
0.583690 0.344982 0.160345
0.609596 0.341468 0.161496
0.624665 0.340026 0.161937
0.637928 0.338928 0.162258
0.651190 0.337831 0.162580
0.664453 0.336733 0.162902
0.673375 0.336104 0.163055
0.676511 0.336099 0.162982
0.679647 0.336093 0.162909
0.682783 0.336088 0.162836
0.685919 0.336083 0.162763
0.213368 0.235693 0.097877
0.226842 0.245689 0.099784
0.240316 0.255686 0.101691
0.253791 0.265683 0.103598
0.267265 0.275679 0.105504
0.281209 0.285702 0.108239
0.295505 0.295743 0.111593
0.309801 0.305784 0.114948
0.324097 0.315825 0.118303
0.338697 0.325584 0.121836
0.355124 0.333653 0.126436
0.371551 0.341722 0.131035
0.387978 0.349790 0.135635
0.404405 0.357859 0.140235
0.423359 0.362136 0.145035
0.443324 0.364896 0.149914
0.463289 0.367657 0.154793
0.483254 0.370418 0.159672
0.504956 0.371299 0.163626
0.530999 0.367484 0.165266
0.557042 0.363669 0.166906
0.583085 0.359853 0.168546
0.609128 0.356038 0.170186
0.624594 0.354052 0.170707
0.638298 0.352371 0.171041
0.652001 0.350690 0.171376
0.665705 0.349009 0.171710
0.674928 0.347942 0.171878
0.678176 0.347695 0.171822
0.681424 0.347448 0.171767
0.684672 0.347201 0.171712
0.687920 0.346953 0.171657
0.226823 0.246942 0.099421
0.240172 0.256801 0.101440
0.253522 0.266661 0.103459
0.266872 0.276521 0.105478
0.280221 0.286381 0.107497
0.293920 0.296244 0.110371
0.307880 0.306111 0.113888
0.321839 0.315978 0.117405
0.335799 0.325845 0.120921
0.350026 0.335464 0.124632
0.365855 0.343595 0.129506
0.381685 0.351725 0.134380
0.397514 0.359856 0.139253
0.413343 0.367987 0.144127
0.431584 0.372842 0.149485
0.450790 0.376387 0.155037
0.469995 0.379932 0.160588
0.489200 0.383477 0.166140
0.509989 0.385240 0.171001
0.534738 0.382545 0.174135
0.559486 0.379850 0.177269
0.584234 0.377155 0.180403
0.608982 0.374460 0.183537
0.624679 0.372058 0.184282
0.638869 0.369705 0.184629
0.653058 0.367352 0.184976
0.667247 0.364998 0.185323
0.676822 0.363425 0.185498
0.680245 0.362891 0.185443
0.683667 0.362358 0.185387
0.687089 0.361824 0.185332
0.690512 0.361290 0.185277
0.240277 0.258191 0.100965
0.253502 0.267913 0.103096
0.266728 0.277636 0.105227
0.279953 0.287359 0.107358
0.293178 0.297082 0.109489
0.306631 0.306787 0.112504
0.320255 0.316480 0.116183
0.333878 0.326172 0.119861
0.347502 0.335865 0.123540
0.361355 0.345343 0.127428
0.376587 0.353536 0.132576
0.391818 0.361729 0.137724
0.407050 0.369922 0.142871
0.422282 0.378115 0.148019
0.439809 0.383549 0.153936
0.458255 0.387878 0.160160
0.476701 0.392208 0.166383
0.495147 0.396537 0.172607
0.515023 0.399180 0.178375
0.538477 0.397606 0.183004
0.561930 0.396032 0.187632
0.585383 0.394457 0.192261
0.608836 0.392883 0.196889
0.624765 0.390065 0.197858
0.639440 0.387039 0.198217
0.654115 0.384013 0.198577
0.668790 0.380988 0.198936
0.678717 0.378907 0.199118
0.682313 0.378087 0.199063
0.685910 0.377267 0.199007
0.689507 0.376447 0.198952
0.693103 0.375627 0.198897
0.253732 0.269440 0.102509
0.266833 0.279025 0.104752
0.279933 0.288611 0.106995
0.293034 0.298197 0.109238
0.306135 0.307783 0.111481
0.319342 0.317330 0.114637
0.332629 0.326848 0.118477
0.345917 0.336366 0.122318
0.359204 0.345885 0.126158
0.372684 0.355222 0.130224
0.387318 0.363478 0.135646
0.401952 0.371733 0.141068
0.416586 0.379988 0.146489
0.431220 0.388244 0.151911
0.448034 0.394255 0.158386
0.465721 0.399369 0.165282
0.483407 0.404483 0.172179
0.501093 0.409597 0.179075
0.520057 0.413120 0.185750
0.542216 0.412667 0.191873
0.564374 0.412213 0.197995
0.586532 0.411759 0.204118
0.608690 0.411306 0.210240
0.624850 0.408071 0.211434
0.640011 0.404373 0.211805
0.655171 0.400675 0.212177
0.670332 0.396977 0.212549
0.680611 0.394390 0.212738
0.684382 0.393283 0.212683
0.688153 0.392177 0.212628
0.691924 0.391071 0.212572
0.695695 0.389964 0.212517
0.267187 0.280688 0.104053
0.280163 0.290137 0.106408
0.293139 0.299586 0.108763
0.306115 0.309035 0.111118
0.319091 0.318484 0.113473
0.332053 0.327873 0.116770
0.345004 0.337217 0.120772
0.357956 0.346561 0.124774
0.370907 0.355904 0.128776
0.384013 0.365102 0.133021
0.398049 0.373419 0.138716
0.412086 0.381737 0.144412
0.426122 0.390054 0.150107
0.440158 0.398372 0.155803
0.456259 0.404962 0.162837
0.473186 0.410860 0.170405
0.490113 0.416758 0.177974
0.507040 0.422657 0.185543
0.525091 0.427060 0.193125
0.545954 0.427728 0.200742
0.566818 0.428395 0.208358
0.587681 0.429062 0.215975
0.608544 0.429729 0.223592
0.624936 0.426078 0.225009
0.640582 0.421707 0.225394
0.656228 0.417337 0.225778
0.671874 0.412966 0.226162
0.682505 0.409872 0.226358
0.686451 0.408479 0.226303
0.690396 0.407087 0.226248
0.694341 0.405694 0.226192
0.698287 0.404301 0.226137
0.282295 0.292221 0.105219
0.294934 0.301458 0.107835
0.307572 0.310695 0.110452
0.320210 0.319933 0.113069
0.332848 0.329170 0.115685
0.345437 0.338356 0.119241
0.357988 0.347504 0.123501
0.370539 0.356653 0.127761
0.383090 0.365801 0.132021
0.395763 0.374819 0.136527
0.409170 0.383060 0.142507
0.422576 0.391302 0.148488
0.435983 0.399543 0.154468
0.449389 0.407784 0.160448
0.464699 0.414622 0.167952
0.480771 0.420899 0.176065
0.496842 0.427177 0.184178
0.512913 0.433454 0.192291
0.530047 0.438467 0.200588
0.549840 0.440318 0.209347
0.569632 0.442170 0.218106
0.589425 0.444022 0.226864
0.609217 0.445874 0.235623
0.625954 0.443371 0.239062
0.642182 0.440142 0.241615
0.658410 0.436914 0.244167
0.674637 0.433685 0.246720
0.685658 0.431103 0.248141
0.689735 0.429381 0.248054
0.693812 0.427659 0.247967
0.697888 0.425937 0.247880
0.701965 0.424215 0.247792
0.297680 0.303801 0.106322
0.309945 0.312814 0.109225
0.322209 0.321827 0.112128
0.334474 0.330840 0.115031
0.346739 0.339853 0.117933
0.358932 0.348830 0.121769
0.371072 0.357779 0.126303
0.383212 0.366728 0.130837
0.395353 0.375677 0.135371
0.407583 0.384510 0.140152
0.420355 0.392652 0.146419
0.433126 0.400793 0.152686
0.445898 0.408935 0.158952
0.458669 0.417076 0.165219
0.473175 0.424108 0.173178
0.488375 0.430697 0.181814
0.503574 0.437285 0.190450
0.518774 0.443874 0.199086
0.534991 0.449451 0.208066
0.553750 0.452498 0.217908
0.572509 0.455545 0.227750
0.591267 0.458592 0.237592
0.610026 0.461639 0.247434
0.627128 0.460545 0.253194
0.643954 0.458761 0.258275
0.660779 0.456977 0.263355
0.677604 0.455193 0.268435
0.689020 0.453291 0.271285
0.693221 0.451233 0.271160
0.697422 0.449175 0.271036
0.701624 0.447117 0.270911
0.705825 0.445059 0.270787
0.313065 0.315381 0.107424
0.324956 0.324170 0.110614
0.336847 0.332959 0.113803
0.348738 0.341747 0.116992
0.360629 0.350536 0.120182
0.372428 0.359303 0.124296
0.384157 0.368053 0.129104
0.395886 0.376803 0.133912
0.407615 0.385552 0.138720
0.419403 0.394201 0.143778
0.431539 0.402243 0.150331
0.443676 0.410285 0.156884
0.455813 0.418326 0.163437
0.467949 0.426368 0.169990
0.481651 0.433594 0.178404
0.495979 0.440494 0.187563
0.510307 0.447394 0.196722
0.524635 0.454294 0.205881
0.539934 0.460435 0.215544
0.557659 0.464677 0.226469
0.575385 0.468919 0.237395
0.593110 0.473162 0.248320
0.610836 0.477404 0.259245
0.628302 0.477719 0.267327
0.645725 0.477379 0.274935
0.663148 0.477039 0.282542
0.680571 0.476700 0.290150
0.692381 0.475479 0.294428
0.696707 0.473085 0.294266
0.701033 0.470691 0.294105
0.705359 0.468297 0.293943
0.709685 0.465903 0.293781
0.328449 0.326960 0.108527
0.339967 0.335525 0.112003
0.351484 0.344090 0.115479
0.363002 0.352655 0.118954
0.374520 0.361220 0.122430
0.385923 0.369776 0.126824
0.397242 0.378327 0.131906
0.408560 0.386877 0.136988
0.419878 0.395428 0.142070
0.431223 0.403892 0.147403
0.442724 0.411834 0.154242
0.454226 0.419776 0.161081
0.465727 0.427718 0.167921
0.477229 0.435661 0.174760
0.490127 0.443081 0.183630
0.503583 0.450292 0.193312
0.517040 0.457503 0.202994
0.530496 0.464714 0.212676
0.544877 0.471419 0.223022
0.561569 0.476856 0.235031
0.578261 0.482294 0.247039
0.594953 0.487732 0.259048
0.611645 0.493169 0.271056
0.629476 0.494893 0.281459
0.647497 0.495998 0.291595
0.665518 0.497102 0.301730
0.683538 0.498207 0.311866
0.695743 0.497668 0.317572
0.700194 0.494937 0.317373
0.704644 0.492207 0.317173
0.709095 0.489477 0.316974
0.713545 0.486746 0.316775
0.344330 0.338375 0.109181
0.355309 0.346652 0.113050
0.366287 0.354928 0.116919
0.377266 0.363205 0.120788
0.388245 0.371481 0.124656
0.399170 0.379807 0.129430
0.410056 0.388169 0.134882
0.420943 0.396531 0.140334
0.431829 0.404893 0.145786
0.442720 0.413180 0.151484
0.453646 0.421017 0.158657
0.464571 0.428855 0.165831
0.475496 0.436692 0.173005
0.486421 0.444529 0.180179
0.498600 0.452065 0.189483
0.511281 0.459481 0.199640
0.523962 0.466897 0.209797
0.536643 0.474312 0.219954
0.550201 0.481425 0.230913
0.565950 0.487781 0.243876
0.581699 0.494136 0.256840
0.597448 0.500492 0.269804
