filters/luts/Suburbs 04.cube
# Created by: Adobe Photoshop Export Color Lookup Plugin
# LUT by SparkleStock. Enhanced with VOXCOLOR algorithms.
LUT_3D_SIZE 32
0.046886 0.082051 0.042979
0.071937 0.086116 0.041561
0.096987 0.090181 0.040143
0.122037 0.094246 0.038725
0.147087 0.098310 0.037307
0.172138 0.102375 0.035890
0.198645 0.106676 0.035496
0.225444 0.111024 0.035307
0.252243 0.115373 0.035118
0.279042 0.119721 0.034929
0.305841 0.124069 0.034739
0.331884 0.129048 0.034676
0.357549 0.134342 0.034676
0.383213 0.139635 0.034676
0.408878 0.144929 0.034676
0.434543 0.150223 0.034676
0.458057 0.156012 0.034487
0.479420 0.162299 0.034109
0.500784 0.168585 0.033731
0.522147 0.174871 0.033353
0.543511 0.181157 0.032975
0.562842 0.187554 0.032502
0.578109 0.194171 0.031841
0.593375 0.200788 0.031179
0.608642 0.207405 0.030517
0.623908 0.214022 0.029855
0.638040 0.220403 0.029241
0.646500 0.225602 0.028863
0.654961 0.230801 0.028485
0.663421 0.236000 0.028107
0.671882 0.241199 0.027729
0.680342 0.246398 0.027350
0.052842 0.090417 0.044539
0.075550 0.095534 0.043716
0.098258 0.100651 0.042892
0.120967 0.105767 0.042069
0.143675 0.110884 0.041246
0.166383 0.116001 0.040422
0.193637 0.120134 0.039914
0.221799 0.124071 0.039469
0.249961 0.128008 0.039024
0.278123 0.131944 0.038579
0.306285 0.135881 0.038133
0.333337 0.140485 0.037869
0.359834 0.145421 0.037695
0.386331 0.150358 0.037521
0.412828 0.155295 0.037348
0.439325 0.160232 0.037174
0.463356 0.165670 0.036866
0.484921 0.171608 0.036424
0.506486 0.177547 0.035982
0.528051 0.183485 0.035539
0.549616 0.189424 0.035097
0.568977 0.195470 0.034582
0.583933 0.201730 0.033920
0.598888 0.207990 0.033258
0.613844 0.214251 0.032597
0.628799 0.220511 0.031935
0.642584 0.226532 0.031324
0.650513 0.231356 0.030964
0.658443 0.236180 0.030604
0.666373 0.241004 0.030244
0.674303 0.245828 0.029884
0.682232 0.250652 0.029525
0.058797 0.098783 0.046099
0.079164 0.104952 0.045870
0.099530 0.111121 0.045641
0.119896 0.117289 0.045413
0.140263 0.123458 0.045184
0.160629 0.129627 0.044955
0.188628 0.133593 0.044333
0.218153 0.137118 0.043631
0.247678 0.140643 0.042930
0.277203 0.144168 0.042229
0.306728 0.147693 0.041527
0.334790 0.151921 0.041062
0.362119 0.156501 0.040714
0.389449 0.161081 0.040366
0.416779 0.165661 0.040019
0.444108 0.170241 0.039671
0.468656 0.175327 0.039244
0.490422 0.180918 0.038738
0.512188 0.186509 0.038232
0.533954 0.192100 0.037726
0.555720 0.197691 0.037220
0.575113 0.203386 0.036662
0.589757 0.209289 0.036000
0.604401 0.215193 0.035338
0.619046 0.221096 0.034676
0.633690 0.227000 0.034015
0.647127 0.232661 0.033406
0.654526 0.237110 0.033065
0.661925 0.241559 0.032723
0.669325 0.246008 0.032382
0.676724 0.250457 0.032040
0.684123 0.254906 0.031699
0.064752 0.107149 0.047658
0.082777 0.114370 0.048024
0.100802 0.121590 0.048390
0.118826 0.128811 0.048756
0.136851 0.136032 0.049122
0.154875 0.143253 0.049488
0.183620 0.147051 0.048751
0.214508 0.150164 0.047794
0.245396 0.153277 0.046836
0.276284 0.156391 0.045879
0.307172 0.159504 0.044921
0.336243 0.163358 0.044254
0.364405 0.167581 0.043733
0.392567 0.171804 0.043212
0.420729 0.176027 0.042690
0.448891 0.180251 0.042169
0.473956 0.184984 0.041623
0.495923 0.190227 0.041053
0.517891 0.195471 0.040482
0.539858 0.200714 0.039912
0.561825 0.205957 0.039342
0.581248 0.211302 0.038741
0.595581 0.216849 0.038079
0.609915 0.222395 0.037418
0.624248 0.227942 0.036756
0.638581 0.233489 0.036094
0.651671 0.238790 0.035489
0.658539 0.242864 0.035166
0.665408 0.246938 0.034843
0.672276 0.251012 0.034519
0.679145 0.255086 0.034196
0.686014 0.259159 0.033873
0.070708 0.115515 0.049218
0.086390 0.123787 0.050179
0.102073 0.132060 0.051139
0.117756 0.140333 0.052100
0.133439 0.148606 0.053060
0.149121 0.156879 0.054021
0.178611 0.160509 0.053170
0.210862 0.163211 0.051956
0.243113 0.165912 0.050742
0.275365 0.168614 0.049529
0.307616 0.171316 0.048315
0.337696 0.174794 0.047447
0.366690 0.178661 0.046752
0.395685 0.182527 0.046057
0.424679 0.186394 0.045361
0.453674 0.190260 0.044666
0.479256 0.194641 0.044001
0.501424 0.199537 0.043367
0.523593 0.204433 0.042733
0.545761 0.209328 0.042098
0.567930 0.214224 0.041464
0.587383 0.219218 0.040821
0.601405 0.224408 0.040159
0.615428 0.229598 0.039497
0.629450 0.234788 0.038836
0.643472 0.239978 0.038174
0.656214 0.244919 0.037572
0.662552 0.248618 0.037267
0.668890 0.252317 0.036962
0.675228 0.256016 0.036657
0.681566 0.259714 0.036352
0.687904 0.263413 0.036047
0.076663 0.123880 0.050778
0.090004 0.133205 0.052333
0.103345 0.142530 0.053888
0.116686 0.151855 0.055443
0.130026 0.161180 0.056999
0.143367 0.170505 0.058554
0.173602 0.173967 0.057588
0.207217 0.176257 0.056118
0.240831 0.178547 0.054649
0.274445 0.180837 0.053179
0.308059 0.183127 0.051709
0.339149 0.186231 0.050640
0.368976 0.189740 0.049771
0.398803 0.193250 0.048902
0.428630 0.196760 0.048032
0.458457 0.200270 0.047163
0.484555 0.204299 0.046380
0.506925 0.208847 0.045681
0.529295 0.213395 0.044983
0.551665 0.217943 0.044285
0.574035 0.222491 0.043587
0.593518 0.227134 0.042900
0.607230 0.231967 0.042239
0.620941 0.236800 0.041577
0.634652 0.241633 0.040915
0.648364 0.246467 0.040254
0.660758 0.251048 0.039654
0.666565 0.254372 0.039368
0.672372 0.257696 0.039081
0.678180 0.261020 0.038795
0.683987 0.264343 0.038508
0.689795 0.267667 0.038221
0.084391 0.132876 0.052062
0.097471 0.142415 0.053823
0.110551 0.151953 0.055584
0.123631 0.161491 0.057345
0.136711 0.171030 0.059106
0.149791 0.180568 0.060867
0.177994 0.184866 0.060465
0.209220 0.188117 0.059631
0.240447 0.191368 0.058797
0.271673 0.194618 0.057963
0.302900 0.197869 0.057129
0.334003 0.200932 0.056121
0.365043 0.203902 0.055024
0.396084 0.206872 0.053928
0.427125 0.209842 0.052832
0.458165 0.212813 0.051736
0.485184 0.216329 0.050772
0.508182 0.220392 0.049941
0.531181 0.224456 0.049110
0.554179 0.228519 0.048279
0.577177 0.232582 0.047448
0.597107 0.236773 0.046664
0.610904 0.241219 0.045971
0.624701 0.245665 0.045279
0.638497 0.250111 0.044587
0.652294 0.254557 0.043895
0.664717 0.258775 0.043275
0.670268 0.261853 0.043014
0.675819 0.264931 0.042753
0.681371 0.268009 0.042492
0.686922 0.271088 0.042232
0.692473 0.274166 0.041971
0.092473 0.141999 0.053291
0.105709 0.151583 0.055180
0.118944 0.161167 0.057069
0.132180 0.170751 0.058958
0.145416 0.180335 0.060847
0.158651 0.189919 0.062736
0.184264 0.195254 0.063034
0.212353 0.199740 0.063015
0.240442 0.204225 0.062995
0.268531 0.208711 0.062975
0.296620 0.213196 0.062955
0.327537 0.216287 0.062059
0.359867 0.218681 0.060725
0.392198 0.221075 0.059391
0.424528 0.223468 0.058057
0.456859 0.225862 0.056723
0.484880 0.228834 0.055567
0.508591 0.232385 0.054590
0.532303 0.235936 0.053612
0.556014 0.239487 0.052635
0.579726 0.243038 0.051658
0.600187 0.246756 0.050763
0.614149 0.250809 0.050035
0.628110 0.254861 0.049306
0.642071 0.258914 0.048577
0.656033 0.262967 0.047848
0.668559 0.266820 0.047202
0.673909 0.269679 0.046969
0.679259 0.272538 0.046736
0.684609 0.275396 0.046502
0.689959 0.278255 0.046269
0.695309 0.281114 0.046036
0.100555 0.151121 0.054520
0.113946 0.160750 0.056537
0.127338 0.170380 0.058554
0.140729 0.180010 0.060571
0.154120 0.189640 0.062588
0.167511 0.199269 0.064605
0.190535 0.205642 0.065603
0.215487 0.211362 0.066398
0.240438 0.217083 0.067192
0.265389 0.222803 0.067987
0.290340 0.228524 0.068781
0.321070 0.231642 0.067998
0.354691 0.233459 0.066426
0.388311 0.235277 0.064854
0.421932 0.237094 0.063282
0.455552 0.238912 0.061710
0.484575 0.241340 0.060362
0.509000 0.244378 0.059239
0.533425 0.247417 0.058115
0.557850 0.250456 0.056991
0.582275 0.253494 0.055867
0.603267 0.256740 0.054863
0.617393 0.260399 0.054098
0.631519 0.264058 0.053332
0.645645 0.267717 0.052567
0.659771 0.271377 0.051802
0.672401 0.274866 0.051130
0.677550 0.277505 0.050924
0.682699 0.280144 0.050718
0.687847 0.282783 0.050512
0.692996 0.285423 0.050306
0.698145 0.288062 0.050100
0.108638 0.160243 0.055749
0.122184 0.169918 0.057894
0.135731 0.179594 0.060039
0.149278 0.189269 0.062184
0.162824 0.198945 0.064329
0.176371 0.208620 0.066475
0.196806 0.216029 0.068173
0.218620 0.222985 0.069781
0.240433 0.229940 0.071390
0.262246 0.236896 0.072998
0.284060 0.243851 0.074607
0.314604 0.246997 0.073936
0.349515 0.248238 0.072126
0.384425 0.249479 0.070317
0.419335 0.250720 0.068507
0.454245 0.251961 0.066697
0.484270 0.253845 0.065157
0.509408 0.256371 0.063887
0.534547 0.258898 0.062617
0.559686 0.261424 0.061347
0.584824 0.263950 0.060077
0.606347 0.266723 0.058963
0.620638 0.269989 0.058161
0.634928 0.273255 0.057359
0.649219 0.276521 0.056557
0.663510 0.279787 0.055755
0.676243 0.282911 0.055057
0.681191 0.285331 0.054879
0.686138 0.287751 0.054700
0.691086 0.290170 0.054522
0.696033 0.292590 0.054344
0.700981 0.295010 0.054165
0.116720 0.169365 0.056977
0.130422 0.179086 0.059251
0.144124 0.188807 0.061524
0.157826 0.198528 0.063797
0.171528 0.208250 0.066071
0.185231 0.217971 0.068344
0.203077 0.226417 0.070742
0.221753 0.234607 0.073164
0.240428 0.242798 0.075587
0.259104 0.250988 0.078010
0.277780 0.259179 0.080432
0.308138 0.262352 0.079875
0.344338 0.263017 0.077827
0.380538 0.263681 0.075780
0.416739 0.264346 0.073732
0.452939 0.265011 0.071684
0.483965 0.266350 0.069952
0.509817 0.268364 0.068536
0.535669 0.270378 0.067119
0.561521 0.272393 0.065703
0.587374 0.274407 0.064287
0.609427 0.276707 0.063063
0.623882 0.279579 0.062224
0.638337 0.282452 0.061386
0.652793 0.285324 0.060547
0.667248 0.288197 0.059709
0.680085 0.290957 0.058985
0.684832 0.293157 0.058834
0.689578 0.295357 0.058683
0.694324 0.297557 0.058532
0.699070 0.299757 0.058381
0.703817 0.301958 0.058230
0.126630 0.179085 0.058805
0.140323 0.188737 0.061170
0.154016 0.198388 0.063534
0.167709 0.208039 0.065899
0.181402 0.217690 0.068264
0.195095 0.227341 0.070629
0.211931 0.236159 0.073471
0.229396 0.244810 0.076409
0.246861 0.253461 0.079347
0.264326 0.262111 0.082285
0.281791 0.270762 0.085223
0.310793 0.274433 0.085265
0.345563 0.275613 0.083857
0.380333 0.276793 0.082450
0.415103 0.277973 0.081043
0.449873 0.279153 0.079635
0.480659 0.280467 0.078138
0.507463 0.281914 0.076551
0.534266 0.283360 0.074964
0.561070 0.284807 0.073377
0.587874 0.286254 0.071790
0.610687 0.288027 0.070425
0.625521 0.290451 0.069508
0.640354 0.292875 0.068590
0.655187 0.295300 0.067672
0.670021 0.297724 0.066754
0.683167 0.300073 0.065965
0.687877 0.302047 0.065817
0.692586 0.304022 0.065669
0.697296 0.305996 0.065521
0.702006 0.307971 0.065373
0.706716 0.309945 0.065225
0.137453 0.189106 0.060932
0.151055 0.198629 0.063370
0.164656 0.208152 0.065808
0.178258 0.217675 0.068246
0.191859 0.227198 0.070684
0.205461 0.236721 0.073122
0.222076 0.245578 0.076281
0.239294 0.254302 0.079585
0.256512 0.263026 0.082889
0.273730 0.271750 0.086193
0.290948 0.280475 0.089497
0.318007 0.284877 0.090380
0.349987 0.287118 0.090052
0.381967 0.289359 0.089724
0.413947 0.291601 0.089396
0.445927 0.293842 0.089069
0.475854 0.295389 0.088020
0.503727 0.296241 0.086249
0.531601 0.297093 0.084479
0.559475 0.297945 0.082709
0.587349 0.298798 0.080939
0.611038 0.300015 0.079419
0.626356 0.301964 0.078401
0.641674 0.303912 0.077383
0.656993 0.305861 0.076364
0.672311 0.307809 0.075346
0.685869 0.309724 0.074471
0.690624 0.311470 0.074314
0.695380 0.313216 0.074157
0.700135 0.314961 0.074000
0.704890 0.316707 0.073842
0.709646 0.318453 0.073685
0.148277 0.199126 0.063059
0.161787 0.208521 0.065570
0.175297 0.217916 0.068081
0.188807 0.227311 0.070592
0.202317 0.236706 0.073103
0.215827 0.246100 0.075614
0.232221 0.254997 0.079091
0.249192 0.263795 0.082761
0.266163 0.272592 0.086431
0.283134 0.281389 0.090101
0.300105 0.290187 0.093771
0.325222 0.295321 0.095495
0.354412 0.298623 0.096247
0.383601 0.301926 0.096998
0.412791 0.305228 0.097750
0.441981 0.308530 0.098502
0.471048 0.310310 0.097901
0.499992 0.310568 0.095948
0.528936 0.310826 0.093995
0.557880 0.311083 0.092042
0.586825 0.311341 0.090089
0.611388 0.312004 0.088413
0.627192 0.313477 0.087294
0.642995 0.314949 0.086175
0.658798 0.316422 0.085056
0.674601 0.317895 0.083937
0.688570 0.319375 0.082977
0.693372 0.320892 0.082811
0.698173 0.322409 0.082644
0.702974 0.323926 0.082478
0.707775 0.325443 0.082312
0.712576 0.326960 0.082146
0.159100 0.209146 0.065186
0.172519 0.218413 0.067770
0.185938 0.227680 0.070354
0.199356 0.236946 0.072939
0.212775 0.246213 0.075523
0.226193 0.255480 0.078107
0.242366 0.264417 0.081901
0.259090 0.273287 0.085937
0.275814 0.282158 0.089973
0.292538 0.291028 0.094008
0.309262 0.299899 0.098044
0.332437 0.305765 0.100610
0.358836 0.310128 0.102441
0.385236 0.314492 0.104272
0.411635 0.318855 0.106104
0.438035 0.323219 0.107935
0.466242 0.325232 0.107782
0.496257 0.324895 0.105646
0.526271 0.324558 0.103510
0.556286 0.324221 0.101374
0.586300 0.323884 0.099238
0.611739 0.323992 0.097407
0.628027 0.324989 0.096188
0.644315 0.325986 0.094968
0.660603 0.326984 0.093748
0.676891 0.327981 0.092529
0.691272 0.329026 0.091483
0.696119 0.330315 0.091308
0.700966 0.331603 0.091132
0.705813 0.332891 0.090957
0.710660 0.334180 0.090782
0.715507 0.335468 0.090606
0.169924 0.219166 0.067313
0.183251 0.228305 0.069970
0.196578 0.237443 0.072628
0.209905 0.246582 0.075285
0.223232 0.255721 0.077943
0.236559 0.264860 0.080600
0.252511 0.273836 0.084711
0.268988 0.282780 0.089113
0.285466 0.291723 0.093514
0.301943 0.300667 0.097916
0.318420 0.309611 0.102318
0.339652 0.316209 0.105725
0.363261 0.321633 0.108636
0.386870 0.327058 0.111547
0.410480 0.332483 0.114457
0.434089 0.337908 0.117368
0.461436 0.340154 0.117664
0.492521 0.339223 0.115345
0.523606 0.338291 0.113026
0.554691 0.337359 0.110707
0.585776 0.336428 0.108388
0.612090 0.335981 0.106401
0.628863 0.336502 0.105081
0.645635 0.337024 0.103761
0.662408 0.337545 0.102440
0.679181 0.338066 0.101120
0.693974 0.338678 0.099989
0.698867 0.339737 0.099804
0.703759 0.340797 0.099620
0.708652 0.341856 0.099435
0.713544 0.342916 0.099251
0.718437 0.343976 0.099067
0.181740 0.229328 0.069558
0.194925 0.238306 0.072348
0.208111 0.247285 0.075138
0.221296 0.256264 0.077928
0.234481 0.265243 0.080718
0.247667 0.274221 0.083508
0.263321 0.283156 0.087939
0.279468 0.292081 0.092697
0.295616 0.301006 0.097456
0.311764 0.309932 0.102214
0.327911 0.318857 0.106973
0.347866 0.325918 0.111140
0.369723 0.332048 0.115011
0.391581 0.338177 0.118882
0.413438 0.344306 0.122753
0.435296 0.350435 0.126624
0.461685 0.353144 0.127768
0.492605 0.352432 0.126186
0.523525 0.351720 0.124603
0.554445 0.351007 0.123021
0.585366 0.350295 0.121438
0.611762 0.349835 0.119905
0.629111 0.349876 0.118470
0.646460 0.349917 0.117035
0.663809 0.349958 0.115600
0.681159 0.349999 0.114166
0.696452 0.350170 0.112934
0.701468 0.350992 0.112718
0.706485 0.351814 0.112501
0.711501 0.352636 0.112285
0.716517 0.353458 0.112068
0.721533 0.354279 0.111852
0.194549 0.239631 0.071921
0.207542 0.248418 0.074903
0.220535 0.257205 0.077885
0.233528 0.265991 0.080868
0.246522 0.274778 0.083850
0.259515 0.283565 0.086832
0.274794 0.292375 0.091584
0.290530 0.301191 0.096690
0.306266 0.310006 0.101796
0.322002 0.318822 0.106903
0.337738 0.327638 0.112009
0.357079 0.334894 0.116852
0.378223 0.341371 0.121565
0.399367 0.347848 0.126278
0.420511 0.354324 0.130991
0.441655 0.360801 0.135703
0.466988 0.364200 0.138096
0.496508 0.364522 0.138170
0.526029 0.364844 0.138243
0.555549 0.365166 0.138316
0.585070 0.365487 0.138389
0.610756 0.365554 0.137917
0.628773 0.365110 0.136354
0.646790 0.364666 0.134791
0.664807 0.364223 0.133229
0.682824 0.363779 0.131666
0.698707 0.363505 0.130318
0.703925 0.364080 0.130047
0.709142 0.364655 0.129776
0.714359 0.365230 0.129504
0.719577 0.365804 0.129233
0.724794 0.366379 0.128961
0.207358 0.249935 0.074284
0.220159 0.258530 0.077458
0.232960 0.267124 0.080633
0.245761 0.275719 0.083807
0.258562 0.284313 0.086982
0.271363 0.292908 0.090156
0.286267 0.301595 0.095230
0.301591 0.310301 0.100683
0.316916 0.319007 0.106137
0.332240 0.327712 0.111591
0.347564 0.336418 0.117045
0.366293 0.343870 0.122565
0.386723 0.350694 0.128120
0.407154 0.357519 0.133674
0.427584 0.364343 0.139228
0.448015 0.371167 0.144783
0.472290 0.375257 0.148424
0.500411 0.376613 0.150153
0.528532 0.377968 0.151882
0.556653 0.379324 0.153611
0.584774 0.380679 0.155340
0.609749 0.381273 0.155929
0.628434 0.380345 0.154239
0.647119 0.379416 0.152548
0.665804 0.378488 0.150857
0.684488 0.377559 0.149166
0.700962 0.376840 0.147703
0.706381 0.377168 0.147376
0.711799 0.377495 0.147050
0.717218 0.377823 0.146724
0.722637 0.378151 0.146397
0.728055 0.378479 0.146071
0.220166 0.260239 0.076647
0.232775 0.268641 0.080014
0.245384 0.277044 0.083380
0.257993 0.285446 0.086747
0.270602 0.293848 0.090113
0.283211 0.302251 0.093480
0.297740 0.310815 0.098875
0.312653 0.319411 0.104677
0.327565 0.328007 0.110478
0.342478 0.336603 0.116279
0.357391 0.345199 0.122081
0.375506 0.352845 0.128278
0.395223 0.360017 0.134674
0.414940 0.367189 0.141070
0.434657 0.374362 0.147466
0.454374 0.381534 0.153862
0.477593 0.386314 0.158753
0.504314 0.388703 0.162137
0.531036 0.391092 0.165522
0.557757 0.393482 0.168907
0.584478 0.395871 0.172292
0.608743 0.396992 0.173942
0.628096 0.395579 0.172123
0.647448 0.394166 0.170304
0.666801 0.392752 0.168485
0.686153 0.391339 0.166666
0.703217 0.390175 0.165087
0.708837 0.390255 0.164706
0.714457 0.390336 0.164324
0.720077 0.390417 0.163943
0.725697 0.390498 0.163562
0.731317 0.390579 0.163181
0.232975 0.270542 0.079011
0.245392 0.278753 0.082569
0.257809 0.286963 0.086128
0.270225 0.295173 0.089686
0.282642 0.303384 0.093245
0.295059 0.311594 0.096803
0.309213 0.320034 0.102521
0.323714 0.328520 0.108670
0.338215 0.337007 0.114819
0.352716 0.345493 0.120968
0.367217 0.353979 0.127117
0.384720 0.361821 0.133991
0.403723 0.369341 0.141229
0.422727 0.376860 0.148466
0.441730 0.384380 0.155704
0.460733 0.391900 0.162942
0.482896 0.397371 0.169081
0.508218 0.400794 0.174121
0.533539 0.404217 0.179162
0.558861 0.407640 0.184202
0.584182 0.411062 0.189243
0.607737 0.412712 0.191954
0.627757 0.410813 0.190007
0.647778 0.408915 0.188060
0.667798 0.407017 0.186113
0.687818 0.405119 0.184166
0.705472 0.403509 0.182471
0.711293 0.403343 0.182035
0.717114 0.403177 0.181599
0.722936 0.403011 0.181163
0.728757 0.402845 0.180727
0.734578 0.402678 0.180291
0.246020 0.280641 0.081153
0.258239 0.288666 0.084983
0.270457 0.296690 0.088813
0.282676 0.304714 0.092643
0.294895 0.312738 0.096473
0.307113 0.320763 0.100303
0.320904 0.329081 0.106388
0.335008 0.337457 0.112924
0.349113 0.345834 0.119461
0.363217 0.354210 0.125997
0.377322 0.362587 0.132533
0.394211 0.370567 0.140053
0.412492 0.378349 0.148065
0.430772 0.386130 0.156077
0.449053 0.393912 0.164090
0.467334 0.401694 0.172102
0.488491 0.407763 0.179396
0.512526 0.412119 0.185974
0.536561 0.416475 0.192551
0.560596 0.420831 0.199129
0.584631 0.425187 0.205706
0.607511 0.427492 0.209684
0.628084 0.425694 0.208463
0.648656 0.423897 0.207241
0.669228 0.422099 0.206020
0.689800 0.420301 0.204799
0.707949 0.418736 0.203699
0.713977 0.418332 0.203208
0.720006 0.417928 0.202717
0.726034 0.417524 0.202227
0.732063 0.417120 0.201736
0.738091 0.416716 0.201245
0.259538 0.290330 0.082855
0.271546 0.298181 0.087115
0.283554 0.306031 0.091375
0.295562 0.313882 0.095635
0.307571 0.321732 0.099894
0.319579 0.329583 0.104154
0.333029 0.337780 0.110700
0.346768 0.346047 0.117703
0.360507 0.354314 0.124706
0.374245 0.362580 0.131708
0.387984 0.370847 0.138711
0.404257 0.378852 0.146814
0.421797 0.386725 0.155466
0.439336 0.394598 0.164119
0.456876 0.402472 0.172771
0.474416 0.410345 0.181424
0.494672 0.416826 0.189688
0.517646 0.421913 0.197564
0.540620 0.427001 0.205441
0.563593 0.432089 0.213317
0.586567 0.437177 0.221194
0.608847 0.440393 0.226849
0.629739 0.439867 0.228061
0.650632 0.439341 0.229273
0.671524 0.438815 0.230485
0.692417 0.438289 0.231697
0.710868 0.437747 0.232616
0.717117 0.437124 0.232070
0.723365 0.436500 0.231524
0.729613 0.435876 0.230979
0.735861 0.435253 0.230433
0.742109 0.434629 0.229887
0.273055 0.300020 0.084556
0.284853 0.307696 0.089246
0.296651 0.315373 0.093936
0.308449 0.323050 0.098626
0.320247 0.330726 0.103316
0.332044 0.338403 0.108006
0.345155 0.346480 0.115012
0.358528 0.354637 0.122481
0.371900 0.362794 0.129950
0.385273 0.370951 0.137420
0.398646 0.379108 0.144889
0.414303 0.387137 0.153574
0.431102 0.395102 0.162867
0.447900 0.403066 0.172160
0.464699 0.411031 0.181452
0.481498 0.418996 0.190745
0.500853 0.425888 0.199979
0.522766 0.431708 0.209155
0.544678 0.437528 0.218330
0.566591 0.443347 0.227506
0.588503 0.449167 0.236681
0.610182 0.453295 0.244013
0.631395 0.454041 0.247659
0.652608 0.454786 0.251304
0.673820 0.455532 0.254950
0.695033 0.456277 0.258595
0.713788 0.456758 0.261533
0.720256 0.455915 0.260932
0.726723 0.455072 0.260331
0.733191 0.454229 0.259731
0.739659 0.453386 0.259130
0.746126 0.452542 0.258529
0.286573 0.309709 0.086258
0.298160 0.317212 0.091378
0.309748 0.324715 0.096497
0.321335 0.332218 0.101617
0.332923 0.339720 0.106737
0.344510 0.347223 0.111857
0.357280 0.355180 0.119323
0.370287 0.363227 0.127259
0.383294 0.371274 0.135195
0.396301 0.379321 0.143131
0.409308 0.387368 0.151067
0.424349 0.395422 0.160334
0.440407 0.403478 0.170268
0.456464 0.411534 0.180201
0.472522 0.419591 0.190134
0.488580 0.427647 0.200067
0.507034 0.434951 0.210271
0.527886 0.441502 0.220745
0.548737 0.448054 0.231220
0.569588 0.454605 0.241694
0.590440 0.461157 0.252169
0.611518 0.466197 0.261178
0.633051 0.468214 0.267257
0.654584 0.470231 0.273336
0.676117 0.472248 0.279414
0.697649 0.474265 0.285493
0.716708 0.475769 0.290450
0.723395 0.474706 0.289794
0.730082 0.473644 0.289138
0.736769 0.472581 0.288483
0.743457 0.471518 0.287827
0.750144 0.470456 0.287172
0.300091 0.319398 0.087959
0.311468 0.326727 0.093509
0.322845 0.334056 0.099059
0.334222 0.341385 0.104609
0.345599 0.348714 0.110158
0.356976 0.356043 0.115708
0.369406 0.363879 0.123635
0.382047 0.371817 0.132038
0.394688 0.379754 0.140440
0.407329 0.387692 0.148842
0.419970 0.395629 0.157245
0.434395 0.403707 0.167095
0.449712 0.411855 0.177668
0.465028 0.420002 0.188242
0.480345 0.428150 0.198815
0.495662 0.436298 0.209389
0.513215 0.444013 0.220562
0.533006 0.451297 0.232336
0.552796 0.458580 0.244109
0.572586 0.465863 0.255883
0.592376 0.473147 0.267656
0.612854 0.479099 0.278343
0.634707 0.482387 0.286855
0.656560 0.485676 0.295367
0.678413 0.488965 0.303879
0.700266 0.492253 0.312391
0.719628 0.494780 0.319366
0.726534 0.493498 0.318656
0.733441 0.492216 0.317945
0.740348 0.490933 0.317235
0.747255 0.489651 0.316524
0.754161 0.488369 0.315814
0.313671 0.328890 0.089393
0.324809 0.336049 0.095440
0.335947 0.343207 0.101487
0.347084 0.350365 0.107533
0.358222 0.357524 0.113580
0.369360 0.364682 0.119627
0.381462 0.372415 0.128059
0.393757 0.380262 0.136967
0.406051 0.388109 0.145876
0.418346 0.395957 0.154785
0.430641 0.403804 0.163693
0.444484 0.411907 0.174127
0.459101 0.420137 0.185325
0.473718 0.428367 0.196522
0.488335 0.436597 0.207719
0.502952 0.444827 0.218916
0.519645 0.452914 0.231003
0.538413 0.460858 0.243979
0.557182 0.468801 0.256956
0.575950 0.476745 0.269932
0.594719 0.484688 0.282908
0.614547 0.491493 0.295156
0.636493 0.496019 0.305946
0.658439 0.500546 0.316736
0.680385 0.505073 0.327526
0.702331 0.509600 0.338316
0.721835 0.513166 0.347254
0.729127 0.511931 0.346929
0.736420 0.510696 0.346604
0.743712 0.509461 0.346280
0.751004 0.508226 0.345955
0.758297 0.506991 0.345630
0.327567 0.337398 0.089488
0.338321 0.344401 0.096367
0.349074 0.351404 0.103246
0.359827 0.358406 0.110125
0.370581 0.365409 0.117005
0.381334 0.372412 0.123884
0.393166 0.380126 0.133041
0.405214 0.387983 0.142654
0.417262 0.395839 0.152267
0.429310 0.403696 0.161880
0.441358 0.411553 0.171493
0.454789 0.419683 0.182522
0.468912 0.427949 0.194259
0.483035 0.436216 0.205996
0.497158 0.444483 0.217733
0.511281 0.452750 0.229470
0.527315 0.461006 0.242188
0.545261 0.469251 0.255887
0.563206 0.477496 0.269586
0.581151 0.485742 0.283285
