filters/luts/Suburbs 05_S.cube
# LUT by SparkleStock. Enhanced with VOXCOLOR algorithms.
LUT_3D_SIZE 32
0.039072 0.035165 0.027350
0.063886 0.041175 0.029777
0.088700 0.047186 0.032203
0.113514 0.053196 0.034629
0.138328 0.059207 0.037055
0.164528 0.065532 0.039923
0.191768 0.072094 0.043121
0.219008 0.078656 0.046319
0.246248 0.085218 0.049518
0.273307 0.091843 0.052708
0.299279 0.098846 0.055851
0.325251 0.105849 0.058994
0.351223 0.112852 0.062137
0.377195 0.119855 0.065280
0.400646 0.127606 0.068108
0.423089 0.135657 0.070810
0.445532 0.143708 0.073512
0.467974 0.151759 0.076214
0.489046 0.160172 0.078790
0.506692 0.169491 0.081051
0.524337 0.178810 0.083312
0.541983 0.188129 0.085572
0.559628 0.197448 0.087833
0.572925 0.206767 0.089811
0.585498 0.216086 0.091741
0.598070 0.225405 0.093670
0.610642 0.234724 0.095600
0.620852 0.242554 0.097176
0.627910 0.248399 0.098279
0.634968 0.254244 0.099382
0.642026 0.260089 0.100484
0.649084 0.265934 0.101587
0.046020 0.044098 0.029777
0.069190 0.051727 0.031979
0.092361 0.059356 0.034181
0.115531 0.066985 0.036383
0.138701 0.074614 0.038585
0.164667 0.081356 0.041193
0.192729 0.087433 0.044105
0.220791 0.093509 0.047017
0.248853 0.099585 0.049928
0.276721 0.105735 0.052843
0.303427 0.112327 0.055774
0.330134 0.118919 0.058706
0.356840 0.125512 0.061637
0.383547 0.132104 0.064569
0.407528 0.139400 0.067274
0.430419 0.146977 0.069889
0.453310 0.154555 0.072504
0.476201 0.162132 0.075118
0.497608 0.170055 0.077657
0.515303 0.178838 0.080005
0.532998 0.187622 0.082353
0.550693 0.196405 0.084701
0.568389 0.205189 0.087049
0.581266 0.214047 0.089220
0.593340 0.222918 0.091362
0.605415 0.231789 0.093503
0.617489 0.240659 0.095645
0.626976 0.248164 0.097459
0.633013 0.253847 0.098836
0.639050 0.259530 0.100212
0.645087 0.265214 0.101589
0.651125 0.270897 0.102966
0.052968 0.053031 0.032203
0.074495 0.062279 0.034181
0.096021 0.071527 0.036159
0.117548 0.080774 0.038137
0.139075 0.090022 0.040115
0.164805 0.097180 0.042463
0.193689 0.102771 0.045088
0.222573 0.108362 0.047714
0.251457 0.113952 0.050339
0.280134 0.119627 0.052978
0.307575 0.125809 0.055698
0.335017 0.131990 0.058418
0.362458 0.138171 0.061137
0.389899 0.144352 0.063857
0.414410 0.151193 0.066440
0.437749 0.158297 0.068967
0.461089 0.165402 0.071495
0.484428 0.172506 0.074023
0.506169 0.179937 0.076524
0.523914 0.188186 0.078959
0.541659 0.196434 0.081394
0.559404 0.204682 0.083829
0.577149 0.212930 0.086264
0.589607 0.221328 0.088629
0.601183 0.229750 0.090983
0.612759 0.238173 0.093336
0.624335 0.246595 0.095689
0.633100 0.253774 0.097742
0.638116 0.259296 0.099392
0.643132 0.264817 0.101043
0.648149 0.270338 0.102694
0.653165 0.275860 0.104344
0.059916 0.061964 0.034629
0.079799 0.072830 0.036383
0.099682 0.083697 0.038137
0.119565 0.094563 0.039891
0.139448 0.105430 0.041645
0.164944 0.113004 0.043733
0.194650 0.118109 0.046072
0.224355 0.123214 0.048411
0.254061 0.128319 0.050750
0.283548 0.133520 0.053113
0.311724 0.139290 0.055621
0.339899 0.145060 0.058130
0.368075 0.150831 0.060638
0.396251 0.156601 0.063146
0.421292 0.162986 0.065606
0.445080 0.169618 0.068046
0.468867 0.176249 0.070486
0.492655 0.182880 0.072927
0.514730 0.189820 0.075391
0.532525 0.197533 0.077913
0.550320 0.205246 0.080435
0.568115 0.212959 0.082958
0.585910 0.220671 0.085480
0.597947 0.228608 0.088039
0.609025 0.236583 0.090604
0.620104 0.244557 0.093169
0.631182 0.252531 0.095734
0.639225 0.259385 0.098024
0.643220 0.264744 0.099949
0.647215 0.270104 0.101874
0.651210 0.275463 0.103798
0.655205 0.280822 0.105723
0.066864 0.070897 0.037055
0.085103 0.083382 0.038585
0.103343 0.095867 0.040115
0.121582 0.108352 0.041645
0.139822 0.120838 0.043174
0.165083 0.128828 0.045003
0.195610 0.133448 0.047056
0.226138 0.138067 0.049108
0.256665 0.142687 0.051161
0.286961 0.147412 0.053249
0.315872 0.152771 0.055545
0.344782 0.158131 0.057841
0.373692 0.163490 0.060138
0.402603 0.168850 0.062434
0.428174 0.174780 0.064771
0.452410 0.180938 0.067125
0.476646 0.187096 0.069478
0.500882 0.193254 0.071831
0.523291 0.199703 0.074258
0.541136 0.206881 0.076867
0.558981 0.214058 0.079477
0.576825 0.221235 0.082086
0.594670 0.228413 0.084696
0.606288 0.235889 0.087448
0.616868 0.243415 0.090225
0.627448 0.250941 0.093002
0.638028 0.258467 0.095778
0.645349 0.264995 0.098307
0.648323 0.270192 0.100506
0.651297 0.275390 0.102704
0.654271 0.280588 0.104903
0.657245 0.285785 0.107102
0.076395 0.081216 0.039419
0.094172 0.094587 0.040945
0.111949 0.107958 0.042471
0.129726 0.121329 0.043997
0.147504 0.134700 0.045523
0.171824 0.143586 0.047199
0.201053 0.149107 0.048987
0.230282 0.154629 0.050774
0.259511 0.160150 0.052562
0.288776 0.165564 0.054396
0.318257 0.170335 0.056509
0.347739 0.175105 0.058623
0.377220 0.179876 0.060736
0.406701 0.184647 0.062849
0.432741 0.189974 0.065076
0.457404 0.195524 0.067350
0.482066 0.201073 0.069623
0.506729 0.206623 0.071896
0.529488 0.212454 0.074280
0.547490 0.218990 0.076941
0.565491 0.225525 0.079602
0.583492 0.232060 0.082263
0.601493 0.238595 0.084925
0.612926 0.245480 0.087823
0.623264 0.252422 0.090762
0.633603 0.259365 0.093700
0.643941 0.266307 0.096639
0.650844 0.272375 0.099360
0.653167 0.277275 0.101789
0.655490 0.282176 0.104219
0.657813 0.287076 0.106649
0.660136 0.291977 0.109079
0.087865 0.092576 0.041735
0.106065 0.106283 0.043423
0.124266 0.119990 0.045111
0.142466 0.133697 0.046799
0.160666 0.147404 0.048487
0.183518 0.157544 0.050090
0.209858 0.165008 0.051628
0.236198 0.172471 0.053167
0.262538 0.179935 0.054705
0.289391 0.186911 0.056303
0.319321 0.190960 0.058254
0.349251 0.195008 0.060206
0.379180 0.199056 0.062157
0.409110 0.203105 0.064108
0.435571 0.207719 0.066236
0.460645 0.212559 0.068435
0.485718 0.217399 0.070633
0.510792 0.222239 0.072832
0.533912 0.227357 0.075170
0.552150 0.233170 0.077856
0.570388 0.238983 0.080542
0.588626 0.244796 0.083228
0.606863 0.250609 0.085914
0.618287 0.256803 0.088923
0.628576 0.263061 0.091986
0.638864 0.269319 0.095049
0.649153 0.275577 0.098112
0.655867 0.281082 0.100989
0.657817 0.285584 0.103618
0.659766 0.290086 0.106247
0.661716 0.294588 0.108876
0.663665 0.299090 0.111505
0.099334 0.103935 0.044051
0.117958 0.117978 0.045900
0.136582 0.132022 0.047750
0.155206 0.146065 0.049600
0.173829 0.160108 0.051450
0.195212 0.171502 0.052980
0.218663 0.180908 0.054270
0.242115 0.190314 0.055559
0.265566 0.199720 0.056849
0.290007 0.208258 0.058210
0.320385 0.211584 0.059999
0.350763 0.214911 0.061789
0.381140 0.218237 0.063578
0.411518 0.221563 0.065368
0.438401 0.225464 0.067396
0.463885 0.229594 0.069520
0.489370 0.233725 0.071644
0.514854 0.237855 0.073768
0.538336 0.242260 0.076059
0.556810 0.247350 0.078770
0.575285 0.252441 0.081481
0.593759 0.257532 0.084192
0.612233 0.262623 0.086903
0.623649 0.268127 0.090022
0.633887 0.273700 0.093210
0.644126 0.279273 0.096397
0.654364 0.284846 0.099585
0.660890 0.289789 0.102618
0.662466 0.293893 0.105446
0.664042 0.297996 0.108275
0.665618 0.302100 0.111103
0.667194 0.306203 0.113931
0.110804 0.115294 0.046367
0.129851 0.129674 0.048378
0.148898 0.144053 0.050390
0.167945 0.158433 0.052402
0.186992 0.172812 0.054414
0.206905 0.185460 0.055871
0.227468 0.196809 0.056911
0.248031 0.208157 0.057952
0.268593 0.219506 0.058992
0.290622 0.229605 0.060117
0.321448 0.232209 0.061744
0.352274 0.234813 0.063372
0.383101 0.237418 0.064999
0.413927 0.240022 0.066627
0.441231 0.243209 0.068556
0.467126 0.246630 0.070605
0.493022 0.250050 0.072654
0.518917 0.253471 0.074703
0.542760 0.257162 0.076948
0.561471 0.261531 0.079684
0.580182 0.265900 0.082420
0.598893 0.270268 0.085156
0.617604 0.274637 0.087892
0.629010 0.279451 0.091121
0.639199 0.284339 0.094433
0.649387 0.289227 0.097745
0.659576 0.294115 0.101057
0.665914 0.298496 0.104248
0.667116 0.302201 0.107275
0.668319 0.305906 0.110303
0.669521 0.309612 0.113330
0.670724 0.313317 0.116357
0.122943 0.127000 0.048761
0.142317 0.141639 0.050922
0.161692 0.156279 0.053084
0.181066 0.170918 0.055245
0.200441 0.185557 0.057406
0.219054 0.199273 0.058832
0.237096 0.212298 0.059708
0.255138 0.225322 0.060583
0.273180 0.238346 0.061458
0.293041 0.249825 0.062419
0.323812 0.252032 0.063899
0.354583 0.254240 0.065379
0.385354 0.256447 0.066859
0.416125 0.258655 0.068339
0.443691 0.261214 0.070169
0.469976 0.263914 0.072138
0.496261 0.266615 0.074107
0.522546 0.269315 0.076076
0.546736 0.272282 0.078268
0.565689 0.275918 0.081018
0.584642 0.279554 0.083768
0.603595 0.283190 0.086518
0.622547 0.286826 0.089268
0.633976 0.290943 0.092591
0.644151 0.295141 0.096010
0.654325 0.299339 0.099429
0.664500 0.303537 0.102848
0.670694 0.307347 0.106175
0.671582 0.310642 0.109380
0.672470 0.313936 0.112586
0.673357 0.317230 0.115791
0.674245 0.320525 0.118996
0.139100 0.140785 0.051629
0.158225 0.155225 0.053865
0.177350 0.169666 0.056100
0.196476 0.184106 0.058336
0.215601 0.198546 0.060572
0.233930 0.212219 0.062223
0.251660 0.225318 0.063434
0.269391 0.238417 0.064645
0.287122 0.251516 0.065857
0.306276 0.263281 0.067098
0.333972 0.267045 0.068515
0.361667 0.270809 0.069933
0.389363 0.274573 0.071351
0.417058 0.278337 0.072768
0.443933 0.280781 0.074500
0.470480 0.282696 0.076357
0.497026 0.284612 0.078214
0.523572 0.286528 0.080071
0.548028 0.288707 0.082169
0.567254 0.291546 0.084869
0.586481 0.294385 0.087569
0.605708 0.297224 0.090269
0.624935 0.300063 0.092970
0.636573 0.303448 0.096286
0.646947 0.306924 0.099705
0.657321 0.310399 0.103123
0.667695 0.313875 0.106542
0.674019 0.317065 0.109891
0.674944 0.319874 0.113146
0.675869 0.322682 0.116401
0.676794 0.325491 0.119656
0.677719 0.328300 0.122911
0.155256 0.154571 0.054496
0.174133 0.168812 0.056807
0.193009 0.183053 0.059117
0.211885 0.197293 0.061428
0.230762 0.211534 0.063739
0.248805 0.225165 0.065613
0.266225 0.238339 0.067161
0.283645 0.251513 0.068708
0.301064 0.264686 0.070256
0.319512 0.276738 0.071776
0.344132 0.282058 0.073131
0.368752 0.287378 0.074487
0.393372 0.292699 0.075842
0.417992 0.298019 0.077198
0.444175 0.300347 0.078831
0.470983 0.301479 0.080576
0.497791 0.302610 0.082321
0.524599 0.303741 0.084066
0.549319 0.305133 0.086070
0.568820 0.307175 0.088720
0.588320 0.309217 0.091371
0.607821 0.311259 0.094021
0.627322 0.313301 0.096671
0.639170 0.315953 0.099980
0.649743 0.318706 0.103399
0.660316 0.321460 0.106818
0.670889 0.324213 0.110237
0.677343 0.326782 0.113607
0.678306 0.329105 0.116912
0.679268 0.331429 0.120217
0.680230 0.333752 0.123522
0.681193 0.336075 0.126827
0.171413 0.168356 0.057363
0.190040 0.182398 0.059749
0.208667 0.196440 0.062134
0.227295 0.210481 0.064519
0.245922 0.224523 0.066905
0.263681 0.238111 0.069003
0.280790 0.251360 0.070887
0.297898 0.264608 0.072771
0.315006 0.277856 0.074655
0.332748 0.290194 0.076454
0.354293 0.297071 0.077747
0.375837 0.303948 0.079040
0.397382 0.310824 0.080333
0.418926 0.317701 0.081627
0.444417 0.319914 0.083163
0.471486 0.320261 0.084795
0.498556 0.320607 0.086428
0.525625 0.320954 0.088061
0.550610 0.321558 0.089971
0.570385 0.322803 0.092571
0.590160 0.324048 0.095172
0.609934 0.325293 0.097772
0.629709 0.326538 0.100373
0.641767 0.328457 0.103675
0.652539 0.330489 0.107094
0.663312 0.332520 0.110512
0.674084 0.334552 0.113931
0.680668 0.336500 0.117323
0.681668 0.338337 0.120677
0.682667 0.340175 0.124032
0.683667 0.342012 0.127387
0.684667 0.343850 0.130742
0.187569 0.182142 0.060231
0.205948 0.195984 0.062691
0.224326 0.209827 0.065151
0.242704 0.223669 0.067611
0.261083 0.237512 0.070071
0.278557 0.251057 0.072394
0.295354 0.264380 0.074614
0.312151 0.277703 0.076834
0.328948 0.291026 0.079054
0.345984 0.303651 0.081132
0.364453 0.312084 0.082363
0.382922 0.320517 0.083594
0.401391 0.328950 0.084825
0.419860 0.337383 0.086056
0.444659 0.339480 0.087494
0.471990 0.339043 0.089015
0.499321 0.338605 0.090536
0.526651 0.338168 0.092056
0.551902 0.337983 0.093871
0.571950 0.338431 0.096422
0.591999 0.338880 0.098973
0.612047 0.339328 0.101524
0.632096 0.339776 0.104075
0.644364 0.340962 0.107369
0.655336 0.342271 0.110788
0.666307 0.343581 0.114207
0.677279 0.344890 0.117626
0.683992 0.346217 0.121038
0.685029 0.347569 0.124443
0.686066 0.348921 0.127848
0.687104 0.350273 0.131252
0.688141 0.351625 0.134657
0.205617 0.196991 0.063335
0.223488 0.210438 0.065869
0.241359 0.223886 0.068404
0.259231 0.237333 0.070939
0.277102 0.250781 0.073474
0.294054 0.264007 0.076000
0.310318 0.277067 0.078521
0.326581 0.290126 0.081041
0.342844 0.303186 0.083562
0.359224 0.315662 0.085959
0.376298 0.324638 0.087617
0.393373 0.333614 0.089275
0.410447 0.342590 0.090932
0.427521 0.351565 0.092590
0.450794 0.354216 0.094350
0.476545 0.354337 0.096150
0.502296 0.354458 0.097950
0.528048 0.354579 0.099750
0.552235 0.354594 0.101730
0.572513 0.354343 0.104160
0.592791 0.354092 0.106590
0.613069 0.353841 0.109020
0.633347 0.353591 0.111449
0.645849 0.354111 0.114658
0.657056 0.354760 0.117997
0.668262 0.355410 0.121336
0.679468 0.356059 0.124675
0.686401 0.356820 0.128013
0.687635 0.357731 0.131352
0.688870 0.358642 0.134691
0.690104 0.359552 0.138030
0.691339 0.360463 0.141368
0.224420 0.212265 0.066533
0.241681 0.225240 0.069142
0.258942 0.238214 0.071752
0.276204 0.251188 0.074361
0.293465 0.264163 0.076971
0.309800 0.276958 0.079693
0.325441 0.289619 0.082500
0.341082 0.302281 0.085307
0.356722 0.314942 0.088114
0.372465 0.327096 0.090845
0.388817 0.336209 0.093126
0.405169 0.345322 0.095406
0.421522 0.354434 0.097686
0.437874 0.363547 0.099967
0.459286 0.367020 0.102215
0.482721 0.368236 0.104451
0.506156 0.369453 0.106687
0.529592 0.370670 0.108923
0.552185 0.371279 0.111172
0.572675 0.370368 0.113452
0.593165 0.369457 0.115733
0.613654 0.368546 0.118013
0.634144 0.367636 0.120293
0.646890 0.367518 0.123385
0.658345 0.367532 0.126612
0.669801 0.367546 0.129838
0.681256 0.367561 0.133065
0.688443 0.367778 0.136292
0.689939 0.368265 0.139518
0.691435 0.368752 0.142745
0.692931 0.369240 0.145972
0.694427 0.369727 0.149198
0.243223 0.227539 0.069731
0.259875 0.240041 0.072415
0.276526 0.252542 0.075099
0.293177 0.265043 0.077783
0.309828 0.277544 0.080468
0.325546 0.289909 0.083386
0.340564 0.302172 0.086479
0.355582 0.314435 0.089572
0.370600 0.326698 0.092665
0.385706 0.338530 0.095732
0.401336 0.347780 0.098635
0.416966 0.357030 0.101537
0.432596 0.366279 0.104440
0.448226 0.375529 0.107343
0.467777 0.379823 0.110081
0.488897 0.382136 0.112753
0.510016 0.384448 0.115425
0.531136 0.386761 0.118096
0.552135 0.387964 0.120614
0.572837 0.386393 0.122745
0.593538 0.384822 0.124876
0.614240 0.383252 0.127006
0.634941 0.381681 0.129137
0.647931 0.380924 0.132112
0.659635 0.380304 0.135226
0.671339 0.379683 0.138341
0.683044 0.379062 0.141455
0.690485 0.378735 0.144570
0.692242 0.378799 0.147685
0.694000 0.378863 0.150799
0.695757 0.378927 0.153914
0.697515 0.378991 0.157029
0.262027 0.242814 0.072929
0.278068 0.254842 0.075688
0.294109 0.266870 0.078447
0.310150 0.278898 0.081206
0.326191 0.290926 0.083965
0.341292 0.302861 0.087078
0.355687 0.314725 0.090458
0.370083 0.326589 0.093838
0.384478 0.338454 0.097217
0.398947 0.349964 0.100618
0.413855 0.359351 0.104143
0.428763 0.368738 0.107669
0.443671 0.378124 0.111194
0.458579 0.387511 0.114720
0.476269 0.392627 0.117947
0.495073 0.396035 0.121054
0.513876 0.399443 0.124162
0.532680 0.402851 0.127269
0.552086 0.404648 0.130055
0.572999 0.402418 0.132037
0.593912 0.400187 0.134018
0.614825 0.397957 0.136000
0.635738 0.395726 0.137982
0.648971 0.394331 0.140838
0.660925 0.393075 0.143841
0.672878 0.391819 0.146843
0.684831 0.390564 0.149846
0.692527 0.389692 0.152849
0.694546 0.389333 0.155851
0.696565 0.388973 0.158854
0.698584 0.388614 0.161856
0.700603 0.388255 0.164859
0.280815 0.258009 0.076112
0.296210 0.269554 0.078956
0.311605 0.281098 0.081800
0.327000 0.292642 0.084644
0.342396 0.304186 0.087489
0.356852 0.315666 0.090805
0.370603 0.327096 0.094474
0.384355 0.338526 0.098144
0.398107 0.349957 0.101813
0.411919 0.361099 0.105547
0.426090 0.370512 0.109667
0.440262 0.379926 0.113787
0.454433 0.389339 0.117906
0.468605 0.398752 0.122026
0.484717 0.404526 0.125836
0.501607 0.408845 0.129521
0.518496 0.413164 0.133207
0.535386 0.417483 0.136892
0.553388 0.419874 0.140161
0.574171 0.417446 0.142388
0.594954 0.415018 0.144615
0.615737 0.412590 0.146842
0.636521 0.410162 0.149069
0.649952 0.408262 0.151838
0.662158 0.406449 0.154696
0.674364 0.404637 0.157555
0.686570 0.402824 0.160413
0.694528 0.401471 0.163270
0.696822 0.400731 0.166125
0.699117 0.399991 0.168980
0.701412 0.399251 0.171835
0.703706 0.398511 0.174690
0.299563 0.273008 0.079255
0.314223 0.284042 0.082211
0.328884 0.295075 0.085167
0.343545 0.306109 0.088124
0.358205 0.317143 0.091080
0.371948 0.328105 0.094615
0.385003 0.339012 0.098583
0.398057 0.349919 0.102552
0.411111 0.360827 0.106520
0.424215 0.371485 0.110585
0.437615 0.380649 0.115227
0.451014 0.389814 0.119870
0.464414 0.398978 0.124513
0.477813 0.408142 0.129155
0.493056 0.414166 0.133781
0.509037 0.418933 0.138401
0.525017 0.423700 0.143020
0.540998 0.428467 0.147640
0.558069 0.431452 0.151928
0.577869 0.429983 0.155388
0.597669 0.428514 0.158847
0.617468 0.427044 0.162307
0.637268 0.425575 0.165767
0.650782 0.423502 0.168519
0.663250 0.421329 0.171153
0.675717 0.419155 0.173788
0.688185 0.416981 0.176422
0.696426 0.415305 0.179050
0.699032 0.414291 0.181668
0.701638 0.413277 0.184286
0.704244 0.412263 0.186905
0.706849 0.411249 0.189523
0.318311 0.288007 0.082398
0.332237 0.298530 0.085466
0.346163 0.309053 0.088535
0.360089 0.319576 0.091603
0.374015 0.330100 0.094671
0.387045 0.340543 0.098425
0.399402 0.350928 0.102692
0.411759 0.361312 0.106959
0.424116 0.371697 0.111227
0.436512 0.381871 0.115622
0.449139 0.390787 0.120788
0.461767 0.399702 0.125953
0.474394 0.408617 0.131119
0.487022 0.417532 0.136285
0.501395 0.423805 0.141727
0.516467 0.429020 0.147280
0.531538 0.434236 0.152834
0.546610 0.439451 0.158387
0.562751 0.443030 0.163694
0.581567 0.442520 0.168387
0.600383 0.442009 0.173079
0.619199 0.441499 0.177772
0.638015 0.440988 0.182464
0.651613 0.438743 0.185200
0.664342 0.436208 0.187611
0.677071 0.433673 0.190021
0.689800 0.431138 0.192431
0.698324 0.429138 0.194829
0.701241 0.427850 0.197211
0.704158 0.426562 0.199593
0.707075 0.425275 0.201974
0.709993 0.423987 0.204356
0.337059 0.303005 0.085541
0.350251 0.313018 0.088721
0.363442 0.323031 0.091902
0.376634 0.333043 0.095082
0.389825 0.343056 0.098263
0.402141 0.352982 0.102235
0.413801 0.362844 0.106801
0.425461 0.372705 0.111367
0.437121 0.382567 0.115933
0.448809 0.392258 0.120660
0.460664 0.400924 0.126348
0.472520 0.409590 0.132037
0.484375 0.418256 0.137725
0.496231 0.426923 0.143414
0.509734 0.433444 0.149673
0.523897 0.439108 0.156160
0.538059 0.444771 0.162647
0.552222 0.450435 0.169134
0.567433 0.454608 0.175461
0.585265 0.455057 0.181386
0.603097 0.455505 0.187311
0.620930 0.455953 0.193236
0.638762 0.456401 0.199161
0.652444 0.453983 0.201882
0.665434 0.451087 0.204068
0.678425 0.448192 0.206254
0.691415 0.445296 0.208440
0.700222 0.442972 0.210609
0.703450 0.441410 0.212754
0.706679 0.439848 0.214899
0.709907 0.438286 0.217044
0.713136 0.436725 0.219189
0.355808 0.318004 0.088684
0.368264 0.327506 0.091977
0.380721 0.337008 0.095269
0.393178 0.346510 0.098562
0.405635 0.356013 0.101854
0.417238 0.365421 0.106045
0.428200 0.374760 0.110910
0.439163 0.384099 0.115775
0.450125 0.393437 0.120640
0.461105 0.402644 0.125697
0.472189 0.411061 0.131909
0.483272 0.419478 0.138120
0.494356 0.427895 0.144332
0.505439 0.436313 0.150543
0.518073 0.443083 0.157619
0.531327 0.449195 0.165040
0.544580 0.455307 0.172461
0.557834 0.461419 0.179882
0.572115 0.466186 0.187228
0.588963 0.467593 0.194385
0.605812 0.469000 0.201543
0.622660 0.470407 0.208701
0.639509 0.471814 0.215859
0.653275 0.469224 0.218563
0.666526 0.465967 0.220525
0.679778 0.462710 0.222487
0.693030 0.459453 0.224449
0.702120 0.456805 0.226388
0.705659 0.454969 0.228297
0.709199 0.453134 0.230205
0.712739 0.451298 0.232114
0.716279 0.449462 0.234023
0.372854 0.331017 0.091402
0.384566 0.340105 0.094924
0.396277 0.349193 0.098446
0.407989 0.358281 0.101968
0.419700 0.367368 0.105490
0.430622 0.376374 0.109980
0.440951 0.385317 0.115197
0.451281 0.394261 0.120415
0.461610 0.403205 0.125632
0.471949 0.412033 0.131055
0.482346 0.420169 0.137715
0.492743 0.428305 0.144374
0.503140 0.436441 0.151034
0.513537 0.444578 0.157694
0.525409 0.451367 0.165420
0.537871 0.457618 0.173572
0.550333 0.463868 0.181724
0.562795 0.470119 0.189876
0.576244 0.475238 0.198099
0.592163 0.477529 0.206500
0.608081 0.479820 0.214902
0.623999 0.482111 0.223303
0.639917 0.484402 0.231704
0.653884 0.482754 0.236168
0.667526 0.480448 0.239977
0.681167 0.478143 0.243785
0.694808 0.475838 0.247593
0.704249 0.473717 0.250468
0.708090 0.471842 0.252097
0.711930 0.469967 0.253727
0.715770 0.468092 0.255356
0.719611 0.466218 0.256985
0.389618 0.343700 0.094049
0.400582 0.352389 0.097820
0.411546 0.361079 0.101591
0.422511 0.369768 0.105362
0.433475 0.378457 0.109133
0.443721 0.387078 0.113936
0.453428 0.395649 0.119515
0.463134 0.404219 0.125093
0.472841 0.412789 0.130671
0.482550 0.421256 0.136466
0.492275 0.429106 0.143562
0.501999 0.436956 0.150657
0.511724 0.444805 0.157753
0.521449 0.452655 0.164848
0.532577 0.459425 0.173196
0.544267 0.465763 0.182046
0.555957 0.472100 0.190895
0.567647 0.478438 0.199745
0.580282 0.483869 0.208822
0.595279 0.487031 0.218468
0.610276 0.490194 0.228114
0.625273 0.493357 0.237761
0.640270 0.496519 0.247407
0.654457 0.495998 0.253928
0.668509 0.494864 0.259927
0.682562 0.493729 0.265927
0.696614 0.492594 0.271927
0.706418 0.491142 0.275931
0.710557 0.489267 0.277274
0.714696 0.487392 0.278617
0.718835 0.485517 0.279960
0.722975 0.483643 0.281303
0.406381 0.356383 0.096695
0.416598 0.364674 0.100715
0.426815 0.372964 0.104735
0.437033 0.381255 0.108756
0.447250 0.389546 0.112776
0.456820 0.397783 0.117892
0.465904 0.405980 0.123832
0.474988 0.414176 0.129771
0.484072 0.422373 0.135710
0.493152 0.430479 0.141877
0.502204 0.438042 0.149408
0.511256 0.445606 0.156940
0.520308 0.453169 0.164471
0.529361 0.460732 0.172002
0.539746 0.467483 0.180973
0.550664 0.473908 0.190520
0.561582 0.480332 0.200067
0.572500 0.486757 0.209613
0.584320 0.492499 0.219544
0.598396 0.496534 0.230436
0.612471 0.500568 0.241327
0.626546 0.504602 0.252218
0.640622 0.508636 0.263110
0.655030 0.509243 0.271687
0.669493 0.509279 0.279878
0.683956 0.509314 0.288069
0.698419 0.509350 0.296261
0.708586 0.508567 0.301394
0.713024 0.506692 0.302451
0.717462 0.504817 0.303507
0.721900 0.502942 0.304564
0.726338 0.501067 0.305621
0.423144 0.369065 0.099342
0.432614 0.376958 0.103611
0.442084 0.384850 0.107880
0.451554 0.392743 0.112149
0.461025 0.400635 0.116418
0.469919 0.408488 0.121848
0.478380 0.416311 0.128149
0.486842 0.424134 0.134449
0.495303 0.431957 0.140750
0.503753 0.439702 0.147288
0.512133 0.446979 0.155255
0.520513 0.454256 0.163222
0.528893 0.461533 0.171189
0.537273 0.468810 0.179157
0.546914 0.475540 0.188750
0.557060 0.482053 0.198994
0.567206 0.488565 0.209238
0.577352 0.495077 0.219482
0.588358 0.501130 0.230267
0.601512 0.506036 0.242403
0.614666 0.510942 0.254540
0.627820 0.515847 0.266676
0.640974 0.520753 0.278813
0.655602 0.522488 0.289446
0.670477 0.523694 0.299829
0.685351 0.524900 0.310212
0.700225 0.526106 0.320594
0.710754 0.525992 0.326857
0.715491 0.524117 0.327628
0.720228 0.522242 0.328398
0.724965 0.520367 0.329168
0.729702 0.518492 0.329938
0.438891 0.379999 0.101682
0.447609 0.387552 0.106280
0.456326 0.395105 0.110878
0.465044 0.402657 0.115476
0.473762 0.410210 0.120074
0.482005 0.417765 0.125894
0.489892 0.425321 0.132630
0.497779 0.432877 0.139367
0.505666 0.440433 0.146103
0.513540 0.447920 0.153076
0.521333 0.454991 0.161474
0.529126 0.462061 0.169872
0.536918 0.469132 0.178269
0.544711 0.476203 0.186667
0.553698 0.482918 0.196805
0.563163 0.489490 0.207640
0.572628 0.496063 0.218474
0.582093 0.502635 0.229309
0.592379 0.508924 0.240813
0.604718 0.514504 0.253992
0.617058 0.520084 0.267171
0.629397 0.525664 0.280350
