filters/luts/Suburbs 01.cube
# LUT by SparkleStock. Enhanced with VOXCOLOR algorithms.
LUT_3D_SIZE 5
DOMAIN_MIN 0.000000 0.000000 0.000000
DOMAIN_MAX 0.903226 0.903226 0.903226
0.031258 0.046886 0.046886
0.182236 0.070408 0.041616
0.396156 0.101083 0.030950
0.606010 0.151444 0.018898
0.734113 0.215046 0.012572
0.059341 0.100248 0.060034
0.186220 0.178914 0.070952
0.430697 0.206099 0.055492
0.655715 0.236807 0.037882
0.761357 0.279403 0.032348
0.116484 0.183591 0.075883
0.238066 0.285215 0.098434
0.420659 0.347357 0.110918
0.669853 0.349239 0.090626
0.782937 0.364449 0.082808
0.215408 0.294348 0.096869
0.330516 0.388395 0.127448
0.465616 0.464309 0.169936
0.652062 0.491185 0.203989
0.793153 0.474215 0.193652
0.347182 0.410737 0.112962
0.436131 0.485189 0.162691
0.533636 0.550019 0.227007
0.656782 0.597928 0.311022
0.788408 0.612916 0.386648
0.031329 0.077490 0.181811
0.173623 0.115581 0.137305
0.418987 0.159617 0.111410
0.625860 0.201964 0.103979
0.727748 0.243922 0.101055
0.045541 0.163586 0.231665
0.221524 0.232733 0.219836
0.449309 0.282863 0.209691
0.661996 0.325661 0.198713
0.776767 0.381291 0.195125
0.081839 0.249908 0.279049
0.286084 0.351625 0.261624
0.461298 0.434813 0.283215
0.682893 0.458242 0.283050
0.801063 0.490369 0.291680
0.155018 0.349378 0.321646
0.393748 0.466926 0.296464
0.534579 0.554700 0.339764
0.666588 0.603959 0.394471
0.810127 0.600189 0.413803
0.263940 0.450708 0.349291
0.515859 0.570991 0.336645
0.624478 0.641503 0.398197
0.712927 0.691263 0.487426
0.813641 0.706943 0.556922
0.031013 0.131624 0.367230
0.149795 0.166375 0.316105
0.424171 0.241995 0.255100
0.642046 0.286255 0.235137
0.725852 0.312368 0.237540
0.054583 0.238123 0.428374
0.215030 0.303856 0.403153
0.453872 0.366120 0.373355
0.671498 0.415180 0.357071
0.781251 0.469752 0.358150
0.083510 0.336040 0.482007
0.286090 0.422128 0.464341
0.491205 0.498779 0.467253
0.697156 0.540476 0.460480
0.812449 0.584707 0.461486
0.125161 0.412199 0.531146
0.375428 0.527224 0.516949
0.575615 0.616357 0.519437
0.701060 0.676010 0.558574
0.829194 0.690560 0.578437
0.202654 0.487086 0.558988
0.485825 0.617477 0.558431
0.676895 0.706549 0.563766
0.764849 0.758039 0.627809
0.842744 0.780178 0.689647
0.034558 0.201237 0.524164
0.121953 0.227454 0.494287
0.371268 0.304058 0.439008
0.645728 0.384294 0.389103
0.724311 0.397591 0.382259
0.070280 0.313382 0.584503
0.210390 0.380516 0.568819
0.429771 0.452304 0.546125
0.668386 0.514454 0.518380
0.781090 0.561784 0.514325
0.105844 0.409412 0.628012
0.292357 0.498191 0.622328
0.489182 0.577546 0.628677
0.696129 0.629569 0.623679
0.820689 0.677956 0.618962
0.126687 0.466176 0.655081
0.390626 0.585884 0.657788
0.580777 0.669383 0.679397
0.732635 0.729592 0.697442
0.847862 0.758508 0.697045
0.166510 0.506149 0.672829
0.479373 0.653822 0.697937
0.672773 0.744893 0.724654
0.807989 0.809298 0.741512
0.873126 0.836810 0.784258
0.054732 0.292528 0.625153
0.122825 0.315616 0.610806
0.331129 0.383332 0.580966
0.589894 0.460048 0.541287
0.714654 0.473513 0.497136
0.092440 0.383651 0.661157
0.222913 0.450798 0.660714
0.416610 0.530173 0.662322
0.642701 0.607645 0.656669
0.781194 0.651518 0.640563
0.125541 0.459814 0.688427
0.306778 0.552793 0.699714
0.497353 0.638740 0.717014
0.692877 0.710397 0.733083
0.827958 0.762494 0.739078
0.141177 0.497421 0.701476
0.399202 0.625824 0.725592
0.595974 0.717142 0.754447
0.742296 0.784451 0.784429
0.864667 0.832327 0.803758
0.149567 0.510013 0.705749
0.509250 0.682949 0.746645
0.700502 0.775567 0.783123
0.819179 0.836264 0.815995
0.896150 0.874303 0.840150
