filters/luts/Suburbs 01_S.cube
# LUT by SparkleStock. Enhanced with VOXCOLOR algorithms.
LUT_3D_SIZE 8
DOMAIN_MIN 0.000000 0.000000 0.000000
DOMAIN_MAX 0.903226 0.903226 0.903226
0.031258 0.046886 0.046886
0.102942 0.059679 0.044901
0.206530 0.072275 0.040750
0.331451 0.087447 0.034606
0.461444 0.109016 0.027390
0.580236 0.139580 0.020395
0.675261 0.177841 0.015006
0.738343 0.215589 0.012218
0.043609 0.072693 0.054606
0.095571 0.117959 0.057203
0.215012 0.132789 0.048029
0.353949 0.145471 0.037587
0.491157 0.162628 0.028614
0.610745 0.186419 0.022188
0.700989 0.216341 0.018763
0.755163 0.246391 0.018081
0.061869 0.107952 0.061145
0.119900 0.166303 0.067079
0.208405 0.214007 0.064341
0.352821 0.228696 0.051546
0.501995 0.237173 0.039506
0.627869 0.250734 0.032430
0.719450 0.269801 0.030397
0.771183 0.290463 0.032075
0.092103 0.155264 0.069621
0.156324 0.217955 0.077803
0.236191 0.278461 0.082358
0.350266 0.314269 0.076935
0.497308 0.322564 0.064747
0.633481 0.323961 0.055443
0.730419 0.330513 0.053241
0.783663 0.340533 0.056180
0.136933 0.214085 0.080310
0.203965 0.275716 0.090620
0.280119 0.336483 0.101495
0.373222 0.384048 0.107849
0.497406 0.404136 0.105983
0.630288 0.402880 0.098850
0.735122 0.397117 0.094657
0.792094 0.396343 0.097159
0.195667 0.280980 0.092158
0.262016 0.338114 0.105228
0.331921 0.393952 0.122091
0.411937 0.441725 0.139561
0.510728 0.472686 0.154353
0.629125 0.479919 0.162539
0.735509 0.471242 0.163886
0.797329 0.461429 0.164040
0.265958 0.350388 0.103470
0.327418 0.401097 0.121023
0.389450 0.450034 0.144306
0.455928 0.493201 0.171011
0.534361 0.527259 0.201203
0.630996 0.546371 0.231918
0.731044 0.547670 0.254849
0.800518 0.538261 0.264599
0.344559 0.414873 0.112419
0.395617 0.458125 0.137585
0.448453 0.500431 0.168481
0.502784 0.537939 0.203313
0.563889 0.570157 0.244409
0.636817 0.596559 0.293384
0.722202 0.613147 0.345556
0.795308 0.617159 0.384586
0.031478 0.059679 0.108866
0.089018 0.075062 0.091939
0.205321 0.087936 0.085475
0.341796 0.102795 0.080726
0.476471 0.123018 0.075772
0.593043 0.150879 0.069802
0.680469 0.185383 0.062749
0.733960 0.219730 0.054951
0.035463 0.100627 0.131926
0.114846 0.133008 0.131098
0.228159 0.150313 0.130002
0.358073 0.164314 0.127253
0.490413 0.180904 0.122342
0.610969 0.204767 0.115372
0.707399 0.238426 0.106986
0.770491 0.279509 0.097966
0.048023 0.140177 0.152915
0.140822 0.189447 0.146054
0.231818 0.237578 0.148647
0.363698 0.255218 0.144954
0.503469 0.266051 0.139373
0.628862 0.282048 0.134362
0.728112 0.306280 0.130365
0.792214 0.337881 0.127445
0.071156 0.187816 0.173544
0.179746 0.249382 0.158044
0.264476 0.311994 0.165100
0.367539 0.352911 0.168379
0.503184 0.365699 0.164097
0.636447 0.371299 0.159646
0.740504 0.383717 0.159223
0.807460 0.403392 0.162345
0.108281 0.245021 0.194166
0.234192 0.314229 0.171887
0.315863 0.379090 0.183677
0.399656 0.432320 0.197006
0.507930 0.459782 0.202420
0.633491 0.464767 0.201443
0.744670 0.465038 0.201849
0.816604 0.472998 0.208468
0.159928 0.309270 0.213584
0.301686 0.382489 0.188230
0.378328 0.442966 0.205246
0.450780 0.495811 0.228748
0.533348 0.534060 0.248651
0.636263 0.548964 0.260302
0.742042 0.547121 0.265684
0.819697 0.544692 0.272296
0.223829 0.375412 0.230439
0.377279 0.450401 0.206598
0.446596 0.502983 0.229790
0.507271 0.549946 0.263203
0.573431 0.588907 0.297448
0.651426 0.613994 0.327677
0.740164 0.620997 0.348772
0.817769 0.617133 0.361188
0.295614 0.436595 0.243756
0.454728 0.512225 0.226038
0.513564 0.555739 0.256614
0.562794 0.595067 0.299905
0.615166 0.630423 0.346720
0.674221 0.659053 0.394120
0.743444 0.676855 0.437527
0.811496 0.682075 0.468731
0.031108 0.082319 0.205703
0.078238 0.094956 0.180060
0.204321 0.121828 0.154481
0.350293 0.138826 0.144278
0.489256 0.156822 0.139656
0.604293 0.181573 0.135091
0.685601 0.212224 0.128965
0.731394 0.242853 0.120847
0.036330 0.131826 0.234498
0.112490 0.159321 0.223617
0.226396 0.177469 0.213712
0.362064 0.191718 0.210097
0.498099 0.208154 0.206817
0.618680 0.232005 0.201361
0.712907 0.266275 0.193474
0.773956 0.309765 0.183616
0.046921 0.187666 0.267003
0.138292 0.224230 0.253830
0.245740 0.258761 0.251020
0.374749 0.275097 0.249131
0.508067 0.286857 0.246300
0.631533 0.303477 0.241861
0.734138 0.330075 0.235716
0.806121 0.368384 0.228407
0.063182 0.236306 0.298348
0.169903 0.287212 0.280868
0.281132 0.336829 0.272846
0.385696 0.375680 0.273396
0.512281 0.390558 0.271526
0.640712 0.398650 0.268295
0.748421 0.414484 0.266288
0.825960 0.440665 0.265779
0.090739 0.288752 0.327779
0.215666 0.351485 0.306174
0.334838 0.410265 0.291125
0.424092 0.462703 0.297308
0.522555 0.493367 0.303098
0.641031 0.502534 0.303076
0.754289 0.507045 0.303307
0.836972 0.520544 0.308301
0.132302 0.346949 0.353904
0.275947 0.417129 0.330228
0.403148 0.479888 0.311214
0.483546 0.533822 0.324954
0.556498 0.575070 0.343215
0.648532 0.595165 0.353209
0.752126 0.598656 0.357619
0.840300 0.601148 0.364082
0.186681 0.406433 0.375094
0.346320 0.481211 0.353119
0.478713 0.544375 0.334428
0.549826 0.593654 0.356553
0.607562 0.634348 0.388377
0.673243 0.663742 0.414091
0.753690 0.676075 0.430326
0.836561 0.676972 0.440650
0.249312 0.460795 0.390302
0.419779 0.538688 0.374508
0.551933 0.600329 0.360751
0.612916 0.642088 0.391877
0.657927 0.677609 0.436595
0.707565 0.708213 0.478801
0.765811 0.729174 0.513306
0.830769 0.737904 0.536729
0.030840 0.113246 0.315908
0.068009 0.122809 0.290593
0.185351 0.152224 0.254554
0.350970 0.187811 0.227755
0.499893 0.210311 0.216457
0.613725 0.230515 0.211980
0.690238 0.256051 0.207265
0.730014 0.281615 0.200764
0.039392 0.169270 0.350068
0.107660 0.195555 0.333808
0.216685 0.216777 0.315356
0.362714 0.238194 0.300700
0.504631 0.256137 0.294025
0.624460 0.278255 0.289530
0.715350 0.310879 0.283046
0.773576 0.353371 0.274877
0.053313 0.233343 0.384317
0.137564 0.266429 0.367747
0.245143 0.297362 0.359424
0.377700 0.313059 0.352940
0.512727 0.324460 0.349146
0.635550 0.340714 0.345264
0.737133 0.367589 0.339500
0.810231 0.407697 0.332565
0.068666 0.289796 0.417530
0.171450 0.332501 0.398528
0.283744 0.373252 0.391027
0.397395 0.403106 0.388434
0.522230 0.415429 0.385311
0.645605 0.423809 0.381419
0.753328 0.440330 0.377362
0.836320 0.469308 0.373569
0.088183 0.338228 0.449938
0.210132 0.394324 0.431509
0.331016 0.445507 0.420259
0.438371 0.489078 0.415474
0.538459 0.517022 0.414287
0.650047 0.527256 0.412104
0.761928 0.533532 0.409863
0.851100 0.549849 0.410765
0.118272 0.386923 0.478931
0.259426 0.454446 0.462721
0.390725 0.513440 0.448100
0.499216 0.564058 0.440376
0.578686 0.604132 0.445899
0.662674 0.625963 0.451491
0.762483 0.632456 0.452508
0.856296 0.637742 0.455711
0.161262 0.437273 0.501617
0.320314 0.512033 0.489061
0.460705 0.574945 0.474481
0.569665 0.627418 0.467129
0.637396 0.668915 0.482760
0.694510 0.699715 0.502130
0.768250 0.715575 0.512373
0.853214 0.719843 0.518432
0.213887 0.483050 0.516284
0.386725 0.562523 0.510607
0.531382 0.627042 0.500557
0.637357 0.678144 0.497595
0.694893 0.715914 0.523973
0.737186 0.746576 0.559113
0.787398 0.770384 0.585291
0.849408 0.782818 0.601436
0.031218 0.149703 0.420237
0.059237 0.156818 0.400350
0.161279 0.184535 0.365757
0.326246 0.228605 0.329600
0.496378 0.267935 0.305424
0.621297 0.292602 0.295003
0.693921 0.311310 0.290636
0.728983 0.330226 0.285548
0.044168 0.211092 0.458082
0.104840 0.237936 0.441994
0.204442 0.262827 0.422892
0.349886 0.291997 0.401046
0.503200 0.318408 0.385485
0.627901 0.341433 0.377506
0.715038 0.369282 0.372068
0.770429 0.407074 0.365767
0.062466 0.277944 0.492148
0.139553 0.311705 0.476300
0.241220 0.345092 0.466981
0.373334 0.367134 0.456412
0.513334 0.382617 0.448209
0.637448 0.398470 0.442785
0.736046 0.422818 0.437753
0.807909 0.460730 0.432338
0.080356 0.338280 0.522304
0.177160 0.379611 0.505917
0.285340 0.419607 0.500730
0.401096 0.449158 0.497662
0.526948 0.461275 0.494308
0.648439 0.468579 0.490161
0.753939 0.483628 0.485475
0.837801 0.511904 0.481336
0.096578 0.385414 0.549776
0.218771 0.438965 0.533921
0.334977 0.486119 0.529955
0.445321 0.524681 0.528223
0.549386 0.548080 0.527313
0.658630 0.556056 0.523785
0.766598 0.561568 0.519049
0.857420 0.577737 0.516706
0.116573 0.424917 0.575231
0.262476 0.492357 0.563800
0.388327 0.547552 0.560905
0.501344 0.593704 0.557022
0.592161 0.629518 0.556808
0.677168 0.649418 0.555841
0.771654 0.655928 0.552727
0.866320 0.661732 0.551873
0.146757 0.463286 0.595719
0.312422 0.541655 0.591326
0.448103 0.603121 0.590924
0.564880 0.654519 0.585998
0.651931 0.695952 0.587285
0.714736 0.726588 0.594023
0.782138 0.743118 0.598567
0.865773 0.748953 0.600222
0.188431 0.499302 0.607630
0.370480 0.584397 0.611357
0.512650 0.649080 0.615974
0.630069 0.702419 0.613827
0.712793 0.744512 0.619706
0.764059 0.776636 0.638549
0.807408 0.801078 0.657645
0.865571 0.815995 0.667732
0.033392 0.190130 0.506353
0.054126 0.195622 0.493240
0.140775 0.221082 0.466894
0.291390 0.265077 0.433280
0.468692 0.315492 0.402086
0.613643 0.351767 0.381546
0.696272 0.371051 0.372013
0.727694 0.382031 0.366998
0.050782 0.254450 0.544483
0.105608 0.282294 0.532032
0.194286 0.310510 0.518157
0.330414 0.345927 0.498471
0.487649 0.382314 0.478408
0.622981 0.411270 0.464003
0.713927 0.436324 0.455878
0.765958 0.465893 0.450629
0.072986 0.321185 0.577486
0.144175 0.356318 0.565926
0.240007 0.393863 0.559300
0.366024 0.425066 0.550458
0.507357 0.450442 0.540533
0.634777 0.470394 0.532578
0.732473 0.491970 0.526786
0.801882 0.523742 0.522317
0.093488 0.380030 0.603959
0.183920 0.423079 0.593712
0.289617 0.466441 0.591078
0.402277 0.502192 0.590710
0.528405 0.522744 0.588981
0.648742 0.533983 0.586219
0.750544 0.547231 0.582517
0.832681 0.571435 0.579016
0.109457 0.425130 0.624971
0.228192 0.479798 0.615552
0.343459 0.528132 0.616065
0.451676 0.568560 0.620808
0.557480 0.595003 0.624736
0.664166 0.604912 0.625276
0.766550 0.609526 0.622311
0.855957 0.622935 0.619030
0.122667 0.457152 0.642791
0.274670 0.527405 0.636727
0.400164 0.582274 0.640530
0.508456 0.626889 0.647504
0.602248 0.661099 0.652734
0.688017 0.679988 0.654798
0.777976 0.685370 0.652487
0.869866 0.689525 0.649032
0.140412 0.483364 0.657121
0.320648 0.568290 0.658396
0.456961 0.630205 0.666430
0.566833 0.679200 0.675099
0.658534 0.718807 0.679759
0.728513 0.748246 0.684085
0.794926 0.763842 0.685513
0.873946 0.769067 0.683615
0.169287 0.508168 0.664999
0.369025 0.602732 0.675834
0.513951 0.669824 0.689729
0.625602 0.721938 0.701733
0.715948 0.764893 0.708017
0.779964 0.798617 0.717543
0.825944 0.823526 0.728252
0.878536 0.838675 0.734162
0.039364 0.235535 0.571854
0.055216 0.240110 0.564219
0.128682 0.263324 0.547145
0.263193 0.305367 0.522486
0.430713 0.356628 0.494551
0.586738 0.401237 0.468676
0.687797 0.425212 0.449296
0.725970 0.430506 0.437596
0.060104 0.298105 0.605615
0.111322 0.326105 0.597833
0.190126 0.357119 0.590921
0.314466 0.397554 0.579309
0.465196 0.441423 0.563658
0.607128 0.478795 0.547399
0.708234 0.504907 0.533905
0.762956 0.525892 0.525075
0.084796 0.361577 0.634967
0.152105 0.397590 0.629264
0.243614 0.438857 0.626755
0.361137 0.477946 0.624243
0.497877 0.514888 0.618881
0.627666 0.544764 0.611926
0.727779 0.567844 0.604905
0.795896 0.592395 0.599439
0.106261 0.415537 0.657641
0.192358 0.460176 0.654424
0.296726 0.507434 0.655872
0.406004 0.549950 0.659896
0.529425 0.583179 0.662642
0.648851 0.606029 0.663711
0.747324 0.623020 0.662644
0.824887 0.643090 0.660431
0.121850 0.455521 0.673723
0.235117 0.512434 0.673180
0.351207 0.564678 0.678344
0.460356 0.610275 0.686881
0.565755 0.645607 0.695985
0.670414 0.665982 0.703323
0.766392 0.676616 0.706593
0.849072 0.688783 0.706651
0.131605 0.481258 0.684598
0.283379 0.554897 0.686942
0.411215 0.612667 0.695734
0.520823 0.659944 0.707727
0.614045 0.697605 0.720635
0.699350 0.721876 0.731661
0.783614 0.732187 0.737193
0.867064 0.737207 0.737841
0.140048 0.497764 0.692204
0.333226 0.590025 0.700100
0.473497 0.654423 0.713283
0.581854 0.703553 0.728372
0.669336 0.742498 0.743050
0.740652 0.772328 0.755014
0.805769 0.789427 0.761433
0.877157 0.795291 0.762600
0.155323 0.511304 0.695947
0.380162 0.618418 0.712635
0.531676 0.689307 0.731493
0.640245 0.740926 0.750065
0.723384 0.781614 0.766605
0.789815 0.814622 0.779293
0.840055 0.839428 0.788554
0.888393 0.853818 0.794538
0.053291 0.290709 0.625342
0.066610 0.295255 0.620269
0.130542 0.316954 0.609453
0.250744 0.356331 0.593017
0.404900 0.405115 0.572484
0.556045 0.449778 0.549522
0.667314 0.474687 0.523970
0.720344 0.475132 0.498841
0.074216 0.343275 0.648188
0.123531 0.370359 0.644278
0.195210 0.403574 0.642894
0.309054 0.447942 0.639528
0.449965 0.497041 0.632822
0.588850 0.541164 0.622446
0.696801 0.570717 0.607764
0.760970 0.585997 0.591415
0.098229 0.398916 0.670171
0.163783 0.435100 0.669754
0.253188 0.478231 0.670812
0.363181 0.523035 0.674801
0.492267 0.569228 0.677705
0.620263 0.610568 0.677317
0.723125 0.640837 0.672643
0.793481 0.662754 0.665011
0.118219 0.445260 0.687399
0.202347 0.490971 0.690390
0.307063 0.540840 0.695740
0.414561 0.587994 0.703464
0.532948 0.631172 0.712599
0.650749 0.668277 0.720113
0.748031 0.696484 0.724108
0.821241 0.718819 0.724329
0.131670 0.477685 0.698703
0.242106 0.536322 0.705502
0.360189 0.591901 0.715132
0.471425 0.641848 0.726767
0.576114 0.684615 0.740160
0.680177 0.718925 0.753194
0.771754 0.743925 0.763910
0.845501 0.763108 0.770353
0.139225 0.496942 0.704982
0.286126 0.572662 0.716238
0.417276 0.634187 0.729876
0.531609 0.685822 0.745125
0.627948 0.728731 0.761562
0.714656 0.762616 0.778078
0.793680 0.785994 0.792934
0.865902 0.801383 0.803204
0.142782 0.506527 0.708048
0.338573 0.603723 0.724654
0.483586 0.671912 0.742340
0.595836 0.723861 0.760376
0.685262 0.765360 0.778667
0.757036 0.798555 0.796589
0.818847 0.822234 0.812501
0.881255 0.836549 0.823511
0.147828 0.511729 0.708857
0.393761 0.630289 0.732513
0.552638 0.705453 0.754763
0.661150 0.757664 0.775470
0.740948 0.797335 0.794980
0.803421 0.829034 0.813252
0.852633 0.853782 0.828936
0.897722 0.870407 0.839774
