filters/luts/Sunshine 03.cube
# Created by: Adobe Photoshop Export Color Lookup Plugin
# LUT by SparkleStock. Enhanced with VOXCOLOR algorithms.
LUT_3D_SIZE 32
0.035165 0.011722 0.019536
0.053834 0.015834 0.018874
0.072504 0.019946 0.018213
0.091173 0.024058 0.017551
0.109843 0.028170 0.016889
0.128512 0.032282 0.016228
0.153996 0.038914 0.016314
0.180842 0.046051 0.016550
0.207688 0.053188 0.016787
0.234535 0.060325 0.017023
0.261381 0.067462 0.017259
0.289803 0.076427 0.018031
0.319012 0.086305 0.019071
0.348222 0.096183 0.020111
0.377431 0.106062 0.021151
0.406641 0.115940 0.022191
0.434409 0.127780 0.023467
0.460735 0.141581 0.024979
0.487061 0.155382 0.026492
0.513388 0.169184 0.028004
0.539714 0.182985 0.029517
0.564150 0.198614 0.031013
0.584804 0.217898 0.032479
0.605459 0.237181 0.033944
0.626114 0.256465 0.035409
0.646768 0.275749 0.036874
0.666399 0.295900 0.038253
0.680909 0.320383 0.039198
0.695419 0.344866 0.040143
0.709929 0.369349 0.041089
0.724440 0.393832 0.042034
0.738950 0.418315 0.042979
0.039182 0.016826 0.022325
0.058392 0.022530 0.021489
0.077601 0.028234 0.020654
0.096810 0.033937 0.019818
0.116019 0.039641 0.018983
0.135228 0.045345 0.018147
0.161587 0.052739 0.018098
0.189376 0.060470 0.018206
0.217164 0.068202 0.018315
0.244953 0.075933 0.018423
0.272741 0.083665 0.018531
0.301556 0.093157 0.019212
0.330885 0.103529 0.020178
0.360213 0.113901 0.021145
0.389542 0.124274 0.022111
0.418870 0.134646 0.023078
0.446487 0.146801 0.024318
0.472393 0.160740 0.025830
0.498298 0.174678 0.027343
0.524204 0.188617 0.028855
0.550109 0.202555 0.030367
0.574030 0.218111 0.031898
0.593980 0.236901 0.033464
0.613930 0.255691 0.035029
0.633880 0.274481 0.036595
0.653831 0.293271 0.038161
0.672744 0.312792 0.039660
0.686477 0.335966 0.040825
0.700210 0.359141 0.041990
0.713942 0.382316 0.043155
0.727675 0.405491 0.044319
0.741408 0.428666 0.045484
0.043200 0.021931 0.025113
0.062949 0.029226 0.024104
0.082698 0.036522 0.023095
0.102447 0.043817 0.022085
0.122196 0.051113 0.021076
0.141945 0.058408 0.020067
0.169178 0.066563 0.019882
0.197909 0.074889 0.019862
0.226640 0.083215 0.019842
0.255371 0.091541 0.019822
0.284101 0.099867 0.019803
0.313310 0.109887 0.020392
0.342757 0.120753 0.021285
0.372205 0.131620 0.022179
0.401652 0.142486 0.023072
0.431099 0.153352 0.023965
0.458565 0.165823 0.025168
0.484050 0.179899 0.026681
0.509535 0.193975 0.028193
0.535020 0.208050 0.029706
0.560504 0.222126 0.031218
0.583909 0.237608 0.032782
0.603155 0.255904 0.034448
0.622401 0.274200 0.036115
0.641647 0.292496 0.037781
0.660893 0.310792 0.039448
0.679090 0.329683 0.041067
0.692045 0.351550 0.042452
0.705000 0.373417 0.043836
0.717955 0.395283 0.045220
0.730910 0.417150 0.046605
0.743865 0.439017 0.047989
0.047217 0.027035 0.027902
0.067506 0.035923 0.026719
0.087795 0.044810 0.025536
0.108083 0.053697 0.024352
0.128372 0.062584 0.023169
0.148661 0.071472 0.021986
0.176770 0.080387 0.021666
0.206443 0.089308 0.021518
0.236116 0.098228 0.021370
0.265789 0.107149 0.021222
0.295462 0.116070 0.021074
0.325064 0.126617 0.021572
0.354630 0.137977 0.022392
0.384196 0.149338 0.023212
0.413762 0.160698 0.024033
0.443329 0.172058 0.024853
0.470644 0.184845 0.026019
0.495708 0.199058 0.027532
0.520772 0.213271 0.029044
0.545836 0.227484 0.030557
0.570900 0.241696 0.032069
0.593789 0.257106 0.033666
0.612331 0.274908 0.035433
0.630872 0.292710 0.037201
0.649414 0.310512 0.038968
0.667955 0.328314 0.040735
0.685436 0.346575 0.042475
0.697613 0.367134 0.044079
0.709791 0.387692 0.045682
0.721968 0.408251 0.047286
0.734146 0.428809 0.048890
0.746323 0.449368 0.050494
0.051235 0.032140 0.030690
0.072063 0.042619 0.029334
0.092892 0.053098 0.027977
0.113720 0.063577 0.026620
0.134548 0.074056 0.025263
0.155377 0.084535 0.023906
0.184361 0.094211 0.023450
0.214976 0.103726 0.023174
0.245591 0.113242 0.022898
0.276207 0.122757 0.022622
0.306822 0.132273 0.022346
0.336817 0.143347 0.022752
0.366502 0.155202 0.023499
0.396188 0.167056 0.024246
0.425873 0.178910 0.024993
0.455558 0.190764 0.025740
0.482722 0.203867 0.026870
0.507365 0.218217 0.028382
0.532008 0.232567 0.029895
0.556652 0.246917 0.031407
0.581295 0.261267 0.032920
0.603669 0.276603 0.034551
0.621506 0.293911 0.036418
0.639343 0.311219 0.038286
0.657180 0.328527 0.040154
0.675017 0.345835 0.042022
0.691781 0.363467 0.043882
0.703181 0.382717 0.045705
0.714581 0.401968 0.047529
0.725981 0.421218 0.049352
0.737381 0.440468 0.051176
0.748781 0.459719 0.052999
0.055252 0.037244 0.033479
0.076620 0.049315 0.031948
0.097989 0.061386 0.030418
0.119357 0.073457 0.028887
0.140725 0.085528 0.027356
0.162093 0.097598 0.025825
0.191952 0.108035 0.025233
0.223510 0.118145 0.024829
0.255067 0.128255 0.024425
0.286625 0.138365 0.024021
0.318182 0.148475 0.023617
0.348571 0.160077 0.023932
0.378375 0.172426 0.024606
0.408179 0.184774 0.025280
0.437983 0.197122 0.025954
0.467787 0.209470 0.026627
0.494801 0.222888 0.027721
0.519023 0.237376 0.029233
0.543245 0.251863 0.030746
0.567467 0.266350 0.032258
0.591690 0.280838 0.033771
0.613549 0.296101 0.035435
0.630682 0.312915 0.037403
0.647814 0.329729 0.039372
0.664947 0.346543 0.041340
0.682079 0.363356 0.043308
0.698127 0.380359 0.045289
0.708749 0.398301 0.047332
0.719372 0.416243 0.049375
0.729994 0.434185 0.051418
0.740616 0.452127 0.053461
0.751239 0.470070 0.055504
0.059900 0.043806 0.038158
0.082883 0.057278 0.036187
0.105866 0.070750 0.034215
0.128848 0.084222 0.032244
0.151831 0.097694 0.030273
0.174814 0.111166 0.028301
0.204107 0.122700 0.027586
0.234663 0.133847 0.027123
0.265219 0.144994 0.026660
0.295775 0.156141 0.026196
0.326331 0.167288 0.025733
0.356612 0.179488 0.025953
0.386756 0.192216 0.026516
0.416900 0.204944 0.027078
0.447044 0.217672 0.027641
0.477188 0.230400 0.028203
0.504230 0.244008 0.029241
0.528169 0.258495 0.030753
0.552107 0.272982 0.032266
0.576046 0.287470 0.033778
0.599985 0.301957 0.035291
0.621484 0.317068 0.036996
0.638102 0.333426 0.039088
0.654721 0.349784 0.041180
0.671340 0.366142 0.043272
0.687959 0.382500 0.045364
0.703505 0.398967 0.047493
0.713685 0.415974 0.049809
0.723865 0.432982 0.052125
0.734045 0.449990 0.054441
0.744225 0.466997 0.056757
0.754405 0.484005 0.059073
0.064674 0.050660 0.043216
0.089486 0.065495 0.040750
0.114298 0.080330 0.038285
0.139111 0.095165 0.035819
0.163923 0.110000 0.033354
0.188736 0.124835 0.030889
0.217175 0.137534 0.030053
0.246341 0.149806 0.029544
0.275506 0.162078 0.029035
0.304671 0.174350 0.028526
0.333836 0.186622 0.028016
0.363910 0.199436 0.028142
0.394439 0.212520 0.028586
0.424967 0.225605 0.029030
0.455495 0.238690 0.029474
0.486024 0.251774 0.029917
0.513129 0.265547 0.030895
0.536812 0.280006 0.032408
0.560494 0.294466 0.033920
0.584177 0.308926 0.035433
0.607860 0.323386 0.036945
0.629029 0.338329 0.038693
0.645172 0.354239 0.040913
0.661315 0.370149 0.043133
0.677458 0.386059 0.045353
0.693602 0.401969 0.047573
0.708688 0.417918 0.049856
0.718494 0.434066 0.052456
0.728299 0.450214 0.055055
0.738104 0.466361 0.057655
0.747909 0.482509 0.060254
0.757714 0.498657 0.062854
0.069447 0.057513 0.048273
0.096089 0.073711 0.045314
0.122731 0.089909 0.042354
0.149373 0.106107 0.039395
0.176015 0.122305 0.036435
0.202657 0.138503 0.033476
0.230243 0.152367 0.032520
0.258018 0.165764 0.031965
0.285793 0.179162 0.031410
0.313568 0.192559 0.030855
0.341342 0.205956 0.030300
0.371209 0.219383 0.030332
0.402122 0.232824 0.030657
0.433034 0.246266 0.030981
0.463947 0.259707 0.031306
0.494859 0.273149 0.031631
0.522029 0.287085 0.032550
0.545455 0.301518 0.034062
0.568882 0.315950 0.035574
0.592308 0.330383 0.037087
0.615735 0.344815 0.038599
0.636575 0.359591 0.040390
0.652242 0.375052 0.042738
0.667910 0.390514 0.045086
0.683577 0.405976 0.047434
0.699244 0.421437 0.049782
0.713872 0.436870 0.052219
0.723302 0.452158 0.055103
0.732732 0.467446 0.057986
0.742162 0.482733 0.060869
0.751592 0.498021 0.063752
0.761022 0.513309 0.066635
0.074221 0.064366 0.053330
0.102693 0.081928 0.049877
0.131164 0.099489 0.046423
0.159636 0.117050 0.042970
0.188107 0.134611 0.039517
0.216579 0.152172 0.036063
0.243311 0.167201 0.034987
0.269695 0.181723 0.034386
0.296080 0.196246 0.033786
0.322464 0.210768 0.033185
0.348848 0.225290 0.032584
0.378508 0.239330 0.032521
0.409804 0.253128 0.032727
0.441101 0.266926 0.032933
0.472398 0.280725 0.033139
0.503695 0.294523 0.033345
0.530928 0.308624 0.034204
0.554098 0.323029 0.035716
0.577269 0.337434 0.037229
0.600439 0.351839 0.038741
0.623609 0.366244 0.040254
0.644120 0.380852 0.042087
0.659312 0.395866 0.044563
0.674504 0.410879 0.047039
0.689695 0.425892 0.049515
0.704887 0.440906 0.051992
0.719056 0.455821 0.054583
0.728111 0.470249 0.057749
0.737166 0.484677 0.060916
0.746221 0.499105 0.064083
0.755276 0.513533 0.067250
0.764331 0.527961 0.070416
0.078995 0.071220 0.058387
0.109296 0.090144 0.054440
0.139597 0.109068 0.050493
0.169898 0.127992 0.046545
0.200199 0.146916 0.042598
0.230501 0.165840 0.038651
0.256379 0.182034 0.037454
0.281373 0.197682 0.036808
0.306367 0.213329 0.036161
0.331360 0.228977 0.035515
0.356354 0.244625 0.034868
0.385806 0.259277 0.034711
0.417487 0.273432 0.034798
0.449168 0.287587 0.034885
0.480849 0.301742 0.034971
0.512530 0.315897 0.035058
0.539828 0.330163 0.035858
0.562742 0.344541 0.037371
0.585656 0.358918 0.038883
0.608570 0.373296 0.040395
0.631484 0.387674 0.041908
0.651666 0.402114 0.043784
0.666382 0.416679 0.046388
0.681098 0.431244 0.048993
0.695814 0.445809 0.051597
0.710530 0.460374 0.054201
0.724240 0.474773 0.056946
0.732920 0.488341 0.060396
0.741600 0.501909 0.063847
0.750280 0.515477 0.067297
0.758960 0.529045 0.070747
0.767640 0.542613 0.074197
0.085659 0.080373 0.064485
0.117741 0.100630 0.060037
0.149823 0.120887 0.055590
0.181905 0.141143 0.051142
0.213987 0.161400 0.046695
0.246069 0.181657 0.042247
0.272122 0.198731 0.040858
0.296970 0.215168 0.040081
0.321817 0.231606 0.039303
0.346664 0.248043 0.038525
0.371512 0.264480 0.037748
0.399890 0.279439 0.037512
0.430035 0.293658 0.037547
0.460179 0.307877 0.037582
0.490323 0.322096 0.037617
0.520467 0.336315 0.037652
0.546929 0.350578 0.038383
0.569709 0.364885 0.039810
0.592489 0.379193 0.041238
0.615269 0.393500 0.042665
0.638049 0.407808 0.044092
0.657997 0.422048 0.045927
0.672280 0.436152 0.048580
0.686563 0.450257 0.051233
0.700846 0.464362 0.053886
0.715129 0.478466 0.056539
0.728424 0.492356 0.059354
0.736777 0.505174 0.062978
0.745131 0.517992 0.066602
0.753485 0.530810 0.070226
0.761838 0.543628 0.073850
0.770192 0.556446 0.077474
0.093269 0.090677 0.071102
0.127107 0.112251 0.066151
0.160945 0.133825 0.061200
0.194784 0.155399 0.056250
0.228622 0.176973 0.051299
0.262461 0.198547 0.046349
0.289203 0.216359 0.044731
0.314526 0.233418 0.043779
0.339849 0.250478 0.042828
0.365172 0.267537 0.041877
0.390496 0.284597 0.040925
0.417368 0.299708 0.040619
0.445014 0.313844 0.040636
0.472661 0.327981 0.040653
0.500308 0.342118 0.040670
0.527955 0.356254 0.040686
0.553131 0.370431 0.041344
0.575838 0.384647 0.042643
0.598545 0.398863 0.043942
0.621252 0.413079 0.045241
0.643959 0.427295 0.046540
0.663720 0.441318 0.048294
0.677592 0.454956 0.050956
0.691463 0.468594 0.053618
0.705334 0.482232 0.056280
0.719206 0.495870 0.058942
0.732107 0.509256 0.061784
0.740159 0.521378 0.065527
0.748211 0.533501 0.069270
0.756262 0.545624 0.073013
0.764314 0.557746 0.076756
0.772366 0.569869 0.080499
0.100878 0.100981 0.077719
0.136473 0.123872 0.072265
0.172068 0.146763 0.066811
0.207663 0.169655 0.061358
0.243257 0.192546 0.055904
0.278852 0.215437 0.050450
0.306284 0.233987 0.048603
0.332083 0.251669 0.047478
0.357881 0.269350 0.046353
0.383680 0.287032 0.045228
0.409479 0.304713 0.044103
0.434845 0.319977 0.043727
0.459994 0.334031 0.043725
0.485144 0.348085 0.043724
0.510293 0.362140 0.043722
0.535442 0.376194 0.043720
0.559334 0.390283 0.044305
0.581967 0.404408 0.045476
0.604601 0.418532 0.046647
0.627235 0.432657 0.047818
0.649868 0.446781 0.048989
0.669444 0.460588 0.050660
0.682904 0.473760 0.053331
0.696363 0.486931 0.056002
0.709823 0.500103 0.058674
0.723283 0.513274 0.061345
0.735791 0.526155 0.064214
0.743541 0.537583 0.068076
0.751291 0.549010 0.071938
0.759040 0.560437 0.075800
0.766790 0.571865 0.079662
0.774540 0.583292 0.083524
0.108488 0.111284 0.084336
0.145839 0.135493 0.078379
0.183190 0.159702 0.072422
0.220542 0.183910 0.066465
0.257893 0.208119 0.060508
0.295244 0.232327 0.054551
0.323365 0.251615 0.052476
0.349639 0.269919 0.051177
0.375914 0.288222 0.049878
0.402188 0.306526 0.048579
0.428463 0.324830 0.047280
0.452322 0.340245 0.046834
0.474974 0.354217 0.046814
0.497626 0.368189 0.046794
0.520278 0.382161 0.046774
0.542930 0.396133 0.046755
0.565536 0.410136 0.047266
0.588096 0.424169 0.048309
0.610657 0.438202 0.049352
0.633217 0.452235 0.050395
0.655778 0.466268 0.051438
0.675167 0.479858 0.053026
0.688215 0.492563 0.055707
0.701264 0.505268 0.058387
0.714312 0.517973 0.061067
0.727360 0.530678 0.063748
0.739474 0.543055 0.066645
0.746922 0.553787 0.070626
0.754370 0.564519 0.074607
0.761818 0.575251 0.078588
0.769266 0.585983 0.082568
0.776714 0.596715 0.086549
0.116098 0.121588 0.090953
0.155205 0.147114 0.084493
0.194313 0.172640 0.078033
0.233420 0.198166 0.071573
0.272528 0.223692 0.065113
0.311636 0.249218 0.058653
0.340445 0.269243 0.056349
0.367196 0.288169 0.054876
0.393946 0.307095 0.053403
0.420696 0.326020 0.051930
0.447446 0.344946 0.050457
0.469799 0.360514 0.049941
0.489954 0.374404 0.049903
0.510108 0.388294 0.049865
0.530263 0.402183 0.049827
0.550417 0.416073 0.049789
0.571738 0.429989 0.050227
0.594226 0.443930 0.051142
0.616713 0.457872 0.052057
0.639200 0.471813 0.052971
0.661687 0.485755 0.053886
0.680891 0.499129 0.055393
0.693527 0.511367 0.058082
0.706164 0.523605 0.060772
0.718800 0.535844 0.063461
0.731437 0.548082 0.066151
0.743158 0.559954 0.069075
0.750304 0.569991 0.073175
0.757450 0.580028 0.077275
0.764596 0.590065 0.081375
0.771742 0.600101 0.085474
0.778888 0.610138 0.089574
0.127417 0.134988 0.097310
0.167765 0.161488 0.090466
0.208112 0.187988 0.083621
0.248459 0.214488 0.076777
0.288806 0.240988 0.069933
0.329153 0.267488 0.063089
0.358375 0.288001 0.060584
0.385373 0.307315 0.058946
0.412370 0.326629 0.057309
0.439367 0.345944 0.055671
0.466364 0.365258 0.054034
0.487830 0.380904 0.053450
0.506530 0.394716 0.053394
0.525230 0.408528 0.053337
0.543930 0.422340 0.053281
0.562630 0.436152 0.053224
0.582608 0.449738 0.053596
0.603865 0.463099 0.054397
0.625122 0.476460 0.055197
0.646379 0.489820 0.055998
0.667636 0.503181 0.056798
0.685890 0.516010 0.058196
0.698137 0.527778 0.060790
0.710385 0.539545 0.063383
0.722632 0.551312 0.065977
0.734880 0.563080 0.068570
0.746223 0.574448 0.071414
0.753039 0.583822 0.075509
0.759856 0.593195 0.079604
0.766673 0.602569 0.083700
0.773490 0.611943 0.087795
0.780306 0.621316 0.091890
0.142448 0.151483 0.103407
0.183517 0.178614 0.096297
0.224587 0.205746 0.089188
0.265657 0.232877 0.082078
0.306727 0.260008 0.074969
0.347797 0.287140 0.067859
0.377155 0.307887 0.065180
0.404170 0.327357 0.063387
0.431186 0.346827 0.061594
0.458201 0.366297 0.059801
0.485217 0.385767 0.058008
0.506414 0.401416 0.057361
0.524702 0.415154 0.057286
0.542991 0.428893 0.057211
0.561279 0.442632 0.057137
0.579567 0.456371 0.057062
0.598146 0.469385 0.057375
0.617015 0.481675 0.058074
0.635885 0.493966 0.058774
0.654754 0.506256 0.059474
0.673623 0.518546 0.060174
0.690163 0.530504 0.061438
0.702045 0.541795 0.063830
0.713927 0.553087 0.066222
0.725808 0.564379 0.068614
0.737690 0.575670 0.071007
0.748668 0.586537 0.073661
0.755128 0.595280 0.077628
0.761588 0.604022 0.081596
0.768048 0.612764 0.085563
0.774508 0.621507 0.089530
0.780968 0.630249 0.093497
0.157478 0.167978 0.109504
0.199270 0.195741 0.102129
0.241063 0.223503 0.094755
0.282855 0.251266 0.087380
0.324648 0.279029 0.080005
0.366440 0.306791 0.072630
0.395934 0.327773 0.069777
0.422968 0.347398 0.067829
0.450002 0.367024 0.065880
0.477035 0.386649 0.063932
0.504069 0.406275 0.061983
0.524998 0.421927 0.061272
0.542875 0.435593 0.061179
0.560752 0.449258 0.061086
0.578628 0.462924 0.060993
0.596505 0.476589 0.060900
0.613684 0.489032 0.061153
0.630166 0.500252 0.061752
0.646647 0.511472 0.062351
0.663129 0.522692 0.062950
0.679611 0.533912 0.063549
0.694437 0.544997 0.064679
0.705953 0.555813 0.066870
0.717468 0.566629 0.069061
0.728984 0.577445 0.071252
0.740500 0.588261 0.073443
0.751114 0.598626 0.075909
0.757217 0.606737 0.079748
0.763320 0.614849 0.083587
0.769423 0.622960 0.087426
0.775527 0.631071 0.091265
0.781630 0.639182 0.095104
0.172508 0.184474 0.115601
0.215023 0.212867 0.107961
0.257538 0.241261 0.100321
0.300053 0.269655 0.092681
0.342569 0.298049 0.085041
0.385084 0.326443 0.077401
0.414713 0.347659 0.074374
0.441765 0.367440 0.072270
0.468817 0.387221 0.070166
0.495870 0.407002 0.068062
0.522922 0.426783 0.065958
0.543582 0.442438 0.065182
0.561047 0.456031 0.065071
0.578512 0.469623 0.064960
0.595977 0.483215 0.064849
0.613442 0.496808 0.064737
0.629222 0.508679 0.064931
0.643316 0.518828 0.065429
0.657410 0.528978 0.065928
0.671504 0.539128 0.066427
0.685598 0.549278 0.066925
0.698711 0.559491 0.067921
0.709860 0.569831 0.069910
0.721010 0.580171 0.071900
0.732160 0.590512 0.073890
0.743310 0.600852 0.075879
0.753559 0.610715 0.078156
0.759306 0.618195 0.081867
0.765052 0.625675 0.085578
0.770799 0.633155 0.089289
0.776545 0.640635 0.093000
0.782292 0.648115 0.096711
0.187538 0.200969 0.121698
0.230776 0.229994 0.113793
0.274014 0.259019 0.105888
0.317252 0.288044 0.097982
0.360490 0.317069 0.090077
0.403728 0.346094 0.082171
0.433493 0.367545 0.078971
0.460563 0.387482 0.076711
0.487633 0.407418 0.074452
0.514704 0.427355 0.072192
0.541774 0.447291 0.069933
0.562166 0.462950 0.069093
0.579220 0.476469 0.068964
0.596273 0.489988 0.068834
0.613327 0.503507 0.068704
0.630380 0.517026 0.068575
0.644760 0.528326 0.068709
0.656466 0.537405 0.069107
0.668173 0.546484 0.069505
0.679879 0.555564 0.069903
0.691585 0.564643 0.070301
0.702984 0.573984 0.071162
0.713768 0.583849 0.072951
0.724552 0.593713 0.074739
0.735336 0.603578 0.076527
0.746120 0.613442 0.078316
0.756005 0.622804 0.080403
0.761395 0.629653 0.083986
0.766784 0.636502 0.087569
0.772174 0.643351 0.091152
0.777564 0.650200 0.094735
0.782953 0.657048 0.098318
0.207799 0.220899 0.126346
0.251009 0.250058 0.118364
0.294220 0.279217 0.110383
0.337430 0.308376 0.102401
0.380641 0.337536 0.094420
0.423851 0.366695 0.086438
0.453350 0.388082 0.083154
0.480106 0.407915 0.080809
0.506862 0.427748 0.078464
0.533619 0.447580 0.076119
0.560375 0.467413 0.073774
0.580289 0.482870 0.072900
0.596781 0.496139 0.072761
0.613273 0.509409 0.072622
0.629765 0.522678 0.072484
0.646258 0.535947 0.072345
0.659439 0.546684 0.072442
0.669310 0.554888 0.072776
0.679181 0.563092 0.073110
0.689051 0.571296 0.073444
0.698922 0.579500 0.073778
0.708854 0.588009 0.074524
0.718909 0.597127 0.076092
0.728964 0.606244 0.077661
0.739020 0.615361 0.079230
0.749075 0.624479 0.080799
0.758289 0.633118 0.082669
0.763301 0.639363 0.086045
0.768312 0.645608 0.089420
0.773324 0.651853 0.092796
0.778336 0.658098 0.096171
0.783347 0.664343 0.099547
0.238521 0.247698 0.128095
0.280203 0.275997 0.120415
0.321886 0.304296 0.112735
0.363569 0.332596 0.105056
0.405252 0.360895 0.097376
0.446934 0.389194 0.089696
0.475363 0.409920 0.086508
0.501140 0.429130 0.084218
0.526918 0.448341 0.081928
0.552695 0.467552 0.079638
0.578473 0.486763 0.077348
0.597487 0.501610 0.076498
0.613119 0.514275 0.076368
0.628752 0.526941 0.076239
0.644384 0.539606 0.076109
0.660016 0.552271 0.075980
0.672402 0.562464 0.076086
0.681541 0.570183 0.076429
0.690680 0.577903 0.076772
0.699818 0.585622 0.077115
0.708957 0.593341 0.077458
0.717917 0.601097 0.078125
0.726517 0.608924 0.079438
0.735118 0.616752 0.080750
0.743719 0.624580 0.082063
0.752319 0.632407 0.083376
0.760252 0.639880 0.084971
0.764842 0.645576 0.087981
0.769433 0.651272 0.090991
0.774024 0.656968 0.094000
0.778615 0.662664 0.097010
0.783205 0.668360 0.100020
0.269243 0.274497 0.129844
0.309398 0.301936 0.122466
0.349553 0.329376 0.115088
0.389708 0.356815 0.107710
0.429863 0.384254 0.100332
0.470018 0.411694 0.092954
0.497376 0.431757 0.089862
0.522175 0.450346 0.087627
0.546973 0.468935 0.085392
0.571772 0.487524 0.083157
0.596571 0.506112 0.080922
0.614685 0.520350 0.080096
0.629458 0.532411 0.079976
0.644230 0.544473 0.079855
0.659002 0.556534 0.079735
0.673775 0.568596 0.079614
0.685365 0.578244 0.079730
0.693772 0.585479 0.080082
0.702179 0.592713 0.080435
0.710586 0.599948 0.080787
0.718993 0.607182 0.081139
0.726979 0.614184 0.081726
0.734125 0.620722 0.082783
0.741271 0.627260 0.083839
0.748418 0.633798 0.084896
0.755564 0.640335 0.085952
0.762214 0.646641 0.087274
0.766384 0.651789 0.089917
0.770554 0.656936 0.092561
0.774724 0.662083 0.095205
0.778894 0.667231 0.097849
0.783064 0.672378 0.100492
0.299965 0.301296 0.131592
0.338592 0.327875 0.124516
0.377219 0.354455 0.117440
0.415847 0.381034 0.110365
0.454474 0.407614 0.103289
0.493101 0.434193 0.096213
0.519389 0.453595 0.093216
0.543209 0.471562 0.091036
0.567029 0.489528 0.088856
0.590848 0.507495 0.086676
0.614668 0.525462 0.084495
0.631883 0.539089 0.083694
0.645796 0.550547 0.083583
0.659708 0.562005 0.083472
0.673621 0.573463 0.083360
0.687533 0.584921 0.083249
0.698327 0.594024 0.083374
0.706002 0.600774 0.083736
0.713678 0.607524 0.084097
0.721353 0.614273 0.084458
0.729028 0.621023 0.084820
0.736042 0.627272 0.085327
0.741733 0.632520 0.086128
0.747425 0.637768 0.086928
0.753117 0.643016 0.087729
0.758808 0.648264 0.088529
0.764176 0.653403 0.089576
0.767925 0.658002 0.091854
0.771674 0.662600 0.094131
0.775423 0.667199 0.096409
0.779173 0.671797 0.098687
0.782922 0.676395 0.100965
0.330687 0.328095 0.133341
0.367786 0.353814 0.126567
0.404886 0.379534 0.119793
0.441985 0.405253 0.113019
0.479085 0.430973 0.106245
0.516185 0.456693 0.099471
0.541402 0.475433 0.096571
0.564243 0.492778 0.094445
0.587084 0.510122 0.092320
0.609925 0.527467 0.090195
0.632766 0.544811 0.088069
0.649081 0.557829 0.087293
0.662134 0.568683 0.087190
0.675187 0.579537 0.087088
0.688239 0.590391 0.086986
0.701292 0.601245 0.086884
0.711290 0.609805 0.087018
0.718233 0.616069 0.087389
0.725177 0.622334 0.087759
0.732120 0.628599 0.088130
0.739063 0.634864 0.088500
0.745104 0.640360 0.088929
0.749342 0.644318 0.089473
0.753579 0.648276 0.090017
0.757816 0.652234 0.090561
0.762053 0.656192 0.091106
0.766138 0.660165 0.091878
0.769467 0.664215 0.093790
0.772795 0.668264 0.095702
0.776123 0.672314 0.097614
0.779452 0.676363 0.099526
0.782780 0.680413 0.101438
0.366111 0.357415 0.133223
0.401070 0.381901 0.126944
0.436029 0.406387 0.120666
0.470988 0.430873 0.114387
0.505947 0.455359 0.108109
0.540906 0.479845 0.101830
0.564701 0.497701 0.099133
0.586263 0.514232 0.097153
0.607825 0.530762 0.095172
0.629386 0.547293 0.093192
0.650948 0.563823 0.091211
0.666192 0.576109 0.090506
0.678276 0.586272 0.090439
0.690361 0.596436 0.090372
0.702445 0.606599 0.090305
0.714530 0.616762 0.090238
0.723665 0.624710 0.090393
0.729850 0.630441 0.090769
0.736036 0.636172 0.091146
0.742221 0.641903 0.091522
0.748407 0.647635 0.091899
0.753511 0.652390 0.092257
0.756452 0.655194 0.092579
0.759393 0.657998 0.092901
0.762334 0.660802 0.093222
0.765275 0.663605 0.093544
0.768207 0.666521 0.094071
0.771093 0.669998 0.095621
0.773980 0.673474 0.097172
0.776866 0.676950 0.098722
0.779752 0.680426 0.100273
0.782638 0.683902 0.101824
0.425050 0.399338 0.123770
0.454804 0.420723 0.118955
0.484558 0.442108 0.114140
0.514312 0.463493 0.109325
0.544065 0.484878 0.104511
0.573819 0.506263 0.099696
0.594429 0.522124 0.097738
0.613210 0.536879 0.096352
0.631990 0.551635 0.094966
0.650771 0.566391 0.093581
0.669552 0.581146 0.092195
0.682862 0.592090 0.091798
0.693437 0.601129 0.091895
0.704013 0.610167 0.091993
0.714588 0.619205 0.092090
0.725163 0.628243 0.092188
0.733099 0.635239 0.092421
0.738398 0.640193 0.092788
0.743696 0.645146 0.093155
0.748994 0.650100 0.093523
