filters/luts/Sunshine 04_S.cube
# Created by: Adobe Photoshop Export Color Lookup Plugin
# LUT by SparkleStock. Enhanced with VOXCOLOR algorithms.
LUT_3D_SIZE 5
DOMAIN_MIN 0.000000 0.000000 0.000000
DOMAIN_MAX 0.903226 0.903226 0.903226
0.015629 0.019536 0.039072
0.118563 0.063705 0.056528
0.269857 0.115255 0.065808
0.461152 0.182000 0.070078
0.650502 0.291268 0.075450
0.035960 0.056064 0.067171
0.196588 0.144996 0.057662
0.388570 0.217145 0.055573
0.578948 0.287871 0.060830
0.712805 0.383184 0.079163
0.068589 0.102871 0.102745
0.302718 0.234864 0.077183
0.474279 0.344733 0.065147
0.648352 0.425151 0.066031
0.756550 0.507726 0.088712
0.153303 0.182276 0.139226
0.445567 0.342031 0.099542
0.609292 0.466446 0.088178
0.696717 0.544275 0.083952
0.778907 0.608061 0.098221
0.457348 0.352381 0.127819
0.633330 0.484405 0.108073
0.732340 0.582693 0.103543
0.775579 0.633906 0.104824
0.792944 0.655264 0.108264
0.029564 0.040797 0.126401
0.147040 0.087525 0.134932
0.352134 0.139542 0.134441
0.548249 0.204158 0.147887
0.681213 0.292834 0.167871
0.061736 0.105083 0.186576
0.199320 0.198474 0.215164
0.404662 0.251778 0.217287
0.608470 0.302522 0.225957
0.746755 0.387344 0.246241
0.106728 0.181649 0.250899
0.271949 0.309906 0.269656
0.464467 0.408613 0.245486
0.663559 0.464439 0.244539
0.805315 0.533495 0.264383
0.179216 0.276892 0.324604
0.395746 0.421985 0.323769
0.589931 0.547627 0.290434
0.708856 0.628689 0.289943
0.838432 0.679123 0.314866
0.377730 0.434706 0.392557
0.607947 0.566036 0.340812
0.741842 0.667695 0.333022
0.812786 0.736306 0.363926
0.861483 0.774584 0.419851
0.056615 0.079838 0.241412
0.143283 0.145921 0.293417
0.377719 0.217459 0.249439
0.602686 0.280703 0.239027
0.713495 0.355801 0.257713
0.105213 0.170436 0.331235
0.227434 0.266504 0.382809
0.425756 0.331115 0.389085
0.643629 0.378973 0.386058
0.775299 0.451816 0.400457
0.170686 0.277167 0.396521
0.314564 0.392929 0.449509
0.475136 0.469048 0.457990
0.676773 0.500332 0.453284
0.831210 0.546620 0.466771
0.258686 0.397285 0.486318
0.429652 0.516294 0.525723
0.582091 0.611730 0.528896
0.712849 0.674315 0.491935
0.866746 0.701897 0.497043
0.409396 0.535153 0.569243
0.594371 0.639775 0.579971
0.734890 0.724735 0.576546
0.824141 0.789546 0.573167
0.889198 0.823838 0.592022
0.097727 0.141565 0.367742
0.164299 0.231426 0.452623
0.316837 0.322195 0.472910
0.637572 0.438705 0.413668
0.747817 0.478130 0.395124
0.160366 0.251589 0.467713
0.271442 0.351418 0.526288
0.430963 0.445548 0.569623
0.664223 0.529110 0.562124
0.798239 0.582400 0.560267
0.246316 0.373876 0.538604
0.382790 0.481087 0.594133
0.524382 0.563365 0.634061
0.693164 0.610449 0.648541
0.844543 0.637602 0.648530
0.355590 0.501908 0.591933
0.505256 0.603010 0.648947
0.630673 0.676064 0.684354
0.728847 0.714289 0.693820
0.877377 0.720952 0.687951
0.479467 0.617885 0.667246
0.633272 0.704853 0.710297
0.753035 0.774438 0.742015
0.829363 0.821333 0.754378
0.901842 0.848571 0.739994
0.176951 0.278900 0.523014
0.219547 0.335852 0.567087
0.335732 0.423240 0.601975
0.556985 0.557843 0.634411
0.777620 0.672345 0.646619
0.228324 0.355336 0.577146
0.324409 0.437309 0.617768
0.463870 0.536923 0.664854
0.650686 0.647445 0.706104
0.815226 0.734308 0.730951
0.328717 0.470475 0.631968
0.450605 0.557978 0.675271
0.577909 0.639547 0.719732
0.731473 0.724361 0.763602
0.854180 0.776613 0.789653
0.448053 0.589880 0.677904
0.582639 0.671997 0.724212
0.703077 0.743239 0.769276
0.788470 0.790068 0.802772
0.886643 0.820012 0.826641
0.535432 0.663169 0.705212
0.691054 0.750501 0.761979
0.800391 0.814770 0.808483
0.866844 0.854982 0.839052
0.914719 0.876968 0.851775
