filters/luts/Sunshine 04.cube
# Created by: Adobe Photoshop Export Color Lookup Plugin
# LUT by SparkleStock. Enhanced with VOXCOLOR algorithms.
LUT_3D_SIZE 8
DOMAIN_MIN 0.000000 0.000000 0.000000
DOMAIN_MAX 0.903226 0.903226 0.903226
0.015629 0.019536 0.039072
0.068187 0.044114 0.050037
0.135476 0.072039 0.058592
0.217811 0.102288 0.064815
0.314963 0.134830 0.068951
0.427831 0.174154 0.071598
0.544637 0.226555 0.073615
0.649226 0.292119 0.076017
0.026594 0.039576 0.054386
0.097448 0.076010 0.057008
0.187284 0.112369 0.062404
0.288366 0.149827 0.067603
0.394429 0.189468 0.070842
0.501734 0.233329 0.073489
0.601270 0.284657 0.076603
0.683866 0.342237 0.080719
0.039702 0.061357 0.071842
0.137354 0.110994 0.068091
0.238630 0.158679 0.068626
0.347012 0.205574 0.071098
0.461531 0.252741 0.073804
0.564000 0.301658 0.076450
0.649668 0.353813 0.080835
0.716066 0.407441 0.087041
0.057474 0.086612 0.091993
0.187192 0.151045 0.081521
0.300128 0.211416 0.077149
0.407731 0.267493 0.076606
0.516172 0.320023 0.078035
0.615019 0.373416 0.080377
0.689492 0.426642 0.085545
0.743617 0.477919 0.093451
0.084155 0.117783 0.114561
0.246824 0.197968 0.095930
0.376978 0.270801 0.087519
0.479792 0.334287 0.084603
0.564156 0.388929 0.083814
0.656087 0.443603 0.085315
0.720656 0.496418 0.090250
0.764903 0.544883 0.098790
0.136146 0.163346 0.136303
0.320624 0.255826 0.110792
0.459938 0.337844 0.097991
0.562861 0.407830 0.093172
0.637748 0.464778 0.092310
0.690746 0.506133 0.092200
0.741995 0.553434 0.095282
0.778045 0.596441 0.102315
0.249896 0.237111 0.145441
0.422274 0.330786 0.120125
0.549713 0.413394 0.106551
0.640315 0.482472 0.100856
0.701624 0.536373 0.099662
0.737520 0.571971 0.100137
0.765163 0.601196 0.101426
0.785755 0.629820 0.105464
0.459049 0.348978 0.128812
0.569892 0.427596 0.115413
0.654038 0.498580 0.108110
0.714235 0.557220 0.105199
0.753642 0.600464 0.105107
0.774505 0.626109 0.106290
0.785021 0.640268 0.106934
0.792705 0.653709 0.108290
0.022057 0.029556 0.085013
0.077250 0.055744 0.083976
0.160859 0.087042 0.087061
0.262099 0.121023 0.092455
0.371693 0.156200 0.098987
0.481633 0.194060 0.107489
0.582217 0.238533 0.117921
0.665150 0.288929 0.128777
0.035657 0.058378 0.110573
0.098834 0.103447 0.121817
0.195480 0.142099 0.128560
0.307470 0.179011 0.134062
0.420648 0.217462 0.140831
0.526839 0.257820 0.150466
0.618858 0.303145 0.162563
0.691971 0.352820 0.174910
0.053266 0.090186 0.139104
0.129236 0.147538 0.154726
0.234469 0.197867 0.153269
0.354469 0.244167 0.150014
0.475854 0.289008 0.154503
0.580307 0.334790 0.161900
0.663834 0.383338 0.173199
0.726579 0.433707 0.186577
0.075026 0.125003 0.170183
0.168388 0.192439 0.185251
0.285382 0.255345 0.173756
0.409089 0.312560 0.160854
0.526651 0.364364 0.161926
0.630777 0.415794 0.167422
0.706743 0.467182 0.178183
0.760287 0.517543 0.193373
0.102658 0.163859 0.203419
0.217385 0.241834 0.214576
0.352110 0.315691 0.197563
0.475432 0.381910 0.179553
0.571757 0.439335 0.177612
0.671559 0.493434 0.184235
0.740673 0.545231 0.196473
0.787177 0.593459 0.214905
0.146891 0.213520 0.238773
0.285127 0.300164 0.238971
0.430311 0.382228 0.218223
0.555725 0.455156 0.199831
0.645463 0.515779 0.198695
0.707237 0.561318 0.210733
0.765639 0.609812 0.226066
0.806585 0.653605 0.248261
0.235198 0.286382 0.270793
0.388246 0.375789 0.252375
0.526194 0.458312 0.230626
0.636509 0.530067 0.217498
0.712560 0.588335 0.220401
0.758612 0.629948 0.237595
0.794440 0.664291 0.260317
0.821607 0.696655 0.287799
0.396739 0.393254 0.290871
0.542366 0.475366 0.248865
0.646530 0.546981 0.230709
0.719901 0.607055 0.229475
0.771178 0.654895 0.240016
0.802259 0.687863 0.263410
0.821596 0.710191 0.294267
0.837028 0.730600 0.328002
0.032636 0.045335 0.141668
0.078748 0.074480 0.154444
0.171735 0.108809 0.141449
0.289238 0.146091 0.129304
0.412400 0.184511 0.133995
0.524079 0.222878 0.144204
0.614834 0.263552 0.159597
0.683073 0.305982 0.176992
0.051255 0.082835 0.180687
0.107882 0.132028 0.203251
0.203083 0.175355 0.203826
0.322581 0.215879 0.199217
0.451135 0.255846 0.201174
0.560637 0.295714 0.211162
0.645942 0.337669 0.227434
0.708524 0.381198 0.245671
0.072812 0.124198 0.214034
0.140673 0.185318 0.242256
0.237599 0.239316 0.247305
0.358366 0.287388 0.245048
0.492134 0.331175 0.247034
0.600536 0.374297 0.256823
0.681028 0.418210 0.273321
0.737997 0.462441 0.292126
0.099217 0.169684 0.250806
0.180003 0.238550 0.279985
0.283092 0.302415 0.284711
0.403426 0.359217 0.279243
0.532257 0.408711 0.275373
0.641595 0.456076 0.283912
0.718121 0.502380 0.299468
0.769907 0.547365 0.318923
0.132259 0.219567 0.295628
0.228531 0.294865 0.320841
0.343884 0.366132 0.323511
0.462515 0.430462 0.310911
0.574146 0.486628 0.293352
0.681632 0.537358 0.299760
0.754347 0.585672 0.313769
0.801685 0.631123 0.334640
0.176096 0.275400 0.340344
0.292118 0.356142 0.356538
0.416954 0.432198 0.355327
0.538799 0.501438 0.341725
0.646119 0.561704 0.324484
0.716644 0.607027 0.332979
0.780878 0.653178 0.350027
0.824904 0.694951 0.375780
0.250381 0.347705 0.384342
0.384477 0.429901 0.383111
0.510506 0.505350 0.374658
0.622752 0.573204 0.362977
0.715079 0.632001 0.354272
0.770485 0.674629 0.368895
0.812369 0.709204 0.394678
0.843674 0.741372 0.427892
0.379183 0.447000 0.423335
0.518985 0.523348 0.397195
0.630556 0.590334 0.379214
0.716481 0.648353 0.372456
0.779414 0.697226 0.379239
0.818816 0.732160 0.403739
0.843890 0.756736 0.440211
0.863688 0.778792 0.481878
0.047446 0.066793 0.206436
0.083617 0.101525 0.240302
0.169505 0.139306 0.228385
0.294538 0.180971 0.201691
0.441369 0.225478 0.184188
0.557805 0.264125 0.191104
0.643325 0.302223 0.206487
0.702072 0.340013 0.226331
0.071822 0.112807 0.257860
0.123966 0.164735 0.290776
0.209614 0.213244 0.294791
0.329382 0.260060 0.283704
0.473821 0.305715 0.270605
0.591772 0.346053 0.274777
0.674047 0.385881 0.290029
0.728819 0.425015 0.310468
0.098324 0.163064 0.296337
0.164009 0.225926 0.331458
0.249591 0.283427 0.347644
0.363667 0.335357 0.349706
0.503111 0.381882 0.344390
0.621173 0.423549 0.349415
0.701201 0.463875 0.365776
0.753415 0.502814 0.386678
0.130737 0.218632 0.334568
0.208694 0.287727 0.370684
0.296958 0.351397 0.393628
0.405045 0.407800 0.400818
0.533519 0.456453 0.395175
0.652040 0.500189 0.400932
0.730270 0.541422 0.417174
0.780221 0.580422 0.437873
0.171337 0.279570 0.380797
0.261448 0.351767 0.413842
0.356283 0.418439 0.437462
0.459325 0.478300 0.440404
0.571621 0.530896 0.422820
0.687337 0.577092 0.426176
0.763271 0.620080 0.440004
0.810731 0.659963 0.460064
0.219882 0.343161 0.433185
0.323973 0.417364 0.459270
0.426348 0.485528 0.478880
0.532144 0.547867 0.480644
0.639895 0.603657 0.462927
0.720870 0.646326 0.457614
0.790620 0.688062 0.470029
0.836821 0.725855 0.492387
0.287887 0.415020 0.482396
0.404243 0.488358 0.497921
0.512544 0.554751 0.507271
0.614923 0.615203 0.506095
0.709563 0.669456 0.495314
0.775568 0.710506 0.495525
0.822941 0.742657 0.513265
0.857230 0.772327 0.541146
0.394067 0.504664 0.528249
0.513110 0.571465 0.528899
0.620117 0.631486 0.521996
0.709886 0.684690 0.515896
0.779362 0.730614 0.517097
0.827170 0.765007 0.531071
0.856830 0.788649 0.558790
0.879277 0.809334 0.593582
0.066517 0.094159 0.276695
0.098846 0.137417 0.325728
0.160390 0.179629 0.343053
0.278655 0.227126 0.319591
0.453239 0.280835 0.264458
0.584091 0.322025 0.259390
0.668721 0.356614 0.267607
0.721544 0.389268 0.283459
0.096108 0.148333 0.336315
0.146138 0.203319 0.375773
0.216825 0.256320 0.399569
0.327139 0.310443 0.395346
0.478517 0.365535 0.364266
0.612345 0.408402 0.356597
0.697360 0.446311 0.365061
0.749353 0.482037 0.382661
0.129197 0.206478 0.383170
0.193223 0.270142 0.420501
0.270780 0.330118 0.448397
0.373780 0.387224 0.456759
0.504931 0.440934 0.443968
0.638401 0.484122 0.436480
0.722749 0.522986 0.445518
0.773691 0.559298 0.463888
0.169092 0.270142 0.420561
0.244309 0.338472 0.459327
0.327069 0.401194 0.489080
0.422440 0.458203 0.504866
0.533779 0.509282 0.505664
0.663763 0.552202 0.502045
0.746265 0.590489 0.512858
0.795857 0.625423 0.531390
0.217580 0.339542 0.455143
0.302135 0.408377 0.494881
0.389217 0.470187 0.524291
0.477261 0.525179 0.543629
0.569316 0.573767 0.553477
0.690205 0.616015 0.553925
0.769637 0.653052 0.566724
0.817804 0.685637 0.584882
0.273645 0.411018 0.511299
0.367110 0.478233 0.543908
0.459499 0.539605 0.570001
0.547984 0.594615 0.589517
0.632390 0.642782 0.599439
0.722164 0.681828 0.580397
0.797221 0.718375 0.586238
0.845504 0.751032 0.602272
0.339915 0.482302 0.561794
0.440975 0.546606 0.586931
0.536775 0.605424 0.607333
0.623861 0.657704 0.622785
0.701414 0.702984 0.630823
0.776410 0.741186 0.616374
0.829341 0.770028 0.622060
0.866560 0.796249 0.639387
0.429566 0.560886 0.607453
0.531470 0.618667 0.623472
0.625058 0.671784 0.635278
0.706804 0.718612 0.642318
0.774911 0.758350 0.645009
0.830032 0.791282 0.646968
0.864399 0.813025 0.660595
0.889277 0.831298 0.682011
0.090716 0.130458 0.349104
0.123045 0.182498 0.404724
0.172978 0.230486 0.437448
0.259298 0.281605 0.444967
0.395789 0.340931 0.426517
0.597923 0.410663 0.380905
0.692848 0.439885 0.366630
0.741865 0.460390 0.365742
0.124113 0.191512 0.410774
0.172896 0.247234 0.450472
0.236905 0.304547 0.483964
0.326909 0.363586 0.502355
0.450974 0.424380 0.499574
0.620161 0.486950 0.471531
0.715434 0.522835 0.464358
0.768980 0.552007 0.470515
0.163289 0.255084 0.460404
0.225865 0.316897 0.495643
0.298912 0.377902 0.528190
0.389470 0.438543 0.551281
0.502511 0.498521 0.559556
0.643607 0.554179 0.545925
0.736929 0.592021 0.542718
0.792436 0.624461 0.551756
0.210270 0.323151 0.501234
0.283792 0.389196 0.536804
0.362834 0.450626 0.568149
0.450560 0.508899 0.592788
0.549950 0.564479 0.607949
0.668154 0.613533 0.605440
0.757915 0.650520 0.605058
0.813474 0.682794 0.614995
0.265893 0.396083 0.536255
0.347649 0.461980 0.572230
0.430920 0.522139 0.603038
0.513246 0.576099 0.628188
0.595676 0.623937 0.646472
0.694233 0.666496 0.651288
0.779047 0.701311 0.653908
0.833239 0.731584 0.664320
0.328837 0.469169 0.568261
0.417010 0.532201 0.604472
0.501651 0.588506 0.634994
0.581112 0.637943 0.659396
0.654860 0.680529 0.676750
0.725134 0.715355 0.681792
0.801796 0.747318 0.687161
0.853030 0.774632 0.697693
0.395400 0.539257 0.614852
0.487919 0.597565 0.645291
0.574222 0.650413 0.671970
0.651906 0.696867 0.693972
0.719619 0.736399 0.710312
0.776909 0.768113 0.717662
0.832846 0.793773 0.717900
0.874063 0.816549 0.725089
0.472055 0.606809 0.657249
0.564658 0.659000 0.681100
0.649249 0.707296 0.702669
0.722763 0.749796 0.720614
0.783347 0.785342 0.734075
0.829654 0.813287 0.742431
0.868430 0.833684 0.746155
0.897372 0.850387 0.755120
0.124526 0.187081 0.426870
0.154050 0.237901 0.476391
0.197341 0.286069 0.511052
0.267715 0.338859 0.532110
0.376299 0.401668 0.539854
0.542500 0.478596 0.527736
0.688905 0.542600 0.520181
0.766928 0.567464 0.500732
0.157459 0.245744 0.480221
0.202757 0.296545 0.513708
0.262683 0.353774 0.547792
0.342543 0.415054 0.575534
0.447285 0.479038 0.591623
0.589849 0.548180 0.590709
0.715302 0.605383 0.589622
0.788394 0.637835 0.584920
0.200008 0.309362 0.525282
0.259663 0.365402 0.554998
0.328334 0.423432 0.586185
0.411811 0.484698 0.614787
0.513591 0.548916 0.636809
0.634794 0.610122 0.644022
0.741704 0.660107 0.647481
0.808705 0.694437 0.650858
0.252917 0.378458 0.564267
0.323532 0.438602 0.594633
0.397911 0.495222 0.623658
0.479937 0.552007 0.651042
0.572182 0.610441 0.675282
0.676237 0.664561 0.688185
0.767381 0.707557 0.694876
0.827941 0.740269 0.702107
0.315355 0.451963 0.598568
0.392851 0.511367 0.628879
0.472576 0.567734 0.658114
0.549788 0.618883 0.684772
0.624333 0.664694 0.707524
0.713804 0.712035 0.723844
0.791815 0.748648 0.732925
0.846253 0.778069 0.741774
0.381764 0.522634 0.626183
0.465166 0.579720 0.657674
0.545643 0.632287 0.687113
0.620480 0.679154 0.713356
0.688116 0.719677 0.735352
0.748833 0.753429 0.750653
0.814678 0.783980 0.761378
0.863975 0.809622 0.770662
0.443882 0.583436 0.655190
0.533908 0.638927 0.687048
0.615472 0.688619 0.716285
0.686937 0.731631 0.741720
0.747427 0.767517 0.762481
0.795931 0.795593 0.777223
0.842924 0.819184 0.784458
0.881888 0.839720 0.791171
0.506636 0.637526 0.684723
0.599149 0.689757 0.714736
0.680261 0.736479 0.742572
0.748274 0.776335 0.766692
0.802524 0.808642 0.786032
0.842793 0.833180 0.799538
0.875631 0.852129 0.806735
0.903488 0.867540 0.813439
0.176951 0.278900 0.523014
0.195259 0.309534 0.549866
0.229883 0.345412 0.572209
0.291105 0.392955 0.592211
0.385899 0.456361 0.611385
0.520887 0.537644 0.629492
0.676732 0.623557 0.643976
0.777620 0.672839 0.645796
0.200876 0.317779 0.552891
0.239057 0.356916 0.574970
0.292758 0.405448 0.600566
0.365362 0.461799 0.626109
0.459363 0.525045 0.649296
0.580540 0.597843 0.670679
0.710657 0.669661 0.686948
0.798256 0.716853 0.696588
0.241540 0.370499 0.583213
0.296069 0.418116 0.606161
0.358152 0.468128 0.631356
0.435300 0.524854 0.658199
0.530835 0.589526 0.685436
0.637913 0.653669 0.708348
0.744924 0.712848 0.725701
0.819587 0.755307 0.739045
0.297780 0.434796 0.613950
0.363136 0.486681 0.638679
0.430898 0.535694 0.663555
0.506723 0.587831 0.689869
0.593779 0.645942 0.717622
0.690147 0.703663 0.741956
0.777782 0.752188 0.759893
0.840646 0.788690 0.774244
0.366375 0.506716 0.644357
0.436834 0.556913 0.669044
0.511753 0.607269 0.695670
0.582667 0.653262 0.721528
0.648429 0.694620 0.745435
0.735393 0.746951 0.771046
0.807701 0.786947 0.789185
0.860691 0.817572 0.803126
0.436357 0.574405 0.670184
0.511750 0.622392 0.695896
0.587480 0.669679 0.723196
0.658271 0.713280 0.749915
0.720537 0.751214 0.774260
0.772887 0.782793 0.794087
0.832222 0.815577 0.811841
0.879089 0.842205 0.825302
0.492622 0.624937 0.687896
0.577210 0.674597 0.717654
0.654511 0.720438 0.747019
0.722055 0.760760 0.774234
0.778149 0.794402 0.797898
0.820316 0.819962 0.816187
0.859762 0.843028 0.830443
0.894889 0.863344 0.841344
0.537747 0.662615 0.704384
0.631847 0.715094 0.737685
0.711851 0.761155 0.769121
0.776956 0.799644 0.796923
0.827259 0.830084 0.819881
0.863085 0.852501 0.837005
0.889497 0.869763 0.848679
0.913757 0.884767 0.857381
