filters/luts/Sunshine 03.cube
# Created by: Adobe Photoshop Export Color Lookup Plugin
# LUT by SparkleStock. Enhanced with VOXCOLOR algorithms.
LUT_3D_SIZE 5
DOMAIN_MIN 0.000000 0.000000 0.000000
DOMAIN_MAX 0.903226 0.903226 0.903226
0.035165 0.011722 0.019536
0.180842 0.046051 0.016550
0.377431 0.106062 0.021151
0.564150 0.198614 0.031013
0.695419 0.344866 0.040143
0.064674 0.050660 0.043216
0.246341 0.149806 0.029544
0.455495 0.238690 0.029474
0.629029 0.338329 0.038693
0.728299 0.450214 0.055055
0.108488 0.111284 0.084336
0.349639 0.269919 0.051177
0.520278 0.382161 0.046774
0.675167 0.479858 0.053026
0.754370 0.564519 0.074607
0.207799 0.220899 0.126346
0.480106 0.407915 0.080809
0.629765 0.522678 0.072484
0.708854 0.588009 0.074524
0.768312 0.645608 0.089420
0.483989 0.441262 0.114317
0.640157 0.559527 0.095552
0.726730 0.631811 0.093876
0.763763 0.665874 0.096191
0.776989 0.679347 0.099108
0.056710 0.037276 0.148639
0.194074 0.079585 0.110894
0.428239 0.137924 0.076263
0.617146 0.208504 0.091648
0.713180 0.286951 0.118565
0.092387 0.111838 0.209762
0.235205 0.205665 0.206556
0.464487 0.272509 0.178207
0.652986 0.340846 0.186014
0.741531 0.420701 0.215274
0.143353 0.200871 0.271578
0.310516 0.326224 0.265692
0.513049 0.432568 0.226700
0.693834 0.511413 0.226161
0.778030 0.585655 0.257939
0.220668 0.307583 0.340980
0.426287 0.448157 0.315533
0.618472 0.568853 0.276891
0.728894 0.642694 0.284421
0.806048 0.698992 0.325086
0.396697 0.469445 0.392298
0.607364 0.593316 0.323588
0.734209 0.678595 0.314349
0.800522 0.728952 0.349652
0.831374 0.757179 0.415658
0.089291 0.087156 0.320115
0.175847 0.148128 0.339072
0.423161 0.205689 0.211724
0.644903 0.266644 0.173775
0.731044 0.321187 0.199068
0.133537 0.181926 0.397020
0.245470 0.275818 0.420597
0.450572 0.350722 0.370021
0.670091 0.410060 0.335044
0.757893 0.467704 0.360199
0.192889 0.293023 0.444391
0.328454 0.398770 0.476193
0.495641 0.488250 0.462167
0.697107 0.547839 0.443704
0.785578 0.601806 0.470303
0.272640 0.408169 0.520755
0.434661 0.516167 0.538490
0.593982 0.612304 0.534247
0.729616 0.683358 0.501682
0.819606 0.732678 0.526530
0.398372 0.529734 0.583751
0.574635 0.629126 0.575381
0.716735 0.712617 0.563566
0.808982 0.768790 0.569212
0.849550 0.797649 0.610321
0.127654 0.157627 0.470219
0.183805 0.236832 0.531553
0.326349 0.309882 0.511006
0.646564 0.398999 0.368487
0.746684 0.423792 0.339706
0.179278 0.258860 0.546698
0.273726 0.350352 0.584195
0.421528 0.442582 0.596976
0.657272 0.526424 0.534031
0.773078 0.574369 0.522982
0.250773 0.372359 0.593982
0.372979 0.471602 0.632253
0.510301 0.560883 0.658544
0.682921 0.632877 0.643654
0.798715 0.679109 0.637956
0.341735 0.494744 0.624057
0.483529 0.586290 0.668917
0.611899 0.664016 0.698063
0.722486 0.724592 0.706988
0.825032 0.760257 0.711400
0.439201 0.589376 0.684727
0.593124 0.675367 0.716419
0.718117 0.749485 0.742244
0.803430 0.802066 0.754705
0.859213 0.832029 0.759540
0.189287 0.279152 0.596920
0.223201 0.326680 0.628825
0.323414 0.399095 0.643917
0.527433 0.514760 0.643992
0.744866 0.619757 0.623619
0.229167 0.346104 0.635511
0.311490 0.420198 0.662365
0.437255 0.511757 0.692032
0.614385 0.615854 0.711815
0.777412 0.703432 0.718907
0.310474 0.448585 0.671094
0.421965 0.531617 0.702131
0.543326 0.613600 0.736896
0.693498 0.704569 0.768208
0.811670 0.770148 0.786229
0.408184 0.557561 0.699741
0.540784 0.639047 0.737129
0.662394 0.715435 0.777490
0.752734 0.771923 0.809321
0.842258 0.822993 0.830458
0.478501 0.625161 0.718438
0.641313 0.715973 0.767882
0.756822 0.788268 0.812448
0.828074 0.835969 0.843542
0.871645 0.865214 0.859201
