filters/luts/Sunshine 05_S.cube
# Created by: Adobe Photoshop Export Color Lookup Plugin
# LUT by SparkleStock. Enhanced with VOXCOLOR algorithms.
LUT_3D_SIZE 5
DOMAIN_MIN 0.000000 0.000000 0.000000
DOMAIN_MAX 0.903226 0.903226 0.903226
0.015629 0.046886 0.042979
0.129828 0.074930 0.045587
0.281925 0.116318 0.054000
0.446185 0.191603 0.069503
0.605522 0.322116 0.087109
0.039143 0.090638 0.067833
0.204094 0.174831 0.055812
0.386584 0.234821 0.055767
0.555009 0.304218 0.074458
0.669647 0.405084 0.117358
0.082768 0.148978 0.106322
0.304936 0.278332 0.090002
0.458845 0.371362 0.087510
0.614548 0.436041 0.104844
0.711032 0.507514 0.158289
0.186010 0.243704 0.154209
0.433380 0.389734 0.139648
0.572812 0.487422 0.145852
0.651573 0.544397 0.153234
0.727584 0.588790 0.191835
0.444240 0.412635 0.177124
0.590197 0.511063 0.184169
0.678641 0.577433 0.197264
0.719065 0.610995 0.206112
0.735021 0.624939 0.214301
0.019473 0.067927 0.119146
0.147842 0.102287 0.129459
0.346731 0.139831 0.141302
0.516727 0.199395 0.172248
0.628053 0.290357 0.206480
0.059105 0.134884 0.172241
0.207117 0.219135 0.210911
0.406428 0.258383 0.221093
0.592674 0.300211 0.240085
0.709415 0.380267 0.273565
0.122173 0.215562 0.229739
0.284482 0.333180 0.265982
0.461717 0.419745 0.259312
0.647918 0.463853 0.268578
0.777113 0.523143 0.304459
0.215475 0.308753 0.298534
0.400298 0.437976 0.328881
0.568248 0.548704 0.322068
0.683805 0.618652 0.326882
0.809524 0.658597 0.358700
0.389427 0.439566 0.374285
0.573409 0.557128 0.374246
0.696188 0.644651 0.386244
0.772347 0.705499 0.413937
0.828434 0.745656 0.451944
0.029918 0.101595 0.221679
0.129106 0.153601 0.268627
0.358869 0.210397 0.248021
0.559843 0.262110 0.260661
0.656450 0.330745 0.290830
0.093021 0.181967 0.297483
0.220604 0.265845 0.354169
0.413909 0.322999 0.378467
0.616801 0.359986 0.389247
0.733799 0.422691 0.410162
0.175809 0.280980 0.350834
0.313014 0.385073 0.414738
0.466782 0.464338 0.448666
0.661653 0.492097 0.456688
0.807217 0.530980 0.476265
0.274580 0.382445 0.427873
0.421936 0.494930 0.485612
0.561395 0.595719 0.517578
0.695005 0.663854 0.501342
0.849899 0.691102 0.512672
0.404290 0.487770 0.507639
0.556004 0.596236 0.548512
0.690065 0.692053 0.574518
0.791037 0.765485 0.584272
0.868953 0.808638 0.598015
0.060491 0.150939 0.331159
0.147581 0.217405 0.405134
0.298994 0.291018 0.427976
0.582286 0.392610 0.401465
0.685591 0.426418 0.399536
0.146018 0.236300 0.417212
0.253835 0.320249 0.474521
0.405753 0.405001 0.525862
0.618337 0.485904 0.541942
0.748445 0.533104 0.548483
0.242383 0.338358 0.476432
0.363652 0.436980 0.538921
0.495713 0.525134 0.598467
0.660505 0.583369 0.636616
0.813451 0.611567 0.643810
0.346069 0.451035 0.520167
0.475678 0.552423 0.594227
0.596174 0.641463 0.656522
0.704677 0.704373 0.694491
0.860674 0.716907 0.695623
0.444791 0.537184 0.592471
0.580360 0.642094 0.660477
0.702643 0.736873 0.720760
0.794305 0.806847 0.756211
0.886726 0.850279 0.752609
0.165418 0.248226 0.466092
0.218348 0.289161 0.504670
0.323738 0.359948 0.537100
0.511613 0.481069 0.577074
0.709151 0.601058 0.617080
0.225537 0.306016 0.513528
0.311110 0.377463 0.554442
0.435916 0.469463 0.607611
0.601916 0.580167 0.663504
0.758855 0.678286 0.710129
0.317721 0.399989 0.562216
0.422190 0.487510 0.614198
0.537751 0.577472 0.675627
0.685084 0.676201 0.741635
0.813918 0.746314 0.788755
0.414831 0.504146 0.603985
0.534242 0.599380 0.669890
0.653156 0.693346 0.741639
0.747770 0.764368 0.800852
0.860969 0.816528 0.846801
0.479997 0.570255 0.632083
0.628176 0.686413 0.720262
0.749368 0.784310 0.800284
0.833516 0.852645 0.858112
0.898896 0.893968 0.889518
