filters/luts/Sunshine 05_S.cube
# Created by: Adobe Photoshop Export Color Lookup Plugin
# LUT by SparkleStock. Enhanced with VOXCOLOR algorithms.
LUT_3D_SIZE 32
0.015629 0.046886 0.042979
0.030470 0.050620 0.043216
0.045311 0.054354 0.043452
0.060152 0.058088 0.043688
0.074993 0.061822 0.043925
0.089834 0.065556 0.044161
0.109362 0.070156 0.044830
0.129828 0.074930 0.045587
0.150293 0.079704 0.046343
0.170759 0.084478 0.047099
0.191225 0.089251 0.047855
0.213297 0.095474 0.049179
0.236173 0.102422 0.050786
0.259049 0.109370 0.052393
0.281925 0.116318 0.054000
0.304801 0.123266 0.055607
0.328055 0.132459 0.057592
0.351688 0.143897 0.059955
0.375320 0.155335 0.062318
0.398952 0.166773 0.064682
0.422585 0.178211 0.067045
0.446185 0.191603 0.069503
0.469723 0.208901 0.072149
0.493261 0.226200 0.074796
0.516799 0.243499 0.077443
0.540336 0.260798 0.080090
0.563457 0.278822 0.082666
0.584489 0.300469 0.084887
0.605522 0.322116 0.087109
0.626555 0.343763 0.089330
0.647588 0.365410 0.091551
0.668620 0.387057 0.093773
0.018654 0.052889 0.046146
0.034474 0.058077 0.045998
0.050294 0.063266 0.045850
0.066113 0.068454 0.045702
0.081933 0.073643 0.045554
0.097753 0.078831 0.045407
0.118428 0.083941 0.045806
0.140074 0.089035 0.046315
0.161719 0.094129 0.046825
0.183365 0.099223 0.047334
0.205011 0.104316 0.047843
0.227928 0.110750 0.048993
0.251481 0.117853 0.050463
0.275034 0.124957 0.051932
0.298587 0.132060 0.053402
0.322140 0.139164 0.054872
0.345719 0.148361 0.056839
0.369324 0.159653 0.059303
0.392928 0.170944 0.061766
0.416533 0.182236 0.064230
0.440138 0.193528 0.066694
0.463434 0.206657 0.069368
0.486112 0.223462 0.072463
0.508790 0.240267 0.075559
0.531467 0.257072 0.078654
0.554145 0.273877 0.081749
0.576288 0.291347 0.084831
0.595757 0.312143 0.087848
0.615225 0.332939 0.090865
0.634693 0.353736 0.093883
0.654162 0.374532 0.096900
0.673630 0.395329 0.099917
0.021679 0.058892 0.049313
0.038477 0.065535 0.048781
0.055276 0.072178 0.048248
0.072075 0.078821 0.047716
0.088874 0.085463 0.047184
0.105672 0.092106 0.046652
0.127494 0.097725 0.046782
0.150319 0.103139 0.047044
0.173145 0.108553 0.047306
0.195971 0.113968 0.047569
0.218797 0.119382 0.047831
0.242558 0.126026 0.048807
0.266788 0.133285 0.050139
0.291018 0.140543 0.051472
0.315248 0.147802 0.052804
0.339478 0.155061 0.054137
0.363382 0.164263 0.056086
0.386959 0.175409 0.058650
0.410537 0.186554 0.061214
0.434114 0.197699 0.063779
0.457691 0.208845 0.066343
0.480682 0.221712 0.069234
0.502500 0.238023 0.072778
0.524318 0.254333 0.076321
0.546136 0.270644 0.079864
0.567954 0.286955 0.083407
0.589120 0.303872 0.086996
0.607024 0.323817 0.090809
0.624928 0.343763 0.094622
0.642832 0.363709 0.098435
0.660736 0.383654 0.102248
0.678640 0.403600 0.106062
0.024704 0.064894 0.052479
0.042481 0.072992 0.051563
0.060259 0.081089 0.050647
0.078036 0.089187 0.049730
0.095814 0.097284 0.048814
0.113591 0.105382 0.047898
0.136559 0.111510 0.047758
0.160565 0.117244 0.047773
0.184571 0.122978 0.047788
0.208577 0.128713 0.047804
0.232583 0.134447 0.047819
0.257189 0.141301 0.048621
0.282096 0.148716 0.049816
0.307003 0.156130 0.051011
0.331910 0.163545 0.052207
0.356817 0.170959 0.053402
0.381045 0.180166 0.055332
0.404595 0.191165 0.057997
0.428145 0.202163 0.060663
0.451695 0.213162 0.063328
0.475245 0.224161 0.065993
0.497931 0.236766 0.069100
0.518889 0.252583 0.073092
0.539847 0.268400 0.077083
0.560805 0.284217 0.081075
0.581763 0.300034 0.085066
0.601951 0.316397 0.089161
0.618291 0.335492 0.093770
0.634631 0.354587 0.098379
0.650971 0.373682 0.102988
0.667311 0.392776 0.107597
0.683650 0.411871 0.112206
0.027729 0.070897 0.055646
0.046485 0.080449 0.054346
0.065241 0.090001 0.053045
0.083998 0.099553 0.051745
0.102754 0.109105 0.050444
0.121511 0.118657 0.049143
0.145625 0.125294 0.048734
0.170811 0.131349 0.048502
0.195997 0.137403 0.048270
0.221183 0.143458 0.048038
0.246369 0.149512 0.047807
0.271820 0.156577 0.048435
0.297404 0.164147 0.049493
0.322987 0.171717 0.050551
0.348571 0.179287 0.051609
0.374155 0.186857 0.052667
0.398708 0.196068 0.054579
0.422231 0.206920 0.057345
0.445753 0.217773 0.060111
0.469276 0.228626 0.062876
0.492798 0.239478 0.065642
0.515179 0.251821 0.068966
0.535278 0.267144 0.073406
0.555376 0.282466 0.077845
0.575474 0.297789 0.082285
0.595572 0.313112 0.086725
0.614783 0.328922 0.091326
0.629558 0.347166 0.096731
0.644334 0.365410 0.102136
0.659109 0.383654 0.107541
0.673885 0.401898 0.112946
0.688660 0.420143 0.118350
0.030753 0.076899 0.058813
0.050489 0.087906 0.057128
0.070224 0.098913 0.055443
0.089959 0.109919 0.053759
0.109694 0.120926 0.052074
0.129430 0.131932 0.050389
0.154691 0.139079 0.049709
0.181057 0.145453 0.049231
0.207423 0.151828 0.048752
0.233789 0.158203 0.048273
0.260155 0.164577 0.047794
0.286450 0.171852 0.048249
0.312711 0.179578 0.049170
0.338972 0.187303 0.050091
0.365233 0.195029 0.051011
0.391494 0.202754 0.051932
0.416372 0.211970 0.053826
0.439867 0.222676 0.056692
0.463362 0.233383 0.059559
0.486857 0.244089 0.062425
0.510352 0.254795 0.065291
0.532428 0.266875 0.068832
0.551666 0.281704 0.073720
0.570904 0.296533 0.078608
0.590143 0.311362 0.083496
0.609381 0.326191 0.088384
0.627614 0.341447 0.093491
0.640826 0.358840 0.099692
0.654037 0.376234 0.105892
0.667248 0.393627 0.112093
0.680459 0.411021 0.118294
0.693670 0.428414 0.124495
0.034842 0.083690 0.063201
0.056196 0.095747 0.061330
0.077551 0.107804 0.059459
0.098905 0.119861 0.057588
0.120260 0.131918 0.055718
0.141614 0.143975 0.053847
0.166667 0.152396 0.052968
0.192460 0.160089 0.052288
0.218253 0.167783 0.051608
0.244045 0.175476 0.050928
0.269838 0.183169 0.050248
0.296257 0.190973 0.050585
0.322989 0.198831 0.051429
0.349721 0.206689 0.052274
0.376453 0.214547 0.053119
0.403185 0.222405 0.053963
0.428303 0.231572 0.055862
0.451809 0.242048 0.058813
0.475315 0.252524 0.061765
0.498821 0.263000 0.064717
0.522326 0.273476 0.067669
0.544260 0.285218 0.071377
0.563050 0.299492 0.076599
0.581840 0.313766 0.081821
0.600630 0.328040 0.087043
0.619420 0.342314 0.092265
0.637150 0.356987 0.097757
0.649582 0.373659 0.104602
0.662014 0.390332 0.111446
0.674447 0.407004 0.118290
0.686879 0.423676 0.125134
0.699311 0.440348 0.131978
0.039143 0.090638 0.067833
0.062245 0.103664 0.065815
0.085346 0.116691 0.063798
0.108448 0.129718 0.061781
0.131550 0.142745 0.059764
0.154651 0.155771 0.057747
0.179226 0.165619 0.056684
0.204094 0.174831 0.055812
0.228963 0.184043 0.054940
0.253832 0.193255 0.054068
0.278701 0.202467 0.053196
0.305098 0.210862 0.053425
0.332260 0.218848 0.054206
0.359422 0.226834 0.054986
0.386584 0.234821 0.055767
0.413746 0.242807 0.056548
0.439089 0.251914 0.058455
0.462613 0.262143 0.061489
0.486137 0.272372 0.064523
0.509661 0.282601 0.067557
0.533185 0.292830 0.070591
0.555009 0.304218 0.074458
0.573433 0.317925 0.079991
0.591857 0.331632 0.085524
0.610281 0.345339 0.091057
0.628705 0.359045 0.096590
0.646027 0.373130 0.102444
0.657837 0.389107 0.109901
0.669647 0.405084 0.117358
0.681457 0.421061 0.124816
0.693267 0.437038 0.132273
0.705077 0.453015 0.139730
0.043444 0.097586 0.072464
0.068293 0.111582 0.070301
0.093142 0.125578 0.068137
0.117991 0.139575 0.065974
0.142840 0.153571 0.063810
0.167689 0.167568 0.061647
0.191784 0.178843 0.060400
0.215729 0.189573 0.059335
0.239674 0.200304 0.058271
0.263619 0.211034 0.057207
0.287564 0.221765 0.056143
0.313940 0.230751 0.056266
0.341532 0.238865 0.056982
0.369124 0.246980 0.057699
0.396715 0.255094 0.058415
0.424307 0.263208 0.059132
0.449874 0.272256 0.061049
0.473417 0.282238 0.064165
0.496959 0.292220 0.067281
0.520501 0.302202 0.070398
0.544044 0.312184 0.073514
0.565758 0.323219 0.077540
0.583816 0.336358 0.083384
0.601874 0.349498 0.089228
0.619932 0.362637 0.095072
0.637990 0.375777 0.100916
0.654903 0.389273 0.107131
0.666091 0.404555 0.115201
0.677279 0.419837 0.123271
0.688467 0.435119 0.131341
0.699655 0.450400 0.139411
0.710843 0.465682 0.147481
0.047745 0.104533 0.077096
0.074341 0.119500 0.074787
0.100938 0.134466 0.072477
0.127534 0.149432 0.070167
0.154130 0.164398 0.067857
0.180726 0.179364 0.065547
0.204343 0.192066 0.064115
0.227364 0.204315 0.062859
0.250385 0.216564 0.061602
0.273406 0.228813 0.060346
0.296427 0.241062 0.059090
0.322781 0.250640 0.059106
0.350803 0.258883 0.059759
0.378825 0.267125 0.060411
0.406847 0.275367 0.061064
0.434869 0.283610 0.061716
0.460660 0.292598 0.063642
0.484220 0.302333 0.066841
0.507781 0.312068 0.070039
0.531342 0.321803 0.073238
0.554902 0.331538 0.076437
0.576507 0.342219 0.080621
0.594199 0.354791 0.086776
0.611891 0.367364 0.092931
0.629583 0.379936 0.099086
0.647275 0.392509 0.105241
0.663780 0.405417 0.111818
0.674346 0.420003 0.120501
0.684912 0.434590 0.129184
0.695478 0.449176 0.137867
0.706044 0.463762 0.146550
0.716610 0.478349 0.155233
0.052046 0.111481 0.081728
0.080390 0.127417 0.079272
0.108733 0.143353 0.076816
0.137077 0.159289 0.074360
0.165420 0.175224 0.071903
0.193764 0.191160 0.069447
0.216902 0.205289 0.067831
0.238999 0.219057 0.066382
0.261096 0.232825 0.064934
0.283192 0.246592 0.063485
0.305289 0.260360 0.062037
0.331623 0.270530 0.061947
0.360075 0.278900 0.062535
0.388526 0.287270 0.063124
0.416978 0.295641 0.063712
0.445430 0.304011 0.064301
0.471445 0.312940 0.066235
0.495024 0.322428 0.069517
0.518603 0.331916 0.072798
0.542182 0.341404 0.076079
0.565761 0.350892 0.079360
0.587256 0.361219 0.083702
0.604582 0.373225 0.090169
0.621908 0.385230 0.096635
0.639234 0.397235 0.103101
0.656561 0.409240 0.109567
0.672657 0.421560 0.116505
0.682600 0.435451 0.125800
0.692544 0.449342 0.135096
0.702488 0.463233 0.144392
0.712432 0.477125 0.153688
0.722376 0.491016 0.162984
0.058805 0.120194 0.087463
0.088774 0.137026 0.084885
0.118743 0.153858 0.082307
0.148711 0.170691 0.079728
0.178680 0.187523 0.077150
0.208649 0.204355 0.074572
0.232060 0.219294 0.073004
0.254160 0.233855 0.071638
0.276260 0.248415 0.070272
0.298360 0.262976 0.068906
0.320460 0.277536 0.067540
0.345923 0.288308 0.067389
0.373066 0.297184 0.067847
0.400210 0.306061 0.068304
0.427353 0.314938 0.068761
0.454497 0.323814 0.069219
0.479819 0.332891 0.071068
0.503318 0.342169 0.074310
0.526818 0.351446 0.077551
0.550318 0.360724 0.080792
0.573817 0.370001 0.084034
0.595149 0.380005 0.088387
0.612146 0.391462 0.094963
0.629143 0.402918 0.101539
0.646140 0.414374 0.108114
0.663137 0.425831 0.114690
0.678892 0.437575 0.121767
0.688440 0.450759 0.131346
0.697987 0.463942 0.140926
0.707535 0.477126 0.150505
0.717082 0.490310 0.160085
0.726630 0.503494 0.169664
0.066793 0.129788 0.093749
0.098326 0.147481 0.091061
0.129859 0.165173 0.088373
0.161392 0.182865 0.085685
0.192925 0.200557 0.082997
0.224458 0.218249 0.080309
0.248519 0.233690 0.078906
0.271086 0.248681 0.077759
0.293652 0.263671 0.076613
0.316219 0.278662 0.075466
0.338785 0.293652 0.074320
0.362952 0.305030 0.074133
0.387918 0.314602 0.074425
0.412884 0.324174 0.074718
0.437851 0.333746 0.075011
0.462817 0.343318 0.075304
0.486986 0.352646 0.077020
0.510358 0.361732 0.080161
0.533729 0.370817 0.083302
0.557101 0.379903 0.086443
0.580472 0.388988 0.089584
0.601615 0.398684 0.093873
0.618301 0.409601 0.100458
0.634987 0.420517 0.107043
0.651673 0.431434 0.113628
0.668359 0.442350 0.120213
0.683808 0.453526 0.127317
0.693072 0.465996 0.137015
0.702336 0.478466 0.146713
0.711600 0.490937 0.156412
0.720863 0.503407 0.166110
0.730127 0.515877 0.175808
0.074780 0.139383 0.100035
0.107878 0.157935 0.097238
0.140975 0.176487 0.094440
0.174073 0.195040 0.091642
0.207170 0.213592 0.088844
0.240267 0.232144 0.086047
0.264978 0.248086 0.084808
0.288011 0.263507 0.083881
0.311044 0.278927 0.082954
0.334077 0.294347 0.082027
0.357110 0.309768 0.081100
0.379981 0.321753 0.080876
0.402770 0.332020 0.081004
0.425559 0.342287 0.081132
0.448348 0.352554 0.081260
0.471137 0.362821 0.081389
0.494154 0.372401 0.082973
0.517397 0.381295 0.086013
0.540641 0.390188 0.089053
0.563884 0.399081 0.092093
0.587128 0.407975 0.095133
0.608081 0.417363 0.099358
0.624456 0.427739 0.105952
0.640831 0.438116 0.112547
0.657206 0.448493 0.119141
0.673581 0.458870 0.125735
0.688723 0.469477 0.132866
0.697704 0.481234 0.142684
0.706684 0.492990 0.152501
0.715664 0.504747 0.162318
0.724645 0.516504 0.172136
0.733625 0.528260 0.181953
0.082768 0.148978 0.106322
0.117430 0.168390 0.103414
0.152092 0.187802 0.100507
0.186753 0.207214 0.097599
0.221415 0.226626 0.094692
0.256077 0.246038 0.091784
0.281437 0.262482 0.090710
0.304936 0.278332 0.090002
0.328436 0.294183 0.089295
0.351935 0.310033 0.088588
0.375435 0.325884 0.087880
0.397010 0.338475 0.087620
0.417622 0.349438 0.087583
0.438233 0.360400 0.087547
0.458845 0.371362 0.087510
0.479457 0.382325 0.087473
0.501321 0.392156 0.088925
0.524436 0.400858 0.091865
0.547552 0.409559 0.094804
0.570667 0.418260 0.097744
0.593783 0.426961 0.100683
0.614548 0.436041 0.104844
0.630611 0.445878 0.111447
0.646675 0.455716 0.118051
0.662739 0.465553 0.124654
0.678803 0.475390 0.131257
0.693639 0.485428 0.138416
0.702336 0.496471 0.148352
0.711032 0.507514 0.158289
0.719729 0.518557 0.168225
0.728426 0.529600 0.178161
0.737122 0.540644 0.188097
0.090756 0.158573 0.112608
0.126982 0.178845 0.109591
0.163208 0.199116 0.106573
0.199434 0.219388 0.103556
0.235660 0.239660 0.100539
0.271886 0.259932 0.097521
0.297895 0.276878 0.096612
0.321862 0.293158 0.096124
0.345828 0.309439 0.095636
0.369794 0.325719 0.095148
0.393760 0.341999 0.094660
0.414039 0.355198 0.094363
0.432473 0.366855 0.094162
0.450908 0.378513 0.093961
0.469343 0.390170 0.093760
0.487777 0.401828 0.093558
0.508488 0.411911 0.094877
0.531476 0.420421 0.097716
0.554463 0.428930 0.100555
0.577450 0.437439 0.103394
0.600438 0.445948 0.106233
0.621014 0.454720 0.110330
0.636766 0.464017 0.116942
0.652519 0.473315 0.123555
0.668272 0.482612 0.130167
0.684025 0.491910 0.136780
0.698554 0.501379 0.143966
0.706968 0.511709 0.154021
0.715381 0.522038 0.164076
0.723794 0.532368 0.174131
0.732207 0.542697 0.184186
0.740620 0.553027 0.194242
0.102619 0.170460 0.119296
0.139879 0.191349 0.116224
0.177139 0.212238 0.113151
0.214398 0.233128 0.110079
0.251658 0.254017 0.107007
0.288918 0.274907 0.103935
0.315355 0.292142 0.103169
0.339628 0.308646 0.102864
0.363900 0.325151 0.102559
0.388173 0.341655 0.102254
0.412446 0.358160 0.101949
0.432000 0.371656 0.101759
0.449195 0.383647 0.101626
0.466390 0.395639 0.101494
0.483585 0.407630 0.101361
0.500781 0.419622 0.101228
0.520220 0.429771 0.102456
0.541904 0.438079 0.105043
0.563587 0.446387 0.107630
0.585271 0.454695 0.110218
0.606955 0.463003 0.112805
0.626538 0.471473 0.116676
0.641921 0.480267 0.123115
0.657303 0.489061 0.129553
0.672685 0.497856 0.135992
0.688068 0.506650 0.142431
0.702241 0.515584 0.149448
0.710371 0.525219 0.159357
0.718500 0.534853 0.169265
0.726630 0.544487 0.179174
0.734759 0.554122 0.189083
0.742889 0.563756 0.198992
0.118358 0.184639 0.126385
0.156121 0.205903 0.123313
0.193884 0.227168 0.120241
0.231647 0.248432 0.117169
0.269410 0.269697 0.114097
0.307173 0.290961 0.111024
0.333816 0.308274 0.110380
0.358235 0.324797 0.110222
0.382654 0.341320 0.110063
0.407073 0.357843 0.109905
0.431492 0.374366 0.109746
0.450894 0.387849 0.109806
0.467787 0.399813 0.109975
0.484680 0.411777 0.110144
0.501573 0.423741 0.110314
0.518467 0.435705 0.110483
0.536516 0.445736 0.111660
0.555720 0.453834 0.113845
0.574925 0.461931 0.116030
0.594130 0.470029 0.118215
0.613334 0.478126 0.120399
0.631121 0.486300 0.123883
0.646074 0.494628 0.129965
0.661026 0.502956 0.136047
0.675979 0.511283 0.142129
0.690931 0.519611 0.148211
0.704699 0.528044 0.154862
0.712545 0.537001 0.164359
0.720391 0.545959 0.173856
0.728237 0.554916 0.183353
0.736083 0.563873 0.192850
0.743928 0.572831 0.202347
0.134097 0.198818 0.133475
0.172363 0.220458 0.130403
0.210629 0.242097 0.127331
0.248895 0.263737 0.124259
0.287161 0.285377 0.121186
0.325427 0.307016 0.118114
0.352276 0.324407 0.117592
0.376842 0.340948 0.117580
0.401407 0.357489 0.117568
0.425972 0.374030 0.117555
0.450538 0.390571 0.117543
0.469787 0.404043 0.117853
0.486379 0.415979 0.118324
0.502970 0.427916 0.118795
0.519561 0.439852 0.119267
0.536153 0.451789 0.119738
0.552811 0.461701 0.120864
0.569537 0.469588 0.122647
0.586262 0.477475 0.124429
0.602988 0.485362 0.126211
0.619713 0.493249 0.127994
0.635705 0.501128 0.131090
0.650227 0.508989 0.136815
0.664749 0.516850 0.142541
0.679272 0.524711 0.148266
0.693794 0.532572 0.153991
0.707157 0.540503 0.160276
0.714719 0.548784 0.169361
0.722281 0.557064 0.178447
0.729844 0.565345 0.187532
0.737406 0.573625 0.196618
0.744968 0.581906 0.205703
0.149837 0.212998 0.140565
0.188606 0.235012 0.137493
0.227375 0.257027 0.134420
0.266144 0.279042 0.131348
0.304913 0.301056 0.128276
0.343682 0.323071 0.125204
0.370737 0.340539 0.124804
0.395449 0.357099 0.124938
0.420160 0.373658 0.125072
0.444872 0.390218 0.125206
0.469584 0.406777 0.125340
0.488681 0.420236 0.125900
0.504970 0.432145 0.126673
0.521260 0.444054 0.127446
0.537549 0.455964 0.128219
0.553839 0.467873 0.128992
0.569107 0.477666 0.130069
0.583353 0.485342 0.131449
0.597600 0.493019 0.132828
0.611846 0.500696 0.134208
0.626093 0.508372 0.135588
0.640288 0.515955 0.138297
0.654380 0.523350 0.143666
0.668473 0.530744 0.149034
0.682565 0.538139 0.154402
0.696658 0.545533 0.159771
0.709614 0.552963 0.165690
0.716893 0.560566 0.174364
0.724172 0.568170 0.183038
0.731451 0.575773 0.191711
0.738729 0.583377 0.200385
0.746008 0.590980 0.209059
0.165576 0.227177 0.147654
0.204848 0.249567 0.144582
0.244120 0.271956 0.141510
0.283392 0.294346 0.138438
0.322665 0.316736 0.135366
0.361937 0.339126 0.132294
0.389198 0.356672 0.132015
0.414056 0.373250 0.132296
0.438914 0.389827 0.132576
0.463772 0.406405 0.132857
0.488630 0.422983 0.133137
0.507574 0.436430 0.133948
0.523562 0.448311 0.135022
0.539550 0.460193 0.136097
0.555537 0.472075 0.137172
0.571525 0.483956 0.138247
0.585402 0.493630 0.139273
0.597170 0.501097 0.140250
0.608937 0.508563 0.141228
0.620704 0.516029 0.142205
0.632472 0.523495 0.143182
0.644871 0.530782 0.145504
0.658533 0.537710 0.150516
0.672196 0.544638 0.155528
0.685858 0.551567 0.160539
0.699521 0.558495 0.165551
0.712072 0.565422 0.171104
0.719067 0.572349 0.179366
0.726062 0.579276 0.187628
0.733058 0.586202 0.195891
0.740053 0.593129 0.204153
0.747048 0.600055 0.212415
0.186010 0.243704 0.154209
0.225123 0.266136 0.151240
0.264237 0.288569 0.148271
0.303351 0.311001 0.145303
0.342465 0.333433 0.142334
0.381578 0.355866 0.139366
0.408680 0.373300 0.139224
0.433380 0.389734 0.139648
0.458079 0.406169 0.140072
0.482779 0.422603 0.140496
0.507478 0.439037 0.140920
0.526093 0.452317 0.141932
0.541666 0.464018 0.143239
0.557239 0.475720 0.144545
0.572812 0.487422 0.145852
0.588385 0.499124 0.147159
0.601122 0.508584 0.148191
0.611023 0.515804 0.148949
0.620924 0.523023 0.149706
0.630826 0.530242 0.150464
0.640727 0.537461 0.151222
0.651573 0.544397 0.153234
0.664308 0.550764 0.157755
0.677044 0.557131 0.162275
0.689779 0.563498 0.166796
0.702515 0.569865 0.171317
0.714240 0.576218 0.176372
0.720912 0.582504 0.184104
0.727584 0.588790 0.191835
0.734256 0.595077 0.199567
0.740927 0.601363 0.207299
0.747599 0.607649 0.215030
0.215834 0.264926 0.159691
0.253465 0.286736 0.157034
0.291097 0.308546 0.154376
0.328729 0.330357 0.151719
0.366361 0.352167 0.149061
0.403992 0.373977 0.146404
0.430207 0.390919 0.146428
0.454138 0.406887 0.146989
0.478069 0.422854 0.147551
0.502000 0.438822 0.148112
0.525931 0.454790 0.148673
0.543863 0.467591 0.149792
0.558796 0.478808 0.151190
0.573729 0.490025 0.152588
0.588661 0.501241 0.153986
0.603594 0.512458 0.155384
0.615690 0.521516 0.156535
0.624951 0.528416 0.157440
0.634212 0.535315 0.158344
0.643473 0.542214 0.159248
0.652734 0.549113 0.160152
0.662512 0.555585 0.162008
0.673327 0.561201 0.165770
0.684141 0.566818 0.169531
0.694956 0.572435 0.173292
0.705770 0.578052 0.177054
0.715827 0.583686 0.181349
0.722096 0.589405 0.188312
0.728366 0.595124 0.195275
0.734635 0.600843 0.202238
0.740905 0.606562 0.209201
0.747174 0.612281 0.216164
0.245658 0.286148 0.165174
0.281807 0.307336 0.162827
0.317957 0.328524 0.160481
0.354107 0.349712 0.158135
0.390257 0.370901 0.155788
0.426406 0.392089 0.153442
0.451734 0.408538 0.153632
0.474896 0.424039 0.154331
0.498059 0.439540 0.155029
0.521222 0.455042 0.155727
0.544384 0.470543 0.156426
0.561633 0.482865 0.157651
0.575926 0.493597 0.159141
0.590218 0.504329 0.160631
0.604510 0.515061 0.162120
0.618802 0.525793 0.163610
0.630258 0.534449 0.164880
0.638879 0.541028 0.165930
0.647499 0.547606 0.166981
0.656120 0.554185 0.168031
0.664740 0.560764 0.169082
0.673452 0.566773 0.170783
0.682345 0.571639 0.173785
0.691238 0.576506 0.176787
0.700132 0.581373 0.179789
0.709025 0.586239 0.182791
0.717414 0.591154 0.186325
0.723281 0.596305 0.192520
0.729148 0.601457 0.198715
0.735015 0.606609 0.204909
0.740882 0.611761 0.211104
0.746749 0.616913 0.217299
0.275482 0.307369 0.170657
0.310149 0.327936 0.168621
0.344817 0.348502 0.166586
0.379485 0.369068 0.164550
0.414153 0.389634 0.162515
0.448820 0.410200 0.160479
0.473260 0.426157 0.160836
0.495655 0.441192 0.161672
0.518049 0.456226 0.162508
0.540443 0.471261 0.163343
0.562837 0.486296 0.164179
0.579403 0.498139 0.165511
0.593055 0.508386 0.167092
0.606707 0.518633 0.168673
0.620359 0.528881 0.170254
0.634011 0.539128 0.171835
0.644827 0.547381 0.173224
0.652807 0.553640 0.174421
0.660787 0.559898 0.175618
0.668767 0.566157 0.176815
0.676747 0.572416 0.178012
0.684391 0.577960 0.179557
0.691363 0.582077 0.181800
0.698336 0.586194 0.184043
0.705308 0.590310 0.186286
0.712280 0.594427 0.188528
0.719001 0.598621 0.191302
0.724466 0.603206 0.196728
0.729930 0.607791 0.202154
0.735394 0.612375 0.207581
0.740859 0.616960 0.213007
0.746323 0.621545 0.218433
0.305305 0.328591 0.176139
0.338491 0.348535 0.174415
0.371677 0.368479 0.172690
0.404863 0.388423 0.170966
0.438049 0.408368 0.169242
0.471235 0.428312 0.167517
0.494787 0.443776 0.168041
0.516413 0.458344 0.169013
0.538039 0.472912 0.169986
0.559665 0.487480 0.170959
0.581290 0.502049 0.171931
0.597173 0.513413 0.173371
0.610185 0.523175 0.175043
0.623196 0.532938 0.176716
0.636208 0.542700 0.178388
0.649219 0.552463 0.180061
0.659395 0.560313 0.181569
0.666735 0.566252 0.182912
0.674074 0.572190 0.184255
0.681414 0.578129 0.185599
0.688754 0.584067 0.186942
0.695331 0.589148 0.188332
0.700382 0.592515 0.189815
0.705433 0.595881 0.191299
0.710484 0.599248 0.192782
0.715535 0.602614 0.194266
0.720588 0.606089 0.196278
0.725650 0.610107 0.200936
0.730712 0.614124 0.205594
0.735774 0.618142 0.210252
0.740836 0.622159 0.214910
0.745898 0.626177 0.219568
0.338934 0.351381 0.180432
0.370164 0.370460 0.179132
0.401394 0.389540 0.177831
0.432623 0.408619 0.176531
0.463853 0.427699 0.175230
0.495083 0.446779 0.173930
0.517455 0.461611 0.174674
0.538056 0.475594 0.175826
0.558658 0.489576 0.176979
0.579259 0.503559 0.178131
0.599860 0.517542 0.179284
0.614897 0.528348 0.180837
0.627153 0.537566 0.182591
0.639408 0.546784 0.184344
0.651663 0.556002 0.186097
0.663918 0.565220 0.187851
0.673376 0.572608 0.189448
0.680036 0.578166 0.190889
0.686695 0.583723 0.192329
0.693355 0.589280 0.193770
0.700015 0.594838 0.195211
0.705571 0.599435 0.196449
0.708921 0.602112 0.197282
0.712271 0.604790 0.198114
0.715620 0.607467 0.198946
0.718970 0.610144 0.199779
0.722522 0.612949 0.201122
0.727083 0.616388 0.205016
0.731645 0.619828 0.208910
0.736207 0.623268 0.212804
0.740769 0.626707 0.216698
0.745331 0.630147 0.220592
0.391587 0.382008 0.178778
0.418490 0.399011 0.178466
0.445392 0.416014 0.178153
0.472295 0.433017 0.177841
0.499198 0.450020 0.177528
0.526100 0.467023 0.177215
0.545831 0.480526 0.178452
0.564127 0.493328 0.179998
0.582423 0.506131 0.181544
0.600719 0.518934 0.183090
0.619015 0.531736 0.184636
0.632393 0.541588 0.186338
0.643313 0.549965 0.188119
0.654232 0.558341 0.189900
0.665152 0.566718 0.191681
0.676072 0.575094 0.193461
0.684422 0.581718 0.194999
0.690204 0.586589 0.196294
0.695985 0.591461 0.197588
0.701767 0.596332 0.198882
