filters/luts/Sunshine 01_S.cube
# Created by: Adobe Photoshop Export Color Lookup Plugin
# LUT by SparkleStock. Enhanced with VOXCOLOR algorithms.
LUT_3D_SIZE 8
DOMAIN_MIN 0.000000 0.000000 0.000000
DOMAIN_MAX 0.903226 0.903226 0.903226
0.050794 0.039072 0.050794
0.096924 0.052117 0.057033
0.160731 0.066903 0.062200
0.242136 0.084927 0.067005
0.339856 0.107850 0.072181
0.450644 0.140368 0.079176
0.558439 0.187223 0.089322
0.647918 0.248210 0.102249
0.063461 0.057978 0.065162
0.125984 0.090929 0.064375
0.208673 0.116497 0.063865
0.305471 0.140388 0.064828
0.410564 0.167245 0.068448
0.516814 0.201519 0.077346
0.610558 0.247447 0.091713
0.682260 0.304671 0.109958
0.078672 0.078357 0.081138
0.165157 0.127896 0.076850
0.253806 0.173046 0.073379
0.352545 0.211539 0.071762
0.463132 0.243833 0.073373
0.566504 0.280278 0.082722
0.651570 0.325521 0.100030
0.712904 0.379583 0.122405
0.099579 0.103754 0.099665
0.214727 0.169430 0.093512
0.310484 0.233214 0.089332
0.403353 0.287470 0.086873
0.503406 0.329045 0.086838
0.603790 0.367588 0.094882
0.682463 0.411646 0.112887
0.737448 0.461891 0.137041
0.130560 0.138162 0.121147
0.275001 0.220653 0.113420
0.386014 0.295976 0.110091
0.471132 0.361437 0.108648
0.542159 0.415215 0.108112
0.633431 0.454948 0.113174
0.704700 0.496597 0.129005
0.754437 0.541384 0.151731
0.186522 0.192422 0.144779
0.349112 0.287500 0.135735
0.469047 0.369502 0.133058
0.555507 0.438109 0.133689
0.617550 0.492949 0.135294
0.664620 0.529900 0.136989
0.720715 0.566451 0.147381
0.763383 0.603139 0.164489
0.296680 0.278979 0.163528
0.446804 0.373106 0.155849
0.556538 0.452221 0.154262
0.633504 0.516047 0.156022
0.684917 0.564644 0.158867
0.715593 0.595888 0.161099
0.744582 0.618923 0.165685
0.769550 0.642557 0.175098
0.484856 0.401591 0.168498
0.581031 0.475806 0.167797
0.653621 0.539091 0.169765
0.705177 0.589289 0.172940
0.738644 0.625288 0.176133
0.756428 0.646036 0.178414
0.766415 0.656939 0.179882
0.776056 0.667526 0.183248
0.055709 0.046823 0.083501
0.108865 0.062064 0.088715
0.190066 0.075728 0.094828
0.289596 0.091385 0.101451
0.398366 0.111857 0.108456
0.505349 0.140130 0.116768
0.597751 0.178471 0.127500
0.668251 0.225175 0.140469
0.071011 0.075097 0.110750
0.133987 0.115909 0.125822
0.221718 0.138637 0.133269
0.325074 0.155071 0.137957
0.435693 0.174037 0.143605
0.543917 0.199421 0.152234
0.635696 0.235589 0.165222
0.702579 0.282751 0.182022
0.091241 0.106398 0.139916
0.165106 0.165371 0.157055
0.254555 0.208293 0.157576
0.358498 0.238213 0.154802
0.473020 0.259866 0.157646
0.582460 0.286306 0.165060
0.673022 0.323071 0.178811
0.737830 0.371141 0.197796
0.116502 0.142139 0.171093
0.204932 0.215483 0.187414
0.300400 0.278330 0.180422
0.401482 0.326035 0.170025
0.506862 0.358076 0.169223
0.615721 0.386482 0.174859
0.704337 0.423126 0.188544
0.768203 0.469638 0.208731
0.148344 0.184469 0.204577
0.256065 0.270562 0.219777
0.365860 0.345749 0.209503
0.462196 0.408580 0.195167
0.541524 0.457672 0.191035
0.642065 0.487678 0.195360
0.726690 0.521544 0.208531
0.789852 0.562405 0.229216
0.196841 0.241656 0.242260
0.325204 0.336371 0.251044
0.445933 0.418363 0.239534
0.545046 0.486815 0.226279
0.616085 0.541047 0.223481
0.671629 0.577112 0.229086
0.742743 0.607824 0.240707
0.801971 0.640355 0.259945
0.285995 0.326140 0.282256
0.423933 0.419997 0.275598
0.539898 0.499011 0.263619
0.628844 0.563526 0.255474
0.689545 0.614061 0.257005
0.728659 0.648912 0.267226
0.768710 0.673942 0.282031
0.809446 0.697794 0.301213
0.438012 0.444489 0.319983
0.562928 0.523208 0.289366
0.650501 0.586252 0.277839
0.710998 0.636293 0.278511
0.752877 0.675448 0.286435
0.779089 0.702569 0.302635
0.797901 0.721212 0.324148
0.819884 0.737460 0.347995
0.064910 0.058726 0.126653
0.109644 0.077925 0.147017
0.201529 0.095166 0.145059
0.317111 0.111905 0.141499
0.436997 0.130132 0.148726
0.545047 0.155820 0.157112
0.628742 0.189552 0.167963
0.687258 0.228799 0.181675
0.083987 0.093879 0.169685
0.141360 0.137974 0.197608
0.231186 0.164350 0.207042
0.341708 0.181511 0.210003
0.461249 0.196958 0.214848
0.572066 0.219203 0.221723
0.660299 0.251402 0.232625
0.721374 0.292903 0.247483
0.107880 0.136773 0.207309
0.174960 0.197728 0.238520
0.261560 0.240785 0.248305
0.366805 0.267308 0.249649
0.486020 0.281717 0.251995
0.599085 0.301119 0.257623
0.691466 0.330677 0.268982
0.756985 0.371254 0.285659
0.136925 0.184999 0.247661
0.214752 0.258051 0.278393
0.302805 0.317670 0.284366
0.401803 0.359029 0.279210
0.510862 0.381880 0.273998
0.624357 0.399905 0.277544
0.719344 0.426911 0.288185
0.789619 0.465040 0.305483
0.171986 0.237533 0.295065
0.264281 0.320131 0.322120
0.361143 0.390961 0.324968
0.453992 0.448318 0.312172
0.541317 0.490415 0.294041
0.647698 0.510231 0.294205
0.741792 0.535392 0.302332
0.815505 0.570096 0.318254
0.218097 0.299202 0.343275
0.328873 0.387741 0.363951
0.435502 0.463945 0.364718
0.531535 0.527872 0.351303
0.612447 0.578968 0.331852
0.674644 0.610790 0.328791
0.756889 0.633727 0.334992
0.829352 0.660271 0.349997
0.293402 0.380316 0.394600
0.418093 0.467503 0.400068
0.527039 0.541279 0.395365
0.617772 0.602909 0.384251
0.688537 0.653017 0.372043
0.734466 0.687371 0.373946
0.782905 0.710626 0.384107
0.836395 0.731719 0.400461
0.418176 0.488886 0.448157
0.541464 0.563441 0.428416
0.637250 0.624674 0.413708
0.708503 0.674491 0.406131
0.758756 0.714465 0.407186
0.791432 0.743666 0.419088
0.816689 0.765105 0.439149
0.848220 0.782665 0.463362
0.077845 0.074938 0.180173
0.111576 0.099796 0.220698
0.196373 0.123527 0.222937
0.319474 0.146740 0.210309
0.462295 0.169761 0.201119
0.573846 0.191960 0.207175
0.653338 0.221665 0.216215
0.704893 0.256043 0.229382
0.100800 0.115457 0.238232
0.151685 0.161832 0.276212
0.235144 0.195677 0.292521
0.348126 0.221133 0.294919
0.481023 0.242013 0.291354
0.595445 0.262517 0.294917
0.681089 0.292680 0.302648
0.737805 0.330677 0.315009
0.128252 0.167485 0.284342
0.191491 0.228543 0.323333
0.272087 0.274668 0.344323
0.374962 0.304974 0.352089
0.498039 0.321517 0.352057
0.614244 0.336484 0.354387
0.706792 0.361360 0.362357
0.771921 0.396137 0.376027
0.162123 0.227961 0.329608
0.235911 0.298318 0.368408
0.315911 0.355288 0.389129
0.408595 0.394202 0.394403
0.516594 0.414125 0.389237
0.632561 0.424033 0.389411
0.730480 0.442989 0.396418
0.804356 0.472853 0.410336
0.203241 0.293863 0.381370
0.288263 0.369615 0.415966
0.372253 0.433702 0.434754
0.456194 0.484234 0.432896
0.543694 0.518981 0.413311
0.652417 0.528996 0.408179
0.751555 0.544730 0.411426
0.832014 0.570826 0.422809
0.250341 0.361388 0.438655
0.349717 0.440406 0.467089
0.441421 0.508313 0.482916
0.527605 0.565225 0.479493
0.608604 0.610419 0.456987
0.676457 0.636491 0.438658
0.765833 0.650944 0.436577
0.847553 0.670285 0.444870
0.316987 0.438822 0.494938
0.427482 0.515745 0.513205
0.525333 0.581840 0.521168
0.610887 0.637919 0.516352
0.683630 0.684170 0.499865
0.736200 0.716095 0.485341
0.790820 0.735529 0.483308
0.853845 0.752163 0.490424
0.420794 0.534340 0.552630
0.529934 0.600425 0.554395
0.625102 0.657720 0.547415
0.701720 0.705786 0.538718
0.757952 0.744624 0.533322
0.796888 0.773868 0.532589
0.827151 0.795187 0.540036
0.865837 0.811454 0.553713
0.094056 0.095711 0.243436
0.122647 0.127540 0.300739
0.181217 0.159057 0.328049
0.297288 0.193969 0.318218
0.469714 0.231583 0.278938
0.594109 0.253600 0.276468
0.673439 0.277633 0.279451
0.721240 0.305519 0.288375
0.120250 0.140841 0.312857
0.167113 0.190545 0.357856
0.235137 0.233354 0.390259
0.341650 0.272705 0.398644
0.486750 0.309064 0.382594
0.610134 0.330518 0.380053
0.696303 0.357972 0.382710
0.751480 0.392169 0.391407
0.151809 0.197958 0.369357
0.212105 0.260602 0.410904
0.284854 0.312459 0.442014
0.381723 0.353643 0.457110
0.504888 0.384006 0.455602
0.625994 0.399661 0.452686
0.718772 0.422736 0.455057
0.783638 0.454478 0.463912
0.191966 0.268151 0.415976
0.261996 0.337195 0.457730
0.337463 0.393992 0.485931
0.423973 0.436420 0.501161
0.525036 0.463115 0.504951
0.641680 0.471082 0.501094
0.739500 0.485918 0.502922
0.814296 0.510360 0.511946
0.241301 0.348926 0.458965
0.319023 0.418003 0.499972
0.397516 0.475499 0.526366
0.474118 0.520178 0.539306
0.551722 0.549874 0.540521
0.658009 0.553566 0.532541
0.757506 0.560343 0.532406
0.840539 0.576323 0.540632
0.292279 0.424006 0.521244
0.380105 0.492725 0.554687
0.464372 0.552420 0.577049
0.540861 0.601670 0.588765
0.608927 0.639106 0.587807
0.679882 0.659790 0.557749
0.771909 0.666126 0.548410
0.858322 0.677623 0.550531
0.353900 0.498340 0.578421
0.450201 0.564099 0.603576
0.538975 0.622181 0.621028
0.615828 0.671221 0.630519
0.679463 0.710532 0.629531
0.737015 0.739372 0.602140
0.795576 0.754325 0.587361
0.864684 0.765846 0.584067
0.440793 0.579547 0.633173
0.536469 0.636558 0.646993
0.622809 0.687993 0.656036
0.695960 0.732254 0.659344
0.754075 0.768568 0.656227
0.798527 0.797067 0.645055
0.832949 0.817025 0.637921
0.876759 0.830910 0.638065
0.113908 0.122935 0.315467
0.141327 0.161351 0.381991
0.186804 0.200181 0.423914
0.269259 0.244411 0.440551
0.402404 0.297083 0.432063
0.600860 0.357594 0.396221
0.691192 0.374504 0.380470
0.736670 0.386699 0.374695
0.142443 0.172163 0.389718
0.186775 0.223922 0.435666
0.246927 0.274888 0.476737
0.333045 0.326193 0.503536
0.452532 0.378246 0.509595
0.614963 0.429016 0.490680
0.707715 0.453483 0.482723
0.762882 0.478419 0.483006
0.177485 0.232861 0.450530
0.235816 0.295836 0.490052
0.304032 0.352852 0.525942
0.389706 0.405119 0.553423
0.497727 0.452878 0.568200
0.630972 0.491560 0.561814
0.725726 0.513389 0.557599
0.790876 0.538806 0.560188
0.221654 0.305994 0.501308
0.290608 0.374848 0.539866
0.363667 0.433878 0.570867
0.444883 0.484103 0.595039
0.537673 0.525482 0.611803
0.648127 0.551565 0.613144
0.743917 0.565274 0.609909
0.818426 0.584289 0.612587
0.276020 0.390354 0.545065
0.352283 0.458194 0.582168
0.429030 0.516493 0.611195
0.503080 0.563889 0.632096
0.575683 0.598818 0.644952
0.666544 0.614818 0.648558
0.761279 0.619276 0.644342
0.843393 0.629614 0.645877
0.338562 0.477729 0.583780
0.420283 0.539998 0.619551
0.497515 0.593358 0.646685
0.568214 0.637204 0.665445
0.631660 0.670792 0.675575
0.690249 0.689847 0.672515
0.777080 0.689746 0.664308
0.861809 0.693448 0.662665
0.398573 0.550819 0.635809
0.485728 0.608504 0.664709
0.565991 0.659442 0.687868
0.636648 0.702732 0.704911
0.695940 0.737591 0.715014
0.742014 0.761157 0.713317
0.799697 0.771836 0.695958
0.870090 0.778323 0.686049
0.471390 0.618719 0.684420
0.558577 0.669634 0.704586
0.637809 0.716268 0.722396
0.705829 0.757051 0.736556
0.760477 0.790840 0.745909
0.799306 0.815732 0.747867
0.836461 0.834251 0.735021
0.883334 0.846095 0.726334
0.140691 0.165757 0.400575
0.165110 0.203440 0.461196
0.203525 0.244252 0.504075
0.269461 0.294355 0.531994
0.374150 0.357739 0.546355
0.536892 0.435643 0.540811
0.678782 0.498225 0.534825
0.754371 0.516515 0.513754
0.168153 0.213351 0.466727
0.209164 0.262300 0.506054
0.264836 0.316741 0.546748
0.340668 0.375830 0.580725
0.441566 0.438914 0.602059
0.579539 0.506587 0.606265
0.700937 0.560746 0.606658
0.774270 0.589828 0.599399
0.205421 0.274574 0.522896
0.261301 0.334133 0.556162
0.325664 0.392123 0.590649
0.404997 0.451416 0.622634
0.503054 0.512649 0.648299
0.619699 0.568358 0.659181
0.724214 0.610940 0.663725
0.796501 0.639438 0.663883
0.253899 0.348948 0.571379
0.320934 0.414081 0.603998
0.390841 0.471877 0.633387
0.468164 0.526669 0.660878
0.555968 0.580168 0.686085
0.656053 0.624434 0.700852
0.747092 0.654378 0.707650
0.819361 0.675761 0.710898
0.313281 0.433967 0.613617
0.387007 0.497462 0.644521
0.462264 0.554902 0.672670
0.534015 0.603868 0.697039
0.602443 0.643702 0.717085
0.688160 0.678240 0.732809
0.768351 0.696377 0.740155
0.841256 0.708370 0.743830
0.378726 0.519611 0.647184
0.457324 0.577704 0.677323
0.532842 0.629653 0.704132
0.602300 0.674187 0.726995
0.663936 0.710258 0.745238
0.717797 0.734951 0.756392
0.786690 0.744743 0.761954
0.859652 0.749568 0.763974
0.437919 0.589626 0.680467
0.522972 0.643825 0.709400
0.599591 0.691937 0.735033
0.666221 0.732998 0.756761
0.721872 0.766252 0.773947
0.764529 0.789387 0.784280
0.810539 0.802038 0.783848
0.872075 0.806745 0.780450
0.499345 0.646348 0.713636
0.586536 0.696330 0.738680
0.662802 0.741375 0.762362
0.726739 0.780141 0.783251
0.777696 0.811764 0.800183
0.814528 0.834980 0.811295
0.845212 0.851503 0.811992
0.887495 0.861033 0.808700
0.181047 0.236378 0.511749
0.196153 0.259339 0.545206
0.227317 0.292301 0.572793
0.285022 0.341761 0.597548
0.376411 0.411500 0.621445
0.508283 0.501864 0.643394
0.660000 0.595714 0.659930
0.757348 0.645966 0.661470
0.200807 0.270171 0.550884
0.236258 0.310361 0.576853
0.286860 0.360475 0.606727
0.356375 0.419898 0.636219
0.447482 0.488173 0.662508
0.565519 0.567219 0.685878
0.691862 0.644023 0.703218
0.777670 0.692816 0.711714
0.236744 0.325062 0.590183
0.288992 0.377595 0.615356
0.348276 0.430830 0.642829
0.422608 0.490739 0.671755
0.515591 0.559385 0.700658
0.620059 0.626628 0.724436
0.724129 0.687080 0.742327
0.799856 0.728955 0.754171
0.288689 0.397841 0.629022
0.352065 0.455330 0.654647
0.417180 0.507578 0.679758
0.490191 0.562007 0.706165
0.574676 0.622206 0.734149
0.669117 0.680271 0.758402
0.754957 0.726267 0.776655
0.822449 0.758488 0.789429
0.354235 0.483082 0.666133
0.422699 0.537712 0.690226
0.494906 0.590544 0.715609
0.562753 0.637263 0.740089
0.625562 0.677907 0.762820
0.710943 0.728665 0.787338
0.782712 0.762877 0.805695
0.844172 0.785284 0.818025
0.423387 0.565377 0.696333
0.495907 0.615116 0.719770
0.568555 0.663180 0.744550
0.636260 0.706791 0.769001
0.695562 0.743955 0.791638
0.744984 0.772853 0.810222
0.804693 0.798180 0.827703
0.863334 0.814433 0.839111
0.480231 0.627130 0.716552
0.560608 0.675538 0.742394
0.633971 0.720516 0.768191
0.698227 0.760300 0.792685
0.751875 0.793492 0.814713
0.792207 0.817613 0.832080
0.830786 0.836120 0.845436
0.878148 0.847977 0.853735
0.526460 0.668750 0.734640
0.615323 0.718547 0.762153
0.690895 0.763418 0.789421
0.752887 0.801902 0.814772
0.801630 0.833119 0.836903
0.837098 0.856170 0.854297
0.862629 0.872415 0.866196
0.895033 0.884074 0.872823
