filters/luts/Sunshine 05.cube
# Created by: Adobe Photoshop Export Color Lookup Plugin
# LUT by SparkleStock. Enhanced with VOXCOLOR algorithms.
LUT_3D_SIZE 8
DOMAIN_MIN 0.000000 0.000000 0.000000
DOMAIN_MAX 0.903226 0.903226 0.903226
0.015629 0.046886 0.042979
0.074615 0.062200 0.043925
0.148600 0.080996 0.046611
0.232620 0.104927 0.051668
0.322659 0.136098 0.059325
0.416999 0.181661 0.068967
0.512915 0.245658 0.079081
0.603821 0.322967 0.087959
0.027729 0.070708 0.055646
0.103108 0.105635 0.053518
0.193797 0.135335 0.054374
0.290747 0.166219 0.058297
0.386915 0.203190 0.065387
0.478035 0.250070 0.076639
0.562558 0.307821 0.091169
0.637028 0.371109 0.107005
0.043444 0.097341 0.072598
0.144651 0.149186 0.067396
0.241210 0.193631 0.066790
0.339857 0.234586 0.070227
0.442064 0.275737 0.077488
0.529964 0.322587 0.090454
0.604996 0.374732 0.109071
0.667444 0.427507 0.131227
0.067108 0.129072 0.094151
0.195893 0.196480 0.085997
0.298984 0.254674 0.084850
0.393006 0.304515 0.088265
0.487781 0.348264 0.095042
0.573010 0.394041 0.108910
0.639780 0.440966 0.130015
0.692684 0.485511 0.156377
0.103691 0.168514 0.120147
0.254925 0.250175 0.109431
0.370395 0.317749 0.108729
0.458166 0.372547 0.112547
0.528986 0.417290 0.117972
0.608268 0.460011 0.130761
0.666851 0.501594 0.151701
0.711208 0.539100 0.178944
0.167403 0.223341 0.149451
0.326102 0.312467 0.137711
0.444683 0.384084 0.136814
0.531454 0.440541 0.142058
0.594278 0.484022 0.149477
0.639310 0.514594 0.155680
0.685842 0.548785 0.172230
0.722192 0.579376 0.195203
0.278065 0.302273 0.172925
0.417761 0.385080 0.164796
0.522747 0.451537 0.165574
0.598628 0.503147 0.171402
0.650773 0.541402 0.178940
0.681924 0.565681 0.184898
0.707400 0.585426 0.192727
0.729054 0.604486 0.206288
0.445941 0.409374 0.178542
0.536683 0.469629 0.181134
0.608612 0.520211 0.187618
0.662025 0.559953 0.195486
0.697979 0.588353 0.202718
0.717263 0.604575 0.207640
0.727333 0.613261 0.210031
0.736211 0.621228 0.214849
0.017330 0.057474 0.082492
0.080268 0.076593 0.079779
0.167329 0.098365 0.082642
0.265498 0.124077 0.091163
0.364374 0.154919 0.105059
0.456665 0.193749 0.123629
0.540408 0.242840 0.143282
0.613310 0.298535 0.160948
0.033089 0.089053 0.105405
0.106188 0.132431 0.118315
0.202436 0.161566 0.125925
0.307000 0.187413 0.134190
0.408251 0.217893 0.147165
0.498229 0.255547 0.165306
0.576207 0.302038 0.185162
0.641640 0.353680 0.203422
0.055678 0.124999 0.131670
0.141871 0.182235 0.150812
0.242194 0.226410 0.155511
0.349968 0.262828 0.158877
0.457507 0.296694 0.169502
0.547418 0.335999 0.185711
0.620369 0.381292 0.205978
0.678553 0.428903 0.227373
0.086075 0.164791 0.160931
0.185756 0.230887 0.181853
0.292589 0.289511 0.182353
0.400040 0.338595 0.180732
0.502554 0.378748 0.188863
0.593307 0.419718 0.203652
0.661847 0.463222 0.224659
0.713689 0.506259 0.249808
0.125987 0.208698 0.193056
0.237636 0.282261 0.214320
0.356179 0.349540 0.213383
0.460656 0.407471 0.209805
0.542287 0.454927 0.216502
0.629672 0.495320 0.231444
0.693594 0.535275 0.253401
0.740266 0.572962 0.281358
0.183552 0.261329 0.229386
0.304479 0.339638 0.246678
0.426661 0.411772 0.245330
0.531365 0.473392 0.243141
0.607778 0.521965 0.251478
0.662499 0.557349 0.266519
0.717279 0.592897 0.288504
0.758993 0.625207 0.316833
0.272577 0.330625 0.267082
0.396049 0.408584 0.274652
0.508647 0.477967 0.273872
0.600753 0.535881 0.275526
0.667103 0.580852 0.286379
0.710097 0.613021 0.304084
0.745564 0.639578 0.325309
0.774736 0.664139 0.351672
0.404220 0.422163 0.299618
0.518905 0.492578 0.292493
0.605867 0.549860 0.294000
0.671206 0.595692 0.302666
0.719892 0.631652 0.317180
0.752056 0.657724 0.337291
0.773629 0.677329 0.359761
0.792011 0.695274 0.384778
0.020371 0.071945 0.132853
0.073057 0.095077 0.143794
0.170666 0.121354 0.136388
0.285222 0.150057 0.133194
0.395358 0.181023 0.147561
0.489747 0.216748 0.169565
0.566328 0.257241 0.194125
0.627197 0.300075 0.217301
0.042174 0.109311 0.166737
0.108661 0.155088 0.190166
0.205874 0.190581 0.195734
0.318457 0.220420 0.198827
0.431951 0.248976 0.209913
0.525174 0.282478 0.229126
0.598247 0.321314 0.251699
0.654824 0.362965 0.273200
0.071009 0.152380 0.195770
0.148696 0.209858 0.226153
0.244471 0.258465 0.239154
0.354656 0.296642 0.246286
0.471265 0.325927 0.256286
0.564632 0.359372 0.273752
0.635231 0.397247 0.295534
0.687993 0.436997 0.317227
0.107655 0.199379 0.227997
0.194407 0.263099 0.261124
0.292026 0.322916 0.277273
0.398727 0.371923 0.284558
0.509645 0.407892 0.290611
0.604952 0.442771 0.306394
0.674126 0.480337 0.327521
0.723886 0.518353 0.350671
0.152751 0.249046 0.267663
0.247078 0.317492 0.300434
0.351197 0.383206 0.316755
0.453828 0.441547 0.320604
0.548706 0.489554 0.318715
0.643394 0.526456 0.332502
0.711272 0.563926 0.352738
0.758880 0.600512 0.378041
0.208834 0.301867 0.308530
0.310721 0.373783 0.338157
0.417579 0.442573 0.353470
0.520970 0.504419 0.357754
0.612663 0.556254 0.356860
0.676514 0.593439 0.370048
0.737864 0.628710 0.391227
0.783250 0.661505 0.418683
0.284601 0.364689 0.352258
0.392669 0.437581 0.372500
0.496908 0.505215 0.383863
0.592304 0.565126 0.389483
0.673532 0.615255 0.393929
0.726779 0.651394 0.410589
0.769496 0.680447 0.433501
0.803799 0.707499 0.462197
0.390484 0.443531 0.396767
0.499316 0.513205 0.400855
0.593047 0.574494 0.405482
0.670534 0.626331 0.413200
0.731313 0.668239 0.426187
0.773398 0.699431 0.447956
0.802464 0.723504 0.474837
0.826421 0.745428 0.505068
0.025854 0.090535 0.190673
0.068233 0.118376 0.219593
0.160710 0.149015 0.213690
0.284209 0.182482 0.199425
0.417452 0.217982 0.196705
0.517049 0.251305 0.216220
0.590442 0.286224 0.240529
0.643782 0.321198 0.264956
0.055597 0.132207 0.234303
0.115422 0.178027 0.264956
0.205082 0.220081 0.273739
0.319807 0.258280 0.272733
0.448509 0.292810 0.272756
0.549792 0.324259 0.287650
0.621719 0.358114 0.309153
0.672416 0.392557 0.331846
0.091422 0.180135 0.266377
0.163263 0.236001 0.300565
0.249953 0.288663 0.322629
0.356290 0.332853 0.334364
0.478647 0.366503 0.339785
0.580545 0.396465 0.353314
0.651742 0.428981 0.373684
0.700886 0.462258 0.395130
0.134418 0.233207 0.298158
0.214490 0.294344 0.335055
0.300380 0.354245 0.365578
0.398943 0.405195 0.384231
0.510641 0.443203 0.390842
0.613560 0.473325 0.403748
0.684684 0.505490 0.423119
0.732942 0.538091 0.444060
0.184919 0.289609 0.337097
0.270907 0.353854 0.374154
0.359056 0.416576 0.406712
0.451406 0.474052 0.424552
0.548944 0.522772 0.425753
0.650373 0.555465 0.436563
0.721405 0.588719 0.454251
0.769199 0.621518 0.475625
0.242234 0.344150 0.382391
0.333081 0.411137 0.417126
0.423055 0.475512 0.448341
0.515626 0.535421 0.466197
0.609506 0.588385 0.467764
0.683584 0.625942 0.472016
0.750918 0.659561 0.488686
0.799063 0.691336 0.511748
0.310003 0.402501 0.427864
0.404276 0.470147 0.457427
0.496017 0.534415 0.482720
0.585590 0.593658 0.498659
0.670625 0.645871 0.504295
0.734938 0.684497 0.512223
0.784083 0.713798 0.529685
0.822404 0.741377 0.554241
0.397011 0.470661 0.475060
0.490258 0.535521 0.495079
0.581829 0.597592 0.509451
0.664382 0.653020 0.521112
0.732912 0.699129 0.532866
0.784897 0.733850 0.549055
0.819943 0.759251 0.571107
0.847534 0.781803 0.597411
0.035283 0.113506 0.252731
0.076272 0.146835 0.294715
0.145016 0.180721 0.311349
0.262294 0.220163 0.298647
0.424575 0.265418 0.265502
0.538242 0.299162 0.274461
0.612562 0.329089 0.292207
0.661614 0.357473 0.312358
0.074119 0.158380 0.303314
0.129877 0.204249 0.338545
0.203862 0.249057 0.361952
0.310622 0.295784 0.365562
0.449492 0.343643 0.351129
0.565481 0.376348 0.356683
0.641558 0.407192 0.372383
0.691076 0.437201 0.392009
0.118079 0.208977 0.342068
0.184128 0.263438 0.376835
0.260652 0.316793 0.406641
0.357784 0.368621 0.422852
0.477220 0.416607 0.423431
0.593108 0.448200 0.427816
0.669846 0.478973 0.442309
0.719387 0.509340 0.461432
0.167617 0.266376 0.372123
0.240637 0.325324 0.410120
0.318899 0.383403 0.444677
0.407409 0.438357 0.470053
0.508875 0.486855 0.483521
0.621764 0.517287 0.489713
0.697891 0.546914 0.504188
0.746999 0.576029 0.522573
0.222634 0.329242 0.399684
0.300342 0.389312 0.441535
0.380713 0.448267 0.478331
0.462304 0.504786 0.509498
0.546991 0.555613 0.533513
0.652155 0.585990 0.542235
0.726562 0.614150 0.557252
0.775210 0.641103 0.574681
0.282017 0.386820 0.447321
0.362883 0.448726 0.486551
0.444915 0.509521 0.522660
0.525235 0.567240 0.554661
0.603201 0.619313 0.578723
0.686154 0.657542 0.574867
0.759138 0.688549 0.586116
0.809814 0.717655 0.603458
0.344459 0.441881 0.492772
0.427524 0.504530 0.528563
0.510585 0.565955 0.562096
0.589690 0.623295 0.591590
0.663326 0.674209 0.613581
0.737419 0.715233 0.613531
0.793132 0.744173 0.623050
0.835431 0.771119 0.640435
0.416534 0.500678 0.538087
0.498721 0.561723 0.568168
0.581079 0.621840 0.596247
0.658686 0.677479 0.619565
0.728332 0.725932 0.636448
0.789509 0.764218 0.646864
0.830818 0.790484 0.660740
0.861949 0.812590 0.679077
0.053811 0.142432 0.315121
0.099044 0.180737 0.363251
0.157311 0.217630 0.392150
0.244206 0.259024 0.401854
0.370736 0.309182 0.393757
0.546755 0.370882 0.371539
0.632078 0.395710 0.370428
0.679483 0.412702 0.376089
0.100844 0.189355 0.368045
0.153707 0.233968 0.403418
0.220109 0.280848 0.434288
0.307383 0.330915 0.454582
0.420956 0.384612 0.460464
0.568702 0.441647 0.450933
0.655781 0.471604 0.454235
0.708606 0.496000 0.464394
0.151134 0.240654 0.409867
0.211965 0.292522 0.442623
0.281680 0.345713 0.475588
0.366350 0.400290 0.502646
0.469799 0.455640 0.519192
0.593993 0.508178 0.520890
0.680849 0.540041 0.526354
0.736553 0.567976 0.538238
0.205623 0.297833 0.443532
0.272992 0.355058 0.478526
0.344719 0.411928 0.513725
0.424934 0.468262 0.545451
0.516508 0.523069 0.570210
0.622008 0.571018 0.581052
0.707023 0.602730 0.587925
0.763623 0.631527 0.600181
0.264245 0.360919 0.471898
0.335890 0.420044 0.510250
0.410360 0.478680 0.547866
0.485691 0.535106 0.583209
0.562504 0.587472 0.613894
0.652630 0.631116 0.631261
0.734250 0.661563 0.639827
0.790207 0.689388 0.652083
0.323774 0.425375 0.498312
0.399258 0.484637 0.541182
0.474864 0.542612 0.581637
0.548425 0.597640 0.618344
0.618898 0.648192 0.649600
0.688287 0.691077 0.669687
0.763535 0.719630 0.680244
0.817252 0.744292 0.691971
0.381850 0.478534 0.540348
0.459362 0.538822 0.581347
0.536563 0.598044 0.621061
0.609825 0.653567 0.657346
0.676823 0.703347 0.688166
0.737314 0.744854 0.709131
0.797567 0.773791 0.715960
0.844847 0.799077 0.726121
0.441362 0.529073 0.582479
0.519313 0.589174 0.619756
0.597252 0.648936 0.657047
0.670128 0.704469 0.691039
0.734408 0.752880 0.719182
0.788088 0.791492 0.738762
0.836276 0.820122 0.748381
0.873456 0.842884 0.759594
0.092820 0.184119 0.381921
0.136443 0.220327 0.425344
0.187277 0.256176 0.455651
0.257053 0.298088 0.475229
0.355669 0.350953 0.485912
0.499634 0.419630 0.486553
0.627793 0.480791 0.494598
0.700310 0.504889 0.487699
0.139877 0.227359 0.428161
0.187013 0.267702 0.458486
0.247617 0.313855 0.490023
0.323838 0.365292 0.517671
0.418416 0.421960 0.537804
0.542796 0.486878 0.548336
0.654707 0.542632 0.560328
0.725166 0.574354 0.564455
0.191349 0.276391 0.466876
0.245948 0.324038 0.495220
0.309218 0.374926 0.527203
0.385881 0.430349 0.558875
0.478453 0.490343 0.586685
0.586148 0.550975 0.605169
0.684144 0.601395 0.620259
0.751153 0.636209 0.630570
0.247498 0.332029 0.500065
0.309049 0.385752 0.531026
0.374292 0.439733 0.564480
0.448018 0.495867 0.598693
0.532957 0.554588 0.631393
0.628133 0.611358 0.656097
0.714576 0.656724 0.673665
0.777389 0.691614 0.687031
0.307361 0.393642 0.529115
0.372979 0.449761 0.563032
0.442925 0.507268 0.599858
0.512982 0.562776 0.636800
0.582867 0.614836 0.671434
0.667921 0.667951 0.700519
0.744813 0.708592 0.720103
0.803251 0.741726 0.734764
0.365206 0.455708 0.552967
0.435626 0.513286 0.592025
0.507538 0.570985 0.632314
0.577669 0.626229 0.671502
0.643923 0.677075 0.707539
0.706502 0.721667 0.737267
0.774136 0.757469 0.758323
0.828619 0.787277 0.773065
0.415764 0.507147 0.579553
0.492890 0.568348 0.623202
0.567975 0.627828 0.666738
0.637888 0.682984 0.707500
0.700492 0.731920 0.743456
0.754388 0.772755 0.772488
0.807744 0.805475 0.790889
0.854225 0.832017 0.803442
0.462602 0.550842 0.609774
0.544175 0.614523 0.654672
0.622358 0.676257 0.699669
0.693073 0.732387 0.741156
0.753617 0.780383 0.776475
0.802482 0.818513 0.803406
0.845042 0.848416 0.821008
0.881969 0.871489 0.833435
0.165418 0.248226 0.466092
0.191752 0.269662 0.489553
0.228665 0.296387 0.509105
0.284920 0.334520 0.527429
0.366764 0.388396 0.546829
0.480882 0.461994 0.570035
0.615512 0.547053 0.598256
0.708987 0.601717 0.616421
0.196436 0.276566 0.491791
0.232959 0.308574 0.512217
0.283519 0.348703 0.536686
0.349211 0.397144 0.562719
0.431193 0.454350 0.588936
0.535580 0.524224 0.617425
0.650780 0.598636 0.646790
0.734937 0.651663 0.669604
0.238966 0.317218 0.517932
0.286391 0.359346 0.540883
0.341131 0.404864 0.568035
0.409642 0.457962 0.598782
0.494679 0.520197 0.632002
0.589970 0.585760 0.664256
0.688251 0.650588 0.694560
0.763277 0.700087 0.719360
0.291332 0.369089 0.544721
0.346770 0.417854 0.571672
0.405058 0.467161 0.602063
0.472277 0.521048 0.635976
0.551769 0.581420 0.672731
0.641146 0.644501 0.708765
0.725617 0.701222 0.739944
0.792114 0.746163 0.764969
0.350427 0.429455 0.571714
0.409623 0.480266 0.601768
0.475417 0.535145 0.637315
0.540215 0.588091 0.674109
0.602898 0.637659 0.709989
0.687147 0.698912 0.749420
0.760892 0.749118 0.781450
0.819984 0.789360 0.805831
0.406699 0.489021 0.595547
0.471042 0.542051 0.630432
0.540052 0.598306 0.670070
0.608113 0.653354 0.710841
0.671151 0.703883 0.749737
0.727170 0.747610 0.783582
0.791433 0.792250 0.816117
0.845882 0.829261 0.840278
0.449651 0.535632 0.612931
0.524495 0.595099 0.656073
0.598521 0.654414 0.701412
0.667616 0.710033 0.745429
0.728646 0.759237 0.785374
0.778240 0.799150 0.818643
0.825639 0.835032 0.846892
0.869427 0.865309 0.867707
0.482370 0.569157 0.630889
0.568977 0.636920 0.681395
0.649703 0.701504 0.732129
0.720838 0.759259 0.779132
0.780022 0.807752 0.819591
0.825812 0.845498 0.851716
0.861849 0.875210 0.876200
0.895282 0.899757 0.894281
