filters/luts/Sunshine 05.cube
# Created by: Adobe Photoshop Export Color Lookup Plugin
# LUT by SparkleStock. Enhanced with VOXCOLOR algorithms.
LUT_3D_SIZE 5
DOMAIN_MIN 0.000000 0.000000 0.000000
DOMAIN_MAX 0.903226 0.903226 0.903226
0.015629 0.046886 0.042979
0.128560 0.075938 0.045760
0.277333 0.119485 0.055355
0.440742 0.194895 0.071425
0.603821 0.322967 0.087959
0.039143 0.090393 0.067919
0.204827 0.169334 0.062849
0.379718 0.236422 0.069885
0.538946 0.316432 0.090010
0.660127 0.412558 0.124639
0.083461 0.147694 0.106912
0.310204 0.271372 0.095817
0.465647 0.360702 0.102402
0.609877 0.439014 0.123807
0.702485 0.513257 0.168111
0.188026 0.239458 0.156194
0.438352 0.384696 0.142983
0.581018 0.479431 0.153466
0.658266 0.535272 0.164620
0.724525 0.587928 0.198750
0.445941 0.409374 0.178542
0.592566 0.508561 0.185596
0.681193 0.575022 0.199267
0.721163 0.607877 0.208617
0.736211 0.621228 0.214849
0.019473 0.067927 0.119146
0.143643 0.108483 0.123047
0.336155 0.157928 0.129356
0.503956 0.219494 0.164617
0.623273 0.297017 0.204925
0.059272 0.134630 0.172185
0.207136 0.224314 0.209621
0.402029 0.281893 0.221479
0.569973 0.340309 0.250191
0.676213 0.413590 0.287898
0.122912 0.214579 0.229851
0.293169 0.329294 0.272157
0.477137 0.420786 0.275321
0.643380 0.488811 0.297122
0.739567 0.556598 0.338787
0.217791 0.305761 0.299130
0.408340 0.432648 0.334317
0.587165 0.539319 0.337052
0.697990 0.609724 0.359119
0.783930 0.666775 0.405666
0.391037 0.437306 0.374943
0.576175 0.554783 0.375933
0.701906 0.640218 0.391754
0.778194 0.697104 0.428395
0.820020 0.735349 0.480106
0.029918 0.101595 0.221679
0.126997 0.156256 0.265271
0.352688 0.222254 0.235118
0.551342 0.281507 0.247114
0.652695 0.337982 0.287491
0.093705 0.181380 0.297079
0.219935 0.273326 0.349947
0.409907 0.354427 0.364095
0.604188 0.411618 0.376034
0.703206 0.467690 0.411641
0.176682 0.280261 0.350386
0.317762 0.386132 0.415761
0.476742 0.480843 0.453718
0.658310 0.539789 0.472397
0.755580 0.592408 0.505911
0.277261 0.379807 0.427644
0.428365 0.491827 0.488951
0.578222 0.593863 0.530566
0.713237 0.667294 0.533764
0.812093 0.720945 0.566456
0.406394 0.485785 0.507904
0.558652 0.594450 0.549701
0.695927 0.689560 0.579323
0.800113 0.757338 0.601985
0.854950 0.797231 0.638326
0.060491 0.150939 0.331159
0.147110 0.217876 0.404723
0.297409 0.293240 0.425024
0.579771 0.399273 0.393609
0.684246 0.430205 0.396810
0.146955 0.235740 0.416340
0.254095 0.323473 0.472571
0.403641 0.419398 0.519370
0.614777 0.517532 0.527526
0.733761 0.567045 0.542074
0.245148 0.337294 0.474573
0.366627 0.438345 0.537332
0.500620 0.536783 0.597074
0.660926 0.623002 0.630873
0.780665 0.674240 0.646953
0.348755 0.449249 0.518870
0.479789 0.551357 0.594077
0.604548 0.645511 0.659142
0.717344 0.722415 0.705413
0.826135 0.765592 0.722901
0.447210 0.535510 0.591867
0.582903 0.640798 0.660535
0.706477 0.736188 0.722679
0.801991 0.806988 0.763242
0.876033 0.850288 0.779055
0.165418 0.248226 0.466092
0.218348 0.289161 0.504620
0.323537 0.360049 0.536857
0.511463 0.481540 0.576337
0.708987 0.601717 0.616421
0.227148 0.305788 0.511351
0.311743 0.378628 0.552621
0.435952 0.472924 0.605410
0.601254 0.587164 0.660335
0.755946 0.688138 0.707274
0.321081 0.399329 0.558443
0.424531 0.488130 0.611126
0.539851 0.581107 0.672995
0.685745 0.686948 0.738475
0.806190 0.767997 0.785858
0.419435 0.502617 0.600861
0.537702 0.598915 0.667460
0.656532 0.694783 0.740001
0.752067 0.770469 0.800373
0.852121 0.838851 0.848188
0.482370 0.569157 0.630889
0.630127 0.685685 0.719422
0.751387 0.784273 0.799956
0.836284 0.854131 0.858984
0.895282 0.899757 0.894281
