filters/luts/Sunshine 02_S.cube
# Created by: Adobe Photoshop Export Color Lookup Plugin
# LUT by SparkleStock. Enhanced with VOXCOLOR algorithms.
LUT_3D_SIZE 5
DOMAIN_MIN 0.000000 0.000000 0.000000
DOMAIN_MAX 0.903226 0.903226 0.903226
0.019536 0.015629 0.019536
0.149246 0.045374 0.022758
0.339328 0.091394 0.026429
0.544811 0.163819 0.031462
0.701044 0.278979 0.034739
0.041223 0.054835 0.041672
0.219009 0.138080 0.027575
0.427884 0.206141 0.024801
0.622293 0.276745 0.029398
0.740296 0.369564 0.042169
0.078026 0.108354 0.076443
0.323955 0.235645 0.044215
0.495605 0.341122 0.034549
0.666030 0.416123 0.036146
0.765283 0.490275 0.053395
0.167112 0.199953 0.111261
0.460994 0.351047 0.066673
0.617827 0.463395 0.054002
0.700233 0.533275 0.051850
0.775049 0.586477 0.063044
0.462799 0.375745 0.097412
0.634857 0.489512 0.076058
0.728032 0.570613 0.069741
0.767679 0.612293 0.069009
0.783464 0.630077 0.070998
0.032219 0.039135 0.108244
0.166637 0.074620 0.107236
0.402552 0.115738 0.097727
0.609189 0.175044 0.110388
0.724129 0.254647 0.125577
0.062117 0.110415 0.172807
0.206188 0.198962 0.198970
0.428536 0.243267 0.196985
0.640740 0.287724 0.203690
0.769933 0.361182 0.214141
0.105895 0.195607 0.239634
0.271035 0.316839 0.251194
0.472847 0.407123 0.223533
0.675135 0.456434 0.221655
0.812025 0.515952 0.231772
0.173548 0.297817 0.315983
0.386892 0.430538 0.299168
0.586189 0.543418 0.256192
0.707028 0.617643 0.253845
0.833441 0.660899 0.273418
0.351545 0.448802 0.379832
0.590356 0.563273 0.302991
0.728005 0.651235 0.283268
0.800156 0.712511 0.308712
0.849166 0.750649 0.365562
0.057111 0.083060 0.239245
0.146690 0.146754 0.294826
0.407166 0.194429 0.221081
0.643771 0.242580 0.200473
0.744202 0.303836 0.212154
0.099038 0.181090 0.340137
0.217735 0.270712 0.388494
0.430867 0.322407 0.380104
0.660352 0.358618 0.368742
0.788047 0.417941 0.373080
0.153479 0.290267 0.404125
0.293634 0.397162 0.452962
0.467452 0.467642 0.453320
0.680589 0.493214 0.445278
0.833620 0.529986 0.451813
0.226198 0.409716 0.498800
0.396492 0.517192 0.526777
0.561716 0.606552 0.519613
0.705995 0.666650 0.476634
0.860828 0.690922 0.479037
0.352107 0.534386 0.579978
0.550671 0.628756 0.572491
0.708958 0.708648 0.552247
0.807759 0.770535 0.541950
0.876178 0.806985 0.564654
0.093820 0.152153 0.391083
0.152911 0.245153 0.486399
0.305755 0.321256 0.493306
0.653317 0.400966 0.387227
0.761506 0.422580 0.355642
0.144507 0.266863 0.501921
0.244892 0.358970 0.555510
0.406096 0.442191 0.588516
0.660040 0.506146 0.555900
0.795999 0.547708 0.542247
0.212372 0.384855 0.569109
0.342684 0.482426 0.617643
0.492107 0.558414 0.649609
0.680083 0.598953 0.651642
0.836783 0.620125 0.643514
0.300402 0.502782 0.612848
0.454931 0.595932 0.664583
0.595256 0.666923 0.694191
0.712909 0.708131 0.699007
0.867909 0.712824 0.690194
0.400052 0.605504 0.688908
0.574391 0.688504 0.722564
0.715027 0.758529 0.747265
0.807038 0.807420 0.754471
0.886540 0.837062 0.738521
0.157462 0.296026 0.567285
0.193203 0.352627 0.614357
0.300841 0.428968 0.640732
0.522718 0.542369 0.652996
0.759099 0.639381 0.640089
0.196531 0.370803 0.623191
0.283573 0.444610 0.657161
0.419986 0.534309 0.694911
0.614472 0.632426 0.722367
0.793771 0.710670 0.733010
0.274687 0.474549 0.669931
0.396246 0.554751 0.705312
0.529989 0.630715 0.742896
0.696708 0.710599 0.777906
0.833333 0.760842 0.797898
0.372161 0.579380 0.705107
0.520320 0.658481 0.744527
0.657178 0.729499 0.785170
0.756188 0.778101 0.816172
0.867335 0.809656 0.837724
0.446291 0.644822 0.727978
0.631450 0.731523 0.776955
0.763203 0.799940 0.821005
0.842183 0.843888 0.851283
0.895727 0.866733 0.863676
