filters/luts/Sunshine 01_S.cube
# Created by: Adobe Photoshop Export Color Lookup Plugin
# LUT by SparkleStock. Enhanced with VOXCOLOR algorithms.
LUT_3D_SIZE 32
0.050794 0.039072 0.050794
0.062326 0.042333 0.052353
0.073859 0.045595 0.053913
0.085391 0.048856 0.055473
0.096924 0.052117 0.057033
0.108456 0.055378 0.058592
0.125188 0.059152 0.059837
0.142960 0.063027 0.061019
0.160731 0.066903 0.062200
0.178503 0.070779 0.063382
0.196274 0.074654 0.064563
0.218173 0.079538 0.065777
0.242136 0.084927 0.067005
0.266099 0.090315 0.068234
0.290063 0.095703 0.069463
0.314026 0.101091 0.070692
0.339856 0.107850 0.072181
0.367553 0.115979 0.073930
0.395250 0.124109 0.075678
0.422947 0.132238 0.077427
0.450644 0.140368 0.079176
0.478042 0.149931 0.081240
0.504841 0.162362 0.083934
0.531640 0.174792 0.086628
0.558439 0.187223 0.089322
0.585238 0.199653 0.092016
0.610674 0.212950 0.094876
0.629296 0.230580 0.098562
0.647918 0.248210 0.102249
0.666541 0.265840 0.105936
0.685163 0.283469 0.109622
0.703785 0.301099 0.113309
0.053960 0.043798 0.054386
0.066518 0.048304 0.055506
0.079075 0.052809 0.056627
0.091632 0.057315 0.057748
0.104189 0.061820 0.058868
0.116746 0.066325 0.059989
0.134685 0.070672 0.060894
0.153701 0.074987 0.061755
0.172716 0.079302 0.062616
0.191732 0.083616 0.063478
0.210748 0.087931 0.064339
0.233440 0.093138 0.065360
0.257970 0.098792 0.066461
0.282500 0.104445 0.067562
0.307031 0.110099 0.068663
0.331561 0.115752 0.069764
0.357533 0.122699 0.071248
0.384946 0.130938 0.073115
0.412360 0.139177 0.074983
0.439773 0.147416 0.076851
0.467187 0.155656 0.078719
0.494063 0.165262 0.080959
0.519865 0.177601 0.083946
0.545667 0.189940 0.086933
0.571468 0.202279 0.089920
0.597270 0.214618 0.092907
0.621674 0.227779 0.096071
0.639089 0.245052 0.100124
0.656504 0.262325 0.104176
0.673918 0.279598 0.108229
0.691333 0.296871 0.112281
0.708748 0.314144 0.116334
0.057127 0.048525 0.057978
0.070709 0.054274 0.058659
0.084291 0.060024 0.059341
0.097872 0.065773 0.060022
0.111454 0.071523 0.060704
0.125036 0.077272 0.061385
0.144182 0.082192 0.061950
0.164442 0.086946 0.062491
0.184702 0.091700 0.063033
0.204962 0.096454 0.063574
0.225221 0.101208 0.064115
0.248706 0.106738 0.064944
0.273804 0.112657 0.065917
0.298901 0.118576 0.066890
0.323999 0.124495 0.067862
0.349096 0.130413 0.068835
0.375210 0.137547 0.070315
0.402340 0.145896 0.072301
0.429469 0.154245 0.074288
0.456599 0.162594 0.076275
0.483729 0.170943 0.078261
0.510084 0.180592 0.080679
0.534889 0.192840 0.083958
0.559693 0.205087 0.087238
0.584498 0.217335 0.090517
0.609303 0.229583 0.093797
0.632675 0.242608 0.097266
0.648882 0.259524 0.101685
0.665089 0.276441 0.106103
0.681296 0.293357 0.110522
0.697503 0.310273 0.114940
0.713711 0.327189 0.119359
0.060294 0.053251 0.061570
0.074900 0.060245 0.061812
0.089506 0.067239 0.062055
0.104113 0.074232 0.062297
0.118719 0.081226 0.062540
0.133325 0.088220 0.062782
0.153679 0.093713 0.063007
0.175183 0.098906 0.063228
0.196687 0.104099 0.063449
0.218191 0.109292 0.063670
0.239695 0.114485 0.063891
0.263973 0.120338 0.064528
0.289637 0.126522 0.065372
0.315302 0.132706 0.066217
0.340967 0.138890 0.067062
0.366631 0.145075 0.067906
0.392887 0.152396 0.069382
0.419733 0.160855 0.071487
0.446579 0.169314 0.073593
0.473425 0.177772 0.075698
0.500272 0.186231 0.077804
0.526105 0.195923 0.080398
0.549913 0.208079 0.083971
0.573720 0.220235 0.087543
0.597528 0.232391 0.091115
0.621336 0.244547 0.094687
0.643675 0.257437 0.098462
0.658675 0.273996 0.103246
0.673675 0.290556 0.108031
0.688674 0.307115 0.112815
0.703674 0.323675 0.117599
0.718673 0.340234 0.122384
0.063461 0.057978 0.065162
0.079091 0.066216 0.064965
0.094722 0.074453 0.064769
0.110353 0.082691 0.064572
0.125984 0.090929 0.064375
0.141615 0.099167 0.064179
0.163177 0.105233 0.064063
0.185925 0.110865 0.063964
0.208673 0.116497 0.063865
0.231421 0.122129 0.063766
0.254168 0.127761 0.063667
0.279239 0.133938 0.064112
0.305471 0.140388 0.064828
0.331703 0.146837 0.065545
0.357935 0.153286 0.066261
0.384166 0.159736 0.066978
0.410564 0.167245 0.068448
0.437126 0.175813 0.070673
0.463689 0.184382 0.072897
0.490252 0.192950 0.075122
0.516814 0.201519 0.077346
0.542126 0.211253 0.080118
0.564937 0.223318 0.083983
0.587747 0.235382 0.087848
0.610558 0.247447 0.091713
0.633368 0.259512 0.095578
0.654676 0.272266 0.099657
0.668468 0.288469 0.104807
0.682260 0.304671 0.109958
0.696052 0.320874 0.115108
0.709844 0.337076 0.120258
0.723636 0.353279 0.125409
0.066627 0.062704 0.068754
0.083283 0.072186 0.068118
0.099938 0.081668 0.067483
0.116594 0.091150 0.066847
0.133249 0.100632 0.066211
0.149904 0.110114 0.065575
0.172674 0.116753 0.065120
0.196666 0.122825 0.064701
0.220658 0.128896 0.064281
0.244650 0.134967 0.063862
0.268642 0.141038 0.063443
0.294505 0.147538 0.063695
0.321305 0.154253 0.064284
0.348104 0.160968 0.064872
0.374903 0.167682 0.065461
0.401702 0.174397 0.066049
0.428241 0.182093 0.067515
0.454520 0.190772 0.069859
0.480799 0.199450 0.072202
0.507078 0.208128 0.074546
0.533357 0.216807 0.076889
0.558147 0.226584 0.079837
0.579961 0.238557 0.083995
0.601774 0.250530 0.088153
0.623588 0.262503 0.092310
0.645401 0.274476 0.096468
0.665676 0.287095 0.100852
0.678261 0.302941 0.106369
0.690845 0.318787 0.111885
0.703430 0.334632 0.117401
0.716014 0.350478 0.122917
0.728599 0.366324 0.128434
0.070542 0.067864 0.072819
0.088779 0.078346 0.072003
0.107015 0.088828 0.071188
0.125252 0.099310 0.070372
0.143488 0.109792 0.069556
0.161725 0.120274 0.068740
0.184486 0.128292 0.068134
0.208152 0.135816 0.067570
0.231817 0.143340 0.067006
0.255483 0.150864 0.066442
0.279149 0.158388 0.065878
0.305165 0.165631 0.065982
0.332356 0.172733 0.066419
0.359547 0.179835 0.066857
0.386737 0.186937 0.067294
0.413928 0.194039 0.067732
0.440582 0.201999 0.069128
0.466700 0.210817 0.071484
0.492817 0.219636 0.073840
0.518935 0.228455 0.076195
0.545052 0.237273 0.078551
0.569553 0.247118 0.081574
0.590819 0.259015 0.085933
0.612085 0.270912 0.090292
0.633351 0.282809 0.094651
0.654617 0.294706 0.099010
0.674339 0.307213 0.103609
0.686341 0.322771 0.109408
0.698343 0.338328 0.115206
0.710345 0.353886 0.121004
0.722347 0.369444 0.126802
0.734350 0.385001 0.132601
0.074607 0.073110 0.076978
0.094536 0.084544 0.076034
0.114465 0.095977 0.075091
0.134394 0.107411 0.074147
0.154323 0.118844 0.073203
0.174251 0.130278 0.072259
0.196761 0.139833 0.071541
0.219786 0.149013 0.070867
0.242812 0.158193 0.070193
0.265837 0.167373 0.069519
0.288863 0.176553 0.068845
0.314903 0.184622 0.068808
0.342451 0.192136 0.069090
0.369998 0.199649 0.069372
0.397546 0.207163 0.069654
0.425093 0.214676 0.069937
0.451857 0.222916 0.071251
0.477838 0.231881 0.073597
0.503818 0.240846 0.075944
0.529798 0.249811 0.078290
0.555778 0.258776 0.080637
0.580035 0.268694 0.083715
0.600843 0.280517 0.088257
0.621652 0.292341 0.092799
0.642461 0.304165 0.097341
0.663269 0.315989 0.101883
0.682534 0.328389 0.106678
0.694079 0.343672 0.112742
0.705623 0.358956 0.118806
0.717168 0.374239 0.124869
0.728713 0.389522 0.130933
0.740258 0.404805 0.136996
0.078672 0.078357 0.081138
0.100293 0.090742 0.080066
0.121914 0.103126 0.078994
0.143536 0.115511 0.077922
0.165157 0.127896 0.076850
0.186778 0.140281 0.075778
0.209036 0.151375 0.074947
0.231421 0.162211 0.074163
0.253806 0.173046 0.073379
0.276191 0.183882 0.072596
0.298576 0.194718 0.071812
0.324641 0.203613 0.071635
0.352545 0.211539 0.071762
0.380450 0.219464 0.071888
0.408354 0.227389 0.072015
0.436259 0.235314 0.072141
0.463132 0.243833 0.073373
0.488975 0.252944 0.075710
0.514818 0.262055 0.078048
0.540661 0.271167 0.080385
0.566504 0.280278 0.082722
0.590517 0.290269 0.085856
0.610868 0.302020 0.090581
0.631219 0.313770 0.095305
0.651570 0.325521 0.100030
0.671922 0.337272 0.104755
0.690729 0.349565 0.109748
0.701816 0.364574 0.116076
0.712904 0.379583 0.122405
0.723991 0.394592 0.128734
0.735078 0.409600 0.135063
0.746166 0.424609 0.141392
0.082737 0.083603 0.085297
0.106050 0.096939 0.084097
0.129364 0.110276 0.082897
0.152677 0.123612 0.081697
0.175991 0.136948 0.080497
0.199305 0.150284 0.079297
0.221311 0.162917 0.078353
0.243056 0.175408 0.077459
0.264800 0.187900 0.076566
0.286545 0.200391 0.075672
0.308290 0.212883 0.074779
0.334379 0.222605 0.074462
0.362640 0.230942 0.074433
0.390901 0.239278 0.074404
0.419162 0.247615 0.074375
0.447424 0.255952 0.074346
0.474407 0.264749 0.075495
0.500113 0.274007 0.077824
0.525819 0.283265 0.080152
0.551525 0.292523 0.082480
0.577230 0.301780 0.084808
0.600999 0.311845 0.087996
0.620893 0.323522 0.092904
0.640787 0.335200 0.097812
0.660680 0.346877 0.102720
0.680574 0.358554 0.107628
0.698924 0.370741 0.112817
0.709554 0.385476 0.119411
0.720184 0.400210 0.126005
0.730814 0.414944 0.132599
0.741444 0.429679 0.139193
0.752074 0.444413 0.145788
0.086801 0.088850 0.089456
0.111807 0.103137 0.088128
0.136813 0.117425 0.086800
0.161819 0.131712 0.085472
0.186825 0.146000 0.084144
0.211831 0.160288 0.082816
0.233586 0.174458 0.081759
0.254690 0.188606 0.080756
0.275795 0.202753 0.079752
0.296899 0.216900 0.078749
0.318004 0.231048 0.077746
0.344117 0.241596 0.077288
0.372735 0.250344 0.077104
0.401353 0.259093 0.076920
0.429971 0.267841 0.076735
0.458589 0.276590 0.076551
0.485682 0.285666 0.077618
0.511251 0.295070 0.079937
0.536819 0.304475 0.082256
0.562388 0.313879 0.084575
0.587956 0.323283 0.086894
0.611481 0.333420 0.090137
0.630917 0.345024 0.095228
0.650354 0.356629 0.100319
0.669790 0.368233 0.105409
0.689227 0.379837 0.110500
0.707119 0.391917 0.115886
0.717292 0.406377 0.122745
0.727464 0.420837 0.129605
0.737637 0.435297 0.136464
0.747809 0.449757 0.143324
0.757982 0.464217 0.150183
0.092725 0.095860 0.094372
0.119582 0.111191 0.092934
0.146439 0.126521 0.091496
0.173296 0.141852 0.090058
0.200153 0.157182 0.088621
0.227010 0.172513 0.087183
0.249246 0.187668 0.086143
0.270558 0.202788 0.085182
0.291869 0.217908 0.084222
0.313181 0.233028 0.083261
0.334493 0.248148 0.082301
0.359759 0.259543 0.081807
0.387001 0.269075 0.081546
0.414244 0.278608 0.081285
0.441487 0.288140 0.081024
0.468729 0.297672 0.080764
0.495027 0.307201 0.081730
0.520379 0.316727 0.083924
0.545731 0.326253 0.086118
0.571083 0.335779 0.088312
0.596435 0.345305 0.090506
0.619671 0.355478 0.093666
0.638674 0.366941 0.098757
0.657678 0.378405 0.103848
0.676681 0.389869 0.108938
0.695685 0.401333 0.114029
0.713166 0.413233 0.119428
0.723040 0.427308 0.126363
0.732914 0.441384 0.133299
0.742788 0.455460 0.140235
0.752661 0.469535 0.147170
0.762535 0.483611 0.154106
0.099579 0.103754 0.099665
0.128366 0.120173 0.098127
0.157153 0.136592 0.096588
0.185940 0.153011 0.095050
0.214727 0.169430 0.093512
0.243514 0.185849 0.091973
0.266598 0.201712 0.091016
0.288541 0.217463 0.090174
0.310484 0.233214 0.089332
0.332427 0.248966 0.088491
0.354370 0.264717 0.087649
0.378352 0.276969 0.087170
0.403353 0.287470 0.086873
0.428355 0.297972 0.086576
0.453356 0.308474 0.086278
0.478358 0.318976 0.085981
0.503406 0.329045 0.086838
0.528502 0.338681 0.088849
0.553598 0.348317 0.090860
0.578694 0.357953 0.092871
0.603790 0.367588 0.094882
0.626715 0.377776 0.097889
0.645297 0.389066 0.102889
0.663880 0.400356 0.107888
0.682463 0.411646 0.112887
0.701045 0.422936 0.117887
0.718140 0.434617 0.123206
0.727794 0.448254 0.130123
0.737448 0.461891 0.137041
0.747102 0.475527 0.143958
0.756756 0.489164 0.150875
0.766411 0.502800 0.157793
0.106432 0.111647 0.104959
0.137149 0.129154 0.103320
0.167867 0.146662 0.101681
0.198584 0.164170 0.100042
0.229301 0.181678 0.098403
0.260019 0.199185 0.096764
0.283950 0.215755 0.095888
0.306524 0.232138 0.095166
0.329099 0.248520 0.094443
0.351673 0.264903 0.093720
0.374247 0.281285 0.092998
0.396945 0.294394 0.092534
0.419705 0.305866 0.092200
0.442465 0.317337 0.091866
0.465226 0.328809 0.091532
0.487986 0.340280 0.091198
0.511786 0.350889 0.091946
0.536626 0.360634 0.093774
0.561465 0.370380 0.095602
0.586305 0.380126 0.097430
0.611145 0.389871 0.099258
0.633759 0.400074 0.102113
0.651921 0.411190 0.107020
0.670082 0.422307 0.111928
0.688244 0.433423 0.116836
0.706406 0.444539 0.121744
0.723113 0.456002 0.126984
0.732548 0.469200 0.133883
0.741982 0.482397 0.140782
0.751417 0.495595 0.147681
0.760852 0.508792 0.154580
0.770286 0.521990 0.161479
0.113285 0.119540 0.110252
0.145933 0.138136 0.108513
0.178581 0.156733 0.106773
0.211228 0.175329 0.105034
0.243876 0.193925 0.103294
0.276523 0.212522 0.101554
0.301302 0.229799 0.100761
0.324508 0.246813 0.100157
0.347713 0.263826 0.099554
0.370919 0.280840 0.098950
0.394124 0.297854 0.098346
0.415538 0.311819 0.097898
0.436057 0.324261 0.097527
0.456576 0.336702 0.097157
0.477095 0.349143 0.096786
0.497614 0.361584 0.096416
0.520165 0.372733 0.097053
0.544749 0.382588 0.098698
0.569333 0.392444 0.100343
0.593916 0.402299 0.101989
0.618500 0.412154 0.103634
0.640803 0.422372 0.106336
0.658544 0.433315 0.111152
0.676285 0.444257 0.115969
0.694026 0.455200 0.120785
0.711767 0.466142 0.125602
0.728087 0.477387 0.130762
0.737302 0.490146 0.137643
0.746517 0.502904 0.144524
0.755732 0.515662 0.151404
0.764947 0.528421 0.158285
0.774162 0.541179 0.165166
0.120139 0.127433 0.115546
0.154716 0.147118 0.113706
0.189294 0.166803 0.111866
0.223872 0.186488 0.110025
0.258450 0.206173 0.108185
0.293028 0.225858 0.106345
0.318655 0.243843 0.105634
0.342491 0.261488 0.105149
0.366328 0.279133 0.104664
0.390164 0.296777 0.104179
0.414001 0.314422 0.103695
0.434132 0.329245 0.103262
0.452409 0.342656 0.102855
0.470687 0.356067 0.102447
0.488965 0.369478 0.102040
0.507242 0.382888 0.101633
0.528545 0.394577 0.102161
0.552872 0.404542 0.103623
0.577200 0.414507 0.105085
0.601527 0.424472 0.106547
0.625855 0.434437 0.108009
0.647847 0.444670 0.110559
0.665167 0.455439 0.115284
0.682487 0.466208 0.120009
0.699807 0.476976 0.124734
0.717127 0.487745 0.129459
0.733060 0.498772 0.134540
0.742056 0.511092 0.141403
0.751051 0.523411 0.148265
0.760047 0.535730 0.155128
0.769042 0.548049 0.161990
0.778038 0.560369 0.168853
0.130560 0.138162 0.121147
0.166671 0.158785 0.119215
0.202781 0.179407 0.117283
0.238891 0.200030 0.115352
0.275001 0.220653 0.113420
0.311111 0.241275 0.111488
0.337390 0.259790 0.110850
0.361702 0.277883 0.110470
0.386014 0.295976 0.110091
0.410327 0.314069 0.109711
0.434639 0.332163 0.109331
0.454099 0.347491 0.108982
0.471132 0.361437 0.108648
0.488166 0.375383 0.108314
0.505199 0.389329 0.107980
0.522233 0.403275 0.107647
0.542159 0.415215 0.108112
0.564977 0.425148 0.109378
0.587795 0.435081 0.110643
0.610613 0.445015 0.111909
0.633431 0.454948 0.113174
0.654249 0.465073 0.115517
0.671066 0.475581 0.120013
0.687883 0.486089 0.124509
0.704700 0.496597 0.129005
0.721517 0.507105 0.133502
0.736985 0.517824 0.138362
0.745711 0.529604 0.145047
0.754437 0.541384 0.151731
0.763162 0.553163 0.158415
0.771888 0.564943 0.165099
0.780614 0.576722 0.171783
0.144551 0.151727 0.127055
0.181795 0.173136 0.125041
0.219040 0.194546 0.123027
0.256284 0.215955 0.121013
0.293529 0.237364 0.118999
0.330773 0.258774 0.116985
0.357508 0.277641 0.116409
0.382140 0.295999 0.116121
0.406773 0.314358 0.115832
0.431405 0.332716 0.115544
0.456037 0.351075 0.115256
0.475439 0.366559 0.115059
0.492226 0.380605 0.114909
0.509012 0.394652 0.114758
0.525799 0.408699 0.114607
0.542585 0.422745 0.114456
0.561006 0.434648 0.114908
0.581062 0.444408 0.115963
0.601117 0.454167 0.117018
0.621173 0.463927 0.118073
0.641228 0.473686 0.119128
0.660009 0.483579 0.121208
0.676241 0.493739 0.125339
0.692472 0.503900 0.129469
0.708704 0.514060 0.133599
0.724935 0.524220 0.137729
0.739862 0.534544 0.142229
0.748268 0.545683 0.148575
0.756673 0.556822 0.154920
0.765079 0.567961 0.161266
0.773484 0.579101 0.167612
0.781890 0.590240 0.173957
0.158541 0.165292 0.132963
0.196920 0.187488 0.130867
0.235299 0.209684 0.128770
0.273678 0.231880 0.126674
0.312056 0.254076 0.124577
0.350435 0.276272 0.122481
0.377626 0.295491 0.121968
0.402578 0.314115 0.121771
0.427531 0.332739 0.121574
0.452483 0.351363 0.121378
0.477436 0.369986 0.121181
0.496780 0.385626 0.121137
0.513320 0.399773 0.121169
0.529859 0.413921 0.121201
0.546399 0.428068 0.121233
0.562938 0.442215 0.121265
0.579854 0.454082 0.121703
0.597147 0.463667 0.122548
0.614440 0.473253 0.123393
0.631733 0.482839 0.124237
0.649025 0.492424 0.125082
0.665769 0.502085 0.126900
0.681415 0.511898 0.130664
0.697061 0.521711 0.134429
0.712707 0.531524 0.138193
0.728354 0.541336 0.141957
0.742739 0.551263 0.146096
0.750825 0.561762 0.152103
0.758910 0.572261 0.158110
0.766995 0.582760 0.164117
0.775081 0.593259 0.170124
0.783166 0.603758 0.176131
0.172531 0.178857 0.138871
0.212045 0.201840 0.136692
0.251558 0.224823 0.134514
0.291071 0.247805 0.132335
0.330584 0.270788 0.130156
0.370097 0.293771 0.127977
0.397743 0.313342 0.127527
0.423016 0.332231 0.127421
0.448289 0.351120 0.127316
0.473562 0.370009 0.127211
0.498835 0.388898 0.127106
0.518121 0.404693 0.127214
0.534413 0.418941 0.127429
0.550706 0.433189 0.127644
0.566998 0.447437 0.127859
0.583291 0.461685 0.128074
0.598702 0.473515 0.128499
0.613232 0.482927 0.129133
0.627762 0.492339 0.129767
0.642292 0.501750 0.130401
0.656822 0.511162 0.131036
0.671529 0.520592 0.132591
0.686590 0.530057 0.135990
0.701651 0.539522 0.139388
0.716711 0.548987 0.142787
0.731772 0.558452 0.146185
0.745617 0.567983 0.149962
0.753382 0.577841 0.155631
0.761147 0.587700 0.161299
0.768912 0.597558 0.166968
0.776677 0.607417 0.172637
0.784442 0.617275 0.178306
0.186522 0.192422 0.144779
0.227169 0.216191 0.142518
0.267817 0.239961 0.140257
0.308464 0.263730 0.137996
0.349112 0.287500 0.135735
0.389759 0.311269 0.133474
0.417861 0.331193 0.133086
0.443454 0.350347 0.133072
0.469047 0.369502 0.133058
0.494640 0.388656 0.133044
0.520233 0.407810 0.133031
0.539461 0.423761 0.133291
0.555507 0.438109 0.133689
0.571553 0.452458 0.134087
0.587598 0.466807 0.134485
0.603644 0.481155 0.134883
0.617550 0.492949 0.135294
0.629317 0.502186 0.135718
0.641085 0.511424 0.136142
0.652852 0.520662 0.136566
0.664620 0.529900 0.136989
0.677290 0.539098 0.138283
0.691765 0.548216 0.141315
0.706240 0.557333 0.144348
0.720715 0.566451 0.147381
0.735190 0.575568 0.150413
0.748494 0.584702 0.153829
0.755939 0.593920 0.159159
0.763383 0.603139 0.164489
0.770828 0.612357 0.169819
0.778273 0.621575 0.175150
0.785718 0.630793 0.180480
0.205932 0.209217 0.150199
0.246948 0.233434 0.147923
0.287965 0.257652 0.145646
0.328981 0.281870 0.143370
0.369998 0.306088 0.141094
0.411014 0.330305 0.138817
0.439145 0.350360 0.138493
0.464698 0.369581 0.138558
0.490251 0.388802 0.138624
0.515805 0.408024 0.138689
0.541358 0.427245 0.138755
0.560311 0.443153 0.139137
0.575963 0.457404 0.139679
0.591615 0.471655 0.140220
0.607267 0.485906 0.140761
0.622920 0.500157 0.141302
0.635596 0.511778 0.141729
0.645295 0.520769 0.142040
0.654995 0.529760 0.142351
0.664695 0.538751 0.142662
0.674395 0.547742 0.142973
0.685326 0.556580 0.144059
0.698719 0.565112 0.146695
0.712111 0.573644 0.149331
0.725504 0.582176 0.151967
0.738897 0.590708 0.154603
0.751233 0.599243 0.157620
0.758287 0.607793 0.162542
0.765342 0.616344 0.167464
0.772397 0.624894 0.172385
0.779451 0.633444 0.177307
0.786506 0.641995 0.182229
0.236181 0.232471 0.154642
0.276036 0.256460 0.152484
0.315890 0.280449 0.150327
0.355745 0.304438 0.148170
0.395600 0.328427 0.146012
0.435455 0.352416 0.143855
0.462759 0.372158 0.143596
0.487553 0.391050 0.143716
0.512347 0.409942 0.143836
0.537141 0.428834 0.143957
0.561935 0.447726 0.144077
0.580177 0.463195 0.144521
0.595143 0.476952 0.145126
0.610109 0.490709 0.145732
0.625075 0.504466 0.146337
0.640041 0.518223 0.146942
0.652036 0.529400 0.147442
0.661059 0.537998 0.147835
0.670082 0.546595 0.148228
0.679105 0.555193 0.148622
0.688128 0.563791 0.149015
0.697915 0.572013 0.150003
0.709231 0.579483 0.152182
0.720547 0.586954 0.154361
0.731863 0.594425 0.156540
0.743179 0.601896 0.158718
0.753697 0.609426 0.161263
0.760221 0.617254 0.165636
0.766745 0.625081 0.170008
0.773269 0.632909 0.174381
0.779793 0.640737 0.178754
0.786317 0.648564 0.183127
0.266430 0.255725 0.159085
0.305123 0.279485 0.157046
0.343816 0.303246 0.155008
0.382509 0.327006 0.152969
0.421202 0.350766 0.150931
0.459895 0.374527 0.148892
0.486373 0.393956 0.148699
0.510407 0.412519 0.148874
0.534442 0.431081 0.149049
0.558477 0.449644 0.149225
0.582512 0.468207 0.149400
0.600043 0.483236 0.149905
0.614323 0.496500 0.150574
0.628603 0.509763 0.151243
0.642883 0.523026 0.151913
0.657163 0.536289 0.152582
0.668476 0.547022 0.153154
0.676822 0.555226 0.153630
0.685168 0.563431 0.154106
0.693514 0.571635 0.154582
0.701860 0.579839 0.155057
0.710504 0.587445 0.155948
0.719744 0.593855 0.157670
0.728983 0.600265 0.159391
0.738223 0.606674 0.161112
0.747462 0.613084 0.162834
0.756161 0.619609 0.164905
0.762154 0.626714 0.168729
0.768147 0.633819 0.172553
0.774141 0.640924 0.176377
0.780134 0.648029 0.180201
0.786128 0.655134 0.184025
0.296680 0.278979 0.163528
0.334211 0.302511 0.161608
0.371742 0.326042 0.159688
0.409273 0.349574 0.157769
0.446804 0.373106 0.155849
0.484335 0.396637 0.153930
0.509987 0.415754 0.153802
0.533262 0.433987 0.154032
0.556538 0.452221 0.154262
0.579813 0.470454 0.154492
0.603089 0.488688 0.154723
0.619910 0.503278 0.155288
0.633504 0.516047 0.156022
0.647098 0.528816 0.156755
0.660692 0.541585 0.157488
0.674285 0.554354 0.158222
0.684917 0.564644 0.158867
0.692586 0.572455 0.159425
0.700255 0.580266 0.159983
0.707924 0.588077 0.160541
0.715593 0.595888 0.161099
0.723093 0.602878 0.161893
0.730256 0.608226 0.163157
0.737419 0.613575 0.164421
0.744582 0.618923 0.165685
0.751745 0.624272 0.166949
0.758624 0.629793 0.168548
0.764087 0.636175 0.171823
0.769550 0.642557 0.175098
0.775013 0.648939 0.178373
0.780476 0.655322 0.181648
0.785939 0.661704 0.184923
0.326929 0.302233 0.167970
0.363298 0.325536 0.166170
0.399668 0.348839 0.164369
0.436037 0.372142 0.162568
0.472406 0.395445 0.160768
0.508776 0.418748 0.158967
0.533601 0.437552 0.158905
0.556117 0.455456 0.159190
0.578633 0.473360 0.159475
0.601149 0.491264 0.159760
0.623666 0.509168 0.160045
0.639776 0.523320 0.160672
0.652684 0.535595 0.161469
0.665592 0.547870 0.162267
0.678500 0.560145 0.163064
0.691407 0.572420 0.163861
0.701357 0.582266 0.164580
0.708349 0.589684 0.165221
0.715342 0.597101 0.165861
0.722334 0.604519 0.166501
0.729326 0.611936 0.167142
0.735683 0.618310 0.167837
0.740769 0.622598 0.168644
0.745855 0.626885 0.169451
0.750941 0.631173 0.170257
0.756028 0.635460 0.171064
0.761088 0.639976 0.172190
0.766021 0.645635 0.174916
0.770953 0.651295 0.177642
0.775885 0.656955 0.180368
0.780817 0.662614 0.183095
0.785750 0.668274 0.185821
0.362346 0.327764 0.171429
0.396873 0.350526 0.169844
0.431401 0.373287 0.168260
0.465928 0.396049 0.166676
0.500456 0.418811 0.165092
0.534984 0.441572 0.163508
0.558579 0.459869 0.163548
0.579989 0.477273 0.163912
0.601398 0.494678 0.164276
0.622807 0.512082 0.164641
0.644217 0.529486 0.165005
0.659402 0.543077 0.165693
0.671476 0.554762 0.166542
0.683550 0.566447 0.167391
0.695624 0.578132 0.168241
0.707697 0.589817 0.169090
0.716872 0.599131 0.169864
0.723148 0.606075 0.170562
0.729423 0.613018 0.171260
0.735699 0.619961 0.171958
0.741974 0.626904 0.172657
0.747244 0.632638 0.173261
0.750504 0.635951 0.173679
0.753764 0.639264 0.174097
0.757024 0.642577 0.174515
0.760283 0.645890 0.174933
0.763725 0.649467 0.175646
0.768075 0.654366 0.177839
0.772424 0.659265 0.180031
0.776774 0.664164 0.182223
0.781124 0.669062 0.184416
0.785474 0.673961 0.186608
0.423601 0.364678 0.169963
0.452887 0.385335 0.169084
0.482172 0.405993 0.168204
0.511458 0.426651 0.167324
0.540744 0.447308 0.166444
0.570029 0.467966 0.165565
0.590381 0.484784 0.165889
0.608945 0.500834 0.166455
0.627509 0.516884 0.167021
0.646074 0.532934 0.167586
0.664638 0.548985 0.168152
0.677826 0.561411 0.168901
0.688327 0.572026 0.169741
0.698827 0.582640 0.170581
0.709327 0.593255 0.171421
0.719828 0.603870 0.172261
0.727758 0.612210 0.172998
0.733119 0.618275 0.173632
0.738480 0.624340 0.174267
0.743840 0.630405 0.174901
