filters/luts/Sunshine 04_S.cube
# Created by: Adobe Photoshop Export Color Lookup Plugin
# LUT by SparkleStock. Enhanced with VOXCOLOR algorithms.
LUT_3D_SIZE 32
0.015629 0.019536 0.039072
0.028910 0.025586 0.041813
0.042192 0.031636 0.044555
0.055473 0.037686 0.047296
0.068754 0.043735 0.050037
0.082036 0.049785 0.052779
0.099846 0.056662 0.054732
0.118563 0.063705 0.056528
0.137280 0.070747 0.058324
0.155997 0.077790 0.060121
0.174713 0.084832 0.061917
0.197117 0.092284 0.063114
0.221364 0.099941 0.064012
0.245610 0.107598 0.064910
0.269857 0.115255 0.065808
0.294104 0.122911 0.066706
0.320288 0.131632 0.067415
0.348411 0.141416 0.067935
0.376533 0.151199 0.068455
0.404656 0.160983 0.068975
0.432778 0.170767 0.069495
0.461152 0.182000 0.070078
0.490031 0.196132 0.070787
0.518910 0.210264 0.071496
0.547788 0.224396 0.072204
0.576667 0.238528 0.072913
0.604561 0.253456 0.073654
0.627532 0.272362 0.074552
0.650502 0.291268 0.075450
0.673473 0.310174 0.076348
0.696443 0.329080 0.077246
0.719414 0.347985 0.078144
0.018323 0.024593 0.042900
0.032656 0.031732 0.044892
0.046990 0.038870 0.046883
0.061323 0.046009 0.048874
0.075656 0.053147 0.050865
0.089990 0.060286 0.052857
0.109241 0.067626 0.054449
0.129477 0.075007 0.055961
0.149712 0.082388 0.057474
0.169947 0.089769 0.058986
0.190183 0.097150 0.060499
0.213598 0.104855 0.061504
0.238604 0.112722 0.062256
0.263610 0.120589 0.063007
0.288616 0.128457 0.063759
0.313622 0.136324 0.064511
0.340091 0.145168 0.065187
0.368021 0.154988 0.065790
0.395951 0.164808 0.066392
0.423882 0.174629 0.066994
0.451812 0.184449 0.067596
0.479677 0.195637 0.068320
0.507412 0.209558 0.069285
0.535147 0.223480 0.070250
0.562883 0.237402 0.071215
0.590618 0.251323 0.072180
0.617278 0.265990 0.073195
0.638566 0.284384 0.074459
0.659853 0.302778 0.075723
0.681140 0.321171 0.076987
0.702428 0.339565 0.078251
0.723715 0.357958 0.079515
0.021017 0.029651 0.046729
0.036402 0.037878 0.047970
0.051788 0.046105 0.049211
0.067173 0.054332 0.050452
0.082558 0.062559 0.051693
0.097944 0.070786 0.052934
0.118636 0.078590 0.054165
0.140390 0.086309 0.055394
0.162144 0.094029 0.056623
0.183898 0.101748 0.057852
0.205652 0.109468 0.059081
0.230080 0.117426 0.059894
0.255845 0.125503 0.060499
0.281611 0.133581 0.061104
0.307376 0.141659 0.061710
0.333141 0.149736 0.062315
0.359893 0.158704 0.062960
0.387631 0.168561 0.063645
0.415369 0.178418 0.064329
0.443108 0.188275 0.065014
0.470846 0.198132 0.065698
0.498202 0.209273 0.066562
0.524793 0.222985 0.067783
0.551385 0.236696 0.069004
0.577977 0.250407 0.070225
0.604568 0.264118 0.071447
0.629995 0.278525 0.072736
0.649600 0.296406 0.074366
0.669204 0.314287 0.075996
0.688808 0.332168 0.077626
0.708412 0.350050 0.079256
0.728016 0.367931 0.080885
0.023711 0.034708 0.050557
0.040148 0.044024 0.051048
0.056586 0.053339 0.051539
0.073023 0.062655 0.052030
0.089461 0.071971 0.052521
0.105898 0.081286 0.053012
0.128031 0.089554 0.053882
0.151304 0.097612 0.054827
0.174576 0.105670 0.055772
0.197849 0.113727 0.056717
0.221121 0.121785 0.057663
0.246562 0.129997 0.058284
0.273086 0.138285 0.058743
0.299611 0.146573 0.059202
0.326135 0.154861 0.059661
0.352660 0.163149 0.060120
0.379695 0.172240 0.060732
0.407241 0.182133 0.061499
0.434787 0.192027 0.062266
0.462334 0.201920 0.063033
0.489880 0.211814 0.063800
0.516726 0.222910 0.064804
0.542175 0.236411 0.066281
0.567623 0.249912 0.067759
0.593071 0.263413 0.069236
0.618519 0.276913 0.070713
0.642713 0.291059 0.072277
0.660634 0.308428 0.074273
0.678554 0.325797 0.076269
0.696475 0.343166 0.078265
0.714396 0.360535 0.080260
0.732317 0.377904 0.082256
0.026405 0.039765 0.054386
0.043895 0.050170 0.054127
0.061384 0.060574 0.053867
0.078873 0.070978 0.053608
0.096363 0.081382 0.053349
0.113852 0.091787 0.053090
0.137426 0.100518 0.053598
0.162217 0.108914 0.054260
0.187008 0.117310 0.054921
0.211799 0.125707 0.055583
0.236590 0.134103 0.056245
0.263043 0.142567 0.056674
0.290327 0.151066 0.056986
0.317611 0.159564 0.057299
0.344895 0.168063 0.057611
0.372179 0.176561 0.057924
0.399498 0.185776 0.058505
0.426852 0.195706 0.059354
0.454206 0.205636 0.060203
0.481560 0.215566 0.061053
0.508914 0.225496 0.061902
0.535251 0.236546 0.063046
0.559556 0.249837 0.064779
0.583860 0.263127 0.066513
0.608165 0.276418 0.068246
0.632470 0.289708 0.069980
0.655430 0.303593 0.071818
0.671668 0.320450 0.074180
0.687905 0.337307 0.076542
0.704143 0.354163 0.078903
0.720381 0.371020 0.081265
0.736618 0.387877 0.083627
0.029099 0.044823 0.058214
0.047641 0.056315 0.057205
0.066182 0.067808 0.056196
0.084724 0.079301 0.055186
0.103265 0.090794 0.054177
0.121806 0.102287 0.053168
0.146821 0.111482 0.053314
0.173131 0.120216 0.053693
0.199440 0.128951 0.054071
0.225750 0.137686 0.054449
0.252060 0.146421 0.054827
0.279525 0.155138 0.055064
0.307568 0.163847 0.055230
0.335611 0.172556 0.055396
0.363654 0.181265 0.055562
0.391697 0.189974 0.055728
0.419300 0.199312 0.056277
0.446462 0.209278 0.057209
0.473624 0.219245 0.058140
0.500786 0.229212 0.059072
0.527947 0.239179 0.060004
0.553776 0.250183 0.061288
0.576937 0.263263 0.063278
0.600098 0.276343 0.065267
0.623259 0.289423 0.067257
0.646420 0.302503 0.069247
0.668147 0.316128 0.071359
0.682702 0.332472 0.074087
0.697256 0.348816 0.076815
0.711810 0.365161 0.079542
0.726365 0.381505 0.082270
0.740919 0.397849 0.084997
0.032463 0.050392 0.062633
0.052681 0.062760 0.061263
0.072900 0.075128 0.059892
0.093119 0.087496 0.058521
0.113337 0.099864 0.057151
0.133556 0.112232 0.055780
0.158680 0.122573 0.055503
0.184785 0.132507 0.055445
0.210890 0.142442 0.055387
0.236996 0.152377 0.055330
0.263101 0.162311 0.055272
0.290872 0.171650 0.055276
0.319476 0.180692 0.055311
0.348081 0.189733 0.055346
0.376685 0.198774 0.055381
0.405289 0.207815 0.055416
0.433122 0.217361 0.055895
0.460183 0.227410 0.056817
0.487244 0.237459 0.057740
0.514306 0.247508 0.058662
0.541367 0.257557 0.059584
0.566902 0.268554 0.060920
0.589385 0.281446 0.063082
0.611867 0.294339 0.065244
0.634350 0.307231 0.067406
0.656833 0.320124 0.069568
0.677845 0.333531 0.071872
0.691510 0.349507 0.074890
0.705174 0.365484 0.077907
0.718838 0.381461 0.080924
0.732502 0.397438 0.083942
0.746166 0.413415 0.086959
0.035960 0.056064 0.067171
0.057981 0.069264 0.065517
0.080002 0.082465 0.063862
0.102023 0.095665 0.062208
0.124043 0.108866 0.060554
0.146064 0.122066 0.058900
0.171031 0.133689 0.058187
0.196588 0.144996 0.057662
0.222144 0.156303 0.057138
0.247700 0.167610 0.056613
0.273257 0.178916 0.056089
0.301193 0.188951 0.055852
0.330318 0.198349 0.055759
0.359444 0.207747 0.055666
0.388570 0.217145 0.055573
0.417695 0.226543 0.055480
0.445748 0.236312 0.055881
0.472726 0.246453 0.056776
0.499705 0.256593 0.057671
0.526684 0.266734 0.058566
0.553663 0.276874 0.059461
0.578948 0.287871 0.060830
0.600845 0.300581 0.063147
0.622743 0.313290 0.065465
0.644640 0.326000 0.067782
0.666537 0.338710 0.070100
0.686940 0.351907 0.072580
0.699872 0.367546 0.075872
0.712805 0.383184 0.079163
0.725737 0.398823 0.082455
0.738669 0.414461 0.085747
0.751601 0.430100 0.089039
0.039458 0.061735 0.071708
0.063281 0.075768 0.069770
0.087104 0.089801 0.067833
0.110927 0.103834 0.065895
0.134749 0.117867 0.063957
0.158572 0.131900 0.062019
0.183382 0.144805 0.060870
0.208390 0.157484 0.059879
0.233397 0.170163 0.058888
0.258405 0.182842 0.057897
0.283413 0.195522 0.056906
0.311513 0.206251 0.056428
0.341160 0.216006 0.056207
0.370807 0.225761 0.055986
0.400454 0.235516 0.055765
0.430101 0.245270 0.055544
0.458373 0.255264 0.055867
0.485270 0.265496 0.056735
0.512166 0.275728 0.057602
0.539063 0.285960 0.058470
0.565960 0.296192 0.059337
0.590995 0.307189 0.060740
0.612306 0.319715 0.063213
0.633618 0.332242 0.065686
0.654930 0.344769 0.068159
0.676242 0.357295 0.070632
0.696035 0.370284 0.073287
0.708235 0.385584 0.076853
0.720435 0.400884 0.080420
0.732636 0.416184 0.083986
0.744836 0.431484 0.087552
0.757037 0.446784 0.091118
0.042956 0.067407 0.076246
0.068581 0.082273 0.074024
0.094206 0.097138 0.071803
0.119831 0.112004 0.069581
0.145456 0.126869 0.067360
0.171081 0.141734 0.065138
0.195734 0.155921 0.063554
0.220192 0.169973 0.062096
0.244651 0.184024 0.060638
0.269110 0.198075 0.059181
0.293568 0.212127 0.057723
0.321834 0.223551 0.057005
0.352002 0.233663 0.056655
0.382171 0.243775 0.056306
0.412339 0.253886 0.055957
0.442508 0.263998 0.055608
0.470999 0.274215 0.055854
0.497813 0.284539 0.056694
0.524628 0.294862 0.057534
0.551442 0.305186 0.058374
0.578256 0.315509 0.059214
0.603041 0.326506 0.060650
0.623767 0.338850 0.063279
0.644493 0.351193 0.065907
0.665220 0.363537 0.068536
0.685946 0.375881 0.071164
0.705129 0.388661 0.073995
0.716598 0.403622 0.077835
0.728066 0.418584 0.081676
0.739535 0.433545 0.085517
0.751003 0.448507 0.089357
0.762472 0.463468 0.093198
0.046453 0.073079 0.080783
0.073880 0.088777 0.078278
0.101308 0.104475 0.075773
0.128735 0.120173 0.073268
0.156162 0.135871 0.070763
0.183589 0.151569 0.068258
0.208085 0.167038 0.066237
0.231995 0.182461 0.064313
0.255905 0.197885 0.062389
0.279814 0.213308 0.060465
0.303724 0.228732 0.058540
0.332154 0.240852 0.057581
0.362844 0.251320 0.057104
0.393534 0.261789 0.056627
0.424224 0.272257 0.056149
0.454914 0.282725 0.055672
0.483625 0.293167 0.055840
0.510357 0.303582 0.056652
0.537089 0.313997 0.057465
0.563821 0.324412 0.058278
0.590552 0.334827 0.059090
0.615087 0.345824 0.060560
0.635228 0.357984 0.063344
0.655369 0.370145 0.066128
0.675510 0.382306 0.068912
0.695651 0.394466 0.071696
0.714224 0.407038 0.074702
0.724961 0.421661 0.078817
0.735697 0.436284 0.082932
0.746434 0.450907 0.087047
0.757171 0.465530 0.091162
0.767907 0.480153 0.095277
0.051432 0.080043 0.086014
0.080899 0.096597 0.083121
0.110366 0.113152 0.080229
0.139833 0.129707 0.077337
0.169300 0.146262 0.074444
0.198768 0.162817 0.071552
0.223858 0.179130 0.069337
0.248072 0.195395 0.067257
0.272287 0.211660 0.065178
0.296502 0.227925 0.063098
0.320716 0.244190 0.061019
0.348384 0.257036 0.059873
0.377778 0.268172 0.059195
0.407172 0.279308 0.058516
0.436566 0.290445 0.057838
0.465960 0.301581 0.057159
0.493936 0.312411 0.057185
0.520494 0.322936 0.057915
0.547052 0.333461 0.058646
0.573610 0.343985 0.059376
0.600168 0.354510 0.060106
0.624421 0.365515 0.061530
0.644061 0.377481 0.064342
0.663702 0.389446 0.067153
0.683343 0.401412 0.069965
0.702984 0.413377 0.072776
0.721060 0.425714 0.075827
0.731315 0.439907 0.080077
0.741570 0.454100 0.084326
0.751825 0.468293 0.088575
0.762080 0.482487 0.092824
0.772334 0.496680 0.097074
0.057151 0.087652 0.091591
0.088777 0.105076 0.088259
0.120403 0.122500 0.084928
0.152029 0.139924 0.081597
0.183655 0.157348 0.078265
0.215281 0.174771 0.074934
0.241341 0.191710 0.072646
0.266288 0.208551 0.070566
0.291234 0.225393 0.068486
0.316181 0.242234 0.066407
0.341127 0.259076 0.064327
0.367569 0.272662 0.063023
0.394758 0.284622 0.062107
0.421948 0.296581 0.061190
0.449137 0.308541 0.060274
0.476326 0.320500 0.059358
0.503090 0.331802 0.059210
0.529429 0.342445 0.059830
0.555767 0.353089 0.060451
0.582106 0.363733 0.061071
0.608444 0.374377 0.061692
0.632398 0.385394 0.063031
0.651581 0.397158 0.065805
0.670764 0.408922 0.068580
0.689948 0.420687 0.071355
0.709131 0.432451 0.074130
0.726767 0.444541 0.077161
0.736665 0.458258 0.081475
0.746563 0.471976 0.085788
0.756461 0.485693 0.090101
0.766359 0.499410 0.094415
0.776257 0.513128 0.098728
0.062870 0.095262 0.097168
0.096655 0.113555 0.093398
0.130440 0.131848 0.089627
0.164225 0.150140 0.085857
0.198010 0.168433 0.082086
0.231795 0.186726 0.078316
0.258824 0.204290 0.075954
0.284503 0.221708 0.073875
0.310181 0.239125 0.071795
0.335859 0.256543 0.069715
0.361538 0.273961 0.067636
0.386754 0.288289 0.066173
0.411738 0.301071 0.065019
0.436723 0.313854 0.063865
0.461708 0.326637 0.062710
0.486692 0.339420 0.061556
0.512244 0.351192 0.061235
0.538363 0.361955 0.061745
0.564482 0.372718 0.062256
0.590601 0.383480 0.062767
0.616720 0.394243 0.063278
0.640375 0.405272 0.064531
0.659101 0.416835 0.067269
0.677827 0.428398 0.070007
0.696553 0.439961 0.072746
0.715279 0.451524 0.075484
0.732474 0.463367 0.078496
0.742015 0.476609 0.082873
0.751556 0.489851 0.087250
0.761098 0.503092 0.091627
0.770639 0.516334 0.096005
0.780180 0.529576 0.100382
0.068589 0.102871 0.102745
0.104533 0.122033 0.098536
0.140477 0.141195 0.094326
0.176421 0.160357 0.090116
0.212365 0.179519 0.085907
0.248308 0.198681 0.081697
0.276308 0.216870 0.079263
0.302718 0.234864 0.077183
0.329128 0.252858 0.075103
0.355538 0.270852 0.073024
0.381948 0.288846 0.070944
0.405939 0.303915 0.069323
0.428719 0.317521 0.067931
0.451499 0.331127 0.066539
0.474279 0.344733 0.065147
0.497059 0.358339 0.063755
0.521398 0.370583 0.063259
0.547298 0.381465 0.063660
0.573197 0.392346 0.064061
0.599097 0.403228 0.064462
0.624996 0.414109 0.064863
0.648352 0.425151 0.066031
0.666620 0.436513 0.068733
0.684889 0.447874 0.071435
0.703157 0.459236 0.074136
0.721426 0.470598 0.076838
0.738180 0.482194 0.079830
0.747365 0.494960 0.084271
0.756550 0.507726 0.088712
0.765734 0.520492 0.093154
0.774919 0.533258 0.097595
0.784103 0.546024 0.102036
0.074308 0.110481 0.108323
0.112411 0.130512 0.103674
0.150513 0.150543 0.099025
0.188616 0.170574 0.094376
0.226719 0.190605 0.089728
0.264822 0.210636 0.085079
0.293791 0.229450 0.082571
0.320933 0.248020 0.080492
0.348075 0.266591 0.078412
0.375217 0.285161 0.076332
0.402359 0.303731 0.074253
0.425123 0.319541 0.072473
0.445699 0.333971 0.070843
0.466274 0.348400 0.069213
0.486849 0.362829 0.067583
0.507425 0.377259 0.065953
0.530552 0.389974 0.065284
0.556232 0.400974 0.065575
0.581912 0.411975 0.065866
0.607592 0.422975 0.066158
0.633272 0.433976 0.066449
0.656329 0.445029 0.067531
0.674140 0.456190 0.070197
0.691951 0.467350 0.072862
0.709762 0.478511 0.075527
0.727573 0.489672 0.078192
0.743887 0.501020 0.081164
0.752715 0.513311 0.085669
0.761543 0.525601 0.090174
0.770371 0.537891 0.094680
0.779199 0.550182 0.099185
0.788026 0.562472 0.103691
0.083524 0.120217 0.113782
0.123420 0.141003 0.108721
0.163316 0.161789 0.103661
0.203212 0.182575 0.098600
0.243108 0.203360 0.093540
0.283004 0.224146 0.088480
0.312740 0.243444 0.085873
0.340445 0.262444 0.083757
0.368150 0.281445 0.081640
0.395854 0.300445 0.079524
0.423559 0.319445 0.077408
0.445699 0.335725 0.075592
0.465058 0.350644 0.073925
0.484417 0.365562 0.072259
0.503775 0.380481 0.070592
0.523134 0.395400 0.068926
0.544894 0.408341 0.068165
0.569055 0.419305 0.068310
0.593217 0.430269 0.068455
0.617378 0.441233 0.068599
0.641539 0.452197 0.068744
0.663415 0.463147 0.069685
0.680718 0.474070 0.072217
0.698022 0.484992 0.074750
0.715325 0.495915 0.077282
0.732628 0.506838 0.079815
0.748461 0.517898 0.082667
0.756941 0.529649 0.087117
0.765422 0.541400 0.091568
0.773902 0.553150 0.096018
0.782382 0.564901 0.100469
0.790862 0.576651 0.104919
0.096239 0.132081 0.119122
0.137561 0.153507 0.113678
0.178884 0.174933 0.108233
0.220207 0.196359 0.102789
0.261530 0.217785 0.097344
0.302853 0.239211 0.091900
0.333155 0.258852 0.089168
0.361253 0.278136 0.086978
0.389351 0.297420 0.084789
0.417450 0.316704 0.082599
0.445548 0.335988 0.080410
0.467667 0.352466 0.078679
0.486797 0.367540 0.077177
0.505927 0.382614 0.075675
0.525057 0.397689 0.074174
0.544187 0.412763 0.072672
0.564424 0.425686 0.071902
0.585767 0.436458 0.071864
0.607111 0.447229 0.071826
0.628455 0.458001 0.071788
0.649799 0.468773 0.071749
0.669610 0.479504 0.072492
0.686355 0.490152 0.074796
0.703100 0.500800 0.077099
0.719846 0.511448 0.079403
0.736591 0.522097 0.081707
0.751902 0.532828 0.084340
0.760044 0.543975 0.088616
0.768186 0.555122 0.092893
0.776328 0.566268 0.097170
0.784469 0.577415 0.101446
0.792611 0.588562 0.105723
0.108953 0.143944 0.124463
0.151703 0.166011 0.118635
0.194453 0.188077 0.112806
0.237203 0.210144 0.106977
0.279953 0.232210 0.101148
0.322703 0.254276 0.095319
0.353571 0.274261 0.092462
0.382062 0.293828 0.090200
0.410553 0.313396 0.087937
0.439045 0.332963 0.085675
0.467536 0.352531 0.083412
0.489634 0.369206 0.081766
0.508535 0.384436 0.080429
0.527437 0.399666 0.079092
0.546338 0.414896 0.077755
0.565239 0.430126 0.076418
0.583953 0.443031 0.075639
0.602479 0.453610 0.075418
0.621005 0.464190 0.075197
0.639531 0.474769 0.074976
0.658058 0.485349 0.074754
0.675804 0.495860 0.075299
0.691992 0.506234 0.077374
0.708179 0.516608 0.079449
0.724366 0.526982 0.081524
0.740554 0.537355 0.083599
0.755344 0.547757 0.086012
0.763147 0.558300 0.090115
0.770950 0.568844 0.094218
0.778753 0.579387 0.098321
0.786557 0.589930 0.102424
0.794360 0.600473 0.106526
0.121667 0.155808 0.129804
0.165844 0.178514 0.123591
0.210021 0.201221 0.117378
0.254198 0.223928 0.111165
0.298375 0.246635 0.104952
0.342552 0.269342 0.098739
0.373986 0.289669 0.095757
0.402871 0.309520 0.093421
0.431755 0.329371 0.091086
0.460640 0.349222 0.088750
0.489525 0.369073 0.086414
0.511602 0.385947 0.084854
0.530274 0.401333 0.083681
0.548947 0.416718 0.082509
0.567619 0.432103 0.081336
0.586292 0.447489 0.080164
0.603482 0.460375 0.079376
0.619191 0.470763 0.078972
0.634900 0.481150 0.078568
0.650608 0.491538 0.078164
0.666317 0.501925 0.077760
0.681999 0.512217 0.078106
0.697628 0.522316 0.079952
0.713258 0.532415 0.081798
0.728887 0.542515 0.083645
0.744516 0.552614 0.085491
0.758785 0.562687 0.087685
0.766250 0.572626 0.091614
0.773714 0.582565 0.095543
0.781179 0.592505 0.099472
0.788644 0.602444 0.103401
0.796109 0.612383 0.107330
0.134381 0.167671 0.135145
0.179985 0.191018 0.128548
0.225589 0.214365 0.121951
0.271194 0.237713 0.115353
0.316798 0.261060 0.108756
0.362402 0.284407 0.102159
0.394401 0.305077 0.099052
0.423679 0.325212 0.096643
0.452957 0.345346 0.094234
0.482236 0.365481 0.091825
0.511514 0.385616 0.089416
0.533569 0.402688 0.087941
0.552013 0.418229 0.086934
0.570457 0.433770 0.085926
0.588900 0.449311 0.084918
0.607344 0.464852 0.083910
0.623012 0.477720 0.083113
0.635903 0.487915 0.082526
0.648794 0.498111 0.081939
0.661685 0.508306 0.081352
0.674576 0.518501 0.080765
0.688194 0.528573 0.080913
0.703265 0.538398 0.082530
0.718336 0.548223 0.084148
0.733408 0.558048 0.085766
0.748479 0.567873 0.087383
0.762226 0.577616 0.089357
0.769352 0.586952 0.093112
0.776479 0.596287 0.096868
0.783605 0.605623 0.100623
0.790731 0.614958 0.104378
0.797857 0.624294 0.108133
0.153303 0.182276 0.139226
0.199483 0.206007 0.132415
0.245664 0.229739 0.125604
0.291844 0.253470 0.118794
0.338025 0.277201 0.111983
0.384205 0.300933 0.105172
0.416295 0.321771 0.101994
0.445567 0.342031 0.099542
0.474839 0.362291 0.097091
0.504111 0.382550 0.094639
0.533383 0.402810 0.092187
0.555168 0.419905 0.090790
0.573210 0.435419 0.089919
0.591251 0.450932 0.089049
0.609292 0.466446 0.088178
0.627334 0.481959 0.087308
0.641745 0.494696 0.086545
0.652526 0.504657 0.085891
0.663307 0.514618 0.085237
0.674087 0.524578 0.084583
0.684868 0.534539 0.083929
0.696717 0.544275 0.083952
0.710699 0.553564 0.085329
0.724682 0.562852 0.086705
0.738665 0.572140 0.088082
0.752647 0.581428 0.089459
0.765423 0.590622 0.091192
0.772165 0.599341 0.094706
0.778907 0.608061 0.098221
0.785649 0.616780 0.101735
0.792391 0.625500 0.105249
0.799133 0.634220 0.108764
0.184639 0.202363 0.140785
0.229694 0.225967 0.134103
0.274750 0.249570 0.127420
0.319805 0.273173 0.120738
0.364860 0.296776 0.114055
0.409916 0.320380 0.107372
0.441147 0.341037 0.104231
0.469614 0.361104 0.101797
0.498081 0.381172 0.099364
0.526548 0.401240 0.096931
0.555015 0.421307 0.094497
0.576032 0.438076 0.093161
0.593323 0.453197 0.092372
0.610614 0.468317 0.091584
0.627905 0.483437 0.090796
0.645197 0.498557 0.090008
0.658885 0.510937 0.089369
0.668971 0.520577 0.088879
0.679056 0.530218 0.088390
0.689142 0.539858 0.087901
0.699228 0.549499 0.087411
0.709896 0.558668 0.087455
0.721729 0.566895 0.088567
0.733562 0.575122 0.089678
0.745394 0.583349 0.090790
0.757227 0.591576 0.091901
0.768133 0.599779 0.093351
0.774399 0.607858 0.096490
0.780665 0.615937 0.099629
0.786932 0.624016 0.102769
0.793198 0.632096 0.105908
0.799464 0.640175 0.109047
0.215975 0.222451 0.142345
0.259906 0.245926 0.135791
0.303836 0.269401 0.129236
0.347766 0.292876 0.122682
0.391696 0.316352 0.116127
0.435626 0.339827 0.109572
0.465999 0.360302 0.106467
0.493661 0.380178 0.104052
0.521323 0.400053 0.101637
0.548985 0.419929 0.099222
0.576647 0.439804 0.096807
0.596895 0.456247 0.095532
0.613436 0.470974 0.094826
0.629977 0.485701 0.094120
0.646518 0.500428 0.093414
0.663060 0.515154 0.092708
0.676025 0.527178 0.092193
0.685416 0.536498 0.091868
0.694806 0.545818 0.091543
0.704197 0.555139 0.091218
0.713587 0.564459 0.090894
0.723075 0.573061 0.090959
0.732758 0.580227 0.091805
0.742441 0.587393 0.092652
0.752124 0.594559 0.093498
0.761807 0.601725 0.094344
0.770842 0.608936 0.095510
0.776633 0.616375 0.098274
0.782423 0.623814 0.101038
0.788214 0.631253 0.103802
0.794005 0.638691 0.106567
0.799795 0.646130 0.109331
0.247312 0.242538 0.143905
0.290117 0.265885 0.137478
0.332922 0.289232 0.131052
0.375727 0.312580 0.124625
0.418532 0.335927 0.118199
0.461336 0.359274 0.111773
0.490851 0.379568 0.108704
0.517708 0.399251 0.106307
0.544565 0.418935 0.103911
0.571422 0.438618 0.101514
0.598279 0.458302 0.099117
0.617759 0.474418 0.097902
0.633550 0.488752 0.097279
0.649341 0.503085 0.096655
0.665132 0.517418 0.096032
0.680923 0.531752 0.095408
0.693166 0.543418 0.095016
0.701861 0.552419 0.094856
0.710556 0.561419 0.094696
0.719251 0.570419 0.094536
0.727946 0.579419 0.094376
0.736254 0.587454 0.094463
0.743787 0.593559 0.095044
0.751321 0.599663 0.095625
0.758854 0.605768 0.096205
0.766388 0.611873 0.096786
0.773551 0.618093 0.097669
0.778866 0.624892 0.100058
0.784181 0.631690 0.102447
0.789496 0.638489 0.104836
0.794811 0.645287 0.107225
0.800126 0.652086 0.109614
0.278648 0.262626 0.145465
0.320328 0.285845 0.139166
0.362008 0.309064 0.132868
0.403687 0.332283 0.126569
0.445367 0.355502 0.120271
0.487047 0.378721 0.113973
0.515703 0.398834 0.110941
0.541755 0.418325 0.108562
0.567807 0.437816 0.106184
0.593859 0.457308 0.103805
0.619911 0.476799 0.101427
0.638622 0.492589 0.100273
0.653663 0.506529 0.099732
0.668704 0.520469 0.099191
0.683745 0.534409 0.098650
0.698785 0.548349 0.098108
0.710306 0.559659 0.097840
0.718306 0.568339 0.097845
0.726306 0.577019 0.097849
0.734306 0.585699 0.097854
0.742305 0.594379 0.097858
0.749433 0.601847 0.097966
0.754817 0.606890 0.098282
0.760200 0.611934 0.098598
0.765584 0.616977 0.098913
0.770968 0.622021 0.099229
0.776260 0.627250 0.099828
0.781100 0.633408 0.101842
0.785939 0.639567 0.103856
0.790778 0.645725 0.105870
0.795618 0.651883 0.107884
0.800457 0.658041 0.109898
0.316499 0.284982 0.145307
0.356230 0.307820 0.139332
0.395962 0.330658 0.133357
0.435693 0.353495 0.127382
0.475424 0.376333 0.121406
0.515155 0.399171 0.115431
0.542468 0.418933 0.112537
0.567297 0.438080 0.110259
0.592126 0.457227 0.107981
0.616956 0.476373 0.105704
0.641785 0.495520 0.103426
0.659468 0.510864 0.102371
0.673579 0.524307 0.101927
0.687690 0.537750 0.101483
0.701801 0.551193 0.101040
0.715911 0.564636 0.100596
0.726591 0.575487 0.100450
0.733839 0.583746 0.100601
0.741087 0.592005 0.100752
0.748336 0.600265 0.100902
0.755584 0.608524 0.101053
0.761582 0.615384 0.101189
0.765081 0.619447 0.101294
0.768581 0.623511 0.101400
0.772080 0.627574 0.101505
0.775579 0.631637 0.101610
0.779213 0.635931 0.101973
0.783521 0.641382 0.103626
0.787830 0.646833 0.105279
0.792139 0.652284 0.106931
0.796448 0.657734 0.108584
0.800756 0.663185 0.110237
0.386923 0.318681 0.136563
0.420590 0.339873 0.131887
0.454256 0.361064 0.127211
0.487922 0.382255 0.122535
0.521588 0.403447 0.117859
0.555254 0.424638 0.113182
0.578796 0.443203 0.110932
0.600314 0.461243 0.109166
0.621831 0.479282 0.107401
0.643349 0.497322 0.105635
0.664867 0.515362 0.103869
0.680227 0.529660 0.103101
0.692508 0.542088 0.102831
0.704789 0.554515 0.102561
0.717070 0.566943 0.102291
0.729351 0.579371 0.102022
0.738599 0.589252 0.101990
0.744814 0.596587 0.102195
0.751028 0.603922 0.102401
0.757243 0.611257 0.102607
