filters/luts/Sunshine 02.cube
# Created by: Adobe Photoshop Export Color Lookup Plugin
# LUT by SparkleStock. Enhanced with VOXCOLOR algorithms.
LUT_3D_SIZE 5
DOMAIN_MIN 0.000000 0.000000 0.000000
DOMAIN_MAX 0.903226 0.903226 0.903226
0.019536 0.015629 0.019536
0.148167 0.046296 0.022758
0.336752 0.093797 0.026429
0.542203 0.166411 0.031462
0.700193 0.279688 0.034739
0.041223 0.054331 0.041672
0.226473 0.127302 0.030146
0.440362 0.199309 0.029530
0.627051 0.281604 0.034403
0.738457 0.374310 0.044649
0.078373 0.105991 0.076789
0.333243 0.224873 0.046668
0.517302 0.321255 0.039759
0.681963 0.410750 0.042250
0.765333 0.493054 0.057164
0.168364 0.194257 0.112757
0.467561 0.344500 0.068387
0.631140 0.452171 0.057141
0.717201 0.519057 0.055666
0.777467 0.584075 0.066316
0.463791 0.371775 0.098547
0.637519 0.486635 0.076959
0.731453 0.567819 0.070734
0.771169 0.609146 0.070487
0.784671 0.627424 0.073707
0.032219 0.039135 0.108244
0.164900 0.079944 0.098438
0.402854 0.131316 0.079497
0.609307 0.192638 0.095382
0.723338 0.260781 0.121643
0.062203 0.110170 0.172863
0.206115 0.201234 0.194506
0.448078 0.261410 0.177935
0.652717 0.323892 0.187848
0.753078 0.395695 0.215429
0.106501 0.194512 0.239964
0.277801 0.311705 0.254501
0.502157 0.404044 0.216857
0.700625 0.479022 0.213699
0.790344 0.552246 0.239517
0.175218 0.294742 0.317123
0.394480 0.425333 0.303254
0.611215 0.533690 0.258756
0.736004 0.607959 0.258938
0.818165 0.671730 0.294104
0.352780 0.446401 0.380541
0.593154 0.560929 0.304266
0.735397 0.646938 0.286119
0.809572 0.704315 0.316831
0.844780 0.741178 0.385686
0.057111 0.083060 0.239245
0.145017 0.149137 0.290694
0.405793 0.204194 0.204477
0.645943 0.259318 0.180085
0.744380 0.310364 0.206079
0.099406 0.180830 0.340137
0.214148 0.278843 0.388733
0.434758 0.354217 0.365381
0.674947 0.410314 0.342540
0.772038 0.466246 0.369402
0.154221 0.289771 0.404176
0.294211 0.398939 0.458188
0.477933 0.486619 0.459745
0.704281 0.546004 0.447759
0.799996 0.600116 0.475098
0.228378 0.407302 0.499457
0.401004 0.514947 0.532262
0.578732 0.607673 0.534084
0.735792 0.673791 0.494288
0.834920 0.725716 0.514939
0.353827 0.532359 0.580587
0.553042 0.627236 0.574222
0.715430 0.706963 0.557389
0.820428 0.763081 0.556562
0.867069 0.795639 0.599702
0.093820 0.152153 0.391083
0.152439 0.245630 0.485760
0.304841 0.323320 0.489790
0.653576 0.406072 0.377268
0.762046 0.425818 0.351306
0.145261 0.266788 0.501589
0.243840 0.363605 0.556445
0.404051 0.459042 0.587129
0.663752 0.540259 0.543929
0.788820 0.584544 0.535687
0.214302 0.384458 0.568567
0.343917 0.485333 0.619604
0.494810 0.574091 0.655999
0.687699 0.646071 0.653286
0.815312 0.690169 0.649908
0.302554 0.501958 0.612356
0.457860 0.596041 0.666561
0.601684 0.673086 0.702102
0.727933 0.731308 0.716614
0.842823 0.768052 0.722358
0.402178 0.604123 0.688995
0.576567 0.687465 0.723447
0.718875 0.758326 0.750390
0.816070 0.808876 0.763359
0.878999 0.836835 0.765174
0.157462 0.296026 0.567285
0.193203 0.352677 0.614307
0.300841 0.429110 0.640389
0.522595 0.542822 0.652241
0.759182 0.639875 0.639266
0.197679 0.371028 0.622187
0.283956 0.446338 0.656173
0.420009 0.538567 0.693910
0.614587 0.640331 0.720576
0.792298 0.721475 0.731092
0.277357 0.474797 0.667686
0.398034 0.556351 0.703572
0.531732 0.635593 0.742116
0.698383 0.723390 0.777365
0.828127 0.784948 0.797196
0.375672 0.579040 0.703107
0.523269 0.659027 0.743122
0.660310 0.732019 0.785073
0.761144 0.785663 0.818011
0.860874 0.834064 0.841121
0.448240 0.644149 0.727150
0.633244 0.731250 0.776459
0.765207 0.800326 0.821264
0.845157 0.845693 0.852943
0.892835 0.872654 0.869023
