filters/luts/Sunshine 03.cube
# Created by: Adobe Photoshop Export Color Lookup Plugin
# LUT by SparkleStock. Enhanced with VOXCOLOR algorithms.
LUT_3D_SIZE 8
DOMAIN_MIN 0.000000 0.000000 0.000000
DOMAIN_MAX 0.903226 0.903226 0.903226
0.035165 0.011722 0.019536
0.109843 0.028170 0.016889
0.207688 0.053188 0.016787
0.319012 0.086305 0.019071
0.434409 0.127780 0.023467
0.539714 0.182985 0.029517
0.626114 0.256465 0.035409
0.695419 0.344866 0.040143
0.051235 0.032140 0.030690
0.134548 0.074056 0.025263
0.245591 0.113242 0.022898
0.366502 0.155202 0.023499
0.482722 0.203867 0.026870
0.581295 0.261267 0.032920
0.657180 0.328527 0.040154
0.714581 0.401968 0.047529
0.069447 0.057513 0.048273
0.176015 0.122305 0.036435
0.285793 0.179162 0.031410
0.402122 0.232824 0.030657
0.522029 0.287085 0.032550
0.615735 0.344815 0.038599
0.683577 0.405976 0.047434
0.732732 0.467446 0.057986
0.093269 0.090677 0.071102
0.228622 0.176973 0.051299
0.339849 0.250478 0.042828
0.445014 0.313844 0.040636
0.553131 0.370431 0.041344
0.643959 0.427295 0.046540
0.705334 0.482232 0.056280
0.748211 0.533501 0.069270
0.127417 0.134988 0.097310
0.288806 0.240988 0.069933
0.412370 0.326629 0.057309
0.506530 0.394716 0.053394
0.582608 0.449738 0.053596
0.667636 0.503181 0.056798
0.722632 0.551312 0.065977
0.759856 0.593195 0.079604
0.187538 0.200969 0.121698
0.360490 0.317069 0.090077
0.487633 0.407418 0.074452
0.579220 0.476469 0.068964
0.644760 0.528326 0.068709
0.691585 0.564643 0.070301
0.735336 0.603578 0.076527
0.766784 0.636502 0.087569
0.299965 0.301296 0.131592
0.454474 0.407614 0.103289
0.567029 0.489528 0.088856
0.645796 0.550547 0.083583
0.698327 0.594024 0.083374
0.729028 0.621023 0.084820
0.753117 0.643016 0.087729
0.771674 0.662600 0.094131
0.483989 0.441262 0.114317
0.582184 0.514397 0.100912
0.656156 0.572508 0.094761
0.708599 0.615985 0.093351
0.742534 0.645768 0.094448
0.760177 0.662473 0.095882
0.769567 0.671431 0.096827
0.776989 0.679347 0.099108
0.045941 0.023254 0.085139
0.116228 0.041898 0.060537
0.225027 0.068801 0.049158
0.350207 0.102454 0.047430
0.473123 0.141624 0.052374
0.575062 0.186583 0.062815
0.650289 0.239328 0.074928
0.705513 0.298553 0.086170
0.062743 0.056406 0.112248
0.133960 0.101764 0.105602
0.248411 0.136376 0.097367
0.378155 0.169760 0.092954
0.500959 0.208414 0.095854
0.599791 0.252622 0.106068
0.670585 0.304133 0.119296
0.720600 0.361169 0.132277
0.084798 0.094410 0.141845
0.165383 0.156747 0.140215
0.276783 0.209412 0.126097
0.403950 0.255513 0.114091
0.531183 0.298570 0.113430
0.628694 0.345620 0.121090
0.695774 0.397060 0.133833
0.741586 0.450754 0.148626
0.111729 0.137600 0.173846
0.206747 0.212177 0.170805
0.320353 0.282930 0.148871
0.441096 0.344005 0.129539
0.558317 0.393695 0.125998
0.655944 0.443080 0.131274
0.719920 0.492884 0.143738
0.762343 0.541363 0.160920
0.144762 0.187125 0.207866
0.256494 0.272356 0.200990
0.383571 0.354410 0.174148
0.497468 0.425188 0.151325
0.584963 0.480884 0.147009
0.678730 0.528718 0.152302
0.739236 0.573715 0.165827
0.778763 0.614910 0.186073
0.193905 0.249740 0.242500
0.322753 0.341670 0.225601
0.455511 0.428967 0.196721
0.568506 0.502814 0.174836
0.648097 0.558107 0.171678
0.703322 0.596634 0.182727
0.754697 0.634682 0.198210
0.790871 0.667806 0.220903
0.279863 0.335845 0.270691
0.418107 0.426681 0.237731
0.541332 0.508264 0.210386
0.638922 0.574886 0.195516
0.705507 0.623535 0.196899
0.745684 0.655652 0.212428
0.777309 0.681099 0.233848
0.801519 0.703627 0.260240
0.421399 0.452282 0.283073
0.551827 0.531168 0.232113
0.645104 0.593842 0.211376
0.710604 0.641982 0.209732
0.756028 0.677386 0.219071
0.783219 0.700643 0.240141
0.800271 0.716301 0.268329
0.813986 0.730088 0.299430
0.060869 0.043090 0.172839
0.114842 0.067765 0.167338
0.225682 0.093852 0.123390
0.361625 0.125286 0.087530
0.495651 0.163641 0.086764
0.599718 0.203746 0.097242
0.669353 0.245207 0.112689
0.715757 0.287991 0.128913
0.080580 0.086073 0.212584
0.140058 0.133251 0.217763
0.245879 0.168661 0.192388
0.378077 0.200880 0.166120
0.515611 0.235860 0.158377
0.618994 0.273953 0.165752
0.686666 0.315233 0.180845
0.730462 0.359065 0.197899
0.103734 0.133877 0.243239
0.171884 0.193501 0.253393
0.271496 0.244163 0.237870
0.397419 0.286218 0.217937
0.536839 0.321812 0.208816
0.639821 0.360348 0.214972
0.706201 0.401750 0.230039
0.748291 0.444955 0.248067
0.132246 0.186325 0.277009
0.211198 0.253333 0.286880
0.310897 0.317756 0.274689
0.428955 0.372651 0.255564
0.557300 0.415342 0.242020
0.661451 0.455536 0.246463
0.727295 0.497010 0.260825
0.768476 0.538586 0.280058
0.167636 0.243202 0.320047
0.259029 0.316087 0.324996
0.367926 0.388160 0.311888
0.478550 0.453801 0.288488
0.581406 0.508957 0.264745
0.683578 0.550472 0.266592
0.748640 0.591197 0.279613
0.789398 0.630141 0.300579
0.212540 0.305042 0.360780
0.319779 0.382271 0.356829
0.435150 0.457751 0.341760
0.546737 0.526568 0.319523
0.643632 0.584313 0.297579
0.707564 0.622816 0.303076
0.765450 0.658718 0.318310
0.805000 0.691074 0.343022
0.282053 0.380468 0.397589
0.403850 0.458440 0.378148
0.518999 0.531233 0.358302
0.620956 0.595506 0.340297
0.703535 0.648239 0.328481
0.752934 0.682785 0.340303
0.790509 0.709035 0.363508
0.818683 0.732506 0.394571
0.393181 0.477053 0.425028
0.519992 0.549619 0.385720
0.623043 0.611970 0.359809
0.702577 0.663150 0.348990
0.759778 0.702740 0.353966
0.795241 0.729448 0.375697
0.817544 0.747915 0.408851
0.834973 0.763884 0.447186
0.079081 0.070519 0.270582
0.116893 0.103110 0.293342
0.211857 0.131075 0.245152
0.348965 0.161782 0.180075
0.505511 0.198944 0.138744
0.615738 0.235743 0.142830
0.684205 0.270667 0.156552
0.725985 0.304403 0.173972
0.102110 0.120613 0.318426
0.152179 0.169106 0.337116
0.240594 0.208716 0.312455
0.366870 0.244666 0.270487
0.518593 0.280511 0.234078
0.632139 0.315629 0.231238
0.700797 0.350702 0.242999
0.741519 0.385694 0.260814
0.126949 0.175269 0.349586
0.188749 0.233033 0.368735
0.272803 0.283994 0.362344
0.388702 0.326634 0.340286
0.532208 0.361328 0.314198
0.646669 0.394504 0.310374
0.715630 0.428657 0.322380
0.756126 0.463412 0.340773
0.157663 0.235122 0.379971
0.230478 0.297800 0.399046
0.314644 0.356622 0.403097
0.420437 0.406886 0.391592
0.548126 0.446423 0.369636
0.662956 0.479182 0.366329
0.732383 0.513012 0.378315
0.773232 0.547314 0.397004
0.196466 0.299494 0.419754
0.279822 0.364742 0.434930
0.369260 0.426496 0.440877
0.466521 0.484125 0.428931
0.572033 0.535604 0.400619
0.683181 0.570349 0.395869
0.752520 0.604936 0.406235
0.794060 0.638874 0.424990
0.241615 0.362968 0.465610
0.337114 0.430304 0.473585
0.432924 0.493529 0.477125
0.531862 0.553392 0.466548
0.631452 0.608423 0.440908
0.706202 0.646011 0.430261
0.770426 0.678711 0.439289
0.812715 0.709011 0.460016
0.301735 0.430717 0.505702
0.408234 0.497838 0.504427
0.509718 0.560247 0.499697
0.605649 0.617953 0.488633
0.692855 0.669555 0.472499
0.753173 0.705523 0.468994
0.796589 0.731162 0.483580
0.828058 0.754292 0.509412
0.391066 0.510682 0.538831
0.501327 0.573012 0.526004
0.603207 0.631201 0.508204
0.689239 0.682100 0.494960
0.754866 0.723412 0.492915
0.799151 0.752337 0.504535
0.826128 0.771608 0.529356
0.846179 0.787764 0.561464
0.099689 0.104786 0.367640
0.129249 0.145445 0.406226
0.190819 0.180429 0.402386
0.313722 0.214467 0.338867
0.496162 0.250351 0.229493
0.623477 0.285504 0.212795
0.695508 0.314710 0.216268
0.735919 0.341568 0.228391
0.125260 0.159527 0.418447
0.169344 0.209276 0.444564
0.236565 0.254519 0.449773
0.347332 0.296804 0.414312
0.502416 0.336767 0.341194
0.634339 0.371273 0.318675
0.709728 0.402630 0.320430
0.751754 0.432817 0.333878
0.154081 0.218118 0.454969
0.210547 0.275099 0.477710
0.282286 0.328127 0.489299
0.382728 0.375749 0.473603
0.514597 0.416881 0.429127
0.646778 0.449596 0.405585
0.723580 0.480834 0.406926
0.766505 0.511646 0.421160
0.188752 0.282542 0.480146
0.255758 0.343039 0.504470
0.331937 0.399505 0.519544
0.423274 0.449822 0.516837
0.533149 0.492160 0.495030
0.661272 0.522633 0.476435
0.737641 0.552166 0.479593
0.780829 0.581488 0.494327
0.230622 0.352498 0.501438
0.306827 0.412380 0.527724
0.388061 0.467827 0.543330
0.472077 0.518809 0.548180
0.561135 0.563864 0.543216
0.678529 0.593295 0.531860
0.752777 0.620695 0.538009
0.796010 0.647479 0.552964
0.278661 0.419540 0.549087
0.364106 0.478832 0.568059
0.450855 0.534669 0.581144
0.535406 0.586249 0.588454
0.616628 0.632485 0.587346
0.701350 0.669078 0.560135
0.771919 0.697719 0.560927
0.817001 0.724476 0.574767
0.333912 0.482090 0.589890
0.427735 0.540237 0.602190
0.518925 0.595279 0.610953
0.603168 0.645504 0.616250
0.678499 0.689718 0.615985
0.748880 0.726533 0.596500
0.798634 0.751015 0.598411
0.833607 0.773005 0.613913
0.407089 0.548234 0.623781
0.504336 0.602406 0.628833
0.595782 0.654301 0.631223
0.676979 0.701324 0.630310
0.744970 0.741488 0.626779
0.797576 0.772191 0.626545
0.829841 0.791770 0.637786
0.852735 0.807521 0.657339
0.121620 0.146000 0.450636
0.148692 0.192807 0.493906
0.193881 0.233524 0.511028
0.276569 0.273551 0.494810
0.411165 0.317265 0.441367
0.614738 0.368958 0.348557
0.702650 0.389821 0.320074
0.744567 0.403914 0.312400
0.149094 0.203084 0.499541
0.189783 0.252067 0.526602
0.246700 0.301348 0.545341
0.331209 0.350123 0.543554
0.452032 0.398058 0.512996
0.622139 0.446271 0.448587
0.712162 0.474195 0.427866
0.760033 0.497954 0.427339
0.181165 0.262668 0.536649
0.234454 0.317029 0.558842
0.299393 0.370748 0.578093
0.383641 0.422952 0.584733
0.492817 0.472649 0.571462
0.634257 0.517040 0.530540
0.723832 0.547080 0.514391
0.774938 0.574560 0.516847
0.219824 0.326861 0.564472
0.283955 0.385247 0.587163
0.355169 0.440499 0.606666
0.436904 0.492783 0.618369
0.532474 0.541490 0.617845
0.650365 0.581609 0.595298
0.737391 0.610669 0.582999
0.789522 0.638097 0.586701
0.265994 0.396286 0.585764
0.338998 0.454553 0.610006
0.415793 0.509262 0.630122
0.493428 0.559732 0.645251
0.572675 0.604980 0.653272
0.670277 0.640841 0.643772
0.752751 0.667409 0.636294
0.804151 0.692696 0.641267
0.318717 0.467281 0.604725
0.399941 0.522578 0.631058
0.479626 0.574012 0.652440
0.555738 0.620794 0.668244
0.627404 0.662321 0.677303
0.696752 0.697073 0.673818
0.770901 0.720953 0.672182
0.819962 0.742478 0.678783
0.372065 0.526830 0.641479
0.459609 0.580019 0.662990
0.543214 0.630284 0.681634
0.619652 0.675877 0.696551
0.686838 0.715604 0.706739
0.743620 0.748255 0.708770
0.797848 0.770942 0.704108
0.837538 0.790689 0.708780
0.432984 0.581923 0.674503
0.524017 0.632177 0.690458
0.608983 0.680731 0.705395
0.683794 0.724691 0.717843
0.745737 0.762007 0.726783
0.792620 0.790972 0.731465
0.830420 0.811339 0.732846
0.857998 0.827190 0.740347
0.149065 0.200449 0.521974
0.172672 0.244378 0.559804
0.209145 0.284738 0.581888
0.271886 0.327553 0.586879
0.372665 0.377466 0.572565
0.534182 0.438624 0.527081
0.676295 0.492249 0.495040
0.752762 0.509170 0.459453
0.175027 0.252312 0.562512
0.212100 0.296510 0.585398
0.263453 0.345667 0.607073
0.335016 0.397486 0.619937
0.432538 0.450759 0.617697
0.571334 0.508153 0.591208
0.694119 0.557571 0.571185
0.766066 0.584737 0.554296
0.208747 0.308957 0.595123
0.259059 0.358404 0.614045
0.319155 0.409814 0.634302
0.394875 0.463651 0.650455
0.490150 0.519346 0.657420
0.608671 0.572168 0.645668
0.714282 0.616345 0.634716
0.780609 0.647117 0.628724
0.251049 0.371190 0.621537
0.312513 0.425038 0.641154
0.379416 0.476774 0.660799
0.455183 0.528812 0.678516
0.542373 0.581829 0.691527
0.644610 0.630205 0.690575
0.735459 0.668809 0.686465
0.795693 0.698985 0.686381
0.301442 0.438392 0.643013
0.371277 0.492322 0.663746
0.445248 0.544957 0.684562
0.518333 0.593912 0.703961
0.590136 0.638377 0.719945
0.678353 0.682267 0.726268
0.756612 0.715419 0.727409
0.810845 0.742767 0.730538
0.355678 0.504923 0.658656
0.433940 0.557091 0.682104
0.511008 0.607112 0.704608
0.583769 0.653230 0.724912
0.650360 0.694208 0.741747
0.711154 0.728811 0.752064
0.777103 0.756465 0.757295
0.826167 0.779735 0.762163
0.406086 0.560170 0.678410
0.493929 0.612305 0.703326
0.574578 0.661100 0.726896
0.646027 0.704822 0.747794
0.707059 0.742315 0.764968
0.756307 0.772430 0.776813
0.803510 0.796192 0.780426
0.842229 0.815348 0.784268
0.456317 0.605920 0.700659
0.550171 0.657397 0.724493
0.633380 0.705703 0.747766
0.703717 0.748314 0.768577
0.760070 0.783589 0.785498
0.801734 0.810510 0.797034
0.834883 0.830792 0.802385
0.862255 0.846086 0.807764
0.189287 0.279152 0.596920
0.203448 0.304840 0.617375
0.231722 0.334506 0.631816
0.284246 0.373825 0.641124
0.368432 0.426767 0.645889
0.493564 0.496530 0.644907
0.644555 0.574185 0.637227
0.744866 0.619757 0.623619
0.206948 0.312786 0.619393
0.238565 0.346982 0.634291
0.284365 0.389167 0.650935
0.348352 0.437927 0.665822
0.433705 0.492691 0.676615
0.547604 0.557260 0.683003
0.675047 0.624060 0.682992
0.762904 0.669748 0.681594
0.238477 0.358927 0.640727
0.285348 0.401604 0.655555
0.340177 0.446725 0.672647
0.410016 0.497914 0.690279
0.498291 0.556253 0.706680
0.600617 0.615053 0.718302
0.706815 0.671551 0.724355
0.782456 0.713852 0.730036
0.283051 0.416000 0.661168
0.341264 0.463510 0.677631
0.403385 0.509420 0.695583
0.474110 0.558562 0.714756
0.556243 0.613186 0.734255
0.649694 0.668046 0.750088
0.737865 0.715615 0.760578
0.802154 0.752704 0.769743
0.338148 0.480839 0.680515
0.403594 0.528005 0.698000
0.474707 0.576622 0.718336
0.543212 0.621948 0.739064
0.607749 0.663297 0.758637
0.692930 0.714929 0.777777
0.766484 0.755313 0.791121
0.820956 0.786885 0.801551
0.395006 0.543363 0.696328
0.468412 0.589588 0.716009
0.543128 0.636751 0.738266
0.613697 0.681416 0.761014
0.676373 0.721107 0.782406
0.729702 0.754249 0.799907
0.790274 0.788419 0.814521
0.838154 0.816110 0.825211
0.441501 0.591564 0.706735
0.527278 0.640407 0.731172
0.606019 0.687457 0.756608
0.675176 0.730179 0.781081
0.732976 0.766687 0.802985
0.776814 0.794866 0.820371
0.817656 0.820015 0.833019
0.853402 0.841107 0.842198
0.478501 0.625161 0.718438
0.576897 0.678617 0.746661
0.660795 0.727844 0.774968
0.729239 0.770419 0.801022
0.782197 0.804832 0.823117
0.819694 0.830243 0.839912
0.847243 0.849391 0.851021
0.871645 0.865214 0.859201
