filters/luts/Sunshine 02_S.cube
# Created by: Adobe Photoshop Export Color Lookup Plugin
# LUT by SparkleStock. Enhanced with VOXCOLOR algorithms.
LUT_3D_SIZE 8
DOMAIN_MIN 0.000000 0.000000 0.000000
DOMAIN_MAX 0.903226 0.903226 0.903226
0.019536 0.015629 0.019536
0.085139 0.030943 0.021427
0.173776 0.050809 0.023183
0.280247 0.076175 0.025200
0.398432 0.108220 0.027729
0.516783 0.151514 0.030753
0.619536 0.209618 0.033306
0.701044 0.278979 0.034739
0.030690 0.036992 0.030501
0.110638 0.073969 0.025659
0.215796 0.105130 0.023793
0.334318 0.135630 0.023834
0.455723 0.169670 0.025100
0.568073 0.211501 0.028271
0.658848 0.263994 0.032800
0.724804 0.324695 0.038161
0.045193 0.061168 0.046020
0.150474 0.114001 0.034548
0.257440 0.163723 0.028356
0.373083 0.207428 0.025729
0.497540 0.244965 0.025539
0.605444 0.285747 0.028753
0.688129 0.333390 0.035067
0.744966 0.386765 0.043811
0.065170 0.090677 0.065383
0.201591 0.157402 0.047020
0.312887 0.223488 0.036596
0.418387 0.280819 0.031460
0.529222 0.325613 0.029748
0.632832 0.365883 0.032230
0.709100 0.409151 0.039368
0.760145 0.455707 0.050257
0.094356 0.128489 0.087266
0.261898 0.209046 0.061914
0.388544 0.283585 0.047936
0.483833 0.349381 0.041018
0.561139 0.404263 0.037970
0.654832 0.444167 0.038732
0.723699 0.483166 0.045202
0.769680 0.522760 0.056417
0.147859 0.183505 0.107495
0.333844 0.273283 0.077460
0.468875 0.351756 0.060871
0.564445 0.418332 0.052928
0.631578 0.472336 0.049698
0.680776 0.509313 0.048996
0.734665 0.543189 0.053027
0.774028 0.575239 0.061766
0.260128 0.265461 0.114806
0.430769 0.352142 0.087038
0.553532 0.426463 0.071250
0.638201 0.487375 0.063574
0.693805 0.534357 0.060678
0.726073 0.565356 0.060099
0.754636 0.587706 0.061547
0.777711 0.608903 0.066530
0.462799 0.375745 0.097412
0.571459 0.443782 0.082977
0.652151 0.503632 0.074580
0.708653 0.552049 0.070500
0.744924 0.587142 0.069154
0.763794 0.607987 0.069014
0.774343 0.619776 0.069173
0.783464 0.630077 0.070998
0.025397 0.026783 0.064532
0.091586 0.042682 0.058372
0.194908 0.062202 0.059129
0.317907 0.086286 0.063536
0.445221 0.115862 0.069193
0.559766 0.153740 0.075731
0.649444 0.201428 0.082406
0.714595 0.255091 0.088798
0.038015 0.058393 0.090280
0.110842 0.101620 0.098918
0.218164 0.129030 0.103776
0.342534 0.151535 0.107492
0.469258 0.177269 0.111986
0.584601 0.209832 0.117877
0.675521 0.252777 0.124507
0.739441 0.304626 0.131087
0.056158 0.094473 0.119234
0.137222 0.153604 0.129368
0.243998 0.199592 0.126494
0.367243 0.234294 0.122513
0.496721 0.261321 0.124696
0.612169 0.292192 0.128391
0.702427 0.332159 0.133676
0.765177 0.381135 0.140030
0.078904 0.134740 0.150806
0.172411 0.204128 0.156750
0.284438 0.267874 0.142855
0.404024 0.319104 0.129324
0.522840 0.355313 0.128190
0.636912 0.386257 0.130209
0.725166 0.423175 0.134814
0.787117 0.467357 0.141909
0.107011 0.179943 0.184436
0.218522 0.257766 0.184991
0.345936 0.331201 0.162720
0.460789 0.395736 0.141789
0.551099 0.447532 0.136940
0.656885 0.479669 0.139421
0.741054 0.512624 0.145198
0.802279 0.549885 0.154687
0.149829 0.236715 0.219741
0.283523 0.319454 0.208587
0.422098 0.397252 0.180934
0.539469 0.465655 0.157534
0.621336 0.521304 0.151411
0.682172 0.559805 0.157981
0.753176 0.590225 0.166115
0.810787 0.620206 0.178450
0.232752 0.313842 0.250543
0.382886 0.395125 0.219429
0.516270 0.469397 0.190186
0.620840 0.533446 0.171502
0.690981 0.585140 0.168507
0.734906 0.622235 0.179429
0.776417 0.648909 0.195618
0.816693 0.672564 0.213617
0.383157 0.415045 0.267918
0.531723 0.486410 0.211485
0.634904 0.547596 0.186026
0.705365 0.598615 0.179943
0.753567 0.639626 0.184882
0.783471 0.669150 0.202113
0.804346 0.690738 0.227650
0.826830 0.708759 0.255374
0.035007 0.044098 0.124928
0.087785 0.067010 0.138296
0.198479 0.087176 0.120760
0.335906 0.109340 0.105570
0.474139 0.136899 0.111673
0.589751 0.171540 0.119132
0.672263 0.213234 0.127510
0.727174 0.258206 0.137038
0.051888 0.085642 0.168259
0.114355 0.131355 0.190102
0.219323 0.158662 0.189516
0.348899 0.178908 0.185059
0.485801 0.200853 0.188342
0.604355 0.229615 0.193237
0.692995 0.267583 0.199162
0.752622 0.313236 0.205810
0.071919 0.131333 0.202726
0.141796 0.191218 0.227546
0.241744 0.234537 0.230513
0.365050 0.263760 0.227629
0.501436 0.283415 0.229410
0.621811 0.307392 0.233012
0.715298 0.340412 0.238337
0.780325 0.382764 0.244854
0.096613 0.181839 0.240606
0.174864 0.249964 0.262980
0.275509 0.308602 0.262089
0.392580 0.352355 0.253236
0.518936 0.379886 0.247762
0.639703 0.401445 0.250094
0.735975 0.429998 0.254766
0.805861 0.467537 0.261521
0.127242 0.237363 0.288146
0.217566 0.310082 0.303170
0.326741 0.377211 0.295898
0.438049 0.435633 0.276690
0.542860 0.481828 0.256579
0.657339 0.505224 0.257130
0.752764 0.530940 0.260495
0.825763 0.563556 0.266986
0.166426 0.297551 0.334069
0.276089 0.372644 0.338385
0.395406 0.443092 0.325641
0.510328 0.506697 0.302332
0.609495 0.560844 0.277609
0.680419 0.597087 0.277688
0.764598 0.621718 0.283178
0.836572 0.647386 0.293387
0.232063 0.370383 0.377685
0.363103 0.444019 0.362687
0.487296 0.511893 0.341747
0.596187 0.573067 0.319200
0.682943 0.626118 0.301077
0.737081 0.664723 0.305712
0.788699 0.691360 0.320526
0.842619 0.713859 0.338610
0.346972 0.460963 0.413749
0.491171 0.527644 0.371802
0.606951 0.586548 0.340234
0.694207 0.637867 0.322795
0.754783 0.681568 0.321538
0.793470 0.714913 0.336975
0.821875 0.740514 0.364680
0.854450 0.760981 0.396331
0.048604 0.068124 0.198125
0.086781 0.101673 0.237742
0.185070 0.127109 0.220786
0.327405 0.150912 0.186453
0.490542 0.177647 0.164293
0.610203 0.208177 0.169349
0.689670 0.244592 0.176179
0.738789 0.283476 0.185768
0.070169 0.118926 0.257081
0.123106 0.166597 0.289885
0.216392 0.198730 0.292389
0.345374 0.222947 0.280167
0.497040 0.245545 0.266837
0.620483 0.271698 0.267799
0.707556 0.306251 0.270771
0.763640 0.347143 0.276148
0.092792 0.172821 0.297426
0.157040 0.231376 0.330006
0.246232 0.274970 0.342071
0.363965 0.304277 0.341394
0.505078 0.322384 0.335592
0.630802 0.341729 0.335999
0.725702 0.369688 0.339290
0.791222 0.406192 0.345064
0.120397 0.231580 0.336086
0.194399 0.296789 0.367844
0.282545 0.350754 0.382187
0.390085 0.389386 0.382384
0.516577 0.411834 0.374014
0.642743 0.425896 0.374028
0.743471 0.447131 0.377485
0.817940 0.477550 0.383754
0.155155 0.295580 0.384118
0.239324 0.363061 0.409974
0.330823 0.422620 0.421732
0.430006 0.472908 0.414458
0.537523 0.511381 0.391458
0.657660 0.526038 0.387998
0.759833 0.543619 0.389059
0.840470 0.569146 0.393669
0.195437 0.361086 0.439189
0.294006 0.428562 0.455998
0.393445 0.490156 0.462562
0.495258 0.545788 0.451354
0.596912 0.594087 0.422967
0.677676 0.625736 0.407146
0.771103 0.643332 0.406242
0.853162 0.663134 0.411743
0.252159 0.430505 0.488893
0.366680 0.495710 0.493614
0.476313 0.555504 0.489396
0.578822 0.610346 0.474691
0.670352 0.659664 0.451870
0.735115 0.696994 0.438939
0.794713 0.720989 0.442755
0.858785 0.740073 0.453321
0.343487 0.509814 0.532476
0.467739 0.568761 0.520928
0.583112 0.623174 0.499094
0.678975 0.672132 0.479432
0.749346 0.714870 0.470438
0.796639 0.749235 0.473305
0.831024 0.775367 0.489600
0.871051 0.795041 0.512003
0.066186 0.099342 0.281051
0.096899 0.144655 0.338781
0.161661 0.181013 0.356318
0.292396 0.212205 0.321434
0.487320 0.241051 0.246005
0.622423 0.267977 0.238327
0.703137 0.296961 0.237896
0.749466 0.328094 0.242618
0.091227 0.158341 0.350051
0.138003 0.209149 0.389820
0.210523 0.250712 0.412821
0.328842 0.284636 0.403262
0.492425 0.312660 0.362404
0.627925 0.336937 0.353890
0.716944 0.367285 0.351147
0.772144 0.403148 0.353260
0.118338 0.219343 0.400312
0.177487 0.276725 0.434357
0.254887 0.324091 0.457704
0.362641 0.359741 0.460933
0.501685 0.383887 0.443548
0.635950 0.401910 0.435860
0.732670 0.426915 0.433182
0.798473 0.459490 0.435194
0.150625 0.283474 0.436307
0.220155 0.345682 0.471110
0.301514 0.397471 0.493500
0.399382 0.435904 0.501589
0.515596 0.459816 0.496677
0.646185 0.470914 0.490805
0.748565 0.487710 0.489477
0.824603 0.512757 0.492730
0.189713 0.351314 0.467215
0.269086 0.414727 0.503254
0.355008 0.468523 0.525142
0.444084 0.511734 0.533922
0.537718 0.542458 0.531823
0.658783 0.550719 0.524901
0.763154 0.560291 0.524259
0.847258 0.577123 0.528539
0.234019 0.422565 0.526676
0.324125 0.483281 0.553174
0.416244 0.538118 0.569873
0.504994 0.585637 0.577258
0.588502 0.624476 0.573373
0.676440 0.650523 0.542347
0.774701 0.660809 0.534749
0.862246 0.673807 0.535497
0.286991 0.489480 0.578225
0.388836 0.546970 0.595763
0.488296 0.600285 0.606689
0.579126 0.647809 0.610900
0.658417 0.688668 0.605974
0.731867 0.722806 0.576223
0.797308 0.742889 0.566079
0.868043 0.757414 0.566222
0.362369 0.557719 0.622500
0.471620 0.609790 0.629846
0.574825 0.659020 0.632049
0.665906 0.703455 0.628267
0.740682 0.742082 0.618932
0.795740 0.775590 0.608629
0.835273 0.800523 0.608768
0.880628 0.817885 0.616480
0.087739 0.139990 0.368774
0.116110 0.195402 0.433090
0.163808 0.240926 0.467790
0.252206 0.282303 0.469302
0.397255 0.323938 0.436082
0.617984 0.368135 0.365466
0.713456 0.385483 0.339908
0.759101 0.399991 0.328017
0.114975 0.205136 0.439238
0.157936 0.257318 0.478908
0.219304 0.306947 0.511502
0.310706 0.352812 0.525780
0.440959 0.394362 0.514028
0.623103 0.432284 0.471019
0.721895 0.456057 0.453934
0.778348 0.481665 0.447300
0.145836 0.270109 0.492102
0.201704 0.325436 0.523537
0.271776 0.376538 0.551718
0.363493 0.422052 0.569743
0.481898 0.460902 0.571964
0.632334 0.490790 0.549956
0.733988 0.512048 0.538395
0.801411 0.537556 0.534704
0.182454 0.336825 0.531721
0.249684 0.395780 0.562459
0.326336 0.447430 0.587224
0.415291 0.491487 0.604996
0.519150 0.527065 0.614016
0.644795 0.548206 0.606204
0.748110 0.562320 0.598135
0.825458 0.581688 0.596041
0.226079 0.405928 0.562408
0.303451 0.465180 0.593589
0.386257 0.517309 0.617772
0.470214 0.561060 0.634891
0.555459 0.594464 0.644636
0.660376 0.608802 0.643762
0.762930 0.615185 0.637652
0.847872 0.626714 0.636375
0.276972 0.473958 0.589377
0.364283 0.531195 0.621327
0.451048 0.581752 0.645658
0.533641 0.624571 0.662117
0.610148 0.658555 0.670133
0.682731 0.679573 0.665439
0.777512 0.683403 0.658586
0.864603 0.689214 0.656502
0.328968 0.538264 0.635876
0.425525 0.591631 0.661152
0.518168 0.640547 0.681499
0.602259 0.683449 0.696261
0.674674 0.719153 0.704496
0.733374 0.745468 0.701909
0.799072 0.760674 0.686352
0.871914 0.770180 0.678093
0.392740 0.596958 0.677656
0.495651 0.645719 0.695323
0.591903 0.691994 0.710627
0.676136 0.733542 0.722211
0.744676 0.768783 0.729059
0.794267 0.796158 0.729663
0.837001 0.818570 0.719800
0.885468 0.833427 0.715180
0.116224 0.200646 0.460278
0.140789 0.254204 0.516300
0.179204 0.300829 0.552330
0.246255 0.347044 0.569239
0.354983 0.397672 0.566809
0.530704 0.455237 0.535712
0.685943 0.504411 0.511557
0.768692 0.518034 0.476162
0.141996 0.261815 0.520008
0.180811 0.309368 0.552631
0.235593 0.361067 0.584979
0.312838 0.413448 0.608626
0.418746 0.464502 0.617076
0.569593 0.516321 0.603311
0.703619 0.560285 0.590229
0.783427 0.585085 0.572376
0.174590 0.324523 0.566736
0.227377 0.374732 0.592262
0.291961 0.425428 0.619234
0.374385 0.476490 0.642837
0.478535 0.526902 0.658490
0.607519 0.571122 0.657353
0.723811 0.606960 0.652667
0.802239 0.632374 0.645444
0.215162 0.389901 0.603522
0.280183 0.443687 0.628708
0.352664 0.492858 0.652174
0.435552 0.539997 0.673784
0.531055 0.585645 0.692179
0.642982 0.622129 0.699313
0.744858 0.648498 0.700463
0.822876 0.668389 0.699023
0.263660 0.457583 0.632755
0.338707 0.511103 0.657909
0.419624 0.561137 0.681558
0.499720 0.605221 0.702467
0.578000 0.641998 0.719569
0.675323 0.671878 0.730783
0.765340 0.689001 0.735303
0.843273 0.701114 0.736496
0.316992 0.521418 0.654064
0.402507 0.573695 0.680951
0.487806 0.621917 0.705416
0.568316 0.664353 0.726379
0.641122 0.699578 0.742858
0.706055 0.724658 0.752500
0.783662 0.735503 0.757439
0.860534 0.741537 0.758809
0.367118 0.576547 0.679962
0.464958 0.628106 0.706961
0.555393 0.675226 0.731393
0.635281 0.716282 0.752176
0.702526 0.750083 0.768373
0.754746 0.774609 0.777867
0.808334 0.789312 0.777321
0.872688 0.796008 0.774500
0.420296 0.623562 0.707442
0.526686 0.673405 0.732082
0.621308 0.719546 0.755413
0.701027 0.759804 0.775797
0.764095 0.792733 0.791916
0.809155 0.817087 0.801753
0.845294 0.835280 0.802543
0.888926 0.846458 0.800545
0.157462 0.296026 0.567285
0.172300 0.327580 0.597132
0.202245 0.361269 0.619004
0.258568 0.403040 0.634795
0.349573 0.456906 0.645955
0.485793 0.524839 0.652115
0.650721 0.598241 0.651688
0.759099 0.639381 0.640089
0.175172 0.334941 0.600443
0.208014 0.370689 0.620587
0.256594 0.414402 0.643091
0.325472 0.463905 0.663814
0.418259 0.518028 0.680050
0.542991 0.579917 0.691847
0.682284 0.641755 0.697195
0.777830 0.683424 0.696658
0.205363 0.384173 0.630323
0.254736 0.426504 0.648888
0.313593 0.470820 0.669906
0.389449 0.520480 0.691621
0.485954 0.576307 0.712195
0.598693 0.630949 0.727857
0.715055 0.681465 0.737891
0.799486 0.718525 0.743838
0.248115 0.442269 0.657404
0.310532 0.488781 0.677021
0.378353 0.532432 0.697370
0.455975 0.578428 0.718810
0.546132 0.629104 0.740869
0.649799 0.678011 0.759540
0.746982 0.718142 0.773032
0.822145 0.747757 0.782193
0.301751 0.506219 0.681725
0.373282 0.552161 0.701567
0.452181 0.598277 0.723553
0.528191 0.640164 0.745354
0.599311 0.677088 0.765711
0.694273 0.721423 0.786418
0.776189 0.752619 0.802028
0.844086 0.774170 0.812295
0.358835 0.565901 0.700917
0.440214 0.611210 0.722199
0.524124 0.656125 0.745395
0.603422 0.697678 0.768531
0.673153 0.733645 0.789882
0.731325 0.761866 0.807043
0.799508 0.786080 0.823018
0.862989 0.802285 0.833246
0.406475 0.611174 0.714031
0.502756 0.658927 0.739173
0.592053 0.704102 0.764780
0.670510 0.744401 0.789069
0.735375 0.778077 0.810522
0.783161 0.802754 0.826915
0.828054 0.821510 0.839105
0.878101 0.833822 0.846597
0.446291 0.644822 0.727978
0.557964 0.695931 0.755986
0.653768 0.742806 0.783937
0.731915 0.783137 0.809673
0.791824 0.815456 0.831538
0.833056 0.838764 0.847808
0.862477 0.855043 0.858149
0.895727 0.866733 0.863676
