filters/luts/Sunshine 04_S.cube
# Created by: Adobe Photoshop Export Color Lookup Plugin
# LUT by SparkleStock. Enhanced with VOXCOLOR algorithms.
LUT_3D_SIZE 8
DOMAIN_MIN 0.000000 0.000000 0.000000
DOMAIN_MAX 0.903226 0.903226 0.903226
0.015629 0.019536 0.039072
0.068754 0.043735 0.050037
0.137280 0.070747 0.058324
0.221364 0.099941 0.064012
0.320288 0.131632 0.067415
0.432778 0.170767 0.069495
0.547788 0.224396 0.072204
0.650502 0.291268 0.075450
0.026405 0.039765 0.054386
0.096363 0.081382 0.053349
0.187008 0.117310 0.054921
0.290327 0.151066 0.056986
0.399498 0.185776 0.058505
0.508914 0.225496 0.061902
0.608165 0.276418 0.068246
0.687905 0.337307 0.076542
0.039458 0.061735 0.071708
0.134749 0.117867 0.063957
0.233397 0.170163 0.058888
0.341160 0.216006 0.056207
0.458373 0.255264 0.055867
0.565960 0.296192 0.059337
0.654930 0.344769 0.068159
0.720435 0.400884 0.080420
0.057151 0.087652 0.091591
0.183655 0.157348 0.078265
0.291234 0.225393 0.068486
0.394758 0.284622 0.062107
0.503090 0.331802 0.059210
0.608444 0.374377 0.061692
0.689948 0.420687 0.071355
0.746563 0.471976 0.085788
0.083524 0.120217 0.113782
0.243108 0.203360 0.093540
0.368150 0.281445 0.081640
0.465058 0.350644 0.073925
0.544894 0.408341 0.068165
0.641539 0.452197 0.068744
0.715325 0.495915 0.077282
0.765422 0.541400 0.091568
0.134381 0.167671 0.135145
0.316798 0.261060 0.108756
0.452957 0.345346 0.094234
0.552013 0.418229 0.086934
0.623012 0.477720 0.083113
0.674576 0.518501 0.080765
0.733408 0.558048 0.085766
0.776479 0.596287 0.096868
0.247312 0.242538 0.143905
0.418532 0.335927 0.118199
0.544565 0.418935 0.103911
0.633550 0.488752 0.097279
0.693166 0.543418 0.095016
0.727946 0.579419 0.094376
0.758854 0.605768 0.096205
0.784181 0.631690 0.102447
0.457348 0.352381 0.127819
0.567752 0.430560 0.114311
0.651536 0.501338 0.106820
0.711436 0.559869 0.103735
0.750607 0.603017 0.103529
0.771330 0.628661 0.104572
0.782728 0.642637 0.105524
0.792944 0.655264 0.108264
0.022057 0.029556 0.085013
0.078988 0.053609 0.086611
0.164901 0.079749 0.092892
0.268427 0.108259 0.100275
0.379683 0.139859 0.106532
0.489392 0.178262 0.113002
0.587838 0.227501 0.120957
0.667743 0.284017 0.129856
0.035614 0.058421 0.110573
0.101898 0.104765 0.121245
0.197315 0.137228 0.128965
0.308084 0.164352 0.134756
0.422985 0.192780 0.139752
0.533926 0.226669 0.146180
0.630457 0.272445 0.155560
0.704735 0.329045 0.166945
0.053210 0.090375 0.139074
0.129965 0.151209 0.151106
0.229360 0.201252 0.149667
0.343938 0.240258 0.146441
0.465498 0.270436 0.148777
0.578514 0.303404 0.153196
0.672788 0.346841 0.162121
0.742363 0.401404 0.174576
0.074770 0.125671 0.169971
0.166155 0.197180 0.179856
0.273779 0.265031 0.167871
0.388391 0.320657 0.154718
0.503270 0.360442 0.153139
0.617038 0.394385 0.155749
0.708678 0.435248 0.164158
0.774975 0.485290 0.177665
0.101875 0.165482 0.202828
0.213606 0.246457 0.209268
0.338058 0.325274 0.191227
0.450339 0.395292 0.171940
0.540601 0.451375 0.166222
0.647345 0.487435 0.168926
0.734736 0.524900 0.177913
0.798937 0.568052 0.193207
0.145267 0.216594 0.237804
0.281078 0.304530 0.234923
0.418617 0.389554 0.213094
0.535122 0.465512 0.193173
0.618133 0.527595 0.188418
0.679796 0.569646 0.194654
0.753933 0.604829 0.204862
0.814068 0.640268 0.221576
0.233169 0.290364 0.269568
0.384431 0.380018 0.249655
0.518145 0.463689 0.227200
0.623493 0.536863 0.212731
0.695374 0.596263 0.212676
0.740159 0.637972 0.225001
0.782941 0.667606 0.241960
0.824610 0.694875 0.262316
0.395477 0.395779 0.290098
0.540239 0.477791 0.247642
0.642895 0.549601 0.229113
0.714458 0.610128 0.226923
0.764015 0.658640 0.235483
0.794323 0.692463 0.255729
0.815336 0.715179 0.282170
0.838415 0.734308 0.310333
0.032636 0.045335 0.141668
0.080413 0.072352 0.156914
0.175968 0.101464 0.149248
0.295714 0.131667 0.142058
0.419988 0.163111 0.148875
0.531685 0.200989 0.156627
0.620583 0.247772 0.167148
0.685818 0.298797 0.179951
0.051152 0.082835 0.180687
0.111157 0.130514 0.202808
0.206791 0.164134 0.208010
0.324067 0.191074 0.208843
0.449500 0.217611 0.213507
0.563685 0.250051 0.219535
0.656043 0.293645 0.229084
0.722794 0.346701 0.241388
0.072752 0.124258 0.214034
0.142244 0.186271 0.239368
0.236250 0.233983 0.245491
0.350724 0.268249 0.245459
0.478197 0.292406 0.248146
0.595028 0.319885 0.252661
0.690749 0.358274 0.261820
0.760690 0.408321 0.274842
0.098981 0.170153 0.250649
0.178776 0.241668 0.275424
0.275439 0.304232 0.277421
0.385914 0.352243 0.270638
0.505791 0.384050 0.265779
0.624211 0.408925 0.268492
0.722081 0.442179 0.276643
0.795304 0.486702 0.289938
0.131419 0.220928 0.295080
0.225116 0.298562 0.315666
0.331586 0.370807 0.313480
0.437839 0.434204 0.297833
0.538219 0.484903 0.279211
0.651181 0.511666 0.279802
0.748057 0.541343 0.286118
0.823223 0.579482 0.298727
0.174396 0.277877 0.339313
0.288122 0.359747 0.352463
0.405601 0.436718 0.346968
0.516430 0.506788 0.329478
0.612009 0.566981 0.308875
0.681173 0.605911 0.308781
0.766575 0.634111 0.315888
0.840172 0.664130 0.330340
0.248293 0.350911 0.383161
0.380761 0.433369 0.380399
0.502442 0.509135 0.369370
0.607919 0.577735 0.354485
0.692388 0.637636 0.341673
0.745062 0.679846 0.347796
0.796405 0.708237 0.362493
0.850886 0.732998 0.382108
0.377893 0.449035 0.422626
0.516948 0.525323 0.395997
0.626874 0.592335 0.376985
0.709999 0.650880 0.368230
0.769287 0.700998 0.371538
0.806818 0.737651 0.389502
0.834245 0.763456 0.416863
0.866832 0.783977 0.447441
0.047446 0.066793 0.206436
0.084757 0.100189 0.241637
0.172776 0.134436 0.234703
0.299705 0.169969 0.214219
0.447389 0.206665 0.201671
0.563648 0.242336 0.207409
0.647817 0.285742 0.217026
0.704259 0.332297 0.230672
0.071572 0.112807 0.257921
0.125891 0.161945 0.289770
0.213749 0.200395 0.298867
0.332179 0.233183 0.295774
0.471227 0.264287 0.289985
0.590352 0.295973 0.292990
0.679815 0.337668 0.300317
0.740521 0.387026 0.311661
0.097962 0.163107 0.296459
0.164973 0.224849 0.329327
0.250816 0.272783 0.345488
0.360487 0.307733 0.350369
0.491271 0.332388 0.349517
0.612315 0.356487 0.351665
0.708051 0.390854 0.359017
0.776708 0.435789 0.370966
0.130234 0.218952 0.334568
0.207833 0.288948 0.367764
0.293401 0.346568 0.385453
0.393962 0.388999 0.389563
0.511492 0.415978 0.384449
0.633047 0.433718 0.385270
0.733776 0.460020 0.391827
0.810476 0.497793 0.403769
0.170463 0.280539 0.380395
0.258678 0.354174 0.410099
0.348040 0.418219 0.426495
0.440695 0.472020 0.423718
0.539685 0.513568 0.404099
0.655397 0.531044 0.400800
0.757266 0.552079 0.404093
0.839349 0.582909 0.413707
0.217880 0.345257 0.432216
0.320127 0.420210 0.456088
0.417225 0.487168 0.469510
0.512814 0.547269 0.464744
0.606626 0.599654 0.441716
0.682007 0.632961 0.426900
0.774529 0.652893 0.427023
0.857343 0.675964 0.435826
0.285280 0.417778 0.481231
0.400533 0.491218 0.495628
0.505540 0.556945 0.501336
0.601197 0.616737 0.495353
0.686127 0.670638 0.478899
0.746232 0.710329 0.468660
0.803582 0.734860 0.471826
0.867288 0.754958 0.482804
0.392420 0.506416 0.527540
0.511056 0.573107 0.527822
0.616773 0.632875 0.519562
0.703598 0.686207 0.510939
0.768451 0.733047 0.507909
0.812511 0.769601 0.513130
0.844511 0.795154 0.528102
0.883805 0.814051 0.548274
0.066517 0.094159 0.276695
0.099547 0.136886 0.326240
0.162303 0.177211 0.345702
0.281988 0.221355 0.326885
0.457709 0.270305 0.278293
0.587708 0.305775 0.275012
0.671423 0.343125 0.278490
0.722866 0.382622 0.288170
0.095730 0.148333 0.336504
0.146886 0.200825 0.374978
0.219500 0.246590 0.400755
0.330322 0.289817 0.402258
0.479434 0.331974 0.379803
0.608715 0.364365 0.376310
0.698756 0.402646 0.378840
0.756971 0.446861 0.387130
0.128281 0.206624 0.383561
0.193079 0.267960 0.419066
0.270882 0.319747 0.445675
0.372630 0.362025 0.456672
0.500337 0.395246 0.451265
0.627572 0.419723 0.448121
0.723759 0.451373 0.450510
0.791139 0.491551 0.458638
0.167928 0.270339 0.420938
0.243070 0.337695 0.457485
0.323946 0.394031 0.483229
0.415675 0.436829 0.496935
0.521732 0.465192 0.499281
0.644855 0.480715 0.496497
0.745666 0.502457 0.498940
0.822507 0.534038 0.507286
0.216464 0.339763 0.455171
0.299974 0.409164 0.492645
0.383921 0.467535 0.517911
0.465776 0.513176 0.531038
0.548782 0.544439 0.533131
0.662074 0.555271 0.527671
0.764257 0.567994 0.529028
0.848864 0.590061 0.536842
0.271162 0.412623 0.510797
0.363422 0.480212 0.541817
0.452308 0.539789 0.563765
0.533711 0.590004 0.576118
0.607266 0.629845 0.576344
0.685610 0.656495 0.549114
0.780571 0.668042 0.542734
0.867834 0.683554 0.546018
0.336559 0.484640 0.560842
0.437061 0.548944 0.585223
0.530652 0.606841 0.603084
0.612774 0.656988 0.613605
0.682198 0.698999 0.614073
0.747237 0.734143 0.589781
0.808130 0.753687 0.579822
0.877386 0.768366 0.580172
0.427411 0.562405 0.606786
0.529206 0.620076 0.622595
0.621944 0.672850 0.633437
0.701503 0.719109 0.638344
0.765680 0.758399 0.637048
0.814805 0.792981 0.630442
0.850358 0.816719 0.629692
0.894035 0.832769 0.635386
0.090716 0.130458 0.349104
0.123308 0.182260 0.404797
0.173805 0.229587 0.438286
0.260814 0.279268 0.447657
0.397893 0.336213 0.432309
0.599905 0.402859 0.390679
0.694159 0.432232 0.374593
0.742419 0.456159 0.369575
0.123735 0.191512 0.410963
0.173092 0.245712 0.450144
0.238108 0.298819 0.484269
0.328681 0.351568 0.504875
0.452126 0.404610 0.506089
0.618405 0.458772 0.483624
0.714943 0.492231 0.475202
0.772680 0.525681 0.475437
0.162165 0.255334 0.460898
0.225249 0.315268 0.495124
0.298318 0.371030 0.526656
0.388411 0.422408 0.550442
0.500165 0.469152 0.562099
0.637010 0.509607 0.553903
0.735183 0.537983 0.549764
0.802573 0.569773 0.552374
0.208301 0.323598 0.501983
0.282031 0.388145 0.536211
0.359954 0.444889 0.565119
0.445592 0.493565 0.588060
0.542038 0.533585 0.603644
0.655429 0.560591 0.604742
0.754147 0.579363 0.602508
0.830464 0.603473 0.605657
0.263222 0.396553 0.537076
0.344797 0.461800 0.571609
0.426419 0.518621 0.599765
0.504895 0.565298 0.620961
0.581304 0.600035 0.634800
0.674285 0.616585 0.639624
0.771441 0.625473 0.637489
0.854843 0.640290 0.640010
0.325971 0.469999 0.568844
0.413689 0.532980 0.603835
0.496200 0.587343 0.631653
0.571181 0.632050 0.651735
0.637772 0.666131 0.663268
0.698410 0.685693 0.661845
0.787363 0.690043 0.656828
0.872765 0.698121 0.656925
0.391734 0.540894 0.614669
0.483953 0.599098 0.644550
0.568862 0.650958 0.669490
0.643427 0.695105 0.688376
0.705742 0.730606 0.699983
0.754171 0.755585 0.700026
0.813016 0.769653 0.686447
0.883021 0.779181 0.679664
0.469681 0.607998 0.656910
0.562175 0.660080 0.680638
0.646217 0.708032 0.701508
0.718383 0.749868 0.718015
0.776396 0.784388 0.729026
0.817622 0.810985 0.732798
0.854683 0.831926 0.724311
0.900382 0.845495 0.719809
0.124526 0.187081 0.426870
0.154117 0.237834 0.476391
0.197570 0.285753 0.511242
0.268196 0.338076 0.532843
0.377078 0.400134 0.541651
0.543401 0.475757 0.531564
0.689400 0.539397 0.524130
0.767078 0.565557 0.502955
0.156959 0.245622 0.480532
0.202617 0.295657 0.513863
0.262967 0.350936 0.548159
0.343139 0.409288 0.576585
0.447845 0.469578 0.593986
0.589313 0.534455 0.595622
0.714369 0.589248 0.595351
0.789779 0.622735 0.588226
0.198779 0.309299 0.526124
0.258775 0.364266 0.555395
0.327437 0.419745 0.586096
0.410717 0.476366 0.614795
0.512077 0.533663 0.637956
0.631711 0.586570 0.647718
0.739244 0.629672 0.652182
0.813295 0.660763 0.652841
0.250763 0.378525 0.565551
0.321630 0.437657 0.595249
0.395531 0.491807 0.623144
0.476533 0.543511 0.649664
0.567343 0.593467 0.673944
0.669493 0.635025 0.688744
0.762730 0.665468 0.696019
0.836221 0.688678 0.700197
0.312206 0.452190 0.600009
0.389921 0.510925 0.629602
0.469052 0.565247 0.657564
0.544398 0.612269 0.682398
0.615813 0.650698 0.703206
0.702504 0.682692 0.719895
0.783893 0.701301 0.728329
0.857282 0.714929 0.733366
0.378127 0.523294 0.627557
0.461550 0.579971 0.658287
0.541295 0.631107 0.686404
0.614152 0.674981 0.710610
0.678189 0.710258 0.729854
0.733161 0.734160 0.742128
0.802043 0.744679 0.749229
0.874364 0.751330 0.753026
0.439783 0.584753 0.656070
0.529839 0.639913 0.687454
0.610739 0.688674 0.715693
0.680606 0.729885 0.739405
0.738232 0.762758 0.757571
0.781367 0.785425 0.768579
0.826826 0.798513 0.769427
0.886986 0.804847 0.768214
0.504135 0.638477 0.685080
0.596679 0.690528 0.714912
0.677434 0.736836 0.742274
0.744647 0.775999 0.765473
0.797474 0.807236 0.783325
0.834739 0.829843 0.794591
0.864926 0.846691 0.796202
0.905460 0.857165 0.795030
0.176951 0.278900 0.523014
0.195259 0.309534 0.549866
0.229883 0.345334 0.572209
0.291151 0.392813 0.592257
0.386055 0.456179 0.611582
0.521152 0.537132 0.630128
0.676833 0.622807 0.645142
0.777620 0.672345 0.646619
0.200229 0.317432 0.553745
0.238703 0.356314 0.575640
0.292550 0.404098 0.601242
0.365249 0.459383 0.626881
0.459328 0.521397 0.650203
0.580360 0.592931 0.671903
0.710018 0.663658 0.689036
0.798562 0.710890 0.698105
0.239945 0.369882 0.585020
0.294835 0.417022 0.607653
0.357096 0.466098 0.632602
0.434275 0.521059 0.659346
0.529733 0.583034 0.686689
0.636696 0.644246 0.709984
0.743302 0.700513 0.728144
0.820983 0.740950 0.740677
0.295086 0.434118 0.616383
0.360799 0.485441 0.640784
0.428735 0.533516 0.665213
0.504482 0.583683 0.691150
0.591225 0.638389 0.718759
0.687360 0.691271 0.743396
0.774811 0.734382 0.761974
0.843400 0.765614 0.775316
0.362614 0.506275 0.646846
0.433440 0.555999 0.671318
0.508543 0.605421 0.697504
0.579285 0.649757 0.722745
0.644458 0.688244 0.745995
0.730647 0.734408 0.771469
0.802928 0.766293 0.790104
0.864514 0.788012 0.802854
0.431998 0.574531 0.672356
0.507673 0.622168 0.697891
0.583622 0.668677 0.724674
0.654225 0.710932 0.750625
0.715645 0.746709 0.774055
0.766290 0.774261 0.793042
0.825077 0.797629 0.810730
0.882509 0.813205 0.822441
0.488469 0.625630 0.689568
0.573274 0.675032 0.719124
0.650562 0.720241 0.748022
0.717747 0.759552 0.774473
0.773012 0.791702 0.797090
0.813519 0.814632 0.814189
0.851210 0.831892 0.826964
0.896858 0.843492 0.835066
0.535432 0.663169 0.705212
0.629643 0.715520 0.738386
0.709563 0.761253 0.769571
0.774406 0.799263 0.796920
0.824241 0.829052 0.819200
0.859121 0.850276 0.835559
0.884033 0.865504 0.845951
0.914719 0.876968 0.851775
