filters/luts/Sunshine 01.cube
# Created by: Adobe Photoshop Export Color Lookup Plugin
# LUT by SparkleStock. Enhanced with VOXCOLOR algorithms.
LUT_3D_SIZE 8
DOMAIN_MIN 0.000000 0.000000 0.000000
DOMAIN_MAX 0.903226 0.903226 0.903226
0.050794 0.039072 0.050794
0.096357 0.052306 0.057600
0.159329 0.068085 0.063067
0.239868 0.087195 0.068219
0.336925 0.110757 0.073914
0.447714 0.143086 0.081098
0.556454 0.188806 0.090803
0.647068 0.248777 0.102958
0.063650 0.057978 0.065162
0.127216 0.085556 0.068455
0.209643 0.110287 0.072068
0.304684 0.136497 0.076537
0.406737 0.167413 0.082379
0.510353 0.205304 0.090734
0.603749 0.252318 0.101976
0.677939 0.307891 0.115186
0.079050 0.077955 0.081271
0.167981 0.121329 0.081467
0.259451 0.161164 0.084521
0.358913 0.199190 0.089102
0.466660 0.237487 0.094688
0.564348 0.281147 0.103904
0.645458 0.330439 0.116371
0.707545 0.383991 0.130999
0.100225 0.102391 0.100146
0.218587 0.163621 0.097292
0.319610 0.219836 0.099768
0.416356 0.270004 0.104615
0.516174 0.315060 0.110192
0.609422 0.363356 0.119163
0.680431 0.414263 0.132007
0.733008 0.465967 0.147399
0.131632 0.135240 0.122218
0.279195 0.215718 0.116236
0.395357 0.285944 0.117307
0.486023 0.345506 0.122069
0.560676 0.395897 0.128110
0.646387 0.445254 0.135416
0.707997 0.495484 0.147296
0.752242 0.543736 0.161964
0.188349 0.187609 0.146607
0.353330 0.282723 0.138136
0.476749 0.362714 0.137445
0.567013 0.428264 0.141353
0.632207 0.480230 0.147138
0.679131 0.517584 0.152395
0.727202 0.561545 0.161006
0.763353 0.603009 0.172399
0.299106 0.272906 0.165954
0.450889 0.368264 0.158044
0.562269 0.447341 0.156912
0.640847 0.510393 0.159864
0.693640 0.557985 0.164555
0.724341 0.588704 0.168738
0.749421 0.614382 0.173430
0.769947 0.640768 0.179846
0.486415 0.397763 0.170058
0.583360 0.472965 0.169027
0.656406 0.536694 0.170900
0.708292 0.587021 0.174257
0.742020 0.623006 0.177903
0.759584 0.643644 0.180733
0.768529 0.654620 0.182749
0.776308 0.666089 0.185119
0.055709 0.046823 0.083501
0.107566 0.064009 0.085769
0.187614 0.081770 0.089084
0.286132 0.101564 0.094040
0.394094 0.124540 0.101144
0.500930 0.152185 0.111402
0.594009 0.187001 0.124669
0.666303 0.229036 0.139532
0.071053 0.075097 0.110750
0.135248 0.116712 0.127183
0.226115 0.142675 0.134842
0.331165 0.164260 0.140164
0.439703 0.189492 0.147882
0.541293 0.219979 0.159878
0.626148 0.257335 0.175342
0.690115 0.301125 0.192062
0.091638 0.106204 0.139947
0.169671 0.164871 0.161969
0.266913 0.207842 0.165484
0.376239 0.241649 0.165197
0.489313 0.272464 0.170950
0.587705 0.308810 0.181563
0.664919 0.351162 0.196773
0.721184 0.398243 0.214447
0.117276 0.141398 0.171323
0.211701 0.213842 0.194149
0.318310 0.274191 0.191615
0.428318 0.323015 0.185261
0.534662 0.362911 0.188930
0.631201 0.404431 0.197835
0.701625 0.450346 0.212446
0.751182 0.498753 0.231146
0.149415 0.182736 0.205251
0.262913 0.268124 0.226181
0.384576 0.340696 0.219982
0.492001 0.401564 0.210756
0.575795 0.452350 0.213796
0.666681 0.495540 0.222906
0.730558 0.541033 0.237951
0.774483 0.586617 0.258289
0.198668 0.238472 0.243545
0.331056 0.333284 0.255981
0.460327 0.413939 0.247231
0.568416 0.480711 0.237849
0.645329 0.534175 0.241214
0.699014 0.573409 0.254507
0.752072 0.614539 0.270722
0.790666 0.653709 0.292601
0.288299 0.321890 0.283871
0.428510 0.416361 0.278964
0.549116 0.495169 0.268524
0.643085 0.559019 0.262820
0.707460 0.608826 0.268457
0.746603 0.643709 0.284737
0.778381 0.672382 0.305437
0.803550 0.700196 0.330046
0.439462 0.441758 0.320993
0.565231 0.520955 0.290897
0.654474 0.584087 0.280031
0.716774 0.633902 0.281953
0.760000 0.672570 0.292080
0.786355 0.698874 0.311922
0.803183 0.717063 0.338131
0.817369 0.734263 0.366870
0.064910 0.058726 0.126653
0.108442 0.079760 0.144291
0.198733 0.101235 0.137158
0.313285 0.123423 0.128925
0.433150 0.146720 0.134237
0.541114 0.172585 0.145184
0.624994 0.201819 0.160837
0.685145 0.234475 0.178935
0.084194 0.093672 0.169582
0.142264 0.141194 0.198834
0.234132 0.175284 0.204363
0.347803 0.201340 0.202774
0.469944 0.224513 0.206017
0.574107 0.252026 0.217101
0.652455 0.284296 0.234249
0.707203 0.320569 0.254020
0.108182 0.136591 0.207175
0.178763 0.199682 0.242644
0.272116 0.250008 0.253921
0.384674 0.286714 0.255557
0.507877 0.312410 0.258776
0.609270 0.343018 0.269923
0.682923 0.378492 0.287650
0.733021 0.417441 0.308100
0.137551 0.184573 0.247684
0.220833 0.258071 0.284225
0.319552 0.322563 0.296627
0.429689 0.372380 0.296868
0.544782 0.406761 0.295556
0.644964 0.440566 0.305151
0.714719 0.478828 0.321789
0.760975 0.519689 0.342326
0.173325 0.236293 0.295503
0.271090 0.318859 0.328370
0.380148 0.391922 0.339095
0.486818 0.453293 0.333989
0.583547 0.501988 0.322110
0.679657 0.538162 0.328602
0.745476 0.577869 0.342848
0.788589 0.619236 0.363541
0.220193 0.296743 0.344384
0.334871 0.385528 0.369011
0.450651 0.462905 0.375835
0.558430 0.528163 0.369206
0.649993 0.580871 0.356918
0.710890 0.618486 0.364996
0.768074 0.654962 0.380368
0.808070 0.690668 0.403502
0.295938 0.377125 0.396065
0.422697 0.464782 0.403545
0.536742 0.539207 0.402314
0.634457 0.601126 0.395810
0.712255 0.651040 0.389559
0.759355 0.686081 0.401609
0.796047 0.713780 0.423003
0.824140 0.740413 0.451073
0.419749 0.486864 0.449086
0.543779 0.561748 0.429993
0.641431 0.623198 0.416654
0.715403 0.672725 0.411498
0.768623 0.711686 0.416483
0.802211 0.739308 0.435473
0.824117 0.759252 0.464913
0.841870 0.777533 0.499307
0.077845 0.074938 0.180173
0.110814 0.100876 0.219362
0.193998 0.127530 0.216485
0.316039 0.155586 0.197748
0.459111 0.184526 0.184070
0.571210 0.208829 0.191492
0.650636 0.234560 0.206222
0.703274 0.262150 0.225325
0.101178 0.115140 0.238043
0.152236 0.165280 0.277875
0.235652 0.208379 0.289262
0.351278 0.244717 0.284235
0.489532 0.275017 0.274730
0.601108 0.300873 0.279938
0.677035 0.330263 0.295236
0.725799 0.362167 0.315825
0.128732 0.167170 0.284055
0.193952 0.231102 0.326348
0.278331 0.288173 0.348829
0.387610 0.332990 0.355563
0.517782 0.363988 0.352898
0.627496 0.390679 0.358834
0.700646 0.421313 0.375229
0.746681 0.454350 0.396354
0.162865 0.227588 0.329392
0.240179 0.299037 0.372170
0.327716 0.365247 0.400607
0.430537 0.418256 0.412154
0.547525 0.454556 0.409541
0.655158 0.482147 0.415454
0.725904 0.513709 0.431295
0.769914 0.547382 0.451804
0.204673 0.293045 0.381472
0.293696 0.369064 0.420409
0.387040 0.438755 0.448751
0.484133 0.498672 0.456709
0.584274 0.546002 0.444359
0.686462 0.575466 0.446848
0.754379 0.608433 0.459534
0.796757 0.643214 0.478573
0.252773 0.359313 0.439513
0.355214 0.438746 0.471061
0.454363 0.509706 0.494512
0.552223 0.571136 0.500243
0.646675 0.621810 0.486946
0.716605 0.656406 0.481437
0.777985 0.687482 0.491071
0.819208 0.718703 0.510118
0.320003 0.436223 0.496339
0.432022 0.513628 0.516170
0.534106 0.581125 0.528468
0.626850 0.638869 0.529775
0.708624 0.686652 0.521012
0.765054 0.720297 0.519064
0.806468 0.745209 0.532006
0.836972 0.769233 0.554454
0.422679 0.532730 0.553577
0.532314 0.599109 0.555820
0.629050 0.656826 0.550447
0.708572 0.704972 0.544728
0.768746 0.743147 0.544219
0.810134 0.770378 0.552863
0.836349 0.789359 0.573512
0.856486 0.806252 0.601148
0.094056 0.095711 0.243436
0.122287 0.128088 0.300208
0.179880 0.161002 0.325243
0.294853 0.198542 0.310814
0.466681 0.240079 0.265349
0.592649 0.266413 0.261300
0.672160 0.288336 0.269041
0.720472 0.310830 0.283933
0.120610 0.140670 0.312668
0.167538 0.193284 0.359204
0.234771 0.242538 0.389851
0.341983 0.291383 0.392720
0.490347 0.338766 0.368466
0.616924 0.366356 0.362471
0.696076 0.393481 0.371202
0.743357 0.422409 0.388565
0.152823 0.197444 0.368966
0.213879 0.263145 0.412955
0.288362 0.323481 0.446279
0.388479 0.378891 0.459684
0.516217 0.427516 0.451655
0.640270 0.455282 0.445755
0.717772 0.484174 0.454886
0.763637 0.515108 0.472977
0.193334 0.267601 0.415464
0.265043 0.338576 0.460018
0.344971 0.403270 0.493818
0.437820 0.460896 0.513026
0.545522 0.509191 0.517028
0.663731 0.536076 0.514196
0.738452 0.564325 0.524372
0.782709 0.593986 0.542209
0.242637 0.348641 0.458538
0.322931 0.418229 0.502492
0.407252 0.481121 0.534906
0.493133 0.537663 0.556666
0.581540 0.586005 0.568500
0.688581 0.612145 0.568692
0.759506 0.638554 0.579842
0.802332 0.665228 0.596651
0.294982 0.422392 0.521500
0.385026 0.491654 0.557215
0.474401 0.554324 0.584942
0.559797 0.610166 0.605614
0.639792 0.658032 0.616841
0.718272 0.690381 0.598866
0.784162 0.716317 0.601762
0.827126 0.742278 0.614756
0.357522 0.496159 0.579437
0.454809 0.562344 0.605712
0.546560 0.621847 0.626379
0.629105 0.673826 0.641786
0.700994 0.717512 0.649764
0.766141 0.749905 0.634647
0.812840 0.771938 0.636184
0.846200 0.792853 0.648918
0.443117 0.578170 0.633969
0.538991 0.635390 0.648108
0.626468 0.687283 0.658364
0.701963 0.732331 0.664223
0.763698 0.769420 0.665685
0.812667 0.796375 0.663808
0.843797 0.813942 0.671621
0.866586 0.828805 0.687246
0.113908 0.122935 0.315467
0.141114 0.161753 0.381754
0.186174 0.201107 0.422730
0.268080 0.246307 0.437562
0.400755 0.300633 0.426347
0.599760 0.363705 0.386877
0.690712 0.380773 0.372858
0.736560 0.390253 0.371022
0.142657 0.172139 0.389529
0.187087 0.225641 0.436287
0.246656 0.280277 0.476795
0.332576 0.336962 0.501521
0.453132 0.395745 0.503954
0.618978 0.453728 0.479762
0.709043 0.479757 0.473287
0.758690 0.501818 0.479138
0.178413 0.232328 0.450036
0.237104 0.297538 0.490894
0.306074 0.359778 0.528251
0.392882 0.420812 0.555663
0.502714 0.480774 0.567820
0.640374 0.533068 0.556533
0.727604 0.562161 0.553665
0.778518 0.589195 0.562289
0.223511 0.305010 0.500607
0.293081 0.375929 0.540699
0.368298 0.440251 0.574893
0.452552 0.500360 0.601870
0.548838 0.556896 0.619465
0.663572 0.603116 0.618318
0.746575 0.631691 0.617478
0.797025 0.658929 0.626476
0.278723 0.389307 0.544376
0.355887 0.458569 0.583019
0.435388 0.521031 0.615539
0.514405 0.576702 0.641712
0.593667 0.625538 0.660624
0.688834 0.665645 0.666213
0.766287 0.691898 0.667426
0.815111 0.716767 0.676224
0.341460 0.476817 0.583188
0.424407 0.539634 0.620277
0.504756 0.595755 0.650863
0.580870 0.645314 0.675145
0.652047 0.688405 0.692700
0.719673 0.723502 0.698705
0.788105 0.746091 0.701749
0.833923 0.766635 0.710023
0.402682 0.549339 0.636002
0.490324 0.607305 0.665615
0.572331 0.659687 0.690917
0.646538 0.705741 0.711745
0.711527 0.745001 0.727578
0.765706 0.776195 0.734911
0.816283 0.796442 0.732235
0.853711 0.814215 0.736158
0.474153 0.617671 0.684777
0.561368 0.668710 0.705177
0.641162 0.715837 0.723814
0.710659 0.757387 0.739645
0.767995 0.792222 0.751866
0.811180 0.818921 0.759214
0.847665 0.836508 0.759091
0.875131 0.850312 0.763980
0.140691 0.165757 0.400575
0.165043 0.203575 0.461129
0.203344 0.244606 0.503664
0.269066 0.295027 0.530986
0.373474 0.358894 0.544432
0.536228 0.437847 0.537113
0.678548 0.500964 0.531096
0.754371 0.518221 0.511672
0.168586 0.213351 0.466416
0.209539 0.263227 0.505893
0.264922 0.319472 0.546478
0.340485 0.381115 0.579911
0.441464 0.447403 0.600065
0.580824 0.518981 0.601831
0.702148 0.575113 0.601600
0.772610 0.603622 0.596698
0.206564 0.274211 0.522140
0.262359 0.335136 0.555827
0.326979 0.395849 0.590975
0.406657 0.459605 0.623213
0.505177 0.527186 0.648212
0.623653 0.590870 0.656955
0.726641 0.639395 0.660750
0.790707 0.671320 0.663474
0.255994 0.348208 0.570280
0.322941 0.414773 0.603530
0.393638 0.475476 0.634272
0.472200 0.535490 0.663132
0.561436 0.597188 0.689060
0.663441 0.653767 0.702772
0.751039 0.694968 0.709425
0.808529 0.725580 0.715532
0.316461 0.433078 0.612412
0.390163 0.497718 0.644035
0.466310 0.557572 0.673781
0.540114 0.611041 0.700527
0.611607 0.658637 0.723269
0.699714 0.708397 0.739815
0.774611 0.743036 0.748606
0.826043 0.770114 0.755987
0.382637 0.518856 0.645979
0.461368 0.577541 0.676879
0.537901 0.631211 0.705334
0.609604 0.679099 0.730709
0.674929 0.720839 0.752323
0.734061 0.755977 0.767944
0.796960 0.784106 0.778170
0.843531 0.806819 0.785811
0.442400 0.588467 0.679541
0.527509 0.642965 0.708991
0.604791 0.692145 0.735948
0.673095 0.735199 0.759747
0.731743 0.771691 0.779856
0.779188 0.800820 0.795023
0.824605 0.823439 0.801799
0.861640 0.841257 0.806785
0.502089 0.645539 0.713188
0.589281 0.695630 0.738451
0.665812 0.741123 0.762797
0.730540 0.780641 0.784752
0.783022 0.813396 0.803244
0.822433 0.838818 0.817221
0.854592 0.857524 0.823958
0.881992 0.871317 0.829092
0.181047 0.236378 0.511749
0.196153 0.259339 0.545206
0.227317 0.292379 0.572715
0.284976 0.341903 0.597360
0.376256 0.411670 0.621120
0.508017 0.502253 0.642740
0.659899 0.596414 0.658855
0.757348 0.646460 0.660729
0.201453 0.270329 0.550030
0.236697 0.310982 0.576037
0.287178 0.361817 0.606008
0.356537 0.422164 0.635525
0.447437 0.491524 0.661674
0.565620 0.571847 0.684691
0.692473 0.649693 0.701354
0.777272 0.698478 0.710447
0.238227 0.325111 0.588510
0.290147 0.378492 0.613809
0.349397 0.432942 0.641507
0.423712 0.494603 0.670654
0.516563 0.565627 0.699677
0.621103 0.635824 0.723320
0.725600 0.699100 0.740583
0.798035 0.743019 0.753140
0.291179 0.397717 0.626767
0.354176 0.456174 0.652642
0.419315 0.509812 0.678128
0.492519 0.566363 0.704994
0.577176 0.629716 0.733446
0.671597 0.692681 0.757914
0.757529 0.744010 0.775753
0.818693 0.781436 0.789361
0.357838 0.482852 0.663683
0.425902 0.538232 0.688150
0.498033 0.592256 0.714092
0.566214 0.640823 0.739274
0.629682 0.684457 0.762779
0.715278 0.741567 0.787933
0.786718 0.783845 0.806207
0.838521 0.814925 0.819649
0.427967 0.565068 0.694201
0.499902 0.615264 0.717973
0.572403 0.664211 0.743345
0.640439 0.709273 0.768620
0.700592 0.748709 0.792281
0.751602 0.781781 0.812043
0.810723 0.816594 0.830221
0.856960 0.843767 0.843460
0.484709 0.626558 0.714869
0.564713 0.675131 0.740816
0.638004 0.720733 0.767281
0.702594 0.761591 0.792711
0.757072 0.796401 0.815806
0.798939 0.823393 0.834807
0.838655 0.847888 0.850028
0.873516 0.868224 0.861362
0.528975 0.668338 0.733789
0.617700 0.718153 0.761292
0.693257 0.763320 0.788971
0.755444 0.802310 0.814894
0.804659 0.834249 0.837650
0.840973 0.858621 0.856156
0.867813 0.877105 0.869515
0.892469 0.892143 0.879345
