filters/luts/Sunshine 03_S.cube
# Created by: Adobe Photoshop Export Color Lookup Plugin
# LUT by SparkleStock. Enhanced with VOXCOLOR algorithms.
LUT_3D_SIZE 5
DOMAIN_MIN 0.000000 0.000000 0.000000
DOMAIN_MAX 0.903226 0.903226 0.903226
0.035165 0.011722 0.019536
0.181417 0.045201 0.016550
0.378684 0.103068 0.021151
0.566040 0.195305 0.031013
0.695986 0.343873 0.040143
0.064674 0.051006 0.043129
0.237676 0.153861 0.025862
0.441431 0.232442 0.023365
0.624513 0.319779 0.032158
0.731205 0.439337 0.051758
0.107968 0.113128 0.083745
0.339750 0.275398 0.048039
0.498146 0.386864 0.038746
0.660100 0.467716 0.044783
0.756114 0.553754 0.069926
0.205814 0.225617 0.124637
0.473620 0.411906 0.078694
0.616541 0.527531 0.068475
0.692402 0.590601 0.068099
0.767154 0.642054 0.086193
0.482571 0.444665 0.113325
0.637495 0.561685 0.094559
0.723510 0.633512 0.092682
0.760415 0.667246 0.094746
0.775983 0.679996 0.097919
0.056710 0.037276 0.148639
0.194218 0.074118 0.119423
0.425153 0.121497 0.094616
0.615260 0.189289 0.106587
0.713780 0.280483 0.122499
0.092331 0.111950 0.209762
0.228353 0.199595 0.208698
0.440409 0.246544 0.195904
0.641994 0.296901 0.201321
0.761067 0.382870 0.213421
0.142665 0.201880 0.271293
0.297954 0.327005 0.260724
0.479025 0.421582 0.228591
0.671228 0.472478 0.227543
0.803786 0.540772 0.243202
0.218841 0.310403 0.339906
0.416417 0.451518 0.310839
0.591282 0.571337 0.270909
0.700583 0.639496 0.270952
0.825228 0.680828 0.295108
0.395504 0.471613 0.391589
0.604334 0.595339 0.322184
0.726813 0.681448 0.310714
0.791992 0.734533 0.339173
0.838650 0.764301 0.391245
0.089291 0.087156 0.320115
0.176605 0.145720 0.342832
0.422776 0.195607 0.228574
0.641286 0.249213 0.194564
0.730783 0.314335 0.205243
0.132944 0.182222 0.397020
0.244282 0.266889 0.417669
0.440980 0.317348 0.383239
0.656316 0.356021 0.362097
0.776915 0.418687 0.365470
0.191843 0.293621 0.444464
0.322625 0.395541 0.468954
0.476603 0.464895 0.454484
0.675704 0.490342 0.440928
0.825438 0.529921 0.447520
0.269813 0.410339 0.520020
0.427522 0.517736 0.532782
0.572259 0.609075 0.519254
0.699599 0.669158 0.478941
0.852580 0.693643 0.483682
0.396410 0.531618 0.583042
0.571971 0.630555 0.573694
0.709806 0.714088 0.558422
0.797615 0.774792 0.552956
0.863785 0.807248 0.571589
0.127654 0.157627 0.470219
0.184125 0.236416 0.531883
0.326806 0.307593 0.514043
0.646290 0.393650 0.378430
0.746144 0.420288 0.343901
0.178488 0.259108 0.546985
0.273176 0.346174 0.582281
0.421153 0.426186 0.597253
0.652504 0.492950 0.546383
0.782333 0.537779 0.530773
0.248182 0.373407 0.594451
0.369704 0.468894 0.629507
0.503590 0.545499 0.651239
0.673578 0.587193 0.643541
0.825532 0.610530 0.634423
0.338851 0.496057 0.624548
0.479342 0.586140 0.666360
0.602156 0.657218 0.689915
0.704786 0.700544 0.690835
0.856955 0.705943 0.682018
0.436658 0.590785 0.684631
0.590626 0.676323 0.715656
0.713734 0.749719 0.739309
0.794366 0.800927 0.746167
0.871188 0.832249 0.732434
0.189287 0.279152 0.596920
0.223292 0.326588 0.628875
0.323414 0.398994 0.644059
0.527424 0.514307 0.644738
0.744783 0.619263 0.624360
0.227585 0.346154 0.636839
0.310952 0.418988 0.663327
0.437057 0.507902 0.692903
0.614116 0.608314 0.713564
0.779388 0.692793 0.721030
0.307039 0.448928 0.673279
0.419424 0.530449 0.703716
0.541026 0.609551 0.737595
0.691736 0.692581 0.769310
0.818468 0.746770 0.788124
0.403854 0.558542 0.701739
0.537110 0.639039 0.738472
0.658618 0.713332 0.777560
0.748027 0.765083 0.807933
0.851285 0.799434 0.828965
0.476209 0.625962 0.719243
0.639339 0.716335 0.768340
0.754602 0.787982 0.812189
0.825112 0.834129 0.842104
0.876234 0.859728 0.854731
