filters/luts/Sunshine 01.cube
# Created by: Adobe Photoshop Export Color Lookup Plugin
# LUT by SparkleStock. Enhanced with VOXCOLOR algorithms.
LUT_3D_SIZE 32
0.050794 0.039072 0.050794
0.062184 0.042381 0.052495
0.073575 0.045689 0.054197
0.084966 0.048998 0.055898
0.096357 0.052306 0.057600
0.107747 0.055615 0.059301
0.124259 0.059672 0.060609
0.141794 0.063878 0.061838
0.159329 0.068085 0.063067
0.176864 0.072291 0.064296
0.194399 0.076498 0.065524
0.216094 0.081618 0.066848
0.239868 0.087195 0.068219
0.263642 0.092772 0.069589
0.287416 0.098350 0.070960
0.311190 0.103927 0.072331
0.336925 0.110757 0.073914
0.364622 0.118839 0.075710
0.392320 0.126921 0.077506
0.420017 0.135003 0.079302
0.447714 0.143086 0.081098
0.475206 0.152507 0.083146
0.502288 0.164607 0.085699
0.529371 0.176706 0.088251
0.556454 0.188806 0.090803
0.583536 0.200906 0.093355
0.609256 0.213896 0.096057
0.628162 0.231336 0.099508
0.647068 0.248777 0.102958
0.665973 0.266218 0.106408
0.684879 0.283658 0.109859
0.703785 0.301099 0.113309
0.054008 0.043798 0.054386
0.066524 0.048004 0.055868
0.079040 0.052209 0.057350
0.091556 0.056414 0.058832
0.104071 0.060619 0.060314
0.116587 0.064824 0.061796
0.134330 0.069381 0.063006
0.153119 0.074008 0.064161
0.171907 0.078635 0.065317
0.190696 0.083263 0.066473
0.209484 0.087890 0.067628
0.231877 0.093468 0.068927
0.256072 0.099521 0.070298
0.280267 0.105574 0.071669
0.304462 0.111626 0.073040
0.328656 0.117679 0.074410
0.354378 0.124921 0.076030
0.381627 0.133351 0.077899
0.408876 0.141780 0.079769
0.436125 0.150210 0.081638
0.463373 0.158640 0.083507
0.490213 0.168303 0.085638
0.516234 0.180430 0.088290
0.542256 0.192557 0.090943
0.568277 0.204684 0.093596
0.594299 0.216811 0.096249
0.618968 0.229736 0.099041
0.636877 0.246646 0.102528
0.654785 0.263556 0.106015
0.672694 0.280466 0.109502
0.690603 0.297376 0.112989
0.708512 0.314286 0.116476
0.057222 0.048525 0.057978
0.070863 0.053626 0.059240
0.084504 0.058728 0.060503
0.098145 0.063830 0.061765
0.111786 0.068931 0.063028
0.125427 0.074033 0.064290
0.144402 0.079090 0.065402
0.164444 0.084138 0.066485
0.184486 0.089186 0.067567
0.204527 0.094234 0.068650
0.224569 0.099282 0.069733
0.247660 0.105317 0.071007
0.272276 0.111846 0.072378
0.296892 0.118375 0.073748
0.321507 0.124903 0.075119
0.346123 0.131432 0.076490
0.371831 0.139085 0.078146
0.398632 0.147862 0.080089
0.425432 0.156640 0.082031
0.452233 0.165417 0.083974
0.479033 0.174195 0.085916
0.505220 0.184098 0.088129
0.530181 0.196253 0.090882
0.555141 0.208407 0.093636
0.580101 0.220562 0.096389
0.605061 0.232716 0.099143
0.628680 0.245575 0.102025
0.645592 0.261955 0.105548
0.662503 0.278334 0.109072
0.679415 0.294714 0.112595
0.696326 0.311093 0.116119
0.713238 0.327473 0.119642
0.060436 0.053251 0.061570
0.075202 0.059249 0.062613
0.089968 0.065247 0.063656
0.104735 0.071245 0.064699
0.119501 0.077244 0.065741
0.134267 0.083242 0.066784
0.154474 0.088799 0.067799
0.175769 0.094268 0.068809
0.197064 0.099737 0.069818
0.218359 0.105206 0.070827
0.239654 0.110675 0.071837
0.263444 0.117167 0.073087
0.288480 0.124171 0.074457
0.313517 0.131176 0.075828
0.338553 0.138180 0.077199
0.363590 0.145184 0.078569
0.389284 0.153249 0.080263
0.415636 0.162374 0.082278
0.441988 0.171499 0.084294
0.468341 0.180624 0.086309
0.494693 0.189749 0.088325
0.520228 0.199894 0.090620
0.544127 0.212076 0.093474
0.568026 0.224258 0.096328
0.591925 0.236440 0.099183
0.615824 0.248622 0.102037
0.638392 0.261415 0.105009
0.654307 0.277264 0.108569
0.670221 0.293113 0.112129
0.686136 0.308962 0.115689
0.702050 0.324810 0.119249
0.717964 0.340659 0.122809
0.063650 0.057978 0.065162
0.079541 0.064872 0.065985
0.095433 0.071767 0.066809
0.111324 0.078661 0.067632
0.127216 0.085556 0.068455
0.143107 0.092451 0.069279
0.164546 0.098508 0.070196
0.187094 0.104398 0.071132
0.209643 0.110287 0.072068
0.232191 0.116177 0.073004
0.254739 0.122067 0.073941
0.279227 0.129017 0.075166
0.304684 0.136497 0.076537
0.330141 0.143977 0.077908
0.355599 0.151457 0.079278
0.381056 0.158937 0.080649
0.406737 0.167413 0.082379
0.432641 0.176886 0.084468
0.458545 0.186359 0.086556
0.484449 0.195831 0.088645
0.510353 0.205304 0.090734
0.535235 0.215689 0.093111
0.558073 0.227899 0.096066
0.580911 0.240108 0.099021
0.603749 0.252318 0.101976
0.626587 0.264527 0.104931
0.648104 0.277255 0.107992
0.663022 0.292573 0.111589
0.677939 0.307891 0.115186
0.692856 0.323210 0.118782
0.707774 0.338528 0.122379
0.722691 0.353846 0.125976
0.066864 0.062704 0.068754
0.083880 0.070495 0.069358
0.100897 0.078286 0.069962
0.117914 0.086077 0.070565
0.134931 0.093868 0.071169
0.151947 0.101659 0.071773
0.174618 0.108217 0.072593
0.198420 0.114527 0.073456
0.222221 0.120838 0.074319
0.246023 0.127149 0.075182
0.269824 0.133459 0.076045
0.295010 0.140866 0.077246
0.320888 0.148822 0.078617
0.346766 0.156778 0.079987
0.372644 0.164734 0.081358
0.398523 0.172689 0.082729
0.424190 0.181577 0.084495
0.449645 0.191398 0.086657
0.475101 0.201218 0.088819
0.500557 0.211038 0.090981
0.526013 0.220859 0.093143
0.550242 0.231485 0.095603
0.572019 0.243721 0.098658
0.593796 0.255958 0.101714
0.615572 0.268195 0.104769
0.637349 0.280432 0.107824
0.657817 0.293094 0.110976
0.671737 0.307882 0.114609
0.685657 0.322670 0.118243
0.699577 0.337458 0.121876
0.713497 0.352245 0.125509
0.727417 0.367033 0.129143
0.070826 0.067746 0.072858
0.089509 0.076540 0.073273
0.108192 0.085334 0.073688
0.126876 0.094129 0.074102
0.145559 0.102923 0.074517
0.164242 0.111717 0.074932
0.187149 0.119288 0.075761
0.210900 0.126614 0.076673
0.234651 0.133940 0.077584
0.258402 0.141266 0.078496
0.282153 0.148592 0.079408
0.307634 0.156655 0.080605
0.333978 0.165086 0.081945
0.360323 0.173518 0.083285
0.386668 0.181949 0.084626
0.413012 0.190380 0.085966
0.438734 0.199688 0.087742
0.463833 0.209871 0.089954
0.488932 0.220054 0.092167
0.514031 0.230237 0.094379
0.539130 0.240421 0.096591
0.562852 0.251326 0.099110
0.583819 0.263674 0.102244
0.604786 0.276022 0.105377
0.625753 0.288370 0.108510
0.646721 0.300718 0.111643
0.666409 0.313427 0.114877
0.679706 0.327936 0.118616
0.693002 0.342444 0.122354
0.706299 0.356953 0.126093
0.719596 0.371462 0.129831
0.732892 0.385970 0.133570
0.074938 0.072850 0.077065
0.095396 0.082669 0.077297
0.115854 0.092488 0.077528
0.136312 0.102307 0.077760
0.156770 0.112126 0.077992
0.177228 0.121945 0.078224
0.200171 0.130631 0.079083
0.223611 0.139092 0.080068
0.247051 0.147552 0.081053
0.270491 0.156012 0.082038
0.293931 0.164473 0.083023
0.319625 0.173231 0.084220
0.346445 0.182138 0.085524
0.373266 0.191045 0.086827
0.400086 0.199952 0.088131
0.426906 0.208859 0.089434
0.452697 0.218587 0.091215
0.477457 0.229137 0.093473
0.502218 0.239686 0.095731
0.526979 0.250235 0.097989
0.551739 0.260784 0.100247
0.574982 0.271976 0.102822
0.595190 0.284452 0.106028
0.615398 0.296928 0.109234
0.635606 0.309405 0.112441
0.655814 0.321881 0.115647
0.674778 0.334658 0.118962
0.687526 0.348938 0.122819
0.700274 0.363218 0.126677
0.713021 0.377498 0.130534
0.725769 0.391778 0.134391
0.738517 0.406058 0.138249
0.079050 0.077955 0.081271
0.101283 0.088798 0.081320
0.123515 0.099642 0.081369
0.145748 0.110485 0.081418
0.167981 0.121329 0.081467
0.190213 0.132172 0.081515
0.213193 0.141975 0.082405
0.236322 0.151570 0.083463
0.259451 0.161164 0.084521
0.282580 0.170759 0.085580
0.305709 0.180354 0.086638
0.331617 0.189807 0.087835
0.358913 0.199190 0.089102
0.386209 0.208573 0.090369
0.413505 0.217955 0.091636
0.440801 0.227338 0.092903
0.466660 0.237487 0.094688
0.491082 0.248402 0.096992
0.515504 0.259317 0.099296
0.539926 0.270232 0.101600
0.564348 0.281147 0.103904
0.587112 0.292626 0.106533
0.606561 0.305230 0.109812
0.626009 0.317834 0.113092
0.645458 0.330439 0.116371
0.664907 0.343043 0.119651
0.683147 0.355889 0.123046
0.695346 0.369940 0.127023
0.707545 0.383991 0.130999
0.719744 0.398043 0.134975
0.731942 0.412094 0.138952
0.744141 0.426145 0.142928
0.083162 0.083060 0.085478
0.107169 0.094928 0.085344
0.131177 0.106796 0.085210
0.155184 0.118664 0.085075
0.179191 0.130532 0.084941
0.203199 0.142399 0.084807
0.226215 0.153318 0.085727
0.249033 0.164047 0.086859
0.271851 0.174776 0.087990
0.294669 0.185506 0.089121
0.317488 0.196235 0.090253
0.343608 0.206383 0.091450
0.371380 0.216242 0.092680
0.399152 0.226100 0.093911
0.426923 0.235959 0.095141
0.454695 0.245817 0.096372
0.480623 0.256387 0.098162
0.504706 0.267668 0.100511
0.528790 0.278949 0.102861
0.552873 0.290230 0.105210
0.576957 0.301511 0.107560
0.599242 0.313276 0.110244
0.617932 0.326008 0.113596
0.636621 0.338741 0.116949
0.655310 0.351473 0.120302
0.674000 0.364205 0.123655
0.691516 0.377120 0.127131
0.703166 0.390942 0.131226
0.714816 0.404765 0.135321
0.726466 0.418587 0.139417
0.738116 0.432410 0.143512
0.749766 0.446233 0.147607
0.087274 0.088164 0.089685
0.113056 0.101057 0.089367
0.138838 0.113949 0.089050
0.164620 0.126842 0.088733
0.190402 0.139734 0.088416
0.216184 0.152627 0.088099
0.239237 0.164662 0.089050
0.261744 0.176525 0.090254
0.284251 0.188389 0.091459
0.306758 0.200252 0.092663
0.329266 0.212115 0.093868
0.355600 0.222959 0.095065
0.383847 0.233294 0.096259
0.412094 0.243628 0.097453
0.440342 0.253962 0.098646
0.468589 0.264296 0.099840
0.494586 0.275287 0.101635
0.518331 0.286934 0.104030
0.542076 0.298580 0.106425
0.565821 0.310227 0.108821
0.589566 0.321874 0.111216
0.611373 0.333926 0.113955
0.629303 0.346786 0.117381
0.647233 0.359647 0.120806
0.665163 0.372507 0.124232
0.683093 0.385368 0.127658
0.699885 0.398351 0.131216
0.710986 0.411944 0.135430
0.722087 0.425538 0.139644
0.733188 0.439132 0.143858
0.744289 0.452726 0.148072
0.755390 0.466320 0.152286
0.093277 0.094876 0.094710
0.120937 0.108939 0.094198
0.148598 0.123003 0.093686
0.176258 0.137066 0.093173
0.203918 0.151130 0.092661
0.231579 0.165193 0.092149
0.255214 0.178170 0.093067
0.278044 0.190930 0.094272
0.300875 0.203690 0.095476
0.323705 0.216450 0.096681
0.346535 0.229210 0.097885
0.372225 0.240633 0.099099
0.399344 0.251388 0.100317
0.426463 0.262143 0.101535
0.453583 0.272898 0.102753
0.480702 0.283653 0.103972
0.506013 0.294976 0.105752
0.529518 0.306867 0.108096
0.553022 0.318758 0.110439
0.576526 0.330649 0.112783
0.600030 0.342540 0.115126
0.621454 0.354762 0.117832
0.638716 0.367647 0.121264
0.655978 0.380532 0.124696
0.673241 0.393417 0.128128
0.690503 0.406301 0.131560
0.706659 0.419256 0.135127
0.717284 0.432560 0.139369
0.727910 0.445865 0.143611
0.738535 0.459169 0.147852
0.749160 0.472473 0.152094
0.759786 0.485777 0.156335
0.100225 0.102391 0.100146
0.129815 0.117698 0.099432
0.159406 0.133006 0.098719
0.188997 0.148314 0.098005
0.218587 0.163621 0.097292
0.248178 0.178929 0.096578
0.272669 0.192761 0.097432
0.296139 0.206299 0.098600
0.319610 0.219836 0.099768
0.343081 0.233374 0.100936
0.366551 0.246911 0.102104
0.391167 0.258856 0.103342
0.416356 0.270004 0.104615
0.441545 0.281153 0.105888
0.466734 0.292301 0.107161
0.491923 0.303449 0.108434
0.516174 0.315060 0.110192
0.539486 0.327134 0.112435
0.562798 0.339208 0.114678
0.586110 0.351282 0.116921
0.609422 0.363356 0.119163
0.630510 0.375691 0.121793
0.647150 0.388548 0.125198
0.663791 0.401406 0.128603
0.680431 0.414263 0.132007
0.697071 0.427121 0.135412
0.712636 0.439999 0.138953
0.722822 0.452983 0.143176
0.733008 0.465967 0.147399
0.743194 0.478951 0.151623
0.753381 0.491935 0.155846
0.763567 0.504919 0.160069
0.107172 0.109906 0.105581
0.138693 0.126458 0.104666
0.170214 0.143009 0.103752
0.201735 0.159561 0.102837
0.233256 0.176113 0.101922
0.264777 0.192665 0.101007
0.290123 0.207352 0.101797
0.314234 0.221667 0.102929
0.338345 0.235983 0.104060
0.362456 0.250298 0.105191
0.386567 0.264613 0.106323
0.410110 0.277079 0.107585
0.433369 0.288621 0.108913
0.456627 0.300162 0.110241
0.479886 0.311704 0.111569
0.503145 0.323246 0.112897
0.526334 0.335145 0.114632
0.549454 0.347402 0.116774
0.572574 0.359658 0.118916
0.595694 0.371915 0.121059
0.618814 0.384172 0.123201
0.639567 0.396620 0.125754
0.655585 0.409450 0.129132
0.671603 0.422280 0.132509
0.687621 0.435110 0.135886
0.703639 0.447940 0.139263
0.718612 0.460742 0.142778
0.728359 0.473406 0.146983
0.738107 0.486070 0.151188
0.747854 0.498734 0.155393
0.757601 0.511398 0.159598
0.767348 0.524062 0.163803
0.114120 0.117421 0.111017
0.147571 0.135217 0.109901
0.181023 0.153013 0.108784
0.214474 0.170809 0.107668
0.247925 0.188604 0.106552
0.281376 0.206400 0.105436
0.307577 0.221943 0.106163
0.332329 0.237036 0.107257
0.357080 0.252129 0.108352
0.381831 0.267221 0.109447
0.406583 0.282314 0.110541
0.429052 0.295302 0.111828
0.450381 0.307237 0.113211
0.471709 0.319172 0.114594
0.493038 0.331107 0.115977
0.514366 0.343042 0.117360
0.536494 0.355229 0.119072
0.559422 0.367669 0.121113
0.582350 0.380109 0.123155
0.605278 0.392548 0.125196
0.628206 0.404988 0.127238
0.648623 0.417549 0.129716
0.664019 0.430351 0.133065
0.679415 0.443154 0.136415
0.694811 0.455957 0.139765
0.710207 0.468759 0.143114
0.724589 0.481485 0.146603
0.733897 0.493829 0.150790
0.743205 0.506173 0.154977
0.752513 0.518516 0.159164
0.761821 0.530860 0.163350
0.771129 0.543204 0.167537
0.121068 0.124936 0.116452
0.156450 0.143976 0.115135
0.191831 0.163016 0.113817
0.227212 0.182056 0.112500
0.262594 0.201096 0.111183
0.297975 0.220136 0.109865
0.325032 0.236534 0.110528
0.350423 0.252405 0.111586
0.375815 0.268275 0.112644
0.401207 0.284145 0.113702
0.426599 0.300015 0.114760
0.447995 0.313524 0.116071
0.467393 0.325853 0.117509
0.486791 0.338181 0.118947
0.506189 0.350510 0.120385
0.525588 0.362838 0.121822
0.546655 0.375314 0.123512
0.569391 0.387936 0.125453
0.592126 0.400559 0.127393
0.614862 0.413182 0.129334
0.637598 0.425804 0.131275
0.657680 0.438478 0.133677
0.672454 0.451253 0.136999
0.687228 0.464028 0.140321
0.702002 0.476803 0.143643
0.716776 0.489579 0.146966
0.730566 0.502228 0.150429
0.739435 0.514252 0.154597
0.748303 0.526275 0.158766
0.757172 0.538299 0.162934
0.766041 0.550322 0.167103
0.774910 0.562346 0.171271
0.131632 0.135240 0.122218
0.168523 0.155359 0.120723
0.205413 0.175479 0.119227
0.242304 0.195598 0.117731
0.279195 0.215718 0.116236
0.316086 0.235837 0.114740
0.343741 0.252941 0.115319
0.369549 0.269443 0.116313
0.395357 0.285944 0.117307
0.421165 0.302446 0.118301
0.446973 0.318947 0.119295
0.467754 0.332871 0.120603
0.486023 0.345506 0.122069
0.504291 0.358141 0.123534
0.522560 0.370776 0.124999
0.540828 0.383410 0.126464
0.560676 0.395897 0.128110
0.582104 0.408236 0.129937
0.603532 0.420576 0.131763
0.624959 0.432915 0.133590
0.646387 0.445254 0.135416
0.665404 0.457680 0.137700
0.679602 0.470282 0.140899
0.693800 0.482883 0.144098
0.707997 0.495484 0.147296
0.722195 0.508086 0.150495
0.735428 0.520521 0.153838
0.743835 0.532129 0.157901
0.752242 0.543736 0.161964
0.760649 0.555343 0.166028
0.769056 0.566950 0.170091
0.777463 0.578558 0.174154
0.145811 0.148332 0.128315
0.183791 0.169366 0.126664
0.221770 0.190400 0.125013
0.259749 0.211435 0.123362
0.297729 0.232469 0.121711
0.335708 0.253503 0.120059
0.363705 0.271164 0.120536
0.389705 0.288150 0.121439
0.415705 0.305137 0.122342
0.441705 0.322123 0.123244
0.467705 0.339109 0.124147
0.488331 0.353341 0.125424
0.506270 0.366195 0.126890
0.524209 0.379050 0.128355
0.542149 0.391904 0.129820
0.560088 0.404759 0.131285
0.578559 0.416980 0.132867
0.597563 0.428569 0.134566
0.616566 0.440158 0.136264
0.635569 0.451747 0.137962
0.654573 0.463336 0.139661
0.671797 0.475156 0.141786
0.685464 0.487437 0.144766
0.699132 0.499718 0.147745
0.712799 0.511999 0.150724
0.726466 0.524281 0.153703
0.739175 0.536364 0.156831
0.747097 0.547459 0.160702
0.755020 0.558554 0.164573
0.762942 0.569649 0.168444
0.770864 0.580744 0.172315
0.778786 0.591839 0.176187
0.159991 0.161424 0.134413
0.199059 0.183373 0.132606
0.238126 0.205322 0.130799
0.277194 0.227271 0.128992
0.316262 0.249220 0.127186
0.355330 0.271170 0.125379
0.383669 0.289387 0.125754
0.409861 0.306858 0.126565
0.436053 0.324329 0.127376
0.462245 0.341800 0.128187
0.488437 0.359271 0.128998
0.508908 0.373811 0.130245
0.526518 0.386885 0.131711
0.544128 0.399959 0.133176
0.561738 0.413033 0.134641
0.579347 0.426107 0.136106
0.596442 0.438063 0.137624
0.613021 0.448902 0.139194
0.629600 0.459741 0.140765
0.646180 0.470580 0.142335
0.662759 0.481419 0.143906
0.678190 0.492632 0.145872
0.691327 0.504593 0.148632
0.704463 0.516554 0.151392
0.717600 0.528515 0.154151
0.730736 0.540476 0.156911
0.742923 0.552207 0.159824
0.750360 0.562790 0.163503
0.757798 0.573372 0.167182
0.765235 0.583955 0.170861
0.772672 0.594538 0.174540
0.780109 0.605120 0.178219
0.174170 0.174517 0.140510
0.214326 0.197380 0.138547
0.254483 0.220244 0.136585
0.294640 0.243108 0.134623
0.334796 0.265972 0.132661
0.374953 0.288836 0.130698
0.403633 0.307610 0.130971
0.430017 0.325566 0.131691
0.456401 0.343522 0.132410
0.482785 0.361478 0.133130
0.509170 0.379434 0.133850
0.529485 0.394281 0.135066
0.546765 0.407575 0.136532
0.564046 0.420868 0.137997
0.581326 0.434162 0.139462
0.598607 0.447455 0.140927
0.614325 0.459147 0.142381
0.628480 0.469235 0.143823
0.642635 0.479324 0.145266
0.656790 0.489413 0.146708
0.670945 0.499501 0.148150
0.684583 0.510107 0.149959
0.697189 0.521748 0.152499
0.709795 0.533389 0.155039
0.722401 0.545030 0.157579
0.735007 0.556671 0.160119
0.746671 0.568050 0.162817
0.753623 0.578120 0.166304
0.760576 0.588190 0.169791
0.767528 0.598261 0.173277
0.774480 0.608331 0.176764
0.781433 0.618402 0.180251
0.188349 0.187609 0.146607
0.229594 0.211387 0.144489
0.270840 0.235166 0.142371
0.312085 0.258945 0.140254
0.353330 0.282723 0.138136
0.394575 0.306502 0.136018
0.423596 0.325832 0.136189
0.450173 0.344273 0.136817
0.476749 0.362714 0.137445
0.503326 0.381155 0.138073
0.529902 0.399596 0.138701
0.550062 0.414751 0.139887
0.567013 0.428264 0.141353
0.583964 0.441778 0.142818
0.600915 0.455291 0.144283
0.617867 0.468804 0.145748
0.632207 0.480230 0.147138
0.643938 0.489568 0.148452
0.655669 0.498907 0.149766
0.667400 0.508245 0.151081
0.679131 0.517584 0.152395
0.690976 0.527583 0.154045
0.703051 0.538904 0.156365
0.715127 0.550224 0.158686
0.727202 0.561545 0.161006
0.739277 0.572866 0.163327
0.750418 0.583892 0.165810
0.756886 0.593451 0.169104
0.763353 0.603009 0.172399
0.769821 0.612567 0.175694
0.776289 0.622125 0.178989
0.782756 0.631683 0.182284
0.207933 0.203994 0.152200
0.249501 0.228327 0.150003
0.291069 0.252661 0.147806
0.332638 0.276995 0.145609
0.374206 0.301328 0.143412
0.415775 0.325662 0.141215
0.444705 0.345298 0.141308
0.471108 0.363995 0.141860
0.497510 0.382692 0.142412
0.523913 0.401389 0.142964
0.550315 0.420086 0.143516
0.570088 0.435348 0.144659
0.586545 0.448891 0.146096
0.603002 0.462435 0.147534
0.619459 0.475978 0.148972
0.635916 0.489522 0.150410
0.649080 0.500655 0.151734
0.658951 0.509378 0.152944
0.668822 0.518100 0.154155
0.678692 0.526823 0.155365
0.688563 0.535545 0.156576
0.698860 0.544898 0.158075
0.710008 0.555511 0.160152
0.721156 0.566125 0.162228
0.732305 0.576738 0.164305
0.743453 0.587351 0.166382
0.753738 0.597694 0.168620
0.759709 0.606685 0.171664
0.765680 0.615676 0.174709
0.771650 0.624667 0.177754
0.777621 0.633657 0.180799
0.783591 0.642648 0.183843
0.238324 0.226964 0.156784
0.278685 0.251133 0.154661
0.319045 0.275302 0.152537
0.359406 0.299471 0.150413
0.399767 0.323640 0.148289
0.440128 0.347809 0.146165
0.468102 0.367250 0.146233
0.493599 0.385746 0.146739
0.519096 0.404242 0.147245
0.544593 0.422738 0.147752
0.570090 0.441233 0.148258
0.589012 0.456196 0.149330
0.604646 0.469392 0.150686
0.620280 0.482588 0.152041
0.635913 0.495784 0.153396
0.651547 0.508980 0.154752
0.663934 0.519765 0.156007
0.673073 0.528140 0.157163
0.682211 0.536515 0.158319
0.691350 0.544890 0.159474
0.700489 0.553265 0.160630
0.709724 0.561892 0.161995
0.719153 0.571023 0.163779
0.728581 0.580154 0.165563
0.738010 0.589286 0.167347
0.747439 0.598417 0.169131
0.756204 0.607412 0.171064
0.761653 0.615726 0.173743
0.767102 0.624040 0.176421
0.772551 0.632354 0.179100
0.778000 0.640668 0.181779
0.783450 0.648982 0.184458
0.268715 0.249935 0.161369
0.307868 0.273939 0.159318
0.347022 0.297944 0.157268
0.386175 0.321948 0.155217
0.425328 0.345952 0.153166
0.464482 0.369957 0.151116
0.491500 0.389203 0.151158
0.516091 0.407497 0.151618
0.540682 0.425791 0.152079
0.565274 0.444086 0.152539
0.589865 0.462380 0.152999
0.607936 0.477044 0.154002
0.622746 0.489892 0.155275
0.637557 0.502741 0.156548
0.652368 0.515589 0.157821
0.667178 0.528437 0.159094
0.678787 0.538875 0.160281
0.687194 0.546903 0.161382
0.695601 0.554930 0.162483
0.704008 0.562957 0.163583
0.712415 0.570985 0.164684
0.720589 0.578886 0.165915
0.728298 0.586535 0.167406
0.736007 0.594184 0.168897
0.743715 0.601834 0.170388
0.751424 0.609483 0.171880
0.758669 0.617130 0.173508
0.763597 0.624767 0.175821
0.768525 0.632404 0.178134
0.773452 0.640041 0.180446
0.778380 0.647678 0.182759
0.783308 0.655315 0.185072
0.299106 0.272906 0.165954
0.337052 0.296745 0.163976
0.374998 0.320585 0.161999
0.412943 0.344424 0.160021
0.450889 0.368264 0.158044
0.488835 0.392104 0.156066
0.514897 0.411155 0.156082
0.538583 0.429248 0.156497
0.562269 0.447341 0.156912
0.585954 0.465434 0.157326
0.609640 0.483527 0.157741
0.626860 0.497892 0.158673
0.640847 0.510393 0.159864
0.654835 0.522894 0.161055
0.668822 0.535394 0.162246
0.682809 0.547895 0.163436
0.693640 0.557985 0.164555
0.701315 0.565665 0.165601
0.708991 0.573345 0.166646
0.716666 0.581025 0.167692
0.724341 0.588704 0.168738
0.731454 0.595880 0.169835
0.737443 0.602047 0.171033
0.743432 0.608214 0.172232
0.749421 0.614382 0.173430
0.755409 0.620549 0.174629
0.761135 0.626848 0.175952
0.765541 0.633808 0.177899
0.769947 0.640768 0.179846
0.774353 0.647729 0.181793
0.778760 0.654689 0.183740
0.783166 0.661649 0.185687
0.329497 0.295876 0.170538
0.366235 0.319551 0.168634
0.402974 0.343226 0.166730
0.439712 0.366901 0.164826
0.476450 0.390576 0.162921
0.513188 0.414251 0.161017
0.538295 0.433107 0.161007
0.561075 0.450999 0.161376
0.583855 0.468891 0.161745
0.606635 0.486783 0.162114
0.629415 0.504674 0.162483
0.645784 0.518741 0.163345
0.658948 0.530894 0.164453
0.672112 0.543047 0.165562
0.685276 0.555200 0.166670
0.698440 0.567353 0.167779
0.708494 0.577095 0.168828
0.715437 0.584428 0.169819
0.722380 0.591760 0.170810
0.729323 0.599092 0.171801
0.736267 0.606424 0.172792
0.742319 0.612874 0.173755
0.746588 0.617559 0.174661
0.750857 0.622244 0.175566
0.755126 0.626930 0.176472
0.759395 0.631615 0.177378
0.763600 0.636567 0.178396
0.767485 0.642850 0.179977
0.771370 0.649133 0.181558
0.775254 0.655416 0.183139
0.779139 0.661699 0.184720
0.783024 0.667982 0.186301
0.364945 0.321383 0.174028
0.399793 0.344557 0.172307
0.434641 0.367730 0.170585
0.469489 0.390903 0.168864
0.504336 0.414077 0.167143
0.539184 0.437250 0.165421
0.562947 0.455692 0.165438
0.584494 0.473187 0.165803
0.606040 0.490683 0.166167
0.627587 0.508178 0.166531
0.649134 0.525674 0.166896
0.664456 0.539296 0.167705
0.676667 0.550981 0.168738
0.688878 0.562666 0.169770
0.701089 0.574351 0.170802
0.713301 0.586036 0.171834
0.722498 0.595327 0.172814
0.728682 0.602225 0.173741
0.734866 0.609122 0.174668
0.741050 0.616020 0.175595
0.747234 0.622917 0.176522
0.752276 0.628635 0.177355
0.755032 0.631994 0.178002
0.757789 0.635353 0.178648
0.760546 0.638712 0.179295
0.763302 0.642071 0.179941
0.766157 0.645793 0.180685
0.769500 0.651332 0.181917
0.772844 0.656871 0.183149
0.776187 0.662410 0.184381
0.779531 0.667949 0.185613
0.782874 0.673489 0.186845
0.425680 0.359573 0.172043
0.455222 0.380560 0.171054
0.484764 0.401547 0.170064
0.514306 0.422534 0.169074
0.543848 0.443521 0.168085
0.573390 0.464508 0.167095
0.593875 0.481442 0.167402
0.612549 0.497565 0.167968
0.631223 0.513689 0.168533
0.649897 0.529812 0.169099
0.668571 0.545935 0.169665
0.681870 0.558386 0.170511
0.692480 0.569001 0.171497
0.703090 0.579616 0.172484
0.713700 0.590230 0.173470
0.724310 0.600845 0.174457
0.732259 0.609167 0.175358
0.737546 0.615195 0.176176
0.742834 0.621224 0.176993
0.748122 0.627252 0.177810
