filters/luts/Sunshine 01_S.cube
# Created by: Adobe Photoshop Export Color Lookup Plugin
# LUT by SparkleStock. Enhanced with VOXCOLOR algorithms.
LUT_3D_SIZE 5
DOMAIN_MIN 0.000000 0.000000 0.000000
DOMAIN_MAX 0.903226 0.903226 0.903226
0.050794 0.039072 0.050794
0.142960 0.063027 0.061019
0.290063 0.095703 0.069463
0.478042 0.149931 0.081240
0.647918 0.248210 0.102249
0.074607 0.073110 0.076978
0.219786 0.149013 0.070867
0.397546 0.207163 0.069654
0.580035 0.268694 0.083715
0.705623 0.358956 0.118806
0.113285 0.119540 0.110252
0.324508 0.246813 0.100157
0.477095 0.349143 0.096786
0.640803 0.422372 0.106336
0.746517 0.502904 0.144524
0.205932 0.209217 0.150199
0.464698 0.369581 0.138558
0.607267 0.485906 0.140761
0.685326 0.556580 0.144059
0.765342 0.616344 0.167464
0.484856 0.401591 0.168498
0.637901 0.524395 0.168998
0.723031 0.608378 0.174601
0.760094 0.650238 0.178903
0.776056 0.667526 0.183248
0.062169 0.055323 0.114790
0.173757 0.085471 0.131876
0.371537 0.114183 0.134496
0.561278 0.157630 0.149104
0.682643 0.225149 0.171066
0.096997 0.118315 0.180862
0.227176 0.206129 0.217705
0.416925 0.243834 0.220986
0.613151 0.279348 0.231496
0.743619 0.347325 0.257857
0.147596 0.197937 0.249695
0.304647 0.328751 0.278833
0.473669 0.414584 0.258536
0.660426 0.458106 0.258887
0.798469 0.519543 0.285536
0.226388 0.301227 0.329500
0.429671 0.453217 0.343340
0.595561 0.565721 0.317744
0.699734 0.633747 0.313752
0.826428 0.677038 0.338063
0.420355 0.477633 0.418513
0.621333 0.602013 0.379421
0.735272 0.686630 0.373162
0.796487 0.741474 0.395266
0.842731 0.773909 0.439604
0.085691 0.084864 0.211178
0.165523 0.134051 0.275766
0.393567 0.186049 0.246645
0.609844 0.225353 0.239444
0.713132 0.278517 0.256926
0.131986 0.167519 0.315473
0.246506 0.262712 0.377283
0.435114 0.321082 0.390892
0.643245 0.353313 0.389625
0.769609 0.409287 0.405435
0.199565 0.285523 0.395132
0.334653 0.401555 0.454783
0.483280 0.473730 0.464465
0.672967 0.492909 0.457695
0.823937 0.528009 0.472399
0.284662 0.411552 0.496371
0.448516 0.534128 0.540137
0.588121 0.625375 0.543615
0.705103 0.677088 0.502000
0.856594 0.697400 0.503372
0.430037 0.557374 0.594994
0.601238 0.660152 0.605041
0.727578 0.738534 0.599829
0.807387 0.792217 0.588319
0.871609 0.821487 0.595609
0.119564 0.131301 0.334783
0.176979 0.200643 0.437636
0.321450 0.284114 0.469841
0.636089 0.393242 0.421212
0.740754 0.411857 0.401549
0.174462 0.225751 0.456050
0.277106 0.329120 0.523602
0.429233 0.425212 0.574272
0.656523 0.508237 0.571102
0.785639 0.550018 0.568956
0.256504 0.358156 0.543622
0.384641 0.471655 0.603577
0.518982 0.556657 0.644058
0.683898 0.604650 0.657919
0.831799 0.623934 0.655615
0.365175 0.510592 0.609638
0.504609 0.609229 0.665750
0.623366 0.680818 0.698334
0.718853 0.718943 0.705052
0.865791 0.717986 0.694457
0.478775 0.627357 0.695029
0.623919 0.712009 0.731613
0.737421 0.780320 0.759308
0.810304 0.825895 0.769123
0.884736 0.849866 0.747811
0.181047 0.236378 0.511749
0.217873 0.283031 0.566501
0.327825 0.375158 0.609635
0.543235 0.524804 0.648340
0.757348 0.645966 0.661470
0.226094 0.309167 0.580342
0.317165 0.399135 0.626043
0.451613 0.507827 0.677624
0.633808 0.629372 0.720545
0.794118 0.721023 0.744358
0.321204 0.440672 0.648071
0.438727 0.536906 0.691797
0.561187 0.624239 0.735991
0.712227 0.717076 0.778864
0.833493 0.771718 0.804264
0.439445 0.583897 0.702885
0.568064 0.668237 0.744933
0.683666 0.741487 0.787344
0.766859 0.790059 0.820169
0.867690 0.822160 0.843737
0.526460 0.668750 0.734640
0.673370 0.752707 0.782630
0.778207 0.818094 0.826176
0.844971 0.861252 0.858096
0.895033 0.884074 0.872823
