filters/luts/Sunshine 02.cube
# Created by: Adobe Photoshop Export Color Lookup Plugin
# LUT by SparkleStock. Enhanced with VOXCOLOR algorithms.
LUT_3D_SIZE 8
DOMAIN_MIN 0.000000 0.000000 0.000000
DOMAIN_MAX 0.903226 0.903226 0.903226
0.019536 0.015629 0.019536
0.084572 0.031321 0.021427
0.172508 0.051967 0.023183
0.278144 0.078199 0.025200
0.395526 0.110906 0.027729
0.514065 0.154201 0.030753
0.617638 0.211359 0.033306
0.700193 0.279688 0.034739
0.030690 0.036803 0.030501
0.112998 0.068010 0.026830
0.220901 0.098677 0.025928
0.340661 0.132178 0.026725
0.460659 0.170960 0.028503
0.569392 0.216742 0.031674
0.657181 0.270047 0.035593
0.722996 0.328416 0.039667
0.045193 0.060522 0.046020
0.154517 0.106726 0.035957
0.267384 0.150713 0.031419
0.387351 0.194326 0.030262
0.511948 0.239234 0.031006
0.613673 0.287919 0.034220
0.689342 0.339512 0.039660
0.743263 0.391590 0.046582
0.065328 0.089070 0.065540
0.206170 0.150971 0.048318
0.324791 0.208609 0.039748
0.437077 0.261574 0.036390
0.550913 0.310723 0.035805
0.648004 0.361750 0.038470
0.714230 0.412188 0.044795
0.759411 0.459704 0.053853
0.094915 0.125298 0.087849
0.266147 0.203465 0.063180
0.399100 0.272676 0.050650
0.501711 0.331959 0.045232
0.584842 0.382494 0.043243
0.674504 0.432954 0.044536
0.732357 0.481178 0.050525
0.770492 0.524228 0.060258
0.148986 0.178235 0.108835
0.337928 0.267671 0.078896
0.476980 0.344006 0.062859
0.577066 0.407302 0.055819
0.648414 0.457910 0.053611
0.699143 0.494612 0.053147
0.744652 0.536396 0.057136
0.776237 0.573517 0.065137
0.261665 0.259057 0.116586
0.434531 0.346591 0.088575
0.559373 0.420764 0.072944
0.645987 0.480795 0.065624
0.703311 0.526490 0.063135
0.736452 0.556508 0.062989
0.761587 0.581240 0.064814
0.779919 0.605156 0.069614
0.463791 0.371775 0.098547
0.573549 0.440580 0.083892
0.654951 0.500810 0.075509
0.711910 0.549309 0.071493
0.748469 0.584279 0.070188
0.767338 0.604905 0.070377
0.777339 0.616382 0.071196
0.784671 0.627424 0.073707
0.025397 0.026783 0.064532
0.090140 0.044671 0.054420
0.193853 0.068446 0.050603
0.317554 0.097032 0.051766
0.444852 0.129666 0.056819
0.558707 0.167252 0.065699
0.647960 0.211140 0.076423
0.713634 0.259532 0.086493
0.038015 0.058204 0.090280
0.107678 0.100445 0.096704
0.221575 0.131199 0.096110
0.353130 0.159925 0.095449
0.481174 0.193123 0.099497
0.590096 0.231158 0.108863
0.672121 0.274818 0.121010
0.730224 0.322184 0.132432
0.056158 0.094034 0.119338
0.135992 0.150238 0.130310
0.252117 0.194533 0.121660
0.386195 0.233038 0.111631
0.520481 0.270855 0.111840
0.626706 0.312562 0.118057
0.701728 0.358003 0.128652
0.752571 0.405028 0.140626
0.079123 0.133755 0.151092
0.173854 0.199707 0.160164
0.296337 0.257831 0.141344
0.428217 0.308375 0.121474
0.554310 0.352961 0.117264
0.659790 0.398511 0.120411
0.729079 0.445140 0.129574
0.773997 0.490866 0.142747
0.107759 0.177960 0.185001
0.221435 0.253308 0.188920
0.359578 0.321393 0.163809
0.486403 0.381021 0.138536
0.583804 0.432332 0.131240
0.684874 0.478987 0.134232
0.749373 0.524436 0.144101
0.790151 0.566894 0.159921
0.151145 0.233238 0.220916
0.286951 0.314870 0.211747
0.433284 0.389507 0.182695
0.559851 0.454253 0.157272
0.648684 0.507309 0.150479
0.709574 0.547231 0.158288
0.764354 0.588828 0.170651
0.801675 0.626382 0.189678
0.234477 0.309328 0.251891
0.386106 0.390587 0.221533
0.523854 0.463722 0.191804
0.633596 0.525915 0.172641
0.707891 0.575517 0.170091
0.752495 0.611437 0.182806
0.786805 0.641229 0.202757
0.812234 0.669180 0.227312
0.384259 0.412173 0.268723
0.533498 0.483796 0.212410
0.638331 0.544808 0.186971
0.710721 0.595094 0.181179
0.760489 0.634842 0.186983
0.790671 0.663121 0.206007
0.809899 0.683484 0.234466
0.825075 0.702274 0.267007
0.035007 0.044098 0.124928
0.086291 0.068846 0.134747
0.196580 0.093439 0.110214
0.335009 0.121614 0.088267
0.475256 0.155134 0.090869
0.590545 0.190329 0.101353
0.671768 0.227115 0.116430
0.726493 0.264669 0.132582
0.051992 0.085556 0.168259
0.110372 0.132982 0.188857
0.217965 0.167658 0.179578
0.355016 0.197633 0.165015
0.500380 0.228845 0.161933
0.613842 0.263332 0.170433
0.691349 0.300720 0.185786
0.741972 0.339649 0.202553
0.072053 0.131089 0.202786
0.138967 0.190707 0.228759
0.242872 0.238555 0.225975
0.376997 0.277070 0.214630
0.526784 0.309777 0.209620
0.639298 0.345779 0.216816
0.713440 0.384299 0.231769
0.760358 0.423731 0.248780
0.096983 0.181170 0.240795
0.174590 0.247344 0.266148
0.280634 0.306485 0.263838
0.409745 0.355552 0.249640
0.550877 0.394525 0.237165
0.664851 0.433183 0.241620
0.736794 0.473154 0.254592
0.780953 0.512917 0.271509
0.128193 0.235879 0.288572
0.219530 0.306596 0.307275
0.336199 0.372201 0.301789
0.459399 0.430056 0.279587
0.576507 0.478891 0.251903
0.689198 0.519904 0.252063
0.759560 0.560971 0.261976
0.802145 0.600761 0.279100
0.168047 0.294847 0.335062
0.279031 0.368949 0.341847
0.404594 0.438073 0.331311
0.529848 0.499857 0.307717
0.640732 0.552319 0.280044
0.712879 0.591377 0.281881
0.775961 0.630068 0.293954
0.817605 0.665923 0.315197
0.234111 0.366775 0.378858
0.366048 0.440307 0.364976
0.494071 0.507670 0.345521
0.609324 0.567391 0.323852
0.703512 0.618018 0.306022
0.759620 0.654980 0.314264
0.801455 0.685023 0.335994
0.831830 0.713275 0.365506
0.348262 0.458644 0.414458
0.492829 0.525495 0.372790
0.610154 0.584326 0.341881
0.700045 0.634709 0.325514
0.763817 0.676314 0.326006
0.803690 0.706906 0.345415
0.829322 0.729709 0.379195
0.849101 0.750491 0.419668
0.048604 0.068124 0.198125
0.085641 0.102752 0.235961
0.182746 0.131289 0.212723
0.325526 0.160375 0.170450
0.491223 0.193712 0.141732
0.612110 0.226846 0.147983
0.690251 0.259050 0.162163
0.738638 0.290387 0.179913
0.070358 0.118865 0.257081
0.120242 0.169362 0.290455
0.211767 0.210337 0.285336
0.345118 0.245746 0.261320
0.507540 0.278744 0.236622
0.631577 0.310991 0.237028
0.708696 0.344129 0.249958
0.754790 0.377317 0.268232
0.093122 0.172608 0.297426
0.154663 0.232690 0.331610
0.242378 0.284708 0.341178
0.366634 0.327132 0.333040
0.522615 0.360534 0.316617
0.648192 0.392251 0.316391
0.724761 0.425298 0.329980
0.769593 0.458531 0.348848
0.120959 0.231069 0.336139
0.193654 0.295872 0.370138
0.281961 0.355111 0.387726
0.397150 0.404273 0.386238
0.538917 0.441815 0.369763
0.666274 0.474338 0.369104
0.742714 0.507870 0.381973
0.786887 0.541246 0.400361
0.156163 0.294517 0.384347
0.240472 0.360749 0.413098
0.334858 0.422406 0.430542
0.442333 0.477026 0.424528
0.562968 0.522861 0.395648
0.688112 0.557710 0.390953
0.764143 0.592769 0.400178
0.808123 0.627058 0.416941
0.197323 0.358767 0.439924
0.296566 0.425683 0.458987
0.399455 0.487958 0.470625
0.509736 0.544608 0.462704
0.624217 0.594150 0.433705
0.710375 0.630331 0.418873
0.781785 0.664451 0.425188
0.827102 0.696771 0.443117
0.254609 0.427295 0.489921
0.369604 0.492626 0.495809
0.481628 0.552802 0.494599
0.589786 0.607510 0.482792
0.689900 0.655743 0.462003
0.759578 0.691438 0.453536
0.808848 0.719162 0.466434
0.843277 0.745404 0.490932
0.345042 0.507733 0.533139
0.469478 0.566934 0.521956
0.585870 0.621550 0.501241
0.684238 0.670004 0.483310
0.758555 0.710978 0.476902
0.808708 0.741465 0.485409
0.839870 0.763345 0.510621
0.862767 0.782865 0.544751
0.066186 0.099342 0.281051
0.096198 0.145186 0.338079
0.160112 0.183189 0.352929
0.290388 0.217155 0.312484
0.485857 0.249875 0.229320
0.624125 0.281783 0.218793
0.704416 0.308781 0.224047
0.749905 0.334058 0.236544
0.091435 0.158170 0.350033
0.136248 0.211766 0.390758
0.206650 0.259900 0.411002
0.325204 0.303154 0.394010
0.493001 0.341709 0.341828
0.636855 0.373141 0.325598
0.719930 0.402783 0.329485
0.766185 0.432056 0.343647
0.118886 0.218989 0.400275
0.176288 0.278850 0.435967
0.251941 0.333778 0.459910
0.360363 0.382456 0.458591
0.504381 0.423702 0.430228
0.650105 0.454262 0.412685
0.734654 0.484402 0.416449
0.781371 0.514671 0.431579
0.151435 0.283073 0.436260
0.219929 0.346279 0.472930
0.300780 0.404008 0.498753
0.400139 0.454924 0.507168
0.521455 0.497647 0.496990
0.664944 0.527665 0.483494
0.749269 0.557061 0.489149
0.795894 0.586085 0.504838
0.190713 0.350874 0.467210
0.269627 0.413873 0.505205
0.356483 0.470743 0.530673
0.448584 0.521690 0.544232
0.548343 0.565917 0.546766
0.682328 0.596406 0.538286
0.764714 0.624780 0.546311
0.811068 0.651555 0.561901
0.236026 0.420740 0.527013
0.326390 0.481251 0.555348
0.420451 0.537331 0.575761
0.513840 0.588484 0.589175
0.605223 0.633595 0.592400
0.704061 0.666832 0.560922
0.783835 0.695755 0.559951
0.832877 0.723107 0.572014
0.289841 0.486606 0.578949
0.391919 0.544377 0.597608
0.492736 0.598394 0.610916
0.587088 0.647397 0.619322
0.672612 0.690260 0.620154
0.754595 0.724120 0.594420
0.811727 0.748762 0.594116
0.850377 0.771841 0.608122
0.364240 0.555789 0.623026
0.473580 0.608168 0.630800
0.577332 0.657729 0.633959
0.670079 0.702517 0.631995
0.748054 0.741019 0.625773
0.807942 0.770911 0.621326
0.845026 0.790997 0.631892
0.871095 0.808113 0.652387
0.087739 0.139990 0.368774
0.115847 0.195640 0.432828
0.163033 0.241791 0.466522
0.251082 0.284320 0.465889
0.396310 0.327724 0.429215
0.618301 0.374415 0.354141
0.714253 0.392046 0.330341
0.759650 0.403760 0.323260
0.115329 0.205111 0.439073
0.157220 0.259109 0.479345
0.217177 0.312567 0.511196
0.307943 0.363846 0.522769
0.439338 0.411910 0.506015
0.626121 0.456651 0.455719
0.724102 0.481874 0.439126
0.775369 0.503939 0.439377
0.146678 0.269943 0.491773
0.201501 0.327141 0.524269
0.270437 0.383179 0.553449
0.361702 0.436975 0.570400
0.481331 0.487207 0.568177
0.637617 0.529764 0.538221
0.735648 0.557650 0.525799
0.790601 0.583695 0.529138
0.183886 0.336491 0.531295
0.250425 0.396676 0.563220
0.326612 0.452794 0.590425
0.415847 0.505486 0.609650
0.521467 0.554426 0.617311
0.652855 0.594250 0.603187
0.749056 0.621980 0.594108
0.805619 0.648198 0.598698
0.228085 0.405426 0.561989
0.305130 0.465205 0.594275
0.388049 0.520346 0.621025
0.473449 0.570353 0.641819
0.562032 0.614714 0.655106
0.672287 0.651171 0.651877
0.764576 0.677581 0.646832
0.820802 0.702145 0.652559
0.278960 0.473097 0.589006
0.366548 0.530387 0.622171
0.454161 0.582572 0.648946
0.538950 0.629158 0.669217
0.619625 0.669772 0.682132
0.699265 0.702858 0.681514
0.783465 0.727569 0.681186
0.837294 0.749273 0.688149
0.331995 0.536280 0.635966
0.428596 0.589792 0.662061
0.521936 0.639583 0.684029
0.607915 0.684241 0.701558
0.683942 0.722790 0.713923
0.749277 0.753874 0.716990
0.811479 0.775866 0.710926
0.855580 0.795266 0.714075
0.394831 0.595467 0.677853
0.497660 0.644366 0.695864
0.594229 0.690982 0.711901
0.679458 0.732979 0.724796
0.749987 0.768722 0.733779
0.803482 0.796735 0.738204
0.846402 0.815890 0.737638
0.877486 0.831254 0.744156
0.116224 0.200646 0.460278
0.140722 0.254271 0.516233
0.178975 0.301145 0.551919
0.245908 0.347744 0.568097
0.354663 0.398905 0.564450
0.530597 0.457452 0.531432
0.686243 0.507207 0.507119
0.768984 0.519791 0.473637
0.142375 0.261815 0.519941
0.180674 0.310427 0.552662
0.234808 0.363881 0.584819
0.311625 0.418731 0.607628
0.417683 0.472928 0.614303
0.570024 0.528430 0.597357
0.704752 0.574341 0.583159
0.782122 0.598217 0.568010
0.175567 0.324562 0.566256
0.227781 0.375874 0.592069
0.291801 0.429013 0.619593
0.373845 0.484238 0.643107
0.478107 0.540634 0.657351
0.608890 0.592147 0.652908
0.725169 0.633494 0.646303
0.796649 0.661648 0.641706
0.216855 0.389843 0.602617
0.281408 0.444484 0.628262
0.353569 0.496079 0.652904
0.436477 0.547842 0.675496
0.532541 0.600825 0.693839
0.646083 0.648414 0.698481
0.746630 0.685065 0.697623
0.812025 0.713142 0.698655
0.266068 0.457229 0.631652
0.340763 0.511455 0.657380
0.421514 0.563365 0.682301
0.502261 0.611022 0.705096
0.582222 0.654108 0.724154
0.681156 0.697536 0.734615
0.768416 0.729684 0.738249
0.827853 0.755481 0.742320
0.319821 0.520875 0.653083
0.405192 0.573462 0.680501
0.490568 0.622904 0.706219
0.571947 0.667779 0.729106
0.646839 0.707184 0.748086
0.715536 0.740367 0.760611
0.789954 0.767734 0.767847
0.844121 0.790219 0.773697
0.370510 0.575174 0.679169
0.468189 0.626941 0.706641
0.558809 0.674837 0.732093
0.639531 0.717314 0.754486
0.708588 0.753389 0.772977
0.764523 0.782133 0.785994
0.818508 0.804714 0.790308
0.861592 0.822986 0.794188
0.422423 0.622510 0.707035
0.528703 0.672463 0.731934
0.623453 0.718947 0.755803
0.703667 0.759720 0.777036
0.767759 0.793371 0.794394
0.814929 0.819143 0.806318
0.852524 0.838143 0.811746
0.883024 0.852352 0.816679
0.157462 0.296026 0.567285
0.172300 0.327580 0.597132
0.202245 0.361346 0.618926
0.258568 0.403182 0.634562
0.349559 0.457076 0.645502
0.485669 0.525228 0.651442
0.650763 0.598940 0.650521
0.759182 0.639875 0.639266
0.175709 0.335021 0.600047
0.208258 0.371438 0.620106
0.256545 0.415813 0.642568
0.325243 0.466089 0.663149
0.418017 0.521174 0.679056
0.542809 0.584218 0.690355
0.682668 0.647179 0.694931
0.777448 0.688825 0.694964
0.206760 0.384465 0.629051
0.255625 0.427542 0.647609
0.314078 0.472918 0.668796
0.389692 0.524155 0.690626
0.486133 0.582156 0.711089
0.598878 0.639352 0.726292
0.715784 0.692571 0.735378
0.797492 0.731496 0.741937
0.250407 0.442627 0.655348
0.312234 0.489769 0.675115
0.379637 0.534576 0.695819
0.457082 0.582491 0.717674
0.547279 0.636039 0.740045
0.650841 0.689117 0.758549
0.748280 0.734141 0.771094
0.818028 0.768547 0.780858
0.304760 0.506341 0.679371
0.375777 0.552859 0.699509
0.454275 0.599919 0.721900
0.530259 0.643364 0.744320
0.601759 0.682889 0.765467
0.696703 0.732589 0.786505
0.778487 0.771084 0.801425
0.838006 0.800636 0.812392
0.362283 0.565675 0.698832
0.443333 0.611390 0.720387
0.526851 0.657079 0.744040
0.606139 0.699802 0.767870
0.676498 0.737511 0.790159
0.735781 0.769081 0.808402
0.803634 0.801602 0.824430
0.856445 0.827736 0.835932
0.409890 0.610327 0.712388
0.505942 0.658438 0.737766
0.595044 0.704179 0.763867
0.673576 0.745294 0.788871
0.738966 0.780139 0.811263
0.787890 0.806877 0.829037
0.833701 0.830560 0.842586
0.873071 0.850363 0.852515
0.448240 0.644149 0.727150
0.559803 0.695460 0.755285
0.655554 0.742608 0.783533
0.733791 0.783300 0.809686
0.793999 0.816116 0.832089
0.835841 0.840270 0.849216
0.866242 0.858268 0.860801
0.892835 0.872654 0.869023
