filters/luts/Sunshine 04.cube
# Created by: Adobe Photoshop Export Color Lookup Plugin
# LUT by SparkleStock. Enhanced with VOXCOLOR algorithms.
LUT_3D_SIZE 5
DOMAIN_MIN 0.000000 0.000000 0.000000
DOMAIN_MAX 0.903226 0.903226 0.903226
0.015629 0.019536 0.039072
0.117137 0.064713 0.056702
0.265264 0.118075 0.066990
0.456442 0.185293 0.072197
0.649226 0.292119 0.076017
0.036205 0.055733 0.067257
0.199975 0.135516 0.065900
0.390434 0.213245 0.071563
0.574051 0.295949 0.076402
0.708267 0.389587 0.085294
0.069006 0.101170 0.103336
0.310146 0.224441 0.083067
0.490490 0.327086 0.080518
0.657639 0.422657 0.083520
0.754841 0.512501 0.096250
0.155319 0.177557 0.140478
0.451326 0.335723 0.102465
0.621025 0.456121 0.094729
0.712128 0.532380 0.094245
0.780787 0.607512 0.103159
0.459049 0.348978 0.128812
0.635750 0.481620 0.109308
0.735263 0.580099 0.105062
0.778686 0.631372 0.106532
0.792705 0.653709 0.108290
0.029564 0.040797 0.126401
0.143370 0.093720 0.128652
0.344681 0.157911 0.121607
0.540506 0.224582 0.137923
0.678386 0.299635 0.165406
0.061792 0.105027 0.186576
0.198613 0.201809 0.216437
0.413426 0.279420 0.214445
0.607764 0.353942 0.229458
0.726507 0.433281 0.259553
0.107248 0.180736 0.251245
0.280717 0.304760 0.277205
0.493212 0.409832 0.255190
0.683731 0.499930 0.261820
0.784122 0.583196 0.293042
0.181033 0.274078 0.325678
0.404780 0.417166 0.329908
0.617003 0.539800 0.301951
0.740787 0.625088 0.314181
0.826574 0.700378 0.357159
0.378965 0.432588 0.393266
0.611210 0.563879 0.342613
0.749901 0.664397 0.338159
0.823853 0.730594 0.378105
0.858841 0.769698 0.450186
0.056615 0.079838 0.241412
0.141199 0.148645 0.290194
0.372823 0.228943 0.236109
0.598203 0.300236 0.223179
0.711748 0.363078 0.253098
0.105790 0.170374 0.331000
0.225944 0.275150 0.384226
0.429093 0.368693 0.381521
0.651228 0.444892 0.374261
0.757832 0.512181 0.406119
0.171458 0.276865 0.396521
0.318558 0.394988 0.455927
0.492433 0.492544 0.471600
0.700039 0.571276 0.474419
0.800655 0.636846 0.506793
0.261213 0.395142 0.487215
0.436529 0.514454 0.531581
0.605040 0.615243 0.547433
0.750881 0.690547 0.526757
0.847459 0.753236 0.556040
0.411317 0.533511 0.569952
0.597240 0.638451 0.581737
0.742787 0.723818 0.582803
0.839929 0.785802 0.593514
0.884413 0.820521 0.638890
0.097727 0.141565 0.367742
0.163827 0.231904 0.452299
0.315426 0.324745 0.470039
0.636002 0.445152 0.404866
0.747419 0.481766 0.391583
0.161298 0.251443 0.467269
0.271631 0.356050 0.526950
0.431284 0.464018 0.568387
0.668916 0.567735 0.552953
0.791476 0.625670 0.557372
0.248903 0.373424 0.537651
0.385969 0.484344 0.595934
0.532537 0.581149 0.640399
0.707517 0.664245 0.652623
0.827274 0.720666 0.661001
0.358673 0.501099 0.591213
0.509866 0.603307 0.650848
0.642575 0.684140 0.692940
0.754100 0.743951 0.714125
0.860085 0.791477 0.727127
0.481887 0.616769 0.667466
0.636111 0.704093 0.711057
0.758150 0.774976 0.745215
0.841452 0.824611 0.764194
0.899197 0.854966 0.771919
0.176951 0.278900 0.523014
0.219547 0.335902 0.567087
0.335631 0.423381 0.601875
0.556720 0.558428 0.633657
0.777620 0.672839 0.645796
0.229651 0.355894 0.575587
0.325213 0.438943 0.616627
0.464593 0.541607 0.663724
0.651652 0.656330 0.704415
0.814183 0.746266 0.729289
0.331979 0.471058 0.629480
0.453344 0.559747 0.673360
0.580979 0.644800 0.718698
0.735324 0.738674 0.762563
0.850787 0.803435 0.789164
0.452481 0.589612 0.675830
0.586647 0.672563 0.722668
0.707622 0.746178 0.769172
0.795715 0.799139 0.804309
0.883429 0.848014 0.830232
0.537747 0.662615 0.704384
0.693302 0.750301 0.761454
0.803141 0.815437 0.808819
0.871100 0.857590 0.840741
0.913757 0.884767 0.857381
