filters/luts/Sunshine 05_S.cube
# Created by: Adobe Photoshop Export Color Lookup Plugin
# LUT by SparkleStock. Enhanced with VOXCOLOR algorithms.
LUT_3D_SIZE 8
DOMAIN_MIN 0.000000 0.000000 0.000000
DOMAIN_MAX 0.903226 0.903226 0.903226
0.015629 0.046886 0.042979
0.074993 0.061822 0.043925
0.150293 0.079704 0.046343
0.236173 0.102422 0.050786
0.328055 0.132459 0.057592
0.422585 0.178211 0.067045
0.516799 0.243499 0.077443
0.605522 0.322116 0.087109
0.027729 0.070897 0.055646
0.102754 0.109105 0.050444
0.195997 0.137403 0.048270
0.297404 0.164147 0.049493
0.398708 0.196068 0.054579
0.492798 0.239478 0.065642
0.575474 0.297789 0.082285
0.644334 0.365410 0.102136
0.043444 0.097586 0.072464
0.142840 0.153571 0.063810
0.239674 0.200304 0.058271
0.341532 0.238865 0.056982
0.449874 0.272256 0.061049
0.544044 0.312184 0.073514
0.619932 0.362637 0.095072
0.677279 0.419837 0.123271
0.066793 0.129788 0.093749
0.192925 0.200557 0.082997
0.293652 0.263671 0.076613
0.387918 0.314602 0.074425
0.486986 0.352646 0.077020
0.580472 0.388988 0.089584
0.651673 0.431434 0.113628
0.702336 0.478466 0.146713
0.102619 0.170460 0.119296
0.251658 0.254017 0.107007
0.363900 0.325151 0.102559
0.449195 0.383647 0.101626
0.520220 0.429771 0.102456
0.606955 0.463003 0.112805
0.672685 0.497856 0.135992
0.718500 0.534853 0.169265
0.165576 0.227177 0.147654
0.322665 0.316736 0.135366
0.438914 0.389827 0.132576
0.523562 0.448311 0.135022
0.585402 0.493630 0.139273
0.632472 0.523495 0.143182
0.685858 0.551567 0.160539
0.726062 0.579276 0.187628
0.275482 0.307369 0.170657
0.414153 0.389634 0.162515
0.518049 0.456226 0.162508
0.593055 0.508386 0.167092
0.644827 0.547381 0.173224
0.676747 0.572416 0.178012
0.705308 0.590310 0.186286
0.729930 0.607791 0.202154
0.444240 0.412635 0.177124
0.534542 0.472341 0.179826
0.606188 0.522686 0.186109
0.659473 0.562363 0.193647
0.695468 0.590828 0.200550
0.715082 0.607569 0.205143
0.725491 0.616722 0.207951
0.735021 0.624939 0.214301
0.017330 0.057474 0.082492
0.082110 0.074312 0.082560
0.172053 0.091297 0.088454
0.273570 0.111723 0.098532
0.375479 0.138667 0.111559
0.468251 0.178126 0.127745
0.549000 0.231997 0.145120
0.617317 0.293733 0.161415
0.033089 0.089095 0.105405
0.107525 0.131359 0.119268
0.205873 0.155376 0.126950
0.314616 0.173830 0.133609
0.422576 0.196483 0.143032
0.519669 0.229407 0.156862
0.600248 0.277113 0.174722
0.662068 0.335681 0.194653
0.055574 0.125261 0.131640
0.140428 0.183523 0.149072
0.239325 0.226330 0.151222
0.348914 0.256673 0.150971
0.463500 0.279477 0.156988
0.564950 0.309300 0.168736
0.646286 0.351660 0.187302
0.705248 0.404541 0.211190
0.085631 0.165514 0.160780
0.181839 0.234121 0.178144
0.283493 0.295206 0.174596
0.389041 0.342052 0.168081
0.496405 0.372898 0.170555
0.600307 0.400930 0.180625
0.682176 0.437548 0.199697
0.740689 0.482532 0.226650
0.124898 0.210211 0.192638
0.233090 0.286152 0.210308
0.344499 0.357128 0.205340
0.443778 0.417554 0.196213
0.526515 0.463401 0.195650
0.625309 0.490546 0.204441
0.705616 0.520781 0.223284
0.764611 0.556343 0.251329
0.181560 0.264294 0.228462
0.300070 0.343857 0.243411
0.416869 0.418504 0.239068
0.516426 0.482742 0.232461
0.590729 0.532883 0.234568
0.650311 0.566521 0.242019
0.720333 0.593033 0.258337
0.777386 0.620025 0.283696
0.270048 0.334655 0.265759
0.392330 0.412760 0.272315
0.501965 0.483212 0.269799
0.590996 0.542716 0.268587
0.655627 0.589401 0.275177
0.700323 0.622778 0.286999
0.743534 0.647115 0.302387
0.785290 0.668720 0.323452
0.402629 0.424766 0.298749
0.516898 0.494972 0.291394
0.602801 0.552563 0.292152
0.667012 0.599157 0.299390
0.714996 0.636253 0.311665
0.747490 0.663745 0.328429
0.771472 0.684821 0.346829
0.796473 0.702761 0.367546
0.020371 0.071945 0.132853
0.074808 0.092967 0.146453
0.175532 0.113907 0.144311
0.293679 0.135616 0.145570
0.406987 0.160000 0.161085
0.502462 0.195238 0.179546
0.576276 0.241753 0.199612
0.632032 0.293031 0.219240
0.041966 0.109518 0.166841
0.110006 0.152500 0.192429
0.210112 0.179143 0.202854
0.326155 0.197901 0.209378
0.443689 0.216423 0.219657
0.544872 0.244626 0.233240
0.623104 0.286003 0.250078
0.678395 0.336808 0.268743
0.070828 0.152695 0.195830
0.147844 0.209393 0.226403
0.243215 0.251685 0.240416
0.354475 0.279152 0.247158
0.475384 0.295125 0.253836
0.582171 0.317822 0.264492
0.666242 0.352701 0.280404
0.725297 0.398439 0.300459
0.107265 0.200013 0.227961
0.191243 0.265126 0.259199
0.284485 0.323065 0.272379
0.388574 0.365486 0.275428
0.502097 0.389659 0.275817
0.612752 0.409207 0.284010
0.702005 0.438052 0.299160
0.766644 0.476897 0.320611
0.151643 0.250433 0.267518
0.242655 0.320899 0.297260
0.339826 0.387916 0.308796
0.436109 0.445893 0.306482
0.529562 0.489864 0.297324
0.636763 0.510479 0.302524
0.727998 0.535107 0.315776
0.797767 0.567050 0.337071
0.206677 0.304576 0.308111
0.306339 0.377649 0.335303
0.407658 0.447948 0.346590
0.504296 0.511501 0.345174
0.590919 0.564525 0.336621
0.660003 0.598761 0.338436
0.742985 0.621870 0.349538
0.813929 0.646218 0.369255
0.281954 0.368148 0.351392
0.388998 0.441277 0.370373
0.490114 0.509666 0.379305
0.581186 0.571208 0.380934
0.658383 0.623788 0.379356
0.712953 0.661613 0.386374
0.766965 0.688131 0.398391
0.822641 0.710351 0.416188
0.388846 0.445708 0.396136
0.497373 0.515272 0.399834
0.589947 0.576798 0.403469
0.665640 0.629713 0.409074
0.724506 0.673761 0.418361
0.766629 0.707700 0.433867
0.799752 0.734709 0.452448
0.836091 0.756672 0.473599
0.025854 0.090535 0.190673
0.069313 0.117168 0.221057
0.164260 0.143943 0.220216
0.290696 0.171143 0.211801
0.426551 0.199216 0.213029
0.527538 0.229806 0.229977
0.599151 0.269967 0.248663
0.648196 0.313578 0.268021
0.055219 0.132585 0.234492
0.116124 0.175493 0.267043
0.209113 0.207919 0.282606
0.326680 0.233761 0.288849
0.456842 0.256752 0.292841
0.563774 0.281988 0.303883
0.641519 0.318786 0.317682
0.693124 0.363012 0.333657
0.090943 0.180619 0.266660
0.162642 0.234748 0.302074
0.250153 0.278712 0.327119
0.357606 0.309491 0.341938
0.482107 0.327669 0.348624
0.594311 0.345843 0.356738
0.680425 0.375204 0.368950
0.739806 0.414220 0.384738
0.133808 0.233850 0.298422
0.212266 0.295175 0.335230
0.295550 0.350181 0.364084
0.392100 0.391087 0.380565
0.504844 0.414424 0.384555
0.620409 0.427457 0.390262
0.714280 0.449524 0.401263
0.783158 0.481557 0.417312
0.183863 0.290767 0.337238
0.267352 0.356279 0.372791
0.350549 0.417746 0.401365
0.437145 0.471453 0.413845
0.531244 0.512749 0.408755
0.643364 0.526872 0.410264
0.741406 0.544856 0.418522
0.818569 0.570828 0.433472
0.239922 0.346692 0.382405
0.329058 0.414404 0.415351
0.414664 0.478880 0.442691
0.500653 0.538620 0.454757
0.587775 0.590859 0.448399
0.664838 0.623948 0.440120
0.756931 0.642508 0.444532
0.838081 0.662724 0.457348
0.307015 0.405691 0.427383
0.400562 0.473440 0.455886
0.489842 0.537791 0.478709
0.575052 0.597791 0.490453
0.654735 0.651706 0.489579
0.718417 0.691982 0.486043
0.780480 0.718181 0.489529
0.846764 0.738811 0.499947
0.395127 0.472646 0.474630
0.488225 0.537397 0.494281
0.578889 0.599438 0.507644
0.659537 0.655621 0.517129
0.725427 0.703777 0.524855
0.776333 0.742213 0.532922
0.816213 0.771766 0.543649
0.860774 0.794313 0.557713
0.035283 0.113506 0.252731
0.076803 0.146304 0.295227
0.146950 0.178546 0.314131
0.265998 0.214423 0.305964
0.429972 0.254131 0.278759
0.544718 0.282782 0.288407
0.618349 0.315576 0.301059
0.664697 0.350813 0.315834
0.073741 0.158758 0.303521
0.130030 0.202279 0.339954
0.206518 0.240748 0.367224
0.315813 0.277726 0.377504
0.456102 0.313922 0.371075
0.573365 0.338862 0.377210
0.654175 0.371187 0.385975
0.706181 0.409278 0.397638
0.117042 0.209721 0.342751
0.183153 0.262072 0.378442
0.260408 0.308760 0.410295
0.359253 0.348279 0.431561
0.481420 0.379252 0.439707
0.600226 0.397829 0.444256
0.689254 0.424318 0.451248
0.750495 0.458590 0.461893
0.166296 0.267203 0.373020
0.238607 0.325298 0.411316
0.315283 0.378599 0.445682
0.403220 0.422565 0.472387
0.506529 0.453537 0.488828
0.624707 0.465686 0.492642
0.721030 0.484038 0.498909
0.792642 0.510769 0.509439
0.221501 0.329977 0.400307
0.297716 0.390493 0.441866
0.375235 0.447051 0.477584
0.453128 0.497178 0.505936
0.535052 0.536462 0.524830
0.646774 0.546901 0.526125
0.747352 0.558294 0.531230
0.828384 0.576797 0.541291
0.279573 0.388957 0.447889
0.359154 0.451220 0.486006
0.438166 0.511358 0.519934
0.513758 0.566756 0.547664
0.586227 0.614456 0.564663
0.668047 0.646156 0.550362
0.764833 0.659723 0.549496
0.851917 0.674727 0.556212
0.340978 0.444898 0.492889
0.423599 0.507534 0.527981
0.505008 0.568617 0.559778
0.580891 0.625258 0.585960
0.649933 0.675349 0.602325
0.720340 0.716849 0.591706
0.788104 0.741595 0.586671
0.861571 0.759490 0.589240
0.414252 0.502636 0.538014
0.496439 0.563561 0.567865
0.578232 0.623487 0.595086
0.654428 0.679051 0.616790
0.721725 0.728050 0.630656
0.779983 0.769805 0.633107
0.825628 0.800547 0.634592
0.876180 0.822205 0.639574
0.053811 0.142432 0.315121
0.099282 0.180500 0.363324
0.158141 0.216766 0.393121
0.245842 0.256826 0.404689
0.373242 0.304713 0.399385
0.549902 0.362931 0.380345
0.635072 0.387845 0.376993
0.681139 0.408348 0.379016
0.100465 0.189733 0.368399
0.153567 0.232971 0.404194
0.221340 0.276253 0.436974
0.310251 0.320956 0.460492
0.425015 0.367965 0.470623
0.572803 0.417372 0.465634
0.662281 0.446067 0.466140
0.717515 0.474745 0.470645
0.149993 0.241293 0.410842
0.210995 0.291742 0.443965
0.281129 0.340859 0.478028
0.366988 0.388018 0.507729
0.472410 0.432548 0.528710
0.597496 0.472500 0.535204
0.691372 0.497869 0.537987
0.756779 0.525735 0.543538
0.203564 0.298714 0.445051
0.270994 0.355001 0.480146
0.341972 0.408571 0.515301
0.421925 0.457735 0.547906
0.514590 0.500564 0.575096
0.622607 0.531254 0.589619
0.720062 0.549714 0.593523
0.795396 0.571807 0.599264
0.261423 0.362111 0.473601
0.332954 0.420860 0.511718
0.406197 0.477279 0.548756
0.479338 0.528810 0.582890
0.554038 0.572119 0.612019
0.647568 0.596355 0.630212
0.746428 0.607702 0.634152
0.830090 0.622486 0.639422
0.321251 0.427092 0.499520
0.396148 0.486342 0.541788
0.470002 0.543167 0.581257
0.540775 0.595201 0.616139
0.607805 0.640198 0.644306
0.674606 0.673117 0.659142
0.768031 0.682370 0.660473
0.855324 0.691416 0.663247
0.378314 0.481105 0.541276
0.455590 0.541183 0.581689
0.531834 0.599820 0.620439
0.603242 0.654080 0.654882
0.667343 0.701670 0.682478
0.723544 0.739647 0.697652
0.791969 0.762312 0.692431
0.868141 0.776913 0.689973
0.438970 0.530812 0.582955
0.516921 0.590707 0.619916
0.594580 0.650253 0.656669
0.666669 0.705509 0.689579
0.729419 0.753600 0.715768
0.780194 0.792158 0.731722
0.830111 0.823654 0.730819
0.884915 0.844795 0.730234
0.092820 0.184119 0.381921
0.136510 0.220260 0.425344
0.187506 0.255947 0.455975
0.257613 0.297467 0.476178
0.356688 0.349583 0.487819
0.500732 0.416875 0.490100
0.628950 0.477353 0.497885
0.700996 0.502749 0.489438
0.139377 0.227615 0.428783
0.186675 0.267150 0.459118
0.247993 0.311677 0.491410
0.325024 0.360735 0.520348
0.420175 0.414312 0.542202
0.544752 0.475250 0.555229
0.657284 0.529120 0.567123
0.729359 0.561981 0.568791
0.190034 0.276856 0.468302
0.244955 0.323619 0.496621
0.308586 0.372431 0.528971
0.385875 0.424181 0.561755
0.479397 0.478725 0.591589
0.587855 0.532327 0.612780
0.688312 0.577379 0.628104
0.761611 0.609504 0.635658
0.245158 0.332762 0.502161
0.307182 0.385820 0.533023
0.372326 0.437873 0.566320
0.445999 0.490137 0.600899
0.531427 0.542472 0.634886
0.628143 0.589173 0.661986
0.719480 0.624707 0.679847
0.794690 0.651304 0.690275
0.303977 0.394768 0.531516
0.370124 0.450450 0.565207
0.439882 0.506440 0.601643
0.509009 0.559013 0.637997
0.577755 0.605831 0.672131
0.664593 0.647081 0.702599
0.748684 0.673828 0.721810
0.825899 0.693105 0.733034
0.361415 0.457334 0.555167
0.432156 0.514536 0.593707
0.503738 0.571230 0.633446
0.572847 0.624448 0.671799
0.637442 0.671726 0.706521
0.698081 0.709459 0.734256
0.773631 0.730458 0.752519
0.851593 0.743750 0.762432
0.411615 0.509339 0.581358
0.489000 0.570245 0.624519
0.563914 0.629123 0.667446
0.633071 0.683123 0.707250
0.694188 0.730087 0.741642
0.745463 0.767415 0.767820
0.801509 0.793142 0.780709
0.869761 0.807336 0.785821
0.460100 0.552269 0.610707
0.541815 0.615801 0.655347
0.619957 0.677286 0.699980
0.690311 0.732975 0.740851
0.750035 0.780258 0.775150
0.797253 0.817240 0.800271
0.839570 0.846563 0.812769
0.889928 0.865748 0.817993
0.165418 0.248226 0.466092
0.191752 0.269662 0.489553
0.228665 0.296387 0.509183
0.285011 0.334474 0.527616
0.367034 0.388226 0.547154
0.481042 0.461605 0.570689
0.615745 0.546170 0.599239
0.709151 0.601058 0.617080
0.195552 0.276676 0.492944
0.232528 0.308099 0.513162
0.283461 0.347652 0.537768
0.349433 0.395369 0.564066
0.431608 0.451605 0.590567
0.536164 0.520262 0.619640
0.651322 0.593570 0.649539
0.736195 0.646651 0.671661
0.237098 0.317494 0.520483
0.285142 0.358883 0.543123
0.340357 0.403441 0.570123
0.409239 0.455132 0.600987
0.494617 0.515390 0.634630
0.590469 0.578500 0.667456
0.689114 0.640697 0.698452
0.766913 0.688288 0.722428
0.288459 0.369600 0.548305
0.344554 0.417726 0.574883
0.403296 0.465928 0.604874
0.470816 0.518086 0.638637
0.550599 0.575939 0.675638
0.640889 0.635205 0.712122
0.726411 0.687337 0.744087
0.798533 0.727394 0.768230
0.346612 0.430298 0.575559
0.406493 0.480641 0.605188
0.472719 0.534513 0.640344
0.537610 0.585948 0.676754
0.600202 0.633242 0.712321
0.685384 0.689678 0.751992
0.760883 0.733406 0.784753
0.828729 0.765568 0.808100
0.402177 0.490431 0.598838
0.467266 0.542908 0.633311
0.536786 0.598399 0.672562
0.604974 0.652333 0.712904
0.667704 0.701180 0.751290
0.723187 0.741851 0.784564
0.789384 0.779142 0.817168
0.854914 0.806082 0.839710
0.445367 0.537385 0.615393
0.520826 0.596427 0.658196
0.595175 0.655234 0.703119
0.664292 0.710078 0.746680
0.725022 0.758069 0.786081
0.773824 0.795978 0.818268
0.821447 0.827427 0.845183
0.876180 0.849770 0.863207
0.479997 0.570255 0.632083
0.566914 0.637816 0.682415
0.647764 0.702173 0.732898
0.718877 0.759565 0.779610
0.777895 0.807472 0.819712
0.823175 0.844298 0.851091
0.858664 0.872528 0.874235
0.898896 0.893968 0.889518
