filters/luts/Sunshine 03_S.cube
# Created by: Adobe Photoshop Export Color Lookup Plugin
# LUT by SparkleStock. Enhanced with VOXCOLOR algorithms.
LUT_3D_SIZE 8
DOMAIN_MIN 0.000000 0.000000 0.000000
DOMAIN_MAX 0.903226 0.903226 0.903226
0.035165 0.011722 0.019536
0.110221 0.027981 0.016889
0.208311 0.052007 0.016787
0.319981 0.083879 0.019071
0.435921 0.124361 0.023467
0.541605 0.179566 0.029517
0.627437 0.254149 0.035409
0.695986 0.343873 0.040143
0.051235 0.032140 0.030690
0.131560 0.077087 0.023506
0.238963 0.114146 0.020111
0.358195 0.150958 0.019980
0.476258 0.193507 0.022692
0.579453 0.246810 0.028596
0.658894 0.314977 0.036659
0.716862 0.394132 0.045535
0.069447 0.058049 0.048139
0.171423 0.126293 0.034344
0.274630 0.183771 0.026903
0.386322 0.232945 0.024323
0.506481 0.277471 0.025546
0.607707 0.327419 0.031407
0.683348 0.387806 0.041486
0.735707 0.455999 0.054295
0.093032 0.092048 0.070700
0.223647 0.180820 0.049562
0.327233 0.257194 0.038191
0.425502 0.319020 0.033315
0.530930 0.367315 0.032741
0.629484 0.413433 0.038053
0.701733 0.465091 0.049179
0.750713 0.521639 0.064629
0.126567 0.137422 0.096483
0.284150 0.244545 0.068594
0.401264 0.332258 0.054062
0.488219 0.401798 0.047365
0.558974 0.455403 0.044831
0.648581 0.497258 0.048551
0.715298 0.539637 0.059091
0.760808 0.583841 0.075029
0.185742 0.205294 0.120115
0.356205 0.320906 0.088420
0.479565 0.411821 0.071949
0.566678 0.481592 0.065118
0.627974 0.533368 0.063297
0.673671 0.566734 0.063505
0.726361 0.599770 0.070898
0.765961 0.631844 0.084080
0.297696 0.306723 0.129883
0.450546 0.411919 0.101579
0.561235 0.493265 0.086909
0.638170 0.554140 0.081143
0.689137 0.597637 0.080219
0.718978 0.623855 0.080939
0.746664 0.643197 0.083925
0.770159 0.661947 0.091636
0.482571 0.444665 0.113325
0.579997 0.517032 0.099920
0.653357 0.574529 0.093768
0.705434 0.617686 0.092267
0.739259 0.647442 0.093158
0.756793 0.663927 0.094482
0.766713 0.672392 0.095134
0.775983 0.679996 0.097919
0.045941 0.023254 0.085139
0.116899 0.039952 0.064343
0.224368 0.062344 0.057599
0.348163 0.090996 0.059200
0.470982 0.126483 0.064730
0.574324 0.171443 0.072683
0.650984 0.228706 0.080844
0.706299 0.293828 0.088475
0.062743 0.056406 0.112248
0.133417 0.100999 0.106631
0.240152 0.130494 0.103950
0.363246 0.156229 0.104600
0.486205 0.186631 0.108603
0.593404 0.225608 0.115276
0.674646 0.277947 0.123153
0.731155 0.341551 0.131162
0.084694 0.094738 0.141814
0.162236 0.157661 0.138227
0.263008 0.207193 0.128918
0.380440 0.245212 0.122589
0.505549 0.275695 0.124205
0.614876 0.312215 0.129140
0.698569 0.360901 0.136551
0.756506 0.420892 0.145724
0.111365 0.138532 0.173633
0.201559 0.214494 0.166830
0.303472 0.284557 0.148065
0.412912 0.339881 0.133379
0.525633 0.377547 0.132031
0.634849 0.412239 0.135813
0.718998 0.455796 0.143493
0.778293 0.508685 0.154792
0.143948 0.188919 0.207265
0.250996 0.275371 0.196770
0.366388 0.358112 0.171291
0.468696 0.427605 0.150569
0.550680 0.478089 0.146339
0.652294 0.510374 0.150470
0.733922 0.546129 0.159588
0.793834 0.588107 0.173806
0.192438 0.252839 0.241436
0.317920 0.345174 0.222262
0.442460 0.433006 0.193825
0.546456 0.506847 0.172496
0.619831 0.560828 0.168144
0.676402 0.594708 0.175561
0.745608 0.623556 0.186348
0.802561 0.653697 0.202781
0.278095 0.339827 0.269426
0.414274 0.430565 0.235551
0.533009 0.512109 0.208186
0.625602 0.578788 0.192991
0.688413 0.627501 0.192854
0.728561 0.659031 0.205127
0.768403 0.681407 0.221579
0.808051 0.701888 0.241295
0.420310 0.454807 0.282300
0.549885 0.533519 0.231170
0.641561 0.596038 0.210236
0.705275 0.644327 0.208003
0.749279 0.680315 0.216065
0.776421 0.704316 0.234759
0.795717 0.720719 0.259101
0.817366 0.734329 0.285184
0.060869 0.043090 0.172839
0.115495 0.065929 0.170491
0.225838 0.087395 0.133705
0.360029 0.112516 0.104919
0.491710 0.144537 0.107813
0.596961 0.183502 0.115076
0.668958 0.230374 0.123778
0.716219 0.281166 0.133368
0.080580 0.086073 0.212584
0.140286 0.130476 0.217200
0.241609 0.157525 0.200288
0.366636 0.179076 0.184951
0.497929 0.203986 0.184847
0.608727 0.236260 0.189056
0.689350 0.279326 0.194978
0.742761 0.331354 0.201829
0.103673 0.133998 0.243239
0.170018 0.192366 0.250265
0.262732 0.235568 0.239904
0.378377 0.265670 0.228828
0.508658 0.286963 0.227418
0.623075 0.313770 0.230508
0.710785 0.351696 0.236209
0.771411 0.400610 0.243627
0.131849 0.186860 0.276894
0.207166 0.254378 0.282362
0.298127 0.314351 0.270784
0.404271 0.359563 0.256343
0.522324 0.387748 0.249080
0.638090 0.410971 0.251336
0.730404 0.443573 0.257257
0.797591 0.487035 0.266207
0.166539 0.244541 0.319619
0.253905 0.318479 0.320251
0.352629 0.389114 0.304550
0.450764 0.450263 0.282308
0.543880 0.496685 0.263178
0.653481 0.519646 0.264051
0.746206 0.547470 0.269635
0.817757 0.584174 0.279835
0.210669 0.307516 0.359767
0.315037 0.385293 0.353108
0.422583 0.460398 0.335312
0.523454 0.527913 0.311870
0.610095 0.583097 0.290147
0.675366 0.615572 0.290831
0.757314 0.638832 0.298178
0.828538 0.665008 0.311562
0.279894 0.383760 0.396407
0.400167 0.461764 0.375723
0.510839 0.534314 0.354136
0.606332 0.598467 0.334400
0.682236 0.651354 0.320617
0.731026 0.685647 0.326715
0.780350 0.708368 0.341031
0.833489 0.728153 0.359807
0.391878 0.479166 0.424319
0.518171 0.551612 0.384671
0.619566 0.613832 0.358021
0.696542 0.665409 0.345820
0.750907 0.706257 0.348376
0.785841 0.735035 0.365093
0.812143 0.755764 0.390698
0.843676 0.772005 0.419305
0.079081 0.070519 0.270582
0.117399 0.102030 0.294678
0.212869 0.126803 0.252869
0.348887 0.152102 0.196129
0.502452 0.182492 0.161777
0.612094 0.216175 0.164540
0.682831 0.255438 0.170733
0.725944 0.297112 0.179872
0.101988 0.120674 0.318426
0.152365 0.165845 0.334632
0.240449 0.196237 0.316920
0.362043 0.220465 0.287350
0.504902 0.245133 0.263881
0.620384 0.273655 0.262446
0.700787 0.310807 0.264639
0.751966 0.354560 0.269632
0.126618 0.175434 0.349586
0.187622 0.230827 0.364892
0.269550 0.272301 0.360502
0.378251 0.300840 0.346672
0.510504 0.319579 0.332697
0.629669 0.340305 0.330740
0.719528 0.370519 0.333162
0.781353 0.410015 0.338519
0.156974 0.235547 0.379943
0.227745 0.297701 0.394916
0.307496 0.349802 0.395550
0.404286 0.387684 0.386126
0.520345 0.410291 0.372546
0.640533 0.424744 0.370575
0.737528 0.447800 0.373642
0.809582 0.481284 0.380167
0.195183 0.300455 0.419580
0.275783 0.366251 0.430725
0.358794 0.424769 0.430819
0.445871 0.475118 0.417035
0.540054 0.514606 0.392983
0.653868 0.528733 0.388481
0.753281 0.547464 0.390298
0.832731 0.575773 0.396708
0.239203 0.365064 0.464741
0.332736 0.432697 0.470248
0.423013 0.494647 0.468675
0.512307 0.551747 0.454084
0.600005 0.602369 0.427092
0.673039 0.632233 0.412288
0.763723 0.649160 0.412592
0.845236 0.669787 0.420227
0.298876 0.433683 0.504565
0.404558 0.500650 0.502058
0.502752 0.562423 0.494415
0.592532 0.619436 0.480038
0.671734 0.670552 0.460513
0.729139 0.706089 0.450193
0.785793 0.727545 0.453557
0.849300 0.745051 0.464314
0.389324 0.512621 0.538122
0.499436 0.574731 0.524891
0.600074 0.632651 0.506063
0.683543 0.683791 0.490957
0.745635 0.726342 0.485722
0.788109 0.758293 0.490528
0.820045 0.781078 0.504926
0.859213 0.797830 0.524237
0.099689 0.104786 0.367640
0.129609 0.144933 0.406738
0.191539 0.178251 0.405398
0.314509 0.209351 0.347613
0.496259 0.241063 0.246578
0.620446 0.271233 0.232764
0.693760 0.302409 0.230401
0.735480 0.335320 0.234579
0.124901 0.159698 0.418466
0.169330 0.206691 0.442337
0.237342 0.245367 0.449409
0.347194 0.278169 0.421575
0.498445 0.307224 0.361193
0.624606 0.334046 0.347262
0.707672 0.366116 0.342864
0.759066 0.403421 0.344433
0.153054 0.218619 0.454993
0.209488 0.272753 0.474601
0.280680 0.317993 0.484582
0.378985 0.352500 0.473606
0.506501 0.376472 0.441649
0.632348 0.395997 0.429379
0.724333 0.422327 0.425239
0.787116 0.456197 0.426751
0.187367 0.283218 0.480248
0.253646 0.342004 0.501200
0.327478 0.391946 0.512032
0.415042 0.429427 0.509374
0.519984 0.452846 0.494424
0.642489 0.464286 0.484811
0.741165 0.481870 0.482239
0.815160 0.508156 0.484979
0.229288 0.353185 0.501642
0.303985 0.412794 0.524361
0.381635 0.464299 0.535902
0.459977 0.506599 0.536763
0.541970 0.537389 0.528894
0.654656 0.545130 0.519454
0.756053 0.554812 0.518020
0.839267 0.572820 0.521885
0.275979 0.421252 0.548779
0.360153 0.480474 0.565506
0.443460 0.534672 0.574734
0.521652 0.582284 0.576379
0.593986 0.621729 0.568657
0.671940 0.648266 0.539410
0.766774 0.658649 0.532543
0.853899 0.672581 0.534514
0.330471 0.484761 0.589024
0.423881 0.542651 0.600251
0.513043 0.596839 0.606786
0.592953 0.645541 0.608118
0.661697 0.687690 0.602087
0.725785 0.722805 0.576566
0.787547 0.742105 0.566814
0.857893 0.756395 0.567435
0.404921 0.550036 0.623127
0.502189 0.603989 0.627861
0.592902 0.655516 0.629465
0.672236 0.702247 0.626853
0.737143 0.742674 0.620100
0.786126 0.776181 0.613059
0.822856 0.799756 0.612661
0.867594 0.815957 0.618590
0.121620 0.146000 0.450636
0.148905 0.192734 0.493979
0.194308 0.232638 0.511917
0.277100 0.271301 0.497774
0.411537 0.313204 0.447913
0.614177 0.362402 0.359891
0.701786 0.382844 0.329547
0.744018 0.399862 0.317051
0.148881 0.203108 0.499706
0.189655 0.250569 0.525442
0.247344 0.296053 0.544436
0.332099 0.339298 0.545267
0.451703 0.380554 0.520110
0.618242 0.421872 0.463812
0.710485 0.448213 0.443068
0.764110 0.475555 0.435924
0.180120 0.263084 0.536861
0.233404 0.315580 0.557399
0.298250 0.364473 0.575040
0.382164 0.408456 0.582628
0.490267 0.446731 0.574442
0.627488 0.478627 0.542657
0.723506 0.501759 0.528226
0.788479 0.528709 0.524002
0.217824 0.327720 0.564763
0.281851 0.384508 0.585786
0.351892 0.435323 0.602308
0.432077 0.479058 0.612463
0.525925 0.514423 0.613981
0.640296 0.536486 0.599283
0.738689 0.551807 0.589115
0.814020 0.572489 0.586561
0.263312 0.397431 0.586212
0.336069 0.454603 0.608648
0.411173 0.506130 0.625865
0.485719 0.550206 0.637354
0.560944 0.584326 0.642347
0.655876 0.599007 0.636958
0.754149 0.606073 0.629676
0.837725 0.618712 0.628201
0.316004 0.468572 0.605100
0.396764 0.523430 0.629816
0.474527 0.572995 0.648417
0.547044 0.615707 0.660520
0.613503 0.650138 0.665378
0.676877 0.672398 0.658539
0.767793 0.676406 0.651338
0.854369 0.682948 0.649258
0.368326 0.528933 0.641368
0.455904 0.581762 0.662058
0.538389 0.631099 0.678944
0.612271 0.674929 0.691138
0.675300 0.711749 0.697557
0.726092 0.739395 0.694199
0.787708 0.755250 0.679602
0.860044 0.765476 0.672425
0.430486 0.583396 0.674288
0.521711 0.633430 0.690009
0.606293 0.681677 0.704246
0.679976 0.725263 0.715424
0.739874 0.762148 0.722311
0.783280 0.790589 0.723155
0.822819 0.813760 0.714538
0.870636 0.829119 0.710487
0.149065 0.200449 0.521974
0.172862 0.244256 0.559804
0.209350 0.284429 0.582164
0.272060 0.326873 0.587747
0.372813 0.376146 0.574483
0.534129 0.436322 0.531298
0.675939 0.489311 0.499320
0.752470 0.507313 0.461837
0.174594 0.252312 0.562945
0.211993 0.295731 0.585227
0.263757 0.343167 0.606795
0.335554 0.392403 0.620369
0.432856 0.442404 0.619945
0.570328 0.496305 0.596983
0.693130 0.543672 0.578385
0.767970 0.571602 0.558982
0.207471 0.309186 0.595855
0.258082 0.357596 0.614100
0.318345 0.406643 0.633410
0.394174 0.456388 0.649507
0.489356 0.506160 0.658139
0.606395 0.551843 0.650303
0.713416 0.590344 0.641749
0.787730 0.618212 0.633405
0.248788 0.371765 0.622439
0.310496 0.424565 0.641404
0.377182 0.473957 0.659555
0.452515 0.521562 0.676184
0.539165 0.567437 0.689587
0.640395 0.604971 0.692051
0.734676 0.633235 0.690632
0.809333 0.655166 0.688486
0.298302 0.439344 0.643974
0.368367 0.492361 0.663926
0.441921 0.543098 0.683366
0.513763 0.588514 0.700899
0.583714 0.626753 0.715179
0.671305 0.657708 0.723315
0.755090 0.676142 0.726388
0.830485 0.689912 0.727290
0.352116 0.506240 0.659617
0.430506 0.557850 0.682284
0.507053 0.606542 0.703449
0.578441 0.650032 0.721921
0.642714 0.686542 0.736561
0.700314 0.713384 0.744702
0.772533 0.725161 0.748822
0.847621 0.732477 0.750019
0.402063 0.562133 0.679102
0.490189 0.613689 0.703575
0.570510 0.661670 0.726100
0.640824 0.703981 0.745419
0.699774 0.739108 0.760470
0.745730 0.765076 0.769186
0.794658 0.781256 0.768406
0.858130 0.789263 0.766014
0.453856 0.607247 0.700974
0.547930 0.658363 0.724660
0.631015 0.706329 0.747418
0.700776 0.748473 0.767391
0.756013 0.782994 0.783121
0.795815 0.808521 0.792692
0.828563 0.828109 0.793432
0.871590 0.840682 0.792110
0.189287 0.279152 0.596920
0.203558 0.304730 0.617375
0.231786 0.334442 0.631894
0.284246 0.373779 0.641266
0.368432 0.426598 0.646086
0.493564 0.496141 0.645543
0.644463 0.573485 0.638302
0.744783 0.619263 0.624360
0.206143 0.312786 0.620119
0.238408 0.346580 0.634908
0.284396 0.388112 0.651434
0.348444 0.435947 0.666356
0.433903 0.489566 0.677433
0.547633 0.553150 0.684308
0.674672 0.618784 0.685189
0.763521 0.664364 0.683266
0.236599 0.359004 0.642269
0.284172 0.401003 0.656930
0.339411 0.445190 0.673657
0.409499 0.494852 0.691097
0.497938 0.550929 0.707713
0.600252 0.607083 0.719895
0.706214 0.660821 0.727047
0.785062 0.701125 0.732257
0.280090 0.416233 0.663275
0.338892 0.462933 0.679513
0.401501 0.507840 0.696965
0.472514 0.555306 0.715700
0.554741 0.607185 0.735093
0.648457 0.657632 0.751420
0.736913 0.700277 0.763100
0.807468 0.732476 0.771941
0.334304 0.481316 0.682740
0.400279 0.527751 0.699926
0.471760 0.575385 0.719802
0.540363 0.619309 0.739942
0.604782 0.658378 0.758939
0.690333 0.704660 0.778217
0.764840 0.737770 0.792752
0.828991 0.761272 0.802944
0.390723 0.544248 0.698395
0.464597 0.589951 0.717777
0.539576 0.636355 0.739531
0.610156 0.679833 0.761593
0.672562 0.717699 0.782169
0.725317 0.747777 0.798912
0.786988 0.773677 0.814193
0.847180 0.791525 0.824395
0.437409 0.592792 0.708353
0.523593 0.641179 0.732511
0.602550 0.687703 0.757465
0.671598 0.729635 0.781254
0.728906 0.764904 0.802279
0.772001 0.791018 0.818564
0.812623 0.811411 0.830386
0.860942 0.825235 0.837913
0.476209 0.625962 0.719243
0.574825 0.679162 0.747311
0.658839 0.728147 0.775346
0.727187 0.770378 0.801009
0.779796 0.804241 0.822586
0.816858 0.828696 0.838680
0.843812 0.846343 0.848784
0.876234 0.859728 0.854731
