filters/luts/Sunshine 03_S.cube
# Created by: Adobe Photoshop Export Color Lookup Plugin
# LUT by SparkleStock. Enhanced with VOXCOLOR algorithms.
LUT_3D_SIZE 32
0.035165 0.011722 0.019536
0.053929 0.015786 0.018874
0.072693 0.019851 0.018213
0.091457 0.023916 0.017551
0.110221 0.027981 0.016889
0.128985 0.032045 0.016228
0.154524 0.038395 0.016314
0.181417 0.045201 0.016550
0.208311 0.052007 0.016787
0.235204 0.058813 0.017023
0.262098 0.065619 0.017259
0.290630 0.074284 0.018031
0.319981 0.083879 0.019071
0.349332 0.093474 0.020111
0.378684 0.103068 0.021151
0.408035 0.112663 0.022191
0.435921 0.124361 0.023467
0.462342 0.138162 0.024979
0.488763 0.151963 0.026492
0.515184 0.165765 0.028004
0.541605 0.179566 0.029517
0.566040 0.195305 0.031013
0.586506 0.214920 0.032479
0.606972 0.234535 0.033944
0.627437 0.254149 0.035409
0.647903 0.273764 0.036874
0.667344 0.294246 0.038253
0.681665 0.319059 0.039198
0.695986 0.343873 0.040143
0.710308 0.368687 0.041089
0.724629 0.393501 0.042034
0.738950 0.418315 0.042979
0.039182 0.016826 0.022325
0.058276 0.022684 0.021379
0.077369 0.028542 0.020434
0.096462 0.034399 0.019489
0.115556 0.040257 0.018543
0.134649 0.046115 0.017598
0.160814 0.053106 0.017493
0.188394 0.060324 0.017555
0.215974 0.067542 0.017618
0.243553 0.074759 0.017680
0.271133 0.081977 0.017743
0.300010 0.090889 0.018378
0.329535 0.100649 0.019298
0.359060 0.110408 0.020219
0.388585 0.120167 0.021140
0.418110 0.129927 0.022061
0.446005 0.141648 0.023273
0.472271 0.155330 0.024777
0.498536 0.169012 0.026280
0.524801 0.182695 0.027783
0.551067 0.196377 0.029286
0.575249 0.211884 0.030832
0.595267 0.231042 0.032462
0.615284 0.250199 0.034092
0.635301 0.269356 0.035722
0.655319 0.288514 0.037351
0.674246 0.308475 0.038924
0.687726 0.332457 0.040207
0.701205 0.356438 0.041491
0.714685 0.380420 0.042775
0.728164 0.404401 0.044059
0.741644 0.428382 0.045342
0.043200 0.021931 0.025113
0.062622 0.029582 0.023884
0.082045 0.037232 0.022655
0.101468 0.044883 0.021427
0.120891 0.052534 0.020198
0.140313 0.060185 0.018969
0.167105 0.067818 0.018671
0.195371 0.075447 0.018560
0.223637 0.083076 0.018449
0.251902 0.090706 0.018337
0.280168 0.098335 0.018226
0.309389 0.107494 0.018724
0.339088 0.117418 0.019526
0.368787 0.127342 0.020328
0.398486 0.137266 0.021130
0.428185 0.147190 0.021932
0.456089 0.158934 0.023080
0.482199 0.172498 0.024574
0.508309 0.186061 0.026068
0.534419 0.199624 0.027562
0.560529 0.213188 0.029056
0.584458 0.228463 0.030651
0.604027 0.247163 0.032445
0.623596 0.265863 0.034240
0.643166 0.284563 0.036034
0.662735 0.303263 0.037829
0.681148 0.322705 0.039594
0.693786 0.345854 0.041217
0.706424 0.369003 0.042839
0.719062 0.392152 0.044461
0.731700 0.415301 0.046083
0.744338 0.438450 0.047706
0.047217 0.027035 0.027902
0.066969 0.036479 0.026389
0.086721 0.045923 0.024877
0.106473 0.055367 0.023364
0.126225 0.064810 0.021852
0.145977 0.074254 0.020340
0.173396 0.082529 0.019850
0.202348 0.090570 0.019565
0.231300 0.098611 0.019280
0.260251 0.106652 0.018995
0.289203 0.114693 0.018709
0.318769 0.124099 0.019070
0.348642 0.134188 0.019753
0.378514 0.144277 0.020436
0.408387 0.154366 0.021119
0.438260 0.164454 0.021802
0.466173 0.176221 0.022886
0.492128 0.189665 0.024371
0.518082 0.203110 0.025856
0.544036 0.216554 0.027341
0.569991 0.229999 0.028826
0.593667 0.245043 0.030469
0.612788 0.263285 0.032428
0.631909 0.281528 0.034388
0.651030 0.299770 0.036347
0.670151 0.318013 0.038306
0.688051 0.336935 0.040265
0.699847 0.359251 0.042226
0.711643 0.381568 0.044187
0.723440 0.403884 0.046147
0.735236 0.426201 0.048108
0.747032 0.448517 0.050069
0.051235 0.032140 0.030690
0.071316 0.043377 0.028894
0.091397 0.054613 0.027098
0.111479 0.065850 0.025302
0.131560 0.077087 0.023506
0.151641 0.088324 0.021710
0.179687 0.097240 0.021028
0.209325 0.105693 0.020569
0.238963 0.114146 0.020111
0.268600 0.122599 0.019652
0.298238 0.131051 0.019193
0.328149 0.140705 0.019416
0.358195 0.150958 0.019980
0.388242 0.161211 0.020544
0.418288 0.171465 0.021108
0.448335 0.181718 0.021672
0.476258 0.193507 0.022692
0.502056 0.206833 0.024168
0.527855 0.220159 0.025644
0.553654 0.233484 0.027120
0.579453 0.246810 0.028596
0.602876 0.261622 0.030288
0.621549 0.279407 0.032412
0.640221 0.297192 0.034535
0.658894 0.314977 0.036659
0.677566 0.332763 0.038783
0.694953 0.351164 0.040936
0.705907 0.372648 0.043235
0.716862 0.394132 0.045535
0.727817 0.415616 0.047834
0.738772 0.437100 0.050133
0.749726 0.458584 0.052432
0.055252 0.037244 0.033479
0.075663 0.050274 0.031399
0.096074 0.063304 0.029320
0.116484 0.076334 0.027240
0.136895 0.089364 0.025161
0.157306 0.102393 0.023081
0.185977 0.111952 0.022207
0.216301 0.120816 0.021574
0.246625 0.129681 0.020942
0.276950 0.138545 0.020309
0.307274 0.147410 0.019676
0.337528 0.157310 0.019762
0.367749 0.167728 0.020207
0.397969 0.178146 0.020652
0.428190 0.188564 0.021098
0.458410 0.198982 0.021543
0.486342 0.210794 0.022499
0.511985 0.224001 0.023965
0.537628 0.237207 0.025432
0.563272 0.250414 0.026899
0.588915 0.263621 0.028366
0.612085 0.278201 0.030106
0.630310 0.295529 0.032395
0.648534 0.312857 0.034683
0.666758 0.330184 0.036972
0.684982 0.347512 0.039260
0.701855 0.365394 0.041607
0.711968 0.386046 0.044245
0.722081 0.406697 0.046882
0.732194 0.427349 0.049520
0.742307 0.448000 0.052158
0.752420 0.468652 0.054795
0.059900 0.043964 0.038119
0.081844 0.058390 0.035603
0.103789 0.072817 0.033087
0.125733 0.087243 0.030572
0.147678 0.101669 0.028056
0.169622 0.116096 0.025540
0.197540 0.127005 0.024436
0.226652 0.137211 0.023614
0.255764 0.147417 0.022793
0.284875 0.157624 0.021971
0.313987 0.167830 0.021149
0.343949 0.178292 0.021103
0.374336 0.188882 0.021444
0.404722 0.199472 0.021786
0.435109 0.210063 0.022127
0.465495 0.220653 0.022469
0.493451 0.232439 0.023372
0.518977 0.245420 0.024838
0.544503 0.258401 0.026303
0.570029 0.271382 0.027768
0.595555 0.284363 0.029233
0.618571 0.298607 0.031023
0.636569 0.315378 0.033461
0.654566 0.332150 0.035898
0.672563 0.348921 0.038336
0.690560 0.365692 0.040774
0.707184 0.382977 0.043299
0.716943 0.402826 0.046260
0.726703 0.422676 0.049221
0.736462 0.442525 0.052182
0.746222 0.462375 0.055143
0.755981 0.482225 0.058104
0.064674 0.051006 0.043129
0.088393 0.066750 0.040147
0.112112 0.082494 0.037164
0.135831 0.098237 0.034182
0.159550 0.113981 0.031200
0.183270 0.129725 0.028218
0.210156 0.142127 0.026876
0.237676 0.153861 0.025862
0.265197 0.165594 0.024848
0.292717 0.177328 0.023834
0.320237 0.189062 0.022820
0.349778 0.200149 0.022643
0.380329 0.210914 0.022884
0.410880 0.221678 0.023125
0.441431 0.232442 0.023365
0.471983 0.243206 0.023606
0.499966 0.254955 0.024459
0.525382 0.267689 0.025925
0.550799 0.280423 0.027390
0.576215 0.293157 0.028855
0.601631 0.305891 0.030320
0.624513 0.319779 0.032158
0.642327 0.335974 0.034743
0.660141 0.352169 0.037327
0.677956 0.368363 0.039911
0.695770 0.384558 0.042496
0.712199 0.401230 0.045196
0.721702 0.420284 0.048477
0.731205 0.439337 0.051758
0.740708 0.458391 0.055039
0.750212 0.477445 0.058320
0.759715 0.496498 0.061601
0.069447 0.058049 0.048139
0.094941 0.075110 0.044690
0.120435 0.092171 0.041241
0.145929 0.109232 0.037793
0.171423 0.126293 0.034344
0.196917 0.143354 0.030895
0.222773 0.157248 0.029315
0.248701 0.170510 0.028109
0.274630 0.183771 0.026903
0.300558 0.197033 0.025697
0.326487 0.210295 0.024491
0.355607 0.222007 0.024183
0.386322 0.232945 0.024323
0.417038 0.243883 0.024463
0.447754 0.254821 0.024603
0.478470 0.265759 0.024744
0.506481 0.277471 0.025546
0.531788 0.289958 0.027012
0.557094 0.302445 0.028477
0.582400 0.314932 0.029942
0.607707 0.327419 0.031407
0.630455 0.340950 0.033294
0.648086 0.356569 0.036025
0.665717 0.372187 0.038756
0.683348 0.387806 0.041486
0.700979 0.403425 0.044217
0.717213 0.419483 0.047093
0.726460 0.437741 0.050694
0.735707 0.455999 0.054295
0.744955 0.474257 0.057897
0.754202 0.492515 0.061498
0.763449 0.510772 0.065099
0.074221 0.065091 0.053149
0.101490 0.083469 0.049234
0.128758 0.101848 0.045318
0.156027 0.120226 0.041403
0.183296 0.138604 0.037488
0.210564 0.156983 0.033572
0.235389 0.172370 0.031755
0.259726 0.187159 0.030357
0.284063 0.201949 0.028958
0.308399 0.216738 0.027560
0.332736 0.231527 0.026162
0.361435 0.243865 0.025723
0.392316 0.254976 0.025762
0.423196 0.266088 0.025802
0.454077 0.277200 0.025842
0.484958 0.288312 0.025881
0.512996 0.299987 0.026634
0.538193 0.312227 0.028099
0.563389 0.324467 0.029564
0.588586 0.336707 0.031029
0.613782 0.348947 0.032494
0.636396 0.362122 0.034430
0.653845 0.377164 0.037307
0.671293 0.392206 0.040184
0.688741 0.407249 0.043061
0.706189 0.422291 0.045938
0.722228 0.437736 0.048989
0.731219 0.455198 0.052911
0.740210 0.472660 0.056832
0.749201 0.490122 0.060754
0.758192 0.507584 0.064675
0.767183 0.525046 0.068597
0.078995 0.072134 0.058159
0.108038 0.091829 0.053777
0.137081 0.111525 0.049395
0.166125 0.131220 0.045013
0.195168 0.150916 0.040632
0.224211 0.170612 0.036250
0.248006 0.187492 0.034194
0.270751 0.203809 0.032604
0.293496 0.220126 0.031014
0.316241 0.236443 0.029423
0.338986 0.252759 0.027833
0.367264 0.265722 0.027263
0.398309 0.277008 0.027202
0.429355 0.288293 0.027141
0.460400 0.299579 0.027080
0.491445 0.310864 0.027019
0.519511 0.322504 0.027721
0.544598 0.334497 0.029186
0.569685 0.346490 0.030651
0.594771 0.358483 0.032116
0.619858 0.370476 0.033581
0.642338 0.383293 0.035566
0.659603 0.397759 0.038589
0.676868 0.412225 0.041613
0.694134 0.426691 0.044636
0.711399 0.441157 0.047660
0.727243 0.455990 0.050886
0.735977 0.472656 0.055128
0.744712 0.489322 0.059369
0.753447 0.505988 0.063611
0.762182 0.522654 0.067853
0.770917 0.539320 0.072094
0.085565 0.081508 0.064177
0.116407 0.102466 0.059341
0.147249 0.123424 0.054505
0.178092 0.144382 0.049669
0.208934 0.165340 0.044832
0.239777 0.186298 0.039996
0.263729 0.204143 0.037751
0.286303 0.221366 0.036023
0.308877 0.238588 0.034296
0.331451 0.255811 0.032568
0.354026 0.273033 0.030841
0.381084 0.286552 0.030133
0.410385 0.298219 0.029935
0.439686 0.309886 0.029737
0.468987 0.321552 0.029538
0.498288 0.333219 0.029340
0.525381 0.344931 0.029946
0.550267 0.356690 0.031356
0.575153 0.368448 0.032767
0.600038 0.380206 0.034177
0.624924 0.391964 0.035587
0.647188 0.404417 0.037552
0.664209 0.418258 0.040624
0.681231 0.432098 0.043696
0.698252 0.445939 0.046768
0.715273 0.459780 0.049840
0.730885 0.473950 0.053138
0.739449 0.489766 0.057559
0.748013 0.505581 0.061981
0.756577 0.521396 0.066402
0.765141 0.537212 0.070824
0.773705 0.553027 0.075245
0.093032 0.092048 0.070700
0.125686 0.114241 0.065415
0.158340 0.136434 0.060131
0.190994 0.158627 0.054846
0.223647 0.180820 0.049562
0.256301 0.203013 0.044277
0.281005 0.221559 0.041866
0.304119 0.239376 0.040029
0.327233 0.257194 0.038191
0.350347 0.275011 0.036354
0.373460 0.292828 0.034517
0.398900 0.306868 0.033669
0.425502 0.319020 0.033315
0.452105 0.331171 0.032961
0.478707 0.343323 0.032607
0.505309 0.355474 0.032254
0.530930 0.367315 0.032741
0.555568 0.378845 0.034069
0.580207 0.390374 0.035397
0.604845 0.401904 0.036725
0.629484 0.413433 0.038053
0.651492 0.425517 0.039962
0.668239 0.438708 0.043034
0.684986 0.451899 0.046107
0.701733 0.465091 0.049179
0.718480 0.478282 0.052251
0.733841 0.491764 0.055566
0.742277 0.506702 0.060098
0.750713 0.521639 0.064629
0.759149 0.536576 0.069160
0.767585 0.551513 0.073692
0.776021 0.566450 0.078223
0.100500 0.102588 0.077222
0.134965 0.126016 0.071490
0.169430 0.149444 0.065757
0.203895 0.172872 0.060024
0.238360 0.196300 0.054291
0.272825 0.219728 0.048559
0.298281 0.238975 0.045981
0.321934 0.257387 0.044034
0.345588 0.275799 0.042087
0.369242 0.294211 0.040140
0.392895 0.312623 0.038193
0.416716 0.327184 0.037204
0.440619 0.339821 0.036695
0.464523 0.352457 0.036186
0.488427 0.365094 0.035677
0.512330 0.377730 0.035167
0.536478 0.389699 0.035536
0.560870 0.400999 0.036781
0.585261 0.412300 0.038027
0.609653 0.423601 0.039273
0.634044 0.434902 0.040518
0.655796 0.446616 0.042373
0.672269 0.459158 0.045445
0.688741 0.471700 0.048517
0.705213 0.484242 0.051589
0.721686 0.496784 0.054661
0.736798 0.509579 0.057995
0.745106 0.523637 0.062636
0.753413 0.537696 0.067277
0.761721 0.551755 0.071918
0.770029 0.565814 0.076559
0.778337 0.579873 0.081201
0.107968 0.113128 0.083745
0.144244 0.137791 0.077564
0.180521 0.162454 0.071383
0.216797 0.187117 0.065202
0.253073 0.211780 0.059021
0.289350 0.236443 0.052840
0.315557 0.256392 0.050096
0.339750 0.275398 0.048039
0.363943 0.294405 0.045982
0.388137 0.313411 0.043926
0.412330 0.332418 0.041869
0.434531 0.347501 0.040740
0.455736 0.360622 0.040075
0.476941 0.373743 0.039411
0.498146 0.386864 0.038746
0.519351 0.399986 0.038081
0.542026 0.412082 0.038330
0.566171 0.423154 0.039494
0.590315 0.434226 0.040657
0.614460 0.445299 0.041820
0.638604 0.456371 0.042984
0.660100 0.467716 0.044783
0.676298 0.479609 0.047855
0.692496 0.491501 0.050928
0.708694 0.503393 0.054000
0.724892 0.515286 0.057072
0.739754 0.527393 0.060424
0.747934 0.540573 0.065175
0.756114 0.553754 0.069926
0.764293 0.566935 0.074676
0.772473 0.580116 0.079427
0.780653 0.593296 0.084178
0.115436 0.123668 0.090267
0.153523 0.149566 0.083638
0.191611 0.175464 0.077009
0.229699 0.201362 0.070380
0.267786 0.227259 0.063750
0.305874 0.253157 0.057121
0.332833 0.273808 0.054211
0.357566 0.293409 0.052044
0.382299 0.313010 0.049878
0.407032 0.332611 0.047711
0.431765 0.352212 0.045545
0.452347 0.367817 0.044276
0.470853 0.381423 0.043455
0.489360 0.395029 0.042635
0.507866 0.408635 0.041815
0.526372 0.422241 0.040995
0.547574 0.434466 0.041125
0.571472 0.445309 0.042206
0.595370 0.456153 0.043287
0.619267 0.466996 0.044368
0.643165 0.477839 0.045449
0.664404 0.488816 0.047194
0.680328 0.500059 0.050266
0.696251 0.511302 0.053338
0.712175 0.522545 0.056410
0.728099 0.533787 0.059482
0.742710 0.545207 0.062853
0.750762 0.557509 0.067713
0.758814 0.569812 0.072574
0.766866 0.582114 0.077435
0.774917 0.594417 0.082295
0.782969 0.606719 0.087156
0.126567 0.137422 0.096483
0.165962 0.164202 0.089510
0.205358 0.190983 0.082538
0.244754 0.217764 0.075566
0.284150 0.244545 0.068594
0.323546 0.271325 0.061621
0.351039 0.292397 0.058578
0.376151 0.312328 0.056320
0.401264 0.332258 0.054062
0.426377 0.352189 0.051803
0.451490 0.372119 0.049545
0.471204 0.387977 0.048222
0.488219 0.401798 0.047365
0.505235 0.415619 0.046508
0.522250 0.429440 0.045651
0.539265 0.443261 0.044794
0.558974 0.455403 0.044831
0.581375 0.465867 0.045761
0.603777 0.476331 0.046691
0.626179 0.486795 0.047621
0.648581 0.497258 0.048551
0.668694 0.507774 0.050163
0.684229 0.518395 0.053139
0.699764 0.529016 0.056115
0.715298 0.539637 0.059091
0.730833 0.550258 0.062068
0.745089 0.561011 0.065354
0.752948 0.572426 0.070192
0.760808 0.583841 0.075029
0.768668 0.595256 0.079867
0.776527 0.606671 0.084705
0.784387 0.618087 0.089543
0.141360 0.154390 0.102391
0.181561 0.181701 0.095181
0.221762 0.209012 0.087971
0.261963 0.236324 0.080760
0.302164 0.263635 0.073550
0.342364 0.290946 0.066340
0.370175 0.312160 0.063196
0.395507 0.332155 0.060865
0.420839 0.352149 0.058533
0.446172 0.372143 0.056202
0.471504 0.392138 0.053871
0.491102 0.407980 0.052578
0.507834 0.421746 0.051803
0.524566 0.435512 0.051028
0.541297 0.449279 0.050254
0.558029 0.463045 0.049479
0.576224 0.474895 0.049447
0.595881 0.484828 0.050158
0.615539 0.494761 0.050868
0.635196 0.504694 0.051579
0.654854 0.514627 0.052289
0.672969 0.524591 0.053691
0.688001 0.534618 0.056475
0.703032 0.544644 0.059259
0.718064 0.554670 0.062043
0.733096 0.564696 0.064827
0.746889 0.574804 0.067928
0.754493 0.585323 0.072610
0.762096 0.595842 0.077292
0.769700 0.606360 0.081974
0.777303 0.616879 0.086657
0.784907 0.627398 0.091339
0.156154 0.171358 0.108299
0.197160 0.199200 0.100851
0.238166 0.227041 0.093403
0.279172 0.254883 0.085955
0.320178 0.282725 0.078507
0.361183 0.310567 0.071059
0.389311 0.331923 0.067814
0.414863 0.351981 0.065410
0.440415 0.372040 0.063005
0.465966 0.392098 0.060601
0.491518 0.412157 0.058196
0.511001 0.427984 0.056933
0.527449 0.441695 0.056241
0.543897 0.455406 0.055549
0.560345 0.469118 0.054857
0.576793 0.482829 0.054165
0.593474 0.494386 0.054064
0.610387 0.503788 0.054555
0.627300 0.513191 0.055046
0.644213 0.522594 0.055537
0.661126 0.531996 0.056028
0.677244 0.541408 0.057219
0.691773 0.550840 0.059811
0.706301 0.560272 0.062403
0.720830 0.569703 0.064995
0.735358 0.579135 0.067587
0.748690 0.588598 0.070501
0.756037 0.598220 0.075028
0.763385 0.607842 0.079555
0.770732 0.617465 0.084081
0.778079 0.627087 0.088608
0.785427 0.636709 0.093135
0.170948 0.188326 0.114207
0.212759 0.216698 0.106521
0.254570 0.245071 0.098835
0.296381 0.273443 0.091149
0.338191 0.301815 0.083464
0.380002 0.330188 0.075778
0.408447 0.351685 0.072432
0.434218 0.371808 0.069955
0.459990 0.391930 0.067477
0.485761 0.412053 0.064999
0.511532 0.432175 0.062522
0.530899 0.447987 0.061289
0.547064 0.461644 0.060680
0.563228 0.475300 0.060070
0.579393 0.488956 0.059460
0.595557 0.502613 0.058850
0.610724 0.513877 0.058681
0.624892 0.522749 0.058952
0.639061 0.531621 0.059224
0.653230 0.540493 0.059495
0.667399 0.549365 0.059766
0.681519 0.558225 0.060747
0.695545 0.567062 0.063147
0.709570 0.575899 0.065547
0.723596 0.584736 0.067947
0.737621 0.593573 0.070346
0.750491 0.602392 0.073075
0.757582 0.611117 0.077446
0.764673 0.619843 0.081817
0.771764 0.628569 0.086188
0.778855 0.637294 0.090560
0.785947 0.646020 0.094931
0.185742 0.205294 0.120115
0.228358 0.234197 0.112191
0.270974 0.263100 0.104268
0.313589 0.292003 0.096344
0.356205 0.320906 0.088420
0.398821 0.349809 0.080497
0.427583 0.371448 0.077050
0.453574 0.391635 0.074500
0.479565 0.411821 0.071949
0.505556 0.432008 0.069398
0.531547 0.452194 0.066847
0.550798 0.467991 0.065645
0.566678 0.481592 0.065118
0.582559 0.495194 0.064590
0.598440 0.508795 0.064063
0.614321 0.522397 0.063535
0.627974 0.533368 0.063297
0.639398 0.541710 0.063349
0.650822 0.550051 0.063401
0.662247 0.558393 0.063453
0.673671 0.566734 0.063505
0.685795 0.575043 0.064275
0.699317 0.583285 0.066483
0.712839 0.591527 0.068691
0.726361 0.599770 0.070898
0.739884 0.608012 0.073106
0.752291 0.616185 0.075648
0.759126 0.624014 0.079864
0.765961 0.631844 0.084080
0.772796 0.639673 0.088296
0.779632 0.647502 0.092511
0.786467 0.655331 0.096727
0.205814 0.225617 0.124637
0.248472 0.254578 0.116655
0.291131 0.283539 0.108673
0.333789 0.312500 0.100692
0.376448 0.341461 0.092710
0.419106 0.370422 0.084729
0.447763 0.391911 0.081260
0.473620 0.411906 0.078694
0.499477 0.431900 0.076128
0.525334 0.451894 0.073562
0.551190 0.471889 0.070996
0.570124 0.487459 0.069838
0.585597 0.500816 0.069383
0.601069 0.514174 0.068929
0.616541 0.527531 0.068475
0.632013 0.540889 0.068020
0.644440 0.551490 0.067760
0.653821 0.559334 0.067693
0.663203 0.567179 0.067625
0.672584 0.575023 0.067558
0.681965 0.582868 0.067491
0.692402 0.590601 0.068099
0.704952 0.598111 0.070057
0.717501 0.605622 0.072014
0.730051 0.613132 0.073972
0.742600 0.620643 0.075930
0.754143 0.628067 0.078225
0.760648 0.635061 0.082209
0.767154 0.642054 0.086193
0.773660 0.649048 0.090177
0.780166 0.656042 0.094161
0.786671 0.663035 0.098145
0.236441 0.252653 0.126385
0.277618 0.280726 0.118706
0.318794 0.308800 0.111026
0.359971 0.336874 0.103346
0.401147 0.364947 0.095667
0.442324 0.393021 0.087987
0.470033 0.413775 0.084652
0.495048 0.433065 0.082187
0.520063 0.452355 0.079722
0.545078 0.471645 0.077256
0.570093 0.490935 0.074791
0.588307 0.505855 0.073703
0.603121 0.518591 0.073303
0.617935 0.531326 0.072904
0.632748 0.544062 0.072504
0.647562 0.556797 0.072105
0.659339 0.566872 0.071913
0.668080 0.574287 0.071928
0.676821 0.581701 0.071943
0.685562 0.589116 0.071959
0.694303 0.596530 0.071974
0.703676 0.603641 0.072515
0.714313 0.610145 0.074106
0.724951 0.616650 0.075698
0.735589 0.623154 0.077290
0.746226 0.629658 0.078882
0.756096 0.636125 0.080808
0.762126 0.642405 0.084408
0.768156 0.648685 0.088007
0.774186 0.654965 0.091607
0.780216 0.661245 0.095207
0.786246 0.667525 0.098807
0.267068 0.279688 0.128134
0.306763 0.306874 0.120756
0.346458 0.334061 0.113379
0.386152 0.361247 0.106001
0.425847 0.388433 0.098623
0.465541 0.415619 0.091245
0.492302 0.435638 0.088045
0.516475 0.454224 0.085680
0.540649 0.472810 0.083315
0.564822 0.491395 0.080950
0.588996 0.509981 0.078586
0.606490 0.524252 0.077568
0.620645 0.536365 0.077223
0.634800 0.548479 0.076879
0.648955 0.560592 0.076534
0.663110 0.572706 0.076189
0.674238 0.582255 0.076066
0.682339 0.589239 0.076164
0.690439 0.596224 0.076261
0.698540 0.603208 0.076359
0.706640 0.610193 0.076456
0.714949 0.616682 0.076930
0.723675 0.622180 0.078156
0.732400 0.627677 0.079382
0.741126 0.633175 0.080607
0.749852 0.638673 0.081833
0.758049 0.644183 0.083391
0.763603 0.649749 0.086606
0.769158 0.655316 0.089822
0.774712 0.660882 0.093037
0.780266 0.666449 0.096253
0.785821 0.672015 0.099468
0.297696 0.306723 0.129883
0.335908 0.333022 0.122807
0.374121 0.359321 0.115731
0.412334 0.385620 0.108655
0.450546 0.411919 0.101579
0.488759 0.438218 0.094503
0.514571 0.457502 0.091437
0.537903 0.475383 0.089173
0.561235 0.493265 0.086909
0.584567 0.511146 0.084645
0.607899 0.529027 0.082381
0.624674 0.542649 0.081433
0.638170 0.554140 0.081143
0.651666 0.565631 0.080853
0.665163 0.577123 0.080564
0.678659 0.588614 0.080274
0.689137 0.597637 0.080219
0.696597 0.604192 0.080399
0.704058 0.610746 0.080579
0.711518 0.617301 0.080759
0.718978 0.623855 0.080939
0.726223 0.629722 0.081345
0.733036 0.634214 0.082205
0.739850 0.638705 0.083065
0.746664 0.643197 0.083925
0.753477 0.647689 0.084785
0.760002 0.652241 0.085973
0.765081 0.657094 0.088805
0.770159 0.661947 0.091636
0.775238 0.666800 0.094467
0.780317 0.671653 0.097299
0.785395 0.676506 0.100130
0.328323 0.333759 0.131632
0.365054 0.359170 0.124858
0.401785 0.384582 0.118084
0.438515 0.409993 0.111310
0.475246 0.435405 0.104535
0.511977 0.460817 0.097761
0.536840 0.479366 0.094829
0.559331 0.496543 0.092666
0.581821 0.513720 0.090502
0.604311 0.530896 0.088339
0.626802 0.548073 0.086175
0.642857 0.561045 0.085298
0.655694 0.571914 0.085063
0.668532 0.582784 0.084828
0.681370 0.593653 0.084593
0.694207 0.604522 0.084359
0.704036 0.613019 0.084372
0.710856 0.619144 0.084635
0.717676 0.625268 0.084897
0.724496 0.631393 0.085159
0.731315 0.637518 0.085421
0.737496 0.642762 0.085761
0.742398 0.646248 0.086255
0.747300 0.649733 0.086749
0.752201 0.653219 0.087243
0.757103 0.656704 0.087737
0.761955 0.660298 0.088556
0.766558 0.664438 0.091003
0.771161 0.668577 0.093450
0.775764 0.672717 0.095898
0.780367 0.676856 0.098345
0.784970 0.680996 0.100792
0.363748 0.363086 0.131569
0.398387 0.387252 0.125290
0.433026 0.411418 0.119012
0.467665 0.435584 0.112733
0.502303 0.459750 0.106455
0.536942 0.483916 0.100176
0.560493 0.501528 0.097479
0.581826 0.517830 0.095499
0.603159 0.534132 0.093518
0.624492 0.550433 0.091537
0.645825 0.566735 0.089557
0.660962 0.578945 0.088791
0.673001 0.589108 0.088632
0.685040 0.599271 0.088474
0.697078 0.609435 0.088315
0.709117 0.619598 0.088157
0.718206 0.627500 0.088243
0.724346 0.633140 0.088574
0.730486 0.638779 0.088905
0.736626 0.644419 0.089235
0.742766 0.650059 0.089566
0.747931 0.654677 0.089848
0.751146 0.657252 0.090033
0.754362 0.659827 0.090217
0.757577 0.662402 0.090402
0.760793 0.664978 0.090586
0.764152 0.667695 0.091082
0.768227 0.671126 0.093136
0.772302 0.674556 0.095190
0.776378 0.677987 0.097244
0.780453 0.681417 0.099297
0.784529 0.684848 0.101351
0.423160 0.403876 0.122447
0.452657 0.425004 0.117632
0.482155 0.446133 0.112817
0.511653 0.467262 0.108002
0.541150 0.488391 0.103187
0.570648 0.509520 0.098372
0.591062 0.525185 0.096415
0.609660 0.539758 0.095029
0.628258 0.554330 0.093643
0.646856 0.568903 0.092257
0.665454 0.583476 0.090871
0.678679 0.594359 0.090425
0.689217 0.603397 0.090450
0.699756 0.612435 0.090474
0.710294 0.621474 0.090499
0.720833 0.630512 0.090523
0.728733 0.637471 0.090701
0.733994 0.642352 0.091032
0.739256 0.647232 0.091362
0.744518 0.652112 0.091693
