filters/luts/Sunshine 01.cube
# Created by: Adobe Photoshop Export Color Lookup Plugin
# LUT by SparkleStock. Enhanced with VOXCOLOR algorithms.
LUT_3D_SIZE 5
DOMAIN_MIN 0.000000 0.000000 0.000000
DOMAIN_MAX 0.903226 0.903226 0.903226
0.050794 0.039072 0.050794
0.141794 0.063878 0.061838
0.287416 0.098350 0.070960
0.475206 0.152507 0.083146
0.647068 0.248777 0.102958
0.074938 0.072850 0.077065
0.223611 0.139092 0.080068
0.400086 0.199952 0.088131
0.574982 0.271976 0.102822
0.700274 0.363218 0.126677
0.114120 0.117421 0.111017
0.332329 0.237036 0.107257
0.493038 0.331107 0.115977
0.648623 0.417549 0.129716
0.743205 0.506173 0.154977
0.207933 0.203994 0.152200
0.471108 0.363995 0.141860
0.619459 0.475978 0.148972
0.698860 0.544898 0.158075
0.765680 0.615676 0.174709
0.486415 0.397763 0.170058
0.640605 0.521943 0.170133
0.726310 0.606110 0.176138
0.763113 0.647837 0.181359
0.776308 0.666089 0.185119
0.062169 0.055323 0.114790
0.171359 0.090653 0.125372
0.367545 0.128543 0.121963
0.557035 0.173231 0.139551
0.680475 0.230523 0.168793
0.097276 0.118147 0.180776
0.234962 0.212485 0.221900
0.434602 0.265528 0.224528
0.616669 0.317486 0.242060
0.722688 0.385639 0.275596
0.148550 0.197086 0.249955
0.320276 0.329029 0.290175
0.509980 0.423049 0.279975
0.681674 0.491001 0.289779
0.773193 0.565746 0.322878
0.228547 0.298408 0.330742
0.441392 0.450891 0.351548
0.625674 0.563437 0.335864
0.731448 0.636531 0.348998
0.809124 0.698398 0.387506
0.421873 0.475474 0.419414
0.624966 0.600304 0.381858
0.743433 0.684230 0.379626
0.806255 0.736890 0.411607
0.837449 0.769279 0.471274
0.085691 0.084864 0.211178
0.164090 0.136286 0.272456
0.390388 0.195218 0.233468
0.608040 0.240601 0.224151
0.711952 0.284294 0.252595
0.132670 0.167131 0.315167
0.249309 0.272356 0.380123
0.445666 0.355763 0.386592
0.653973 0.407061 0.382819
0.750393 0.461980 0.414644
0.200661 0.285171 0.394815
0.343589 0.406724 0.463205
0.510370 0.503536 0.485613
0.697515 0.557458 0.489533
0.787517 0.611058 0.520344
0.287505 0.409425 0.497126
0.457768 0.534166 0.547455
0.615750 0.634129 0.567232
0.743311 0.699659 0.547889
0.828726 0.747260 0.570427
0.432141 0.555874 0.595886
0.604597 0.659214 0.607279
0.735953 0.738433 0.607396
0.821472 0.789504 0.611129
0.861647 0.817603 0.644866
0.119564 0.131301 0.334783
0.176589 0.201268 0.436996
0.320267 0.286016 0.466822
0.635204 0.398333 0.412854
0.740754 0.414963 0.398151
0.175165 0.225416 0.455611
0.278155 0.333696 0.524752
0.431034 0.442486 0.574312
0.663581 0.544247 0.563888
0.777283 0.589873 0.568047
0.259025 0.357037 0.542847
0.388883 0.475288 0.606003
0.529319 0.575616 0.652836
0.700062 0.658381 0.666827
0.809223 0.703300 0.672962
0.368333 0.509799 0.608932
0.510499 0.610357 0.668070
0.637712 0.691042 0.709142
0.746047 0.752130 0.731035
0.840543 0.785559 0.739697
0.481602 0.626383 0.695239
0.627034 0.711475 0.732553
0.743064 0.781169 0.763062
0.822058 0.830043 0.780672
0.877099 0.855638 0.782002
0.181047 0.236378 0.511749
0.217873 0.283082 0.566450
0.327724 0.375299 0.609393
0.542970 0.525256 0.647594
0.757348 0.646460 0.660729
0.227349 0.309271 0.578870
0.318030 0.400793 0.624808
0.452301 0.512330 0.676647
0.634625 0.637989 0.719250
0.792758 0.732654 0.743190
0.324261 0.440493 0.645682
0.441348 0.538521 0.690074
0.564360 0.629576 0.735320
0.715593 0.731613 0.778942
0.828706 0.798512 0.804968
0.444160 0.583549 0.700845
0.572030 0.668838 0.743622
0.688345 0.744622 0.787584
0.774054 0.799569 0.822554
0.861381 0.850539 0.848822
0.528975 0.668338 0.733789
0.675724 0.752507 0.782033
0.780973 0.818820 0.826576
0.849104 0.864125 0.860268
0.892469 0.892143 0.879345
