filters/luts/Sunshine 02_S.cube
# Created by: Adobe Photoshop Export Color Lookup Plugin
# LUT by SparkleStock. Enhanced with VOXCOLOR algorithms.
LUT_3D_SIZE 32
0.019536 0.015629 0.019536
0.035937 0.019457 0.020009
0.052338 0.023286 0.020481
0.068738 0.027114 0.020954
0.085139 0.030943 0.021427
0.101540 0.034771 0.021899
0.124715 0.039939 0.022333
0.149246 0.045374 0.022758
0.173776 0.050809 0.023183
0.198306 0.056245 0.023609
0.222837 0.061680 0.024034
0.250707 0.068565 0.024585
0.280247 0.076175 0.025200
0.309788 0.083784 0.025814
0.339328 0.091394 0.026429
0.368868 0.099004 0.027043
0.398432 0.108220 0.027729
0.428020 0.119044 0.028485
0.457608 0.129867 0.029241
0.487195 0.140691 0.029997
0.516783 0.151514 0.030753
0.544811 0.163819 0.031462
0.569719 0.179085 0.032077
0.594628 0.194352 0.032691
0.619536 0.209618 0.033306
0.644444 0.224885 0.033920
0.667959 0.240789 0.034456
0.684501 0.259884 0.034598
0.701044 0.278979 0.034739
0.717586 0.298074 0.034881
0.734129 0.317169 0.035023
0.750672 0.336264 0.035165
0.022325 0.020970 0.022277
0.039622 0.026152 0.022329
0.056919 0.031334 0.022381
0.074217 0.036517 0.022433
0.091514 0.041699 0.022485
0.108811 0.046881 0.022537
0.133043 0.052641 0.022778
0.158662 0.058515 0.023057
0.184281 0.064390 0.023336
0.209900 0.070264 0.023615
0.235519 0.076139 0.023894
0.263941 0.083274 0.024335
0.293765 0.091039 0.024858
0.323589 0.098804 0.025381
0.353413 0.106569 0.025904
0.383237 0.114334 0.026427
0.412755 0.123583 0.027071
0.441968 0.134315 0.027837
0.471180 0.145047 0.028602
0.500393 0.155779 0.029368
0.529605 0.166511 0.030133
0.557109 0.178620 0.030897
0.581194 0.193484 0.031658
0.605279 0.208348 0.032418
0.629364 0.223212 0.033179
0.653449 0.238076 0.033940
0.676094 0.253536 0.034653
0.691539 0.271972 0.035124
0.706984 0.290408 0.035595
0.722429 0.308844 0.036066
0.737874 0.327280 0.036537
0.753318 0.345717 0.037008
0.025113 0.026311 0.025019
0.043307 0.032847 0.024650
0.061501 0.039383 0.024281
0.079695 0.045919 0.023912
0.097888 0.052456 0.023543
0.116082 0.058992 0.023174
0.141371 0.065342 0.023223
0.168078 0.071656 0.023356
0.194786 0.077970 0.023488
0.221493 0.084283 0.023621
0.248201 0.090597 0.023753
0.277175 0.097982 0.024085
0.307283 0.105903 0.024517
0.337390 0.113823 0.024948
0.367498 0.121744 0.025380
0.397605 0.129664 0.025811
0.427078 0.138945 0.026414
0.455915 0.149586 0.027189
0.484753 0.160226 0.027963
0.513590 0.170867 0.028738
0.542428 0.181508 0.029512
0.569407 0.193422 0.030331
0.592668 0.207883 0.031238
0.615930 0.222345 0.032145
0.639192 0.236806 0.033053
0.662454 0.251268 0.033960
0.684230 0.266282 0.034849
0.698577 0.284059 0.035650
0.712924 0.301837 0.036450
0.727271 0.319614 0.037251
0.741618 0.337392 0.038051
0.755965 0.355170 0.038851
0.027902 0.031652 0.027760
0.046992 0.039542 0.026970
0.066082 0.047432 0.026181
0.085173 0.055322 0.025391
0.104263 0.063212 0.024601
0.123353 0.071102 0.023811
0.149699 0.078044 0.023668
0.177495 0.084797 0.023654
0.205291 0.091550 0.023641
0.233087 0.098303 0.023627
0.260883 0.105055 0.023613
0.290409 0.112690 0.023835
0.320800 0.120767 0.024175
0.351191 0.128843 0.024515
0.381583 0.136919 0.024855
0.411974 0.144995 0.025195
0.441400 0.154308 0.025757
0.469863 0.164857 0.026541
0.498325 0.175406 0.027325
0.526788 0.185955 0.028108
0.555250 0.196504 0.028892
0.581705 0.208223 0.029765
0.604143 0.222282 0.030819
0.626581 0.236341 0.031873
0.649020 0.250400 0.032926
0.671458 0.264459 0.033980
0.692365 0.279028 0.035046
0.705615 0.296147 0.036176
0.718864 0.313266 0.037305
0.732113 0.330385 0.038435
0.745363 0.347504 0.039565
0.758612 0.364622 0.040695
0.030690 0.036992 0.030501
0.050677 0.046236 0.029291
0.070664 0.055480 0.028080
0.090651 0.064724 0.026870
0.110638 0.073969 0.025659
0.130625 0.083213 0.024448
0.158026 0.090746 0.024113
0.186911 0.097938 0.023953
0.215796 0.105130 0.023793
0.244681 0.112322 0.023633
0.273565 0.119514 0.023473
0.303643 0.127399 0.023585
0.334318 0.135630 0.023834
0.364993 0.143862 0.024082
0.395667 0.152094 0.024331
0.426342 0.160325 0.024579
0.455723 0.169670 0.025100
0.483810 0.180128 0.025893
0.511898 0.190585 0.026686
0.539985 0.201043 0.027478
0.568073 0.211501 0.028271
0.594002 0.223025 0.029200
0.615618 0.236681 0.030400
0.637233 0.250338 0.031600
0.658848 0.263994 0.032800
0.680463 0.277650 0.033999
0.700501 0.291774 0.035243
0.712653 0.308234 0.036702
0.724804 0.324695 0.038161
0.736956 0.341155 0.039620
0.749107 0.357615 0.041079
0.761259 0.374075 0.042538
0.033479 0.042333 0.033243
0.054362 0.052931 0.031611
0.075246 0.063529 0.029980
0.096129 0.074127 0.028349
0.117012 0.084725 0.026717
0.137896 0.095323 0.025086
0.166354 0.103448 0.024559
0.196327 0.111079 0.024252
0.226301 0.118710 0.023946
0.256274 0.126341 0.023639
0.286247 0.133972 0.023333
0.316877 0.142107 0.023335
0.347836 0.150494 0.023492
0.378794 0.158882 0.023649
0.409752 0.167269 0.023806
0.440711 0.175656 0.023963
0.470046 0.185033 0.024443
0.497758 0.195399 0.025245
0.525470 0.205765 0.026047
0.553183 0.216131 0.026849
0.580895 0.226497 0.027651
0.606300 0.237826 0.028634
0.627092 0.251080 0.029980
0.647884 0.264334 0.031327
0.668676 0.277588 0.032673
0.689468 0.290842 0.034019
0.708637 0.304520 0.035439
0.719690 0.320322 0.037228
0.730744 0.336123 0.039016
0.741798 0.351925 0.040805
0.752852 0.367727 0.042593
0.763906 0.383528 0.044381
0.037252 0.048501 0.037323
0.059840 0.060026 0.035279
0.082428 0.071551 0.033234
0.105016 0.083076 0.031190
0.127604 0.094601 0.029145
0.150192 0.106126 0.027100
0.178291 0.115547 0.026319
0.207493 0.124547 0.025790
0.236695 0.133547 0.025261
0.265897 0.142547 0.024732
0.295099 0.151547 0.024203
0.325640 0.160324 0.024060
0.356852 0.168988 0.024110
0.388063 0.177653 0.024160
0.419275 0.186318 0.024211
0.450486 0.194982 0.024261
0.479817 0.204467 0.024688
0.507269 0.214772 0.025491
0.534721 0.225078 0.026295
0.562172 0.235383 0.027098
0.589624 0.245688 0.027902
0.614688 0.256862 0.028930
0.634976 0.269775 0.030407
0.655265 0.282687 0.031885
0.675554 0.295599 0.033362
0.695842 0.308512 0.034840
0.714509 0.321818 0.036414
0.725068 0.337090 0.038470
0.735626 0.352363 0.040527
0.746184 0.367635 0.042584
0.756743 0.382908 0.044641
0.767301 0.398180 0.046697
0.041223 0.054835 0.041672
0.065677 0.067201 0.039215
0.090131 0.079568 0.036759
0.114585 0.091934 0.034303
0.139039 0.104301 0.031847
0.163493 0.116667 0.029390
0.190951 0.127525 0.028342
0.219009 0.138080 0.027575
0.247067 0.148635 0.026808
0.275126 0.159190 0.026041
0.303184 0.169746 0.025274
0.333509 0.179242 0.024979
0.364968 0.188208 0.024920
0.396426 0.197175 0.024860
0.427884 0.206141 0.024801
0.459343 0.215108 0.024741
0.488679 0.224716 0.025113
0.515892 0.234967 0.025917
0.543106 0.245217 0.026720
0.570320 0.255467 0.027524
0.597534 0.265718 0.028327
0.622293 0.276745 0.029398
0.642142 0.289329 0.031004
0.661992 0.301912 0.032609
0.681841 0.314495 0.034214
0.701691 0.327078 0.035820
0.719930 0.340025 0.037543
0.730113 0.354794 0.039856
0.740296 0.369564 0.042169
0.750479 0.384333 0.044482
0.760662 0.399103 0.046795
0.770846 0.413872 0.049108
0.045193 0.061168 0.046020
0.071513 0.074376 0.043152
0.097833 0.087585 0.040284
0.124154 0.100793 0.037416
0.150474 0.114001 0.034548
0.176794 0.127209 0.031680
0.203610 0.139502 0.030365
0.230525 0.151613 0.029360
0.257440 0.163723 0.028356
0.284355 0.175834 0.027351
0.311269 0.187944 0.026346
0.341378 0.198160 0.025898
0.373083 0.207428 0.025729
0.404789 0.216697 0.025560
0.436494 0.225965 0.025391
0.468199 0.235233 0.025221
0.497540 0.244965 0.025539
0.524516 0.255161 0.026342
0.551492 0.265356 0.027146
0.578468 0.275552 0.027949
0.605444 0.285747 0.028753
0.629898 0.296629 0.029866
0.649308 0.308882 0.031600
0.668719 0.321136 0.033333
0.688129 0.333390 0.035067
0.707540 0.345643 0.036800
0.725350 0.358233 0.038673
0.735158 0.372499 0.041242
0.744966 0.386765 0.043811
0.754774 0.401031 0.046380
0.764582 0.415298 0.048949
0.774390 0.429564 0.051518
0.049163 0.067502 0.050368
0.077349 0.081551 0.047089
0.105536 0.095601 0.043809
0.133722 0.109651 0.040530
0.161909 0.123701 0.037250
0.190095 0.137751 0.033971
0.216269 0.151480 0.032388
0.242041 0.165146 0.031146
0.267812 0.178811 0.029903
0.293583 0.192477 0.028661
0.319355 0.206142 0.027418
0.349247 0.217078 0.026818
0.381199 0.226648 0.026539
0.413151 0.236218 0.026260
0.445104 0.245789 0.025981
0.477056 0.255359 0.025702
0.506401 0.265214 0.025964
0.533139 0.275355 0.026767
0.559877 0.285495 0.027571
0.586615 0.295636 0.028374
0.613354 0.305777 0.029178
0.637503 0.316512 0.030334
0.656474 0.328436 0.032196
0.675445 0.340361 0.034057
0.694417 0.352285 0.035919
0.713388 0.364209 0.037781
0.730770 0.376440 0.039803
0.740203 0.390203 0.042628
0.749636 0.403966 0.045453
0.759069 0.417730 0.048278
0.768502 0.431493 0.051104
0.777935 0.445256 0.053929
0.053133 0.073835 0.054717
0.083186 0.088727 0.051025
0.113239 0.103618 0.047334
0.143291 0.118509 0.043643
0.173344 0.133401 0.039952
0.203396 0.148292 0.036261
0.228928 0.163458 0.034412
0.253556 0.178679 0.032931
0.278184 0.193899 0.031451
0.302812 0.209120 0.029970
0.327440 0.224341 0.028490
0.357116 0.235996 0.027737
0.389315 0.245868 0.027348
0.421514 0.255740 0.026960
0.453714 0.265612 0.026571
0.485913 0.275485 0.026182
0.515263 0.285463 0.026389
0.541763 0.295549 0.027193
0.568263 0.305635 0.027996
0.594763 0.315720 0.028800
0.621263 0.325806 0.029603
0.645108 0.336395 0.030802
0.663640 0.347990 0.032792
0.682172 0.359585 0.034782
0.700705 0.371180 0.036771
0.719237 0.382775 0.038761
0.736190 0.394648 0.040933
0.745248 0.407908 0.044014
0.754306 0.421168 0.047095
0.763364 0.434428 0.050177
0.772422 0.447688 0.053258
0.781480 0.460948 0.056339
0.058742 0.081839 0.059853
0.090789 0.097614 0.055719
0.122836 0.113390 0.051586
0.154883 0.129166 0.047453
0.186930 0.144941 0.043319
0.218976 0.160717 0.039186
0.244854 0.176701 0.037121
0.269497 0.192727 0.035470
0.294140 0.208753 0.033819
0.318783 0.224778 0.032167
0.343426 0.240804 0.030516
0.372011 0.253165 0.029641
0.402567 0.263692 0.029155
0.433123 0.274220 0.028669
0.463678 0.284748 0.028182
0.494234 0.295276 0.027696
0.522619 0.305573 0.027818
0.548832 0.315641 0.028548
0.575046 0.325708 0.029279
0.601259 0.335775 0.030009
0.627473 0.345843 0.030739
0.650986 0.356314 0.031902
0.669097 0.367592 0.033928
0.687209 0.378869 0.035954
0.705320 0.390147 0.037980
0.723432 0.401425 0.040007
0.739990 0.412947 0.042233
0.748783 0.425685 0.045461
0.757575 0.438424 0.048689
0.766368 0.451162 0.051916
0.775161 0.463901 0.055144
0.783954 0.476639 0.058372
0.065170 0.090677 0.065383
0.099275 0.107358 0.060792
0.133380 0.124040 0.056201
0.167486 0.140721 0.051610
0.201591 0.157402 0.047020
0.235696 0.174084 0.042429
0.262412 0.190577 0.040173
0.287649 0.207033 0.038385
0.312887 0.223488 0.036596
0.338125 0.239944 0.034808
0.363363 0.256400 0.033020
0.390420 0.269459 0.032038
0.418387 0.280819 0.031460
0.446354 0.292179 0.030883
0.474320 0.303539 0.030305
0.502287 0.314900 0.029727
0.529222 0.325613 0.029748
0.555125 0.335681 0.030369
0.581027 0.345748 0.030989
0.606930 0.355816 0.031610
0.632832 0.365883 0.032230
0.656000 0.376250 0.033316
0.673700 0.387217 0.035334
0.691400 0.398184 0.037351
0.709100 0.409151 0.039368
0.726800 0.420118 0.041385
0.742980 0.431291 0.043619
0.751562 0.443499 0.046938
0.760145 0.455707 0.050257
0.768727 0.467915 0.053577
0.777309 0.480123 0.056896
0.785892 0.492331 0.060215
0.071598 0.099516 0.070913
0.107761 0.117103 0.065864
0.143925 0.134690 0.060816
0.180088 0.152277 0.055768
0.216252 0.169864 0.050720
0.252415 0.187450 0.045672
0.279970 0.204453 0.043226
0.305802 0.221339 0.041300
0.331634 0.238224 0.039374
0.357467 0.255110 0.037449
0.383299 0.271996 0.035523
0.408829 0.285753 0.034435
0.434207 0.297945 0.033766
0.459585 0.310138 0.033096
0.484963 0.322331 0.032427
0.510341 0.334524 0.031758
0.535825 0.345654 0.031678
0.561417 0.355721 0.032189
0.587008 0.365788 0.032700
0.612600 0.375856 0.033211
0.638191 0.385923 0.033721
0.661015 0.396187 0.034731
0.678303 0.406842 0.036739
0.695591 0.417498 0.038747
0.712879 0.428154 0.040755
0.730168 0.438810 0.042763
0.745970 0.449636 0.045005
0.754342 0.461314 0.048416
0.762714 0.472991 0.051826
0.771086 0.484668 0.055237
0.779457 0.496346 0.058648
0.787829 0.508023 0.062058
0.078026 0.108354 0.076443
0.116248 0.126847 0.070937
0.154469 0.145339 0.065431
0.192691 0.163832 0.059926
0.230913 0.182325 0.054420
0.269135 0.200817 0.048915
0.297528 0.218329 0.046278
0.323955 0.235645 0.044215
0.350382 0.252960 0.042152
0.376809 0.270276 0.040089
0.403236 0.287591 0.038027
0.427237 0.302047 0.036832
0.450026 0.315072 0.036071
0.472816 0.328097 0.035310
0.495605 0.341122 0.034549
0.518394 0.354148 0.033789
0.542429 0.365694 0.033609
0.567709 0.375761 0.034010
0.592990 0.385829 0.034411
0.618270 0.395896 0.034812
0.643550 0.405963 0.035213
0.666030 0.416123 0.036146
0.682906 0.426468 0.038145
0.699783 0.436813 0.040144
0.716659 0.447158 0.042143
0.733536 0.457502 0.044142
0.748960 0.467981 0.046391
0.757121 0.479128 0.049893
0.765283 0.490275 0.053395
0.773444 0.501421 0.056897
0.781606 0.512568 0.060400
0.789767 0.523715 0.063902
0.084454 0.117192 0.081973
0.124734 0.136591 0.076010
0.165014 0.155989 0.070047
0.205294 0.175387 0.064084
0.245574 0.194786 0.058121
0.285854 0.214184 0.052158
0.315086 0.232205 0.049330
0.342107 0.249951 0.047130
0.369129 0.267696 0.044930
0.396150 0.285442 0.042730
0.423172 0.303187 0.040530
0.445646 0.318341 0.039229
0.465846 0.332198 0.038376
0.486047 0.346056 0.037524
0.506247 0.359914 0.036672
0.526447 0.373771 0.035819
0.549032 0.385734 0.035539
0.574001 0.395801 0.035830
0.598971 0.405869 0.036121
0.623940 0.415936 0.036413
0.648910 0.426003 0.036704
0.671044 0.436060 0.037561
0.687509 0.446093 0.039551
0.703974 0.456127 0.041540
0.720439 0.466161 0.043530
0.736904 0.476195 0.045520
0.751949 0.486326 0.047777
0.759901 0.496942 0.051370
0.767852 0.507558 0.054964
0.775803 0.518174 0.058558
0.783754 0.528791 0.062151
0.791705 0.539407 0.065745
0.094356 0.128489 0.087266
0.136241 0.148628 0.080928
0.178127 0.168767 0.074590
0.220012 0.188907 0.068252
0.261898 0.209046 0.061914
0.303784 0.229185 0.055576
0.333641 0.247555 0.052583
0.361092 0.265570 0.050260
0.388544 0.283585 0.047936
0.415995 0.301601 0.045613
0.443447 0.319616 0.043289
0.465092 0.335125 0.041916
0.483833 0.349381 0.041018
0.502574 0.363636 0.040120
0.521315 0.377892 0.039222
0.540056 0.392147 0.038324
0.561139 0.404263 0.037970
0.584562 0.414239 0.038161
0.607985 0.424215 0.038351
0.631409 0.434191 0.038542
0.654832 0.444167 0.038732
0.675773 0.454052 0.039494
0.691748 0.463757 0.041396
0.707724 0.473461 0.043299
0.723699 0.483166 0.045202
0.739675 0.492870 0.047105
0.754272 0.502634 0.049285
0.761976 0.512697 0.052851
0.769680 0.522760 0.056417
0.777384 0.532823 0.059983
0.785088 0.542885 0.063549
0.792792 0.552948 0.067116
0.107732 0.142243 0.092323
0.150770 0.162958 0.085693
0.193808 0.183674 0.079062
0.236846 0.204390 0.072431
0.279884 0.225105 0.065800
0.322923 0.245821 0.059170
0.353193 0.264378 0.056037
0.380910 0.282503 0.053603
0.408627 0.300628 0.051170
0.436344 0.318753 0.048737
0.464061 0.336878 0.046303
0.485574 0.352400 0.044893
0.503986 0.366619 0.043995
0.522398 0.380838 0.043097
0.540810 0.395057 0.042199
0.559221 0.409276 0.041301
0.578748 0.421282 0.040902
0.599391 0.431074 0.041001
0.620033 0.440867 0.041100
0.640676 0.450660 0.041199
0.661318 0.460453 0.041298
0.680216 0.470101 0.041944
0.695624 0.479458 0.043682
0.711032 0.488814 0.045420
0.726441 0.498171 0.047158
0.741849 0.507528 0.048896
0.755926 0.516907 0.050915
0.763346 0.526393 0.054334
0.770767 0.535880 0.057754
0.778187 0.545366 0.061174
0.785608 0.554852 0.064594
0.793028 0.564339 0.068014
0.121108 0.155997 0.097381
0.165298 0.177289 0.090457
0.209489 0.198581 0.083534
0.253680 0.219872 0.076610
0.297871 0.241164 0.069687
0.342062 0.262456 0.062763
0.372745 0.281201 0.059490
0.400728 0.299436 0.056947
0.428710 0.317671 0.054404
0.456692 0.335906 0.051861
0.484674 0.354141 0.049318
0.506056 0.369674 0.047871
0.524139 0.383856 0.046973
0.542221 0.398039 0.046075
0.560304 0.412221 0.045177
0.578386 0.426404 0.044279
0.596358 0.438300 0.043834
0.614220 0.447910 0.043841
0.632081 0.457520 0.043849
0.649943 0.467130 0.043857
0.667804 0.476740 0.043864
0.684659 0.486149 0.044394
0.699500 0.495159 0.045967
0.714341 0.504168 0.047541
0.729182 0.513177 0.049114
0.744023 0.522186 0.050688
0.757580 0.531179 0.052544
0.764717 0.540089 0.055818
0.771854 0.548999 0.059091
0.778991 0.557909 0.062365
0.786128 0.566820 0.065638
0.793265 0.575730 0.068912
0.134483 0.169751 0.102438
0.179827 0.191619 0.095222
0.225170 0.213487 0.088006
0.270514 0.235355 0.080789
0.315857 0.257224 0.073573
0.361201 0.279092 0.066357
0.392298 0.298024 0.062943
0.420545 0.316369 0.060291
0.448793 0.334713 0.057638
0.477040 0.353058 0.054985
0.505287 0.371403 0.052332
0.526539 0.386948 0.050849
0.544292 0.401094 0.049951
0.562045 0.415240 0.049053
0.579798 0.429386 0.048155
0.597551 0.443532 0.047257
0.613968 0.455318 0.046766
0.629049 0.464745 0.046682
0.644129 0.474172 0.046598
0.659210 0.483599 0.046514
0.674290 0.493026 0.046430
0.689102 0.502198 0.046844
0.703375 0.510860 0.048253
0.717649 0.519521 0.049662
0.731923 0.528183 0.051070
0.746197 0.536844 0.052479
0.759234 0.545451 0.054174
0.766088 0.553785 0.057301
0.772941 0.562119 0.060429
0.779794 0.570453 0.063556
0.786648 0.578787 0.066683
0.793501 0.587120 0.069810
0.147859 0.183505 0.107495
0.194355 0.205949 0.099986
0.240852 0.228394 0.092477
0.287348 0.250838 0.084968
0.333844 0.273283 0.077460
0.380340 0.295728 0.069951
0.411850 0.314847 0.066397
0.440363 0.333302 0.063634
0.468875 0.351756 0.060871
0.497388 0.370211 0.058109
0.525901 0.388665 0.055346
0.547021 0.404223 0.053826
0.564445 0.418332 0.052928
0.581869 0.432441 0.052030
0.599293 0.446551 0.051132
0.616716 0.460660 0.050234
0.631578 0.472336 0.049698
0.643878 0.481580 0.049522
0.656177 0.490824 0.049347
0.668476 0.500068 0.049172
0.680776 0.509313 0.048996
0.693544 0.518247 0.049294
0.707251 0.526561 0.050538
0.720958 0.534875 0.051782
0.734665 0.543189 0.053027
0.748371 0.551502 0.054271
0.760889 0.559724 0.055804
0.767458 0.567481 0.058785
0.774028 0.575239 0.061766
0.780598 0.582996 0.064746
0.787168 0.590754 0.067727
0.793737 0.598511 0.070708
0.167112 0.199953 0.111261
0.213916 0.222666 0.103633
0.260720 0.245379 0.096005
0.307524 0.268091 0.088377
0.354328 0.290804 0.080749
0.401132 0.313517 0.073121
0.432597 0.332641 0.069497
0.460994 0.351047 0.066673
0.489391 0.369452 0.063850
0.517788 0.387858 0.061026
0.546184 0.406264 0.058202
0.566955 0.421671 0.056668
0.583912 0.435579 0.055780
0.600870 0.449487 0.054891
0.617827 0.463395 0.054002
0.634784 0.477303 0.053113
0.648367 0.488749 0.052555
0.658574 0.497734 0.052328
0.668782 0.506719 0.052101
0.678990 0.515704 0.051873
0.689197 0.524689 0.051646
0.700233 0.533275 0.051850
0.712924 0.541065 0.052918
0.725615 0.548854 0.053985
0.738307 0.556644 0.055052
0.750998 0.564433 0.056120
0.762610 0.572121 0.057473
0.768830 0.579299 0.060259
0.775049 0.586477 0.063044
0.781268 0.593655 0.065830
0.787487 0.600833 0.068615
0.793706 0.608011 0.071401
0.198117 0.221789 0.112442
0.243540 0.244154 0.105043
0.288963 0.266520 0.097644
0.334386 0.288885 0.090245
0.379808 0.311250 0.082846
0.425231 0.333615 0.075446
0.455734 0.352376 0.071891
0.483252 0.370416 0.069104
0.510771 0.388456 0.066317
0.538290 0.406496 0.063529
0.565808 0.424535 0.060742
0.585792 0.439467 0.059239
0.602008 0.452844 0.058378
0.618225 0.466222 0.057516
0.634441 0.479599 0.056655
0.650657 0.492977 0.055793
0.663513 0.503952 0.055263
0.673007 0.512525 0.055063
0.682501 0.521098 0.054863
0.691995 0.529671 0.054664
0.701489 0.538245 0.054464
0.711411 0.546264 0.054619
0.722191 0.553175 0.055485
0.732970 0.560086 0.056351
0.743750 0.566998 0.057217
0.754529 0.573909 0.058083
0.764467 0.580767 0.059220
0.770202 0.587360 0.061713
0.775936 0.593952 0.064206
0.781670 0.600545 0.066699
0.787405 0.607138 0.069192
0.793139 0.613730 0.071685
0.229123 0.243625 0.113624
0.273164 0.265643 0.106454
0.317206 0.287661 0.099283
0.361247 0.309678 0.092113
0.405289 0.331696 0.084942
0.449330 0.353714 0.077772
0.478871 0.372111 0.074284
0.505511 0.389785 0.071534
0.532151 0.407459 0.068783
0.558792 0.425133 0.066033
0.585432 0.442807 0.063282
0.604629 0.457263 0.061810
0.620105 0.470110 0.060976
0.635580 0.482956 0.060142
0.651055 0.495803 0.059308
0.666531 0.508650 0.058474
0.678659 0.519154 0.057970
0.687439 0.527316 0.057798
0.696220 0.535477 0.057626
0.705000 0.543639 0.057454
0.713781 0.551800 0.057281
0.722590 0.559252 0.057388
0.731458 0.565285 0.058053
0.740325 0.571319 0.058718
0.749193 0.577352 0.059382
0.758060 0.583385 0.060047
0.766325 0.589414 0.060968
0.771574 0.595421 0.063168
0.776823 0.601428 0.065368
0.782073 0.607435 0.067568
0.787322 0.613442 0.069768
0.792572 0.619449 0.071968
0.260128 0.265461 0.114806
0.302788 0.287131 0.107864
0.345449 0.308802 0.100922
0.388109 0.330472 0.093980
0.430769 0.352142 0.087038
0.473429 0.373812 0.080097
0.502007 0.391847 0.076678
0.527770 0.409155 0.073964
0.553532 0.426463 0.071250
0.579294 0.443771 0.068536
0.605056 0.461079 0.065823
0.623467 0.475059 0.064380
0.638201 0.487375 0.063574
0.652935 0.499691 0.062767
0.667670 0.512007 0.061961
0.682404 0.524324 0.061154
0.693805 0.534357 0.060678
0.701872 0.542107 0.060533
0.709939 0.549856 0.060389
0.718006 0.557606 0.060244
0.726073 0.565356 0.060099
0.733769 0.572241 0.060157
0.740725 0.577396 0.060620
0.747680 0.582551 0.061084
0.754636 0.587706 0.061547
0.761591 0.592861 0.062011
0.768182 0.598060 0.062715
0.772946 0.603482 0.064622
0.777711 0.608903 0.066530
0.782475 0.614325 0.068437
0.787240 0.619747 0.070344
0.792004 0.625168 0.072252
0.291134 0.287298 0.115987
0.332413 0.308620 0.109274
0.373691 0.329942 0.102561
0.414970 0.351265 0.095848
0.456249 0.372587 0.089135
0.497528 0.393910 0.082422
0.525144 0.411582 0.079072
0.550028 0.428524 0.076395
0.574912 0.445466 0.073717
0.599796 0.462408 0.071040
0.624680 0.479350 0.068363
0.642304 0.492855 0.066951
0.656297 0.504640 0.066172
0.670291 0.516426 0.065393
0.684284 0.528211 0.064613
0.698277 0.539997 0.063834
0.708951 0.549559 0.063386
0.716304 0.556897 0.063269
0.723658 0.564235 0.063151
0.731011 0.571574 0.063034
0.738364 0.578912 0.062917
0.744948 0.585230 0.062926
0.749992 0.589506 0.063188
0.755035 0.593783 0.063450
0.760079 0.598060 0.063712
0.765122 0.602336 0.063975
0.770039 0.606706 0.064462
0.774318 0.611542 0.066077
0.778598 0.616379 0.067691
0.782878 0.621215 0.069306
0.787158 0.626051 0.070921
0.791437 0.630887 0.072535
0.328189 0.310898 0.115467
0.367320 0.331622 0.109169
0.406450 0.352345 0.102871
0.445581 0.373068 0.096572
0.484711 0.393791 0.090274
0.523842 0.414515 0.083975
0.550051 0.431671 0.080795
0.573675 0.448115 0.078238
0.597300 0.464558 0.075681
0.620925 0.481002 0.073124
0.644549 0.497445 0.070568
0.661152 0.510383 0.069230
0.674245 0.521568 0.068503
0.687337 0.532753 0.067776
0.700429 0.543938 0.067049
0.713522 0.555123 0.066321
0.723369 0.564144 0.065913
0.729970 0.571002 0.065823
0.736572 0.577860 0.065733
0.743174 0.584718 0.065643
0.749776 0.591576 0.065553
0.755296 0.597303 0.065523
0.758651 0.600767 0.065615
0.762007 0.604231 0.065706
0.765363 0.607695 0.065798
0.768719 0.611159 0.065889
0.772141 0.614748 0.066187
0.775898 0.618966 0.067513
0.779655 0.623183 0.068840
0.783412 0.627400 0.070166
0.787168 0.631617 0.071492
0.790925 0.635834 0.072819
0.395494 0.343322 0.106440
0.428642 0.362188 0.101486
0.461790 0.381054 0.096533
0.494937 0.399920 0.091579
0.528085 0.418787 0.086625
0.561233 0.437653 0.081672
0.583807 0.453532 0.079165
0.604266 0.468814 0.077148
0.624726 0.484095 0.075131
0.645185 0.499377 0.073114
0.665645 0.514659 0.071097
0.680058 0.526575 0.070055
0.691449 0.536809 0.069502
0.702840 0.547042 0.068948
0.714231 0.557276 0.068395
0.725621 0.567509 0.067841
0.734146 0.575643 0.067533
0.739806 0.581678 0.067471
0.745466 0.587712 0.067408
0.751125 0.593747 0.067346
