filters/luts/Sunshine 05.cube
# Created by: Adobe Photoshop Export Color Lookup Plugin
# LUT by SparkleStock. Enhanced with VOXCOLOR algorithms.
LUT_3D_SIZE 32
0.015629 0.046886 0.042979
0.030375 0.050715 0.043216
0.045122 0.054543 0.043452
0.059868 0.058372 0.043688
0.074615 0.062200 0.043925
0.089362 0.066029 0.044161
0.108519 0.070881 0.044909
0.128560 0.075938 0.045760
0.148600 0.080996 0.046611
0.168640 0.086053 0.047461
0.188680 0.091110 0.048312
0.210264 0.097649 0.049825
0.232620 0.104927 0.051668
0.254977 0.112206 0.053511
0.277333 0.119485 0.055355
0.299689 0.126764 0.057198
0.322659 0.136098 0.059325
0.346244 0.147489 0.061735
0.369829 0.158880 0.064146
0.393414 0.170271 0.066556
0.416999 0.181661 0.068967
0.440742 0.194895 0.071425
0.464800 0.211816 0.073977
0.488857 0.228737 0.076529
0.512915 0.245658 0.079081
0.536973 0.262578 0.081634
0.560621 0.280239 0.084084
0.582221 0.301603 0.086022
0.603821 0.322967 0.087959
0.625420 0.344330 0.089897
0.647020 0.365694 0.091835
0.668620 0.387057 0.093773
0.018654 0.052842 0.046146
0.034425 0.057896 0.046190
0.050196 0.062950 0.046234
0.065967 0.068005 0.046279
0.081738 0.073059 0.046323
0.097509 0.078113 0.046367
0.117715 0.083551 0.047015
0.138807 0.089066 0.047783
0.159899 0.094580 0.048552
0.180991 0.100095 0.049320
0.202083 0.105610 0.050088
0.224329 0.112569 0.051537
0.247152 0.120250 0.053325
0.269975 0.127931 0.055114
0.292797 0.135613 0.056902
0.315620 0.143294 0.058691
0.338723 0.152871 0.060840
0.362107 0.164344 0.063352
0.385491 0.175817 0.065863
0.408875 0.187290 0.068374
0.432258 0.198763 0.070885
0.455595 0.211891 0.073513
0.478839 0.228327 0.076377
0.502082 0.244763 0.079240
0.525326 0.261198 0.082103
0.548569 0.277634 0.084967
0.571338 0.294690 0.087766
0.591730 0.314846 0.090243
0.612122 0.335002 0.092721
0.632515 0.355158 0.095198
0.652907 0.375314 0.097676
0.673299 0.395470 0.100154
0.021679 0.058797 0.049313
0.038474 0.065077 0.049165
0.055270 0.071357 0.049017
0.072066 0.077637 0.048869
0.088861 0.083917 0.048721
0.105657 0.090198 0.048573
0.126910 0.096221 0.049120
0.149054 0.102193 0.049806
0.171198 0.108165 0.050493
0.193343 0.114137 0.051179
0.215487 0.120109 0.051865
0.238394 0.127489 0.053249
0.261684 0.135573 0.054983
0.284973 0.143657 0.056716
0.308262 0.151741 0.058450
0.331551 0.159824 0.060183
0.354787 0.169644 0.062356
0.377970 0.181199 0.064968
0.401152 0.192755 0.067579
0.424335 0.204310 0.070191
0.447517 0.215866 0.072803
0.470449 0.228886 0.075602
0.492878 0.244837 0.078777
0.515307 0.260788 0.081951
0.537737 0.276739 0.085125
0.560166 0.292690 0.088300
0.582054 0.309141 0.091448
0.601239 0.328090 0.094465
0.620424 0.347038 0.097482
0.639609 0.365987 0.100500
0.658794 0.384935 0.103517
0.677979 0.403884 0.106534
0.024704 0.064752 0.052479
0.042524 0.072258 0.052139
0.060344 0.079764 0.051799
0.078164 0.087270 0.051459
0.095985 0.094776 0.051119
0.113805 0.102282 0.050779
0.136105 0.108891 0.051226
0.159301 0.115320 0.051830
0.182498 0.121750 0.052433
0.205694 0.128179 0.053037
0.228890 0.134609 0.053641
0.252459 0.142410 0.054961
0.276215 0.150896 0.056640
0.299971 0.159382 0.058319
0.323727 0.167868 0.059997
0.347482 0.176355 0.061676
0.370851 0.186417 0.063871
0.393832 0.198055 0.066584
0.416813 0.209692 0.069296
0.439795 0.221330 0.072009
0.462776 0.232968 0.074721
0.485302 0.245882 0.077691
0.506917 0.261348 0.081176
0.528532 0.276814 0.084662
0.550147 0.292280 0.088147
0.571762 0.307746 0.091633
0.592771 0.323592 0.095130
0.610749 0.341333 0.098687
0.628726 0.359074 0.102244
0.646703 0.376815 0.105801
0.664681 0.394556 0.109358
0.682658 0.412297 0.112915
0.027729 0.070708 0.055646
0.046573 0.079440 0.055114
0.065418 0.088171 0.054582
0.084263 0.096903 0.054050
0.103108 0.105635 0.053518
0.121953 0.114367 0.052986
0.145300 0.121561 0.053331
0.169549 0.128448 0.053853
0.193797 0.135335 0.054374
0.218045 0.142222 0.054896
0.242293 0.149109 0.055417
0.266524 0.157330 0.056674
0.290747 0.166219 0.058297
0.314969 0.175108 0.059921
0.339191 0.183996 0.061545
0.363414 0.192885 0.063169
0.386915 0.203190 0.065387
0.409695 0.214910 0.068200
0.432475 0.226630 0.071013
0.455255 0.238350 0.073826
0.478035 0.250070 0.076639
0.500155 0.262877 0.079780
0.520956 0.277858 0.083576
0.541757 0.292840 0.087373
0.562558 0.307821 0.091169
0.583359 0.322802 0.094965
0.603488 0.338043 0.098812
0.620258 0.354576 0.102909
0.637028 0.371109 0.107005
0.653797 0.387643 0.111102
0.670567 0.404176 0.115199
0.687337 0.420710 0.119296
0.030753 0.076663 0.058813
0.050623 0.086621 0.058089
0.070492 0.096578 0.057364
0.090362 0.106536 0.056640
0.110231 0.116493 0.055916
0.130101 0.126451 0.055192
0.154496 0.134231 0.055437
0.179796 0.141575 0.055876
0.205096 0.148919 0.056315
0.230396 0.156264 0.056754
0.255697 0.163608 0.057193
0.280589 0.172250 0.058386
0.305278 0.181542 0.059955
0.329967 0.190833 0.061523
0.354656 0.200124 0.063092
0.379345 0.209416 0.064661
0.402979 0.219962 0.066902
0.425557 0.231765 0.069816
0.448136 0.243567 0.072730
0.470715 0.255370 0.075643
0.493294 0.267172 0.078557
0.515008 0.279873 0.081869
0.534995 0.294369 0.085976
0.554982 0.308866 0.090083
0.574969 0.323362 0.094191
0.594956 0.337859 0.098298
0.614205 0.352493 0.102494
0.629767 0.367819 0.107130
0.645330 0.383145 0.111767
0.660892 0.398471 0.116403
0.676454 0.413797 0.121040
0.692016 0.429123 0.125676
0.034842 0.083446 0.063240
0.056430 0.094431 0.062324
0.078017 0.105416 0.061407
0.099605 0.116401 0.060491
0.121193 0.127386 0.059575
0.142780 0.138372 0.058658
0.167163 0.147104 0.058835
0.192105 0.155386 0.059230
0.217047 0.163668 0.059625
0.241989 0.171950 0.060019
0.266931 0.180232 0.060414
0.292010 0.189374 0.061596
0.317158 0.198946 0.063171
0.342306 0.208518 0.064746
0.367454 0.218089 0.066321
0.392602 0.227661 0.067896
0.416364 0.238340 0.070194
0.438742 0.250126 0.073216
0.461119 0.261911 0.076238
0.483497 0.273697 0.079260
0.505874 0.285483 0.082282
0.527239 0.298036 0.085759
0.546580 0.312123 0.090147
0.565920 0.326211 0.094535
0.585260 0.340299 0.098923
0.604601 0.354387 0.103311
0.623186 0.368549 0.107820
0.637998 0.383079 0.112935
0.652811 0.397609 0.118051
0.667623 0.412139 0.123166
0.682435 0.426669 0.128281
0.697247 0.441199 0.133396
0.039143 0.090393 0.067919
0.062588 0.102367 0.066811
0.086032 0.114340 0.065702
0.109477 0.126313 0.064594
0.132922 0.138286 0.063485
0.156367 0.150259 0.062377
0.180525 0.160018 0.062491
0.204827 0.169334 0.062849
0.229129 0.178649 0.063207
0.253430 0.187965 0.063566
0.277732 0.197281 0.063924
0.302903 0.206938 0.065106
0.328508 0.216766 0.066699
0.354113 0.226594 0.068292
0.379718 0.236422 0.069885
0.405323 0.246250 0.071479
0.429214 0.257038 0.073841
0.451390 0.268787 0.076973
0.473567 0.280537 0.080105
0.495743 0.292286 0.083236
0.517919 0.304035 0.086368
0.538946 0.316432 0.090010
0.557673 0.330127 0.094672
0.576400 0.343821 0.099335
0.595128 0.357516 0.103997
0.613855 0.371210 0.108659
0.631820 0.384925 0.113475
0.645974 0.398742 0.119057
0.660127 0.412558 0.124639
0.674281 0.426375 0.130220
0.688434 0.440191 0.135802
0.702588 0.454008 0.141384
0.043444 0.097341 0.072598
0.068746 0.110303 0.071298
0.094048 0.123264 0.069997
0.119349 0.136225 0.068697
0.144651 0.149186 0.067396
0.169953 0.162147 0.066096
0.193888 0.172932 0.066147
0.217549 0.183281 0.066469
0.241210 0.193631 0.066790
0.264871 0.203980 0.067112
0.288533 0.214330 0.067434
0.313795 0.224502 0.068615
0.339857 0.234586 0.070227
0.365920 0.244670 0.071839
0.391983 0.254754 0.073450
0.418045 0.264839 0.075062
0.442064 0.275737 0.077488
0.464039 0.287449 0.080730
0.486014 0.299162 0.083971
0.507989 0.310874 0.087213
0.529964 0.322587 0.090454
0.550652 0.334829 0.094261
0.568767 0.348130 0.099197
0.586881 0.361431 0.104134
0.604996 0.374732 0.109071
0.623110 0.388033 0.114008
0.640455 0.401302 0.119130
0.653949 0.414405 0.125178
0.667444 0.427507 0.131227
0.680939 0.440610 0.137275
0.694434 0.453713 0.143323
0.707929 0.466816 0.149372
0.047745 0.104289 0.077278
0.074904 0.118238 0.075785
0.102063 0.132188 0.074292
0.129222 0.146137 0.072800
0.156380 0.160086 0.071307
0.183539 0.174035 0.069814
0.207250 0.185846 0.069803
0.230271 0.197229 0.070088
0.253292 0.208612 0.070373
0.276312 0.219995 0.070658
0.299333 0.231378 0.070944
0.324687 0.242066 0.072125
0.351207 0.252406 0.073755
0.377727 0.262747 0.075385
0.404247 0.273087 0.077015
0.430767 0.283427 0.078645
0.454914 0.294435 0.081135
0.476688 0.306111 0.084486
0.498461 0.317787 0.087838
0.520235 0.329463 0.091189
0.542009 0.341139 0.094540
0.562358 0.353225 0.098511
0.579860 0.366133 0.103723
0.597362 0.379041 0.108934
0.614863 0.391949 0.114145
0.632365 0.404857 0.119356
0.649089 0.417678 0.124785
0.661925 0.430067 0.131300
0.674761 0.442457 0.137815
0.687597 0.454846 0.144330
0.700433 0.467236 0.150845
0.713270 0.479625 0.157359
0.052046 0.111237 0.081957
0.081062 0.126174 0.080272
0.110078 0.141111 0.078587
0.139094 0.156049 0.076902
0.168110 0.170986 0.075218
0.197126 0.185923 0.073533
0.220612 0.198760 0.073459
0.242992 0.211177 0.073708
0.265373 0.223593 0.073956
0.287754 0.236010 0.074205
0.310134 0.248427 0.074453
0.335579 0.259630 0.075635
0.362557 0.270227 0.077283
0.389534 0.280823 0.078931
0.416511 0.291420 0.080579
0.443489 0.302016 0.082228
0.467764 0.313134 0.084782
0.489336 0.324773 0.088243
0.510909 0.336412 0.091704
0.532481 0.348052 0.095165
0.554054 0.359691 0.098626
0.574065 0.371622 0.102762
0.590953 0.384136 0.108248
0.607842 0.396651 0.113734
0.624731 0.409165 0.119219
0.641619 0.421680 0.124705
0.657723 0.434054 0.130440
0.669900 0.445730 0.137421
0.682078 0.457406 0.144403
0.694255 0.469082 0.151384
0.706433 0.480758 0.158366
0.718610 0.492434 0.165347
0.058931 0.119761 0.087770
0.089590 0.135661 0.085906
0.120250 0.151562 0.084041
0.150909 0.167463 0.082176
0.181569 0.183363 0.080312
0.212228 0.199264 0.078447
0.236131 0.212828 0.078399
0.258682 0.225925 0.078715
0.281234 0.239022 0.079030
0.303785 0.252119 0.079346
0.326336 0.265216 0.079662
0.351114 0.276751 0.080813
0.377006 0.287506 0.082382
0.402898 0.298261 0.083951
0.428790 0.309016 0.085519
0.454682 0.319771 0.087088
0.478341 0.330926 0.089615
0.499767 0.342480 0.093101
0.521193 0.354033 0.096586
0.542619 0.365587 0.100072
0.564045 0.377141 0.103557
0.583769 0.388892 0.107748
0.600087 0.401038 0.113349
0.616406 0.413183 0.118951
0.632724 0.425329 0.124553
0.649043 0.437474 0.130154
0.664575 0.449445 0.136029
0.676180 0.460541 0.143270
0.687784 0.471638 0.150510
0.699388 0.482734 0.157751
0.710992 0.493831 0.164991
0.722596 0.504927 0.172232
0.067108 0.129072 0.094151
0.099304 0.145924 0.092113
0.131500 0.162776 0.090074
0.163697 0.179628 0.088036
0.195893 0.196480 0.085997
0.228089 0.213332 0.083959
0.252728 0.227474 0.083981
0.275856 0.241074 0.084416
0.298984 0.254674 0.084850
0.322111 0.268274 0.085285
0.345239 0.281874 0.085719
0.368971 0.293651 0.086824
0.393006 0.304515 0.088265
0.417041 0.315380 0.089706
0.441076 0.326245 0.091147
0.465110 0.337110 0.092588
0.487781 0.348264 0.095042
0.509089 0.359708 0.098509
0.530396 0.371152 0.101976
0.551703 0.382596 0.105443
0.573010 0.394041 0.108910
0.592471 0.405600 0.113101
0.608241 0.417388 0.118739
0.624011 0.429177 0.124377
0.639780 0.440966 0.130015
0.655550 0.452754 0.135654
0.670537 0.464342 0.141585
0.681610 0.474927 0.148981
0.692684 0.485511 0.156377
0.703758 0.496095 0.163773
0.714831 0.506679 0.171169
0.725905 0.517263 0.178566
0.075285 0.138383 0.100532
0.109018 0.156186 0.098319
0.142751 0.173990 0.096107
0.176484 0.191793 0.093895
0.210217 0.209597 0.091683
0.243950 0.227400 0.089470
0.269326 0.242120 0.089563
0.293030 0.256223 0.090116
0.316734 0.270326 0.090670
0.340438 0.284430 0.091223
0.364142 0.298533 0.091777
0.386828 0.310550 0.092836
0.409006 0.321525 0.094149
0.431184 0.332499 0.095462
0.453361 0.343474 0.096774
0.475539 0.354448 0.098087
0.497222 0.365603 0.100468
0.518410 0.376937 0.103917
0.539599 0.388271 0.107366
0.560787 0.399606 0.110814
0.581975 0.410940 0.114263
0.601174 0.422307 0.118454
0.616395 0.433739 0.124129
0.631616 0.445171 0.129803
0.646836 0.456603 0.135478
0.662057 0.468035 0.141153
0.676498 0.479240 0.147141
0.687041 0.489312 0.154692
0.697584 0.499384 0.162244
0.708127 0.509456 0.169796
0.718670 0.519528 0.177347
0.729213 0.529599 0.184899
0.083461 0.147694 0.106912
0.118731 0.166449 0.104526
0.154001 0.185204 0.102140
0.189271 0.203959 0.099754
0.224541 0.222713 0.097368
0.259812 0.241468 0.094982
0.285923 0.256766 0.095145
0.310204 0.271372 0.095817
0.334484 0.285979 0.096489
0.358764 0.300585 0.097162
0.383044 0.315191 0.097834
0.404685 0.327449 0.098848
0.425006 0.338534 0.100033
0.445326 0.349618 0.101217
0.465647 0.360702 0.102402
0.485968 0.371787 0.103587
0.506663 0.382941 0.105894
0.527732 0.394166 0.109325
0.548802 0.405390 0.112755
0.569871 0.416615 0.116186
0.590940 0.427839 0.119616
0.609877 0.439014 0.123807
0.624549 0.450089 0.129518
0.639221 0.461164 0.135230
0.653893 0.472240 0.140941
0.668564 0.483315 0.146653
0.682460 0.494137 0.152697
0.692472 0.503697 0.160404
0.702485 0.513257 0.168111
0.712497 0.522816 0.175818
0.722509 0.532376 0.183525
0.732522 0.541935 0.191232
0.091638 0.157005 0.113293
0.128445 0.176711 0.110733
0.165252 0.196418 0.108173
0.202059 0.216124 0.105613
0.238866 0.235830 0.103054
0.275673 0.255536 0.100494
0.302521 0.271412 0.100726
0.327377 0.286521 0.101518
0.352234 0.301631 0.102309
0.377091 0.316740 0.103100
0.401947 0.331850 0.103892
0.422542 0.344349 0.104860
0.441006 0.355543 0.105916
0.459469 0.366737 0.106973
0.477933 0.377931 0.108030
0.496397 0.389125 0.109086
0.516104 0.400280 0.111320
0.537054 0.411394 0.114733
0.558004 0.422509 0.118145
0.578955 0.433624 0.121557
0.599905 0.444739 0.124969
0.618580 0.455721 0.129160
0.632703 0.466440 0.134908
0.646826 0.477158 0.140656
0.660949 0.487877 0.146404
0.675072 0.498595 0.152152
0.688421 0.509035 0.158252
0.697903 0.518082 0.166115
0.707385 0.527129 0.173978
0.716867 0.536177 0.181840
0.726349 0.545224 0.189703
0.735830 0.554272 0.197566
0.103691 0.168514 0.120147
0.141499 0.188929 0.117468
0.179308 0.209344 0.114789
0.217116 0.229760 0.112110
0.254925 0.250175 0.109431
0.292734 0.270590 0.106752
0.320023 0.286862 0.107019
0.345209 0.302305 0.107874
0.370395 0.317749 0.108729
0.395581 0.333192 0.109585
0.420767 0.348635 0.110440
0.440764 0.361289 0.111454
0.458166 0.372547 0.112547
0.475569 0.383805 0.113640
0.492971 0.395063 0.114733
0.510374 0.406321 0.115827
0.528986 0.417290 0.117972
0.548806 0.427970 0.121169
0.568627 0.438651 0.124366
0.588447 0.449331 0.127563
0.608268 0.460011 0.130761
0.626019 0.470578 0.134773
0.639629 0.480916 0.140416
0.653240 0.491255 0.146059
0.666851 0.501594 0.151701
0.680461 0.511933 0.157344
0.693296 0.521975 0.163346
0.702252 0.530538 0.171145
0.711208 0.539100 0.178944
0.720164 0.547663 0.186742
0.729120 0.556225 0.194541
0.738076 0.564788 0.202340
0.119619 0.182221 0.127473
0.157894 0.203102 0.124730
0.196169 0.223984 0.121987
0.234444 0.244866 0.119244
0.272719 0.265748 0.116501
0.310994 0.286630 0.113758
0.338431 0.303117 0.114021
0.363699 0.318725 0.114886
0.388967 0.334332 0.115750
0.414235 0.349940 0.116615
0.439504 0.365548 0.117479
0.459351 0.378269 0.118630
0.476488 0.389545 0.119925
0.493626 0.400822 0.121219
0.510763 0.412098 0.122514
0.527900 0.423374 0.123808
0.545309 0.433973 0.125848
0.562989 0.443894 0.128634
0.580669 0.453815 0.131419
0.598349 0.463736 0.134205
0.616029 0.473657 0.136990
0.632194 0.483583 0.140646
0.645328 0.493519 0.146042
0.658463 0.503456 0.151438
0.671598 0.513392 0.156833
0.684733 0.523328 0.162229
0.697085 0.532959 0.167978
0.705519 0.541064 0.175493
0.713954 0.549169 0.183008
0.722388 0.557274 0.190523
0.730823 0.565379 0.198039
0.739257 0.573485 0.205554
0.135547 0.195927 0.134799
0.174289 0.217276 0.131992
0.213030 0.238624 0.129185
0.251772 0.259972 0.126378
0.290514 0.281321 0.123571
0.329255 0.302669 0.120764
0.356838 0.319371 0.121024
0.382188 0.335144 0.121898
0.407539 0.350916 0.122771
0.432890 0.366689 0.123645
0.458240 0.382462 0.124519
0.477938 0.395249 0.125807
0.494810 0.406544 0.127303
0.511682 0.417838 0.128798
0.528554 0.429133 0.130294
0.545426 0.440428 0.131790
0.561632 0.450656 0.133725
0.577171 0.459818 0.136099
0.592710 0.468979 0.138472
0.608250 0.478141 0.140846
0.623789 0.487303 0.143220
0.638368 0.496588 0.146519
0.651028 0.506122 0.151668
0.663687 0.515656 0.156817
0.676346 0.525190 0.161965
0.689006 0.534723 0.167114
0.700874 0.543943 0.172610
0.708787 0.551590 0.179842
0.716700 0.559238 0.187073
0.724613 0.566886 0.194305
0.732526 0.574534 0.201536
0.740439 0.582181 0.208768
0.151475 0.209634 0.142125
0.190683 0.231449 0.139254
0.229892 0.253264 0.136383
0.269100 0.275079 0.133512
0.308308 0.296894 0.130641
0.347516 0.318709 0.127770
0.375245 0.335625 0.128027
0.400678 0.351563 0.128910
0.426111 0.367500 0.129793
0.451544 0.383437 0.130675
0.476977 0.399375 0.131558
0.496525 0.412229 0.132984
0.513132 0.423542 0.134681
0.529739 0.434855 0.136378
0.546345 0.446168 0.138075
0.562952 0.457481 0.139771
0.577955 0.467339 0.141601
0.591353 0.475741 0.143563
0.604752 0.484144 0.145526
0.618151 0.492546 0.147488
0.631550 0.500948 0.149450
0.644543 0.509594 0.152392
0.656727 0.518725 0.157294
0.668910 0.527856 0.162196
0.681094 0.536987 0.167098
0.693278 0.546119 0.171999
0.704663 0.554926 0.177242
0.712054 0.562117 0.184190
0.719446 0.569307 0.191138
0.726837 0.576497 0.198086
0.734229 0.583688 0.205034
0.741620 0.590878 0.211982
0.167403 0.223341 0.149451
0.207078 0.245622 0.146516
0.246753 0.267904 0.143581
0.286428 0.290185 0.140646
0.326102 0.312467 0.137711
0.365777 0.334748 0.134776
0.393652 0.351880 0.135030
0.419168 0.367982 0.135922
0.444683 0.384084 0.136814
0.470198 0.400186 0.137706
0.495713 0.416288 0.138597
0.515113 0.429209 0.140160
0.531454 0.440541 0.142058
0.547795 0.451872 0.143957
0.564137 0.463203 0.145855
0.580478 0.474534 0.147753
0.594278 0.484022 0.149477
0.605536 0.491665 0.151028
0.616794 0.499308 0.152579
0.628052 0.506951 0.154129
0.639310 0.514594 0.155680
0.650718 0.522599 0.158265
0.662426 0.531328 0.162920
0.674134 0.540057 0.167575
0.685842 0.548785 0.172230
0.697550 0.557514 0.176884
0.708451 0.565910 0.181874
0.715321 0.572643 0.188538
0.722192 0.579376 0.195203
0.729062 0.586109 0.201867
0.735932 0.592842 0.208531
0.742802 0.599575 0.215196
0.188026 0.239458 0.156194
0.227506 0.261861 0.153310
0.266986 0.284265 0.150427
0.306465 0.306668 0.147544
0.345945 0.329072 0.144661
0.385424 0.351475 0.141778
0.413071 0.368612 0.142064
0.438352 0.384696 0.142983
0.463632 0.400779 0.143902
0.488913 0.416863 0.144822
0.514193 0.432947 0.145741
0.533238 0.445785 0.147396
0.549164 0.457000 0.149420
0.565091 0.468216 0.151443
0.581018 0.479431 0.153466
0.596944 0.490647 0.155489
0.609721 0.499769 0.157150
0.619348 0.506800 0.158447
0.628974 0.513830 0.159745
0.638601 0.520860 0.161042
0.648228 0.527890 0.162340
0.658266 0.535272 0.164620
0.669126 0.543357 0.168866
0.679986 0.551443 0.173112
0.690846 0.559528 0.177358
0.701706 0.567613 0.181605
0.711816 0.575395 0.186190
0.718171 0.581662 0.192470
0.724525 0.587928 0.198750
0.730880 0.594195 0.205030
0.737235 0.600461 0.211310
0.743590 0.606727 0.217590
0.218039 0.260396 0.161771
0.256000 0.282232 0.159171
0.293961 0.304069 0.156572
0.331923 0.325905 0.153972
0.369884 0.347741 0.151373
0.407845 0.369577 0.148773
0.434514 0.386300 0.149159
0.458926 0.401999 0.150143
0.483337 0.417699 0.151126
0.507748 0.433398 0.152110
0.532160 0.449097 0.153093
0.550439 0.461551 0.154751
0.565652 0.472383 0.156747
0.580865 0.483214 0.158743
0.596078 0.494045 0.160739
0.611291 0.504876 0.162734
0.623405 0.513647 0.164413
0.632419 0.520357 0.165775
0.641432 0.527067 0.167136
0.650446 0.533777 0.168498
0.659460 0.540487 0.169859
0.668559 0.547280 0.171938
0.677827 0.554241 0.175453
0.687096 0.561201 0.178967
0.696364 0.568161 0.182481
0.705632 0.575121 0.185996
0.714331 0.581884 0.189873
0.720183 0.587666 0.195568
0.726035 0.593448 0.201263
0.731886 0.599229 0.206957
0.737738 0.605011 0.212652
0.743590 0.610792 0.218347
0.248052 0.281334 0.167348
0.284495 0.302603 0.165032
0.320937 0.323873 0.162716
0.357380 0.345142 0.160400
0.393822 0.366411 0.158084
0.430265 0.387680 0.155768
0.455957 0.403987 0.156255
0.479500 0.419302 0.157303
0.503042 0.434618 0.158350
0.526584 0.449933 0.159397
0.550126 0.465248 0.160445
0.567640 0.477318 0.162106
0.582140 0.487765 0.164075
0.596639 0.498212 0.166043
0.611139 0.508659 0.168011
0.625638 0.519106 0.169980
0.637089 0.527524 0.171677
0.645490 0.533914 0.173102
0.653890 0.540304 0.174528
0.662291 0.546694 0.175953
0.670692 0.553084 0.177379
0.678852 0.559289 0.179257
0.686528 0.565124 0.182039
0.694205 0.570958 0.184822
0.701882 0.576793 0.187604
0.709558 0.582628 0.190387
0.716847 0.588373 0.193557
0.722196 0.593670 0.198666
0.727544 0.598967 0.203775
0.732893 0.604263 0.208884
0.738241 0.609560 0.213994
0.743590 0.614857 0.219103
0.278065 0.302273 0.172925
0.312989 0.322975 0.170893
0.347913 0.343676 0.168861
0.382837 0.364378 0.166828
0.417761 0.385080 0.164796
0.452685 0.405782 0.162763
0.477400 0.421675 0.163351
0.500073 0.436606 0.164462
0.522747 0.451537 0.165574
0.545420 0.466468 0.166685
0.568093 0.481399 0.167797
0.584842 0.493085 0.169461
0.598628 0.503147 0.171402
0.612414 0.513210 0.173343
0.626200 0.523273 0.175284
0.639986 0.533336 0.177225
0.650773 0.541402 0.178940
0.658561 0.547472 0.180430
0.666349 0.553541 0.181919
0.674137 0.559611 0.183409
0.681924 0.565681 0.184898
0.689145 0.571297 0.186575
0.695230 0.576007 0.188626
0.701315 0.580716 0.190676
0.707400 0.585426 0.192727
0.713485 0.590136 0.194778
0.719363 0.594862 0.197241
0.724208 0.599674 0.201764
0.729054 0.604486 0.206288
0.733899 0.609298 0.210812
0.738744 0.614110 0.215335
0.743590 0.618922 0.219859
0.308078 0.323211 0.178503
0.341484 0.343346 0.176754
0.374889 0.363480 0.175005
0.408294 0.383615 0.173256
0.441700 0.403750 0.171507
0.475105 0.423884 0.169759
0.498843 0.439362 0.170447
0.520647 0.453909 0.171622
0.542451 0.468456 0.172798
0.564256 0.483003 0.173973
0.586060 0.497550 0.175149
0.602043 0.508851 0.176816
0.615115 0.518530 0.178730
0.628188 0.528208 0.180643
0.641260 0.537887 0.182557
0.654333 0.547565 0.184470
0.664456 0.555279 0.186204
0.671631 0.561029 0.187757
0.678807 0.566778 0.189311
0.685982 0.572528 0.190864
0.693157 0.578277 0.192418
0.699438 0.583305 0.193893
0.703931 0.586890 0.195212
0.708424 0.590474 0.196531
0.712917 0.594059 0.197850
0.717411 0.597643 0.199169
0.721879 0.601351 0.200924
0.726221 0.605678 0.204862
0.730563 0.610005 0.208801
0.734905 0.614332 0.212739
0.739248 0.618659 0.216677
0.743590 0.622986 0.220615
0.341770 0.345945 0.182796
0.373183 0.365253 0.181449
0.404595 0.384562 0.180103
0.436008 0.403870 0.178757
0.467421 0.423178 0.177411
0.498833 0.442487 0.176064
0.521313 0.457395 0.176915
0.542005 0.471424 0.178205
0.562698 0.485452 0.179495
0.583391 0.499480 0.180784
0.604084 0.513509 0.182074
0.619151 0.524330 0.183765
0.631407 0.533549 0.185655
0.643662 0.542767 0.187546
0.655917 0.551985 0.189436
0.668172 0.561203 0.191327
0.677561 0.568498 0.193061
0.684084 0.573871 0.194639
0.690606 0.579244 0.196217
0.697129 0.584617 0.197795
0.703651 0.589990 0.199373
0.709027 0.594432 0.200656
0.712108 0.597014 0.201346
0.715189 0.599595 0.202037
0.718271 0.602176 0.202728
0.721352 0.604757 0.203418
0.724554 0.607540 0.204548
0.728356 0.611327 0.207873
0.732159 0.615114 0.211199
0.735961 0.618902 0.214524
0.739764 0.622689 0.217849
0.743566 0.626476 0.221175
0.393856 0.377660 0.180669
0.420905 0.394846 0.180320
0.447954 0.412032 0.179970
0.475003 0.429218 0.179621
0.502052 0.446404 0.179272
0.529101 0.463590 0.178923
0.548917 0.477153 0.180245
0.567286 0.489992 0.181900
0.585655 0.502832 0.183556
0.604024 0.515671 0.185212
0.622393 0.528510 0.186868
0.635796 0.538374 0.188680
0.646716 0.546751 0.190571
0.657635 0.555127 0.192461
0.668555 0.563504 0.194352
0.679475 0.571880 0.196242
0.687770 0.578426 0.197890
0.693442 0.583140 0.199294
0.699114 0.587854 0.200698
0.704786 0.592568 0.202103
