filters/luts/Sunshine 04.cube
# Created by: Adobe Photoshop Export Color Lookup Plugin
# LUT by SparkleStock. Enhanced with VOXCOLOR algorithms.
LUT_3D_SIZE 32
0.015629 0.019536 0.039072
0.028768 0.025680 0.041813
0.041908 0.031825 0.044555
0.055047 0.037969 0.047296
0.068187 0.044114 0.050037
0.081327 0.050258 0.052779
0.098799 0.057387 0.054811
0.117137 0.064713 0.056702
0.135476 0.072039 0.058592
0.153815 0.079365 0.060483
0.172153 0.086691 0.062373
0.194084 0.094395 0.063728
0.217811 0.102288 0.064815
0.241538 0.110182 0.065903
0.265264 0.118075 0.066990
0.288991 0.125968 0.068077
0.314963 0.134830 0.068951
0.343180 0.144661 0.069613
0.371397 0.154492 0.070275
0.399614 0.164323 0.070936
0.427831 0.174154 0.071598
0.456442 0.185293 0.072197
0.485840 0.199047 0.072669
0.515239 0.212801 0.073142
0.544637 0.226555 0.073615
0.574036 0.240309 0.074087
0.602434 0.254874 0.074599
0.625830 0.273496 0.075308
0.649226 0.292119 0.076017
0.672622 0.310741 0.076726
0.696018 0.329363 0.077435
0.719414 0.347985 0.078144
0.018370 0.024546 0.042900
0.032653 0.031431 0.045120
0.046936 0.038317 0.047340
0.061219 0.045202 0.049560
0.075502 0.052088 0.051780
0.089785 0.058973 0.054000
0.108714 0.066591 0.055892
0.128571 0.074357 0.057719
0.148428 0.082122 0.059545
0.168285 0.089887 0.061372
0.188142 0.097652 0.063198
0.211037 0.105813 0.064489
0.235450 0.114173 0.065512
0.259863 0.122533 0.066535
0.284276 0.130893 0.067558
0.308688 0.139252 0.068581
0.334830 0.148490 0.069424
0.362699 0.158604 0.070085
0.390568 0.168719 0.070747
0.418437 0.178833 0.071409
0.446307 0.188948 0.072071
0.474277 0.200230 0.072697
0.502450 0.213847 0.073252
0.530623 0.227464 0.073807
0.558795 0.241080 0.074362
0.586968 0.254697 0.074917
0.614095 0.269014 0.075519
0.635990 0.286831 0.076356
0.657886 0.304648 0.077193
0.679782 0.322466 0.078030
0.701678 0.340283 0.078867
0.723573 0.358100 0.079704
0.021112 0.029556 0.046729
0.036538 0.037182 0.048427
0.051965 0.044809 0.050126
0.067391 0.052435 0.051824
0.082818 0.060062 0.053523
0.098244 0.067688 0.055221
0.118628 0.075796 0.056973
0.140004 0.084000 0.058736
0.161380 0.092204 0.060498
0.182756 0.100408 0.062261
0.204132 0.108613 0.064023
0.227990 0.117232 0.065250
0.253089 0.126058 0.066209
0.278188 0.134884 0.067168
0.303287 0.143710 0.068127
0.328386 0.152537 0.069086
0.354696 0.162149 0.069896
0.382218 0.172547 0.070558
0.409739 0.182945 0.071220
0.437261 0.193344 0.071882
0.464783 0.203742 0.072543
0.492113 0.215167 0.073197
0.519060 0.228647 0.073834
0.546007 0.242126 0.074471
0.572953 0.255606 0.075109
0.599900 0.269085 0.075746
0.625755 0.283154 0.076438
0.646151 0.300166 0.077403
0.666546 0.317178 0.078368
0.686942 0.334190 0.079333
0.707337 0.351202 0.080298
0.727732 0.368215 0.081264
0.023853 0.034566 0.050557
0.040423 0.042934 0.051734
0.056993 0.051301 0.052911
0.073563 0.059668 0.054088
0.090133 0.068036 0.055265
0.106703 0.076403 0.056443
0.128543 0.085000 0.058054
0.151438 0.093644 0.059753
0.174332 0.102287 0.061451
0.197226 0.110930 0.063150
0.220121 0.119574 0.064848
0.244942 0.128650 0.066011
0.270727 0.137943 0.066906
0.296512 0.147235 0.067801
0.322298 0.156528 0.068696
0.348083 0.165821 0.069591
0.374562 0.175808 0.070369
0.401736 0.186490 0.071031
0.428910 0.197172 0.071692
0.456084 0.207854 0.072354
0.483259 0.218536 0.073016
0.509948 0.230104 0.073697
0.535669 0.243447 0.074417
0.561390 0.256789 0.075136
0.587112 0.270131 0.075856
0.612833 0.283474 0.076575
0.637416 0.297293 0.077357
0.656311 0.313501 0.078451
0.675206 0.329708 0.079544
0.694101 0.345915 0.080637
0.712997 0.362122 0.081730
0.731892 0.378329 0.082823
0.026594 0.039576 0.054386
0.044308 0.048685 0.055041
0.062021 0.057793 0.055697
0.079735 0.066901 0.056353
0.097448 0.076010 0.057008
0.115162 0.085118 0.057664
0.138458 0.094205 0.059135
0.162871 0.103287 0.060770
0.187284 0.112369 0.062404
0.211697 0.121452 0.064038
0.236110 0.130534 0.065673
0.261895 0.140068 0.066772
0.288366 0.149827 0.067603
0.314837 0.159587 0.068433
0.341309 0.169346 0.069264
0.367780 0.179106 0.070095
0.394429 0.189468 0.070842
0.421255 0.200433 0.071503
0.448082 0.211399 0.072165
0.474908 0.222364 0.072827
0.501734 0.233329 0.073489
0.527784 0.245041 0.074197
0.552279 0.258246 0.074999
0.576774 0.271452 0.075801
0.601270 0.284657 0.076603
0.625765 0.297862 0.077405
0.649077 0.311433 0.078277
0.666472 0.326835 0.079498
0.683866 0.342237 0.080719
0.701261 0.357640 0.081940
0.718656 0.373042 0.083162
0.736051 0.388444 0.084383
0.029336 0.044586 0.058214
0.048193 0.054436 0.058348
0.067050 0.064285 0.058483
0.085907 0.074134 0.058617
0.104764 0.083984 0.058751
0.123621 0.093833 0.058885
0.148373 0.103409 0.060216
0.174305 0.112931 0.061786
0.200236 0.122452 0.063357
0.226168 0.131974 0.064927
0.252099 0.141495 0.066498
0.278848 0.151486 0.067532
0.306005 0.161712 0.068299
0.333162 0.171938 0.069066
0.360320 0.182164 0.069833
0.387477 0.192390 0.070600
0.414295 0.203127 0.071314
0.440774 0.214376 0.071976
0.467253 0.225625 0.072638
0.493731 0.236874 0.073299
0.520210 0.248123 0.073961
0.545619 0.259978 0.074697
0.568889 0.273046 0.075581
0.592158 0.286114 0.076466
0.615428 0.299182 0.077350
0.638697 0.312250 0.078234
0.660737 0.325573 0.079196
0.676632 0.340170 0.080545
0.692526 0.354767 0.081895
0.708421 0.369364 0.083244
0.724316 0.383961 0.084593
0.740210 0.398558 0.085943
0.032707 0.050108 0.062673
0.053333 0.060798 0.062430
0.073958 0.071487 0.062188
0.094584 0.082177 0.061946
0.115210 0.092866 0.061703
0.135835 0.103555 0.061461
0.160973 0.113853 0.062479
0.187012 0.124073 0.063749
0.213052 0.134293 0.065019
0.239092 0.144513 0.066289
0.265132 0.154733 0.067559
0.292343 0.165288 0.068471
0.320141 0.176011 0.069204
0.347939 0.186734 0.069938
0.375736 0.197457 0.070671
0.403534 0.208180 0.071405
0.430525 0.219327 0.072102
0.456710 0.230897 0.072764
0.482894 0.242468 0.073425
0.509079 0.254039 0.074087
0.535263 0.265609 0.074749
0.560164 0.277687 0.075517
0.582497 0.290777 0.076499
0.604831 0.303868 0.077481
0.627164 0.316959 0.078463
0.649497 0.330050 0.079445
0.670598 0.343326 0.080516
0.685533 0.357530 0.082031
0.700469 0.371734 0.083547
0.715404 0.385937 0.085062
0.730340 0.400141 0.086578
0.745276 0.414345 0.088093
0.036205 0.055733 0.067257
0.058724 0.067282 0.066667
0.081243 0.078831 0.066077
0.103762 0.090381 0.065487
0.126282 0.101930 0.064897
0.148801 0.113479 0.064307
0.174109 0.124546 0.064978
0.199975 0.135516 0.065900
0.225841 0.146486 0.066822
0.251707 0.157456 0.067745
0.277573 0.168426 0.068667
0.305147 0.179566 0.069445
0.333576 0.190793 0.070151
0.362005 0.202019 0.070857
0.390434 0.213245 0.071563
0.418863 0.224471 0.072269
0.446028 0.236034 0.072953
0.471929 0.247934 0.073615
0.497830 0.259834 0.074276
0.523731 0.271734 0.074938
0.549632 0.283634 0.075600
0.574051 0.295949 0.076402
0.595506 0.309095 0.077484
0.616961 0.322240 0.078567
0.638416 0.335386 0.079649
0.659871 0.348532 0.080732
0.680098 0.361802 0.081915
0.694183 0.375695 0.083605
0.708267 0.389587 0.085294
0.722352 0.403480 0.086983
0.736437 0.417373 0.088673
0.750522 0.431266 0.090362
0.039702 0.061357 0.071842
0.064115 0.073767 0.070904
0.088528 0.086176 0.069967
0.112941 0.098585 0.069029
0.137354 0.110994 0.068091
0.161767 0.123403 0.067154
0.187246 0.135238 0.067477
0.212938 0.146958 0.068051
0.238630 0.158679 0.068626
0.264322 0.170399 0.069201
0.290014 0.182119 0.069776
0.317952 0.193845 0.070420
0.347012 0.205574 0.071098
0.376072 0.217303 0.071777
0.405132 0.229033 0.072455
0.434192 0.240762 0.073134
0.461531 0.252741 0.073804
0.487148 0.264970 0.074465
0.512765 0.277200 0.075127
0.538383 0.289429 0.075789
0.564000 0.301658 0.076450
0.587937 0.314212 0.077286
0.608514 0.327412 0.078469
0.629091 0.340613 0.079652
0.649668 0.353813 0.080835
0.670245 0.367014 0.082019
0.689598 0.380278 0.083315
0.702832 0.393859 0.085178
0.716066 0.407441 0.087041
0.729300 0.421023 0.088904
0.742534 0.434605 0.090768
0.755768 0.448186 0.092631
0.043200 0.066982 0.076427
0.069506 0.080251 0.075142
0.095813 0.093520 0.073856
0.122119 0.106789 0.072571
0.148426 0.120058 0.071286
0.174733 0.133327 0.070000
0.200382 0.145931 0.069975
0.225900 0.158401 0.070203
0.251419 0.170871 0.070430
0.276937 0.183342 0.070657
0.302455 0.195812 0.070884
0.330756 0.208123 0.071394
0.360447 0.220356 0.072045
0.390138 0.232588 0.072696
0.419830 0.244821 0.073347
0.449521 0.257053 0.073998
0.477033 0.269448 0.074654
0.502367 0.282007 0.075316
0.527701 0.294566 0.075978
0.553035 0.307124 0.076639
0.578369 0.319683 0.077301
0.601824 0.332474 0.078170
0.621523 0.345729 0.079454
0.641221 0.358985 0.080738
0.660920 0.372240 0.082022
0.680619 0.385496 0.083305
0.699098 0.398754 0.084715
0.711481 0.412024 0.086752
0.723865 0.425295 0.088789
0.736248 0.438566 0.090825
0.748631 0.451836 0.092862
0.761015 0.465107 0.094899
0.046697 0.072606 0.081011
0.074898 0.086735 0.079379
0.103098 0.100864 0.077746
0.131298 0.114993 0.076113
0.159498 0.129122 0.074480
0.187698 0.143252 0.072847
0.213519 0.156623 0.072474
0.238863 0.169844 0.072354
0.264208 0.183064 0.072233
0.289552 0.196284 0.072113
0.314897 0.209505 0.071993
0.343560 0.222402 0.072368
0.373882 0.235137 0.072992
0.404205 0.247873 0.073615
0.434527 0.260608 0.074239
0.464850 0.273344 0.074862
0.492536 0.286156 0.075505
0.517586 0.299044 0.076167
0.542637 0.311932 0.076829
0.567687 0.324820 0.077490
0.592737 0.337708 0.078152
0.615711 0.350736 0.079055
0.634531 0.364047 0.080439
0.653352 0.377357 0.081823
0.672172 0.390667 0.083208
0.690992 0.403978 0.084592
0.708598 0.417229 0.086114
0.720131 0.430189 0.088325
0.731663 0.443149 0.090536
0.743196 0.456108 0.092747
0.754728 0.469068 0.094957
0.766261 0.482028 0.097168
0.051707 0.079334 0.086321
0.081978 0.094426 0.084224
0.112249 0.109519 0.082128
0.142519 0.124611 0.080032
0.172790 0.139704 0.077935
0.203061 0.154797 0.075839
0.229585 0.168939 0.075216
0.255359 0.182891 0.074888
0.281133 0.196843 0.074561
0.306908 0.210796 0.074233
0.332682 0.224748 0.073905
0.360808 0.238054 0.074128
0.390109 0.251036 0.074627
0.419410 0.264019 0.075125
0.448711 0.277001 0.075624
0.478012 0.289984 0.076122
0.505091 0.303044 0.076687
0.529949 0.316182 0.077318
0.554807 0.329320 0.077950
0.579666 0.342458 0.078581
0.604524 0.355596 0.079212
0.627121 0.368793 0.080108
0.645198 0.382110 0.081532
0.663274 0.395426 0.082956
0.681350 0.408743 0.084380
0.699427 0.422059 0.085804
0.716299 0.435269 0.087380
0.727152 0.447948 0.089716
0.738004 0.460627 0.092051
0.748857 0.473307 0.094387
0.759710 0.485986 0.096723
0.770562 0.498665 0.099059
0.057474 0.086612 0.091993
0.089903 0.102720 0.089375
0.122333 0.118828 0.086757
0.154762 0.134937 0.084139
0.187192 0.151045 0.081521
0.219622 0.167153 0.078903
0.247115 0.182066 0.078080
0.273621 0.196741 0.077615
0.300128 0.211416 0.077149
0.326634 0.226091 0.076684
0.353140 0.240766 0.076219
0.380278 0.254392 0.076281
0.407731 0.267493 0.076606
0.435184 0.280595 0.076930
0.462637 0.293696 0.077255
0.490090 0.306798 0.077580
0.516172 0.320023 0.078035
0.540884 0.333371 0.078621
0.565596 0.346719 0.079206
0.590308 0.360068 0.079791
0.615019 0.373416 0.080377
0.637294 0.386748 0.081245
0.654693 0.400046 0.082678
0.672093 0.413344 0.084111
0.689492 0.426642 0.085545
0.706892 0.439940 0.086978
0.723101 0.453091 0.088578
0.733359 0.465505 0.091015
0.743617 0.477919 0.093451
0.753875 0.490332 0.095887
0.764133 0.502746 0.098324
0.774390 0.515160 0.100760
0.063240 0.093891 0.097664
0.097828 0.111015 0.094525
0.132417 0.128138 0.091386
0.167006 0.145262 0.088246
0.201594 0.162385 0.085107
0.236183 0.179509 0.081968
0.264646 0.195194 0.080943
0.291884 0.210591 0.080341
0.319122 0.225989 0.079738
0.346360 0.241386 0.079136
0.373598 0.256784 0.078534
0.399748 0.270730 0.078434
0.425353 0.283951 0.078585
0.450958 0.297171 0.078736
0.476563 0.310391 0.078887
0.502168 0.323612 0.079038
0.527254 0.337001 0.079383
0.551819 0.350560 0.079923
0.576384 0.364119 0.080462
0.600950 0.377678 0.081002
0.625515 0.391236 0.081542
0.647466 0.404702 0.082382
0.664189 0.417982 0.083825
0.680911 0.431262 0.085267
0.697634 0.444542 0.086709
0.714356 0.457822 0.088152
0.729902 0.470913 0.089776
0.739566 0.483061 0.092314
0.749229 0.495210 0.094851
0.758892 0.507358 0.097388
0.768556 0.519507 0.099925
0.778219 0.531655 0.102462
0.069006 0.101170 0.103336
0.105754 0.119309 0.099675
0.142501 0.137448 0.096015
0.179249 0.155587 0.092354
0.215996 0.173725 0.088693
0.252743 0.191864 0.085033
0.282176 0.208321 0.083806
0.310146 0.224441 0.083067
0.338116 0.240562 0.082327
0.366086 0.256682 0.081588
0.394056 0.272802 0.080848
0.419218 0.287068 0.080587
0.442975 0.300408 0.080564
0.466732 0.313747 0.080541
0.490490 0.327086 0.080518
0.514247 0.340426 0.080495
0.538335 0.353980 0.080731
0.562754 0.367749 0.081225
0.587173 0.381518 0.081719
0.611592 0.395288 0.082213
0.636011 0.409057 0.082707
0.657639 0.422657 0.083520
0.673684 0.435918 0.084971
0.689730 0.449180 0.086423
0.705776 0.462441 0.087874
0.721821 0.475703 0.089326
0.736704 0.488735 0.090975
0.745773 0.500618 0.093613
0.754841 0.512501 0.096250
0.763910 0.524384 0.098888
0.772979 0.536268 0.101526
0.782047 0.548151 0.104163
0.074773 0.108449 0.109008
0.113679 0.127603 0.104826
0.152585 0.146757 0.100644
0.191492 0.165912 0.096461
0.230398 0.185066 0.092279
0.269304 0.204220 0.088097
0.299707 0.221448 0.086669
0.328409 0.238291 0.085793
0.357110 0.255134 0.084916
0.385812 0.271977 0.084039
0.414514 0.288820 0.083163
0.438688 0.303407 0.082739
0.460597 0.316865 0.082543
0.482506 0.330323 0.082346
0.504416 0.343781 0.082149
0.526325 0.357240 0.081953
0.549416 0.370958 0.082078
0.573689 0.384938 0.082527
0.597962 0.398918 0.082975
0.622234 0.412897 0.083423
0.646507 0.426877 0.083871
0.667811 0.440611 0.084657
0.683180 0.453854 0.086118
0.698549 0.467098 0.087578
0.713917 0.480341 0.089039
0.729286 0.493584 0.090500
0.743505 0.506556 0.092173
0.751979 0.518174 0.094912
0.760454 0.529792 0.097650
0.768928 0.541410 0.100388
0.777402 0.553028 0.103126
0.785876 0.564646 0.105865
0.084155 0.117783 0.114561
0.124822 0.137830 0.109904
0.165489 0.157876 0.105246
0.206157 0.177922 0.100588
0.246824 0.197968 0.095930
0.287491 0.218015 0.091272
0.318595 0.235898 0.089620
0.347786 0.253350 0.088570
0.376978 0.270801 0.087519
0.406169 0.288252 0.086469
0.435360 0.305704 0.085419
0.458971 0.320627 0.084882
0.479792 0.334287 0.084603
0.500613 0.347946 0.084324
0.521433 0.361605 0.084045
0.542254 0.375265 0.083766
0.564156 0.388929 0.083814
0.587139 0.402598 0.084189
0.610121 0.416266 0.084564
0.633104 0.429935 0.084940
0.656087 0.443603 0.085315
0.676334 0.457086 0.086033
0.691108 0.470197 0.087439
0.705882 0.483307 0.088845
0.720656 0.496418 0.090250
0.735429 0.509528 0.091656
0.749061 0.522333 0.093286
0.756982 0.533608 0.096038
0.764903 0.544883 0.098790
0.772823 0.556158 0.101542
0.780744 0.567432 0.104294
0.788664 0.578707 0.107046
0.097152 0.129174 0.119997
0.139183 0.149989 0.114909
0.181213 0.170803 0.109821
0.223243 0.191618 0.104733
0.265274 0.212433 0.099646
0.307304 0.233248 0.094558
0.338841 0.251671 0.092659
0.368279 0.269616 0.091398
0.397718 0.287562 0.090137
0.427156 0.305507 0.088876
0.456594 0.323452 0.087616
0.480068 0.338729 0.087015
0.500559 0.352672 0.086745
0.521051 0.366615 0.086476
0.541542 0.380559 0.086206
0.562034 0.394502 0.085936
0.582554 0.407891 0.085938
0.603103 0.420727 0.086213
0.623653 0.433563 0.086487
0.644202 0.446400 0.086761
0.664752 0.459236 0.087036
0.683205 0.472081 0.087648
0.697467 0.484945 0.088935
0.711729 0.497808 0.090221
0.725990 0.510672 0.091508
0.740252 0.523535 0.092795
0.753371 0.536064 0.094314
0.760780 0.546918 0.096993
0.768188 0.557772 0.099672
0.775596 0.568626 0.102350
0.783005 0.579480 0.105029
0.790413 0.590334 0.107708
0.110150 0.140565 0.125432
0.153544 0.162148 0.119915
0.196937 0.183731 0.114397
0.240330 0.205314 0.108879
0.283724 0.226897 0.103361
0.327117 0.248480 0.097843
0.359087 0.267444 0.095698
0.388772 0.285883 0.094226
0.418458 0.304322 0.092755
0.448143 0.322762 0.091284
0.477828 0.341201 0.089813
0.501164 0.356832 0.089148
0.521327 0.371058 0.088888
0.541489 0.385285 0.088627
0.561651 0.399512 0.088366
0.581813 0.413738 0.088105
0.600952 0.426853 0.088062
0.619068 0.438857 0.088236
0.637184 0.450861 0.088410
0.655300 0.462864 0.088583
0.673416 0.474868 0.088757
0.690077 0.487076 0.089262
0.703826 0.499693 0.090430
0.717576 0.512309 0.091598
0.731325 0.524926 0.092766
0.745075 0.537542 0.093934
0.757682 0.549795 0.095342
0.764578 0.560228 0.097947
0.771474 0.570662 0.100553
0.778370 0.581095 0.103158
0.785266 0.591528 0.105764
0.792162 0.601961 0.108370
0.123148 0.151956 0.130868
0.167904 0.174307 0.124920
0.212661 0.196659 0.118972
0.257417 0.219010 0.113025
0.302174 0.241362 0.107077
0.346930 0.263713 0.101129
0.379333 0.283216 0.098736
0.409265 0.302150 0.097055
0.439198 0.321083 0.095373
0.469130 0.340016 0.093691
0.499062 0.358949 0.092010
0.522261 0.374934 0.091281
0.542094 0.389444 0.091030
0.561927 0.403954 0.090778
0.581760 0.418465 0.090527
0.601593 0.432975 0.090275
0.619350 0.445816 0.090186
0.635033 0.456987 0.090259
0.650716 0.468158 0.090332
0.666398 0.479329 0.090405
0.682081 0.490500 0.090479
0.696949 0.502071 0.090877
0.710186 0.514441 0.091926
0.723423 0.526810 0.092975
0.736660 0.539180 0.094024
0.749897 0.551550 0.095073
0.761992 0.563526 0.096369
0.768376 0.573539 0.098902
0.774759 0.583551 0.101434
0.781143 0.593564 0.103967
0.787527 0.603576 0.106499
0.793911 0.613589 0.109031
0.136146 0.163346 0.136303
0.182265 0.186466 0.129925
0.228385 0.209586 0.123548
0.274504 0.232706 0.117170
0.320624 0.255826 0.110792
0.366743 0.278946 0.104415
0.399579 0.298989 0.101775
0.429758 0.318416 0.099883
0.459938 0.337844 0.097991
0.490117 0.357271 0.096099
0.520296 0.376698 0.094207
0.543358 0.393036 0.093414
0.562861 0.407830 0.093172
0.582365 0.422624 0.092930
0.601868 0.437418 0.092687
0.621372 0.452212 0.092445
0.637748 0.464778 0.092310
0.650998 0.475117 0.092282
0.664247 0.485455 0.092255
0.677496 0.495794 0.092227
0.690746 0.506133 0.092200
0.703820 0.517066 0.092492
0.716545 0.529189 0.093422
0.729270 0.541311 0.094352
0.741995 0.553434 0.095282
0.754720 0.565557 0.096212
0.766302 0.577257 0.097397
0.772174 0.586849 0.099856
0.778045 0.596441 0.102315
0.783917 0.606032 0.104775
0.789788 0.615624 0.107234
0.795660 0.625216 0.109693
0.155319 0.177557 0.140478
0.201954 0.201168 0.133847
0.248589 0.224779 0.127217
0.295224 0.248390 0.120586
0.341859 0.272001 0.113955
0.388494 0.295612 0.107324
0.421293 0.315991 0.104513
0.451326 0.335723 0.102465
0.481359 0.355455 0.100418
0.511392 0.375187 0.098370
0.541425 0.394919 0.096322
0.564088 0.411428 0.095474
0.583067 0.426326 0.095226
0.602046 0.441223 0.094977
0.621025 0.456121 0.094729
0.640004 0.471018 0.094480
0.655175 0.483315 0.094319
0.666537 0.493010 0.094246
0.677898 0.502705 0.094173
0.689260 0.512401 0.094100
0.700622 0.522096 0.094026
0.712128 0.532380 0.094245
0.723923 0.543841 0.095047
0.735718 0.555302 0.095849
0.747512 0.566763 0.096651
0.759307 0.578223 0.097453
0.770032 0.589293 0.098509
0.775410 0.598402 0.100834
0.780787 0.607512 0.103159
0.786165 0.616622 0.105484
0.791542 0.625732 0.107809
0.796920 0.634842 0.110134
0.186845 0.197408 0.142132
0.232299 0.220955 0.135602
0.277754 0.244502 0.129072
0.323209 0.268049 0.122542
0.368664 0.291596 0.116012
0.414119 0.315143 0.109482
0.445944 0.335450 0.106649
0.475044 0.355109 0.104556
0.504144 0.374768 0.102462
0.533243 0.394427 0.100369
0.562343 0.414086 0.098275
0.584086 0.430400 0.097388
0.602150 0.445041 0.097103
0.620214 0.459682 0.096817
0.638278 0.474324 0.096532
0.656343 0.488965 0.096247
0.670658 0.501001 0.096100
0.681224 0.510431 0.096091
0.691790 0.519861 0.096082
0.702355 0.529291 0.096073
0.712921 0.538721 0.096063
0.723308 0.548331 0.096276
0.733338 0.558301 0.096931
0.743367 0.568270 0.097587
0.753396 0.578240 0.098243
0.763425 0.588210 0.098898
0.772603 0.597936 0.099789
0.777523 0.606442 0.101858
0.782443 0.614948 0.103927
0.787363 0.623454 0.105996
0.792283 0.631960 0.108065
0.797204 0.640466 0.110134
0.218370 0.217259 0.143787
0.262645 0.240742 0.137357
0.306920 0.264225 0.130928
0.351194 0.287708 0.124498
0.395469 0.311191 0.118069
0.439744 0.334674 0.111639
0.470595 0.354909 0.108785
0.498762 0.374495 0.106646
0.526928 0.394081 0.104507
0.555095 0.413667 0.102368
0.583261 0.433252 0.100229
0.604083 0.449371 0.099301
0.621233 0.463756 0.098979
0.638382 0.478142 0.098658
0.655532 0.492527 0.098336
0.672681 0.506912 0.098014
0.686141 0.518687 0.097881
0.695911 0.527852 0.097936
0.705681 0.537016 0.097991
0.715451 0.546181 0.098046
0.725221 0.555346 0.098100
0.734489 0.564282 0.098307
0.742752 0.572761 0.098816
0.751016 0.581239 0.099325
0.759280 0.589718 0.099834
0.767543 0.598197 0.100344
0.775174 0.606579 0.101070
0.779636 0.614482 0.102883
0.784099 0.622384 0.104696
0.788562 0.630286 0.106509
0.793024 0.638188 0.108321
0.797487 0.646091 0.110134
0.249896 0.237111 0.145441
0.292990 0.260529 0.139112
0.336085 0.283948 0.132783
0.379179 0.307367 0.126454
0.422274 0.330786 0.120125
0.465369 0.354205 0.113797
0.495246 0.374368 0.110921
0.522479 0.393881 0.108736
0.549713 0.413394 0.106551
0.576946 0.432906 0.104367
0.604180 0.452419 0.102182
0.624081 0.468343 0.101215
0.640315 0.482472 0.100856
0.656550 0.496601 0.100498
0.672785 0.510730 0.100140
0.689019 0.524859 0.099781
0.701624 0.536373 0.099662
0.710598 0.545272 0.099781
0.719572 0.554172 0.099899
0.728546 0.563071 0.100018
0.737520 0.571971 0.100137
0.745669 0.580233 0.100338
0.752167 0.587221 0.100700
0.758665 0.594208 0.101063
0.765163 0.601196 0.101426
0.771662 0.608183 0.101789
0.777744 0.615222 0.102351
0.781750 0.622521 0.103908
0.785755 0.629820 0.105464
0.789760 0.637118 0.107021
0.793765 0.644417 0.108578
0.797771 0.651715 0.110134
0.281421 0.256962 0.147095
0.323336 0.280316 0.140867
0.365250 0.303671 0.134639
0.407165 0.327026 0.128410
0.449079 0.350381 0.122182
0.490994 0.373736 0.115954
0.519896 0.393828 0.113057
0.546197 0.413267 0.110827
0.572497 0.432707 0.108596
0.598798 0.452146 0.106365
0.625098 0.471585 0.104135
0.644078 0.487314 0.103128
0.659398 0.501187 0.102733
0.674718 0.515060 0.102338
0.690038 0.528933 0.101943
0.705358 0.542806 0.101548
0.717107 0.554059 0.101442
0.725285 0.562693 0.101625
0.733463 0.571327 0.101808
0.741641 0.579962 0.101991
0.749820 0.588596 0.102174
0.756849 0.596184 0.102368
0.761582 0.601680 0.102585
0.766315 0.607177 0.102801
0.771047 0.612673 0.103018
0.775780 0.618170 0.103234
0.780315 0.623866 0.103632
0.783863 0.630561 0.104932
0.787411 0.637255 0.106233
0.790958 0.643950 0.107533
0.794506 0.650645 0.108834
0.798054 0.657340 0.110134
0.319335 0.279310 0.146961
0.359249 0.302331 0.141032
0.399163 0.325352 0.135102
0.439078 0.348373 0.129173
0.478992 0.371394 0.123244
0.518906 0.394414 0.117314
0.546364 0.414245 0.114504
0.571330 0.433437 0.112318
0.596296 0.452630 0.110131
0.621263 0.471822 0.107945
0.646229 0.491015 0.105759
0.664049 0.506405 0.104764
0.678295 0.519893 0.104367
0.692542 0.533382 0.103969
0.706788 0.546871 0.103571
0.721035 0.560360 0.103173
0.731827 0.571233 0.103094
0.739165 0.579493 0.103335
0.746503 0.587752 0.103576
0.753842 0.596011 0.103817
0.761180 0.604270 0.104058
0.767130 0.611161 0.104251
0.770302 0.615315 0.104348
0.773475 0.619470 0.104446
0.776648 0.623625 0.104544
0.779821 0.627780 0.104641
0.782975 0.632242 0.104896
0.786033 0.638241 0.105939
0.789092 0.644241 0.106982
0.792150 0.650240 0.108025
0.795208 0.656240 0.109068
0.798267 0.662240 0.110111
0.389192 0.314144 0.137886
0.423005 0.335482 0.133247
0.456817 0.356819 0.128607
0.490630 0.378157 0.123968
0.524442 0.399495 0.119328
0.558254 0.420832 0.114689
0.581913 0.439452 0.112505
0.603540 0.457529 0.110813
0.625167 0.475605 0.109120
0.646795 0.493681 0.107428
0.668422 0.511758 0.105736
0.683885 0.526093 0.105016
0.696265 0.538557 0.104783
0.708645 0.551021 0.104549
0.721025 0.563485 0.104316
0.733406 0.575949 0.104083
0.742734 0.585849 0.104100
0.749011 0.593184 0.104369
0.755288 0.600519 0.104637
0.761566 0.607854 0.104905
