filters/luts/Sunshine 02.cube
# Created by: Adobe Photoshop Export Color Lookup Plugin
# LUT by SparkleStock. Enhanced with VOXCOLOR algorithms.
LUT_3D_SIZE 32
0.019536 0.015629 0.019536
0.035795 0.019552 0.020009
0.052054 0.023475 0.020481
0.068313 0.027398 0.020954
0.084572 0.031321 0.021427
0.100831 0.035244 0.021899
0.123825 0.040624 0.022333
0.148167 0.046296 0.022758
0.172508 0.051967 0.023183
0.196849 0.057639 0.023609
0.221190 0.063311 0.024034
0.248840 0.070401 0.024585
0.278144 0.078199 0.025200
0.307448 0.085998 0.025814
0.336752 0.093797 0.026429
0.366056 0.101595 0.027043
0.395526 0.110906 0.027729
0.425161 0.121730 0.028485
0.454795 0.132553 0.029241
0.484430 0.143377 0.029997
0.514065 0.154201 0.030753
0.542203 0.166411 0.031462
0.567348 0.181394 0.032077
0.592493 0.196376 0.032691
0.617638 0.211359 0.033306
0.642782 0.226342 0.033920
0.666541 0.241971 0.034456
0.683367 0.260829 0.034598
0.700193 0.279688 0.034739
0.717019 0.298547 0.034881
0.733845 0.317405 0.035023
0.750672 0.336264 0.035165
0.022325 0.020922 0.022277
0.039663 0.025815 0.022402
0.057002 0.030708 0.022527
0.074340 0.035600 0.022652
0.091679 0.040493 0.022777
0.109017 0.045386 0.022902
0.133289 0.051332 0.023202
0.158947 0.057488 0.023535
0.184606 0.063645 0.023869
0.210265 0.069801 0.024203
0.235923 0.075958 0.024537
0.264195 0.083484 0.025022
0.293773 0.091694 0.025581
0.323352 0.099904 0.026141
0.352930 0.108115 0.026700
0.382509 0.116325 0.027260
0.411809 0.125920 0.027922
0.440831 0.136899 0.028688
0.469853 0.147878 0.029453
0.498875 0.158857 0.030218
0.527897 0.169836 0.030984
0.555273 0.182043 0.031732
0.579356 0.196706 0.032447
0.603440 0.211368 0.033162
0.627523 0.226031 0.033878
0.651607 0.240694 0.034593
0.674309 0.255909 0.035249
0.690101 0.273890 0.035610
0.705894 0.291870 0.035971
0.721686 0.309850 0.036333
0.737479 0.327831 0.036694
0.753271 0.345811 0.037055
0.025113 0.026216 0.025019
0.043531 0.032078 0.024796
0.061949 0.037941 0.024574
0.080367 0.043803 0.024351
0.098785 0.049665 0.024128
0.117203 0.055528 0.023906
0.142752 0.062039 0.024071
0.169728 0.068681 0.024313
0.196704 0.075322 0.024555
0.223680 0.081964 0.024798
0.250656 0.088605 0.025040
0.279550 0.096567 0.025458
0.309403 0.105189 0.025962
0.339256 0.113811 0.026467
0.369109 0.122433 0.026972
0.398961 0.131055 0.027476
0.428092 0.140933 0.028116
0.456501 0.152068 0.028890
0.484911 0.163202 0.029665
0.513320 0.174337 0.030439
0.541729 0.185471 0.031214
0.568342 0.197675 0.032002
0.591365 0.212018 0.032818
0.614387 0.226360 0.033634
0.637409 0.240703 0.034449
0.660432 0.255045 0.035265
0.682077 0.269848 0.036042
0.696836 0.286950 0.036622
0.711594 0.304052 0.037203
0.726353 0.321154 0.037784
0.741112 0.338256 0.038365
0.755871 0.355359 0.038946
0.027902 0.031510 0.027760
0.047399 0.038342 0.027190
0.066897 0.045174 0.026620
0.086394 0.052006 0.026049
0.105891 0.058838 0.025479
0.125389 0.065670 0.024909
0.152216 0.072747 0.024940
0.180509 0.079873 0.025091
0.208802 0.087000 0.025242
0.237096 0.094126 0.025393
0.265389 0.101252 0.025543
0.294905 0.109650 0.025894
0.325032 0.118684 0.026343
0.355159 0.127717 0.026793
0.385287 0.136751 0.027243
0.415414 0.145784 0.027693
0.444376 0.155946 0.028309
0.472172 0.167237 0.029093
0.499968 0.178527 0.029877
0.527764 0.189817 0.030660
0.555560 0.201107 0.031444
0.581412 0.213308 0.032272
0.603373 0.227330 0.033188
0.625334 0.241352 0.034105
0.647295 0.255375 0.035021
0.669257 0.269397 0.035937
0.689845 0.283786 0.036834
0.703570 0.300010 0.037635
0.717295 0.316234 0.038435
0.731020 0.332458 0.039236
0.744745 0.348682 0.040036
0.758470 0.364906 0.040837
0.030690 0.036803 0.030501
0.051267 0.044605 0.029584
0.071844 0.052407 0.028666
0.092421 0.060208 0.027748
0.112998 0.068010 0.026830
0.133575 0.075812 0.025912
0.161680 0.083455 0.025809
0.191290 0.091066 0.025868
0.220901 0.098677 0.025928
0.250511 0.106288 0.025987
0.280122 0.113899 0.026047
0.310260 0.122733 0.026330
0.340661 0.132178 0.026725
0.371063 0.141624 0.027119
0.401465 0.151069 0.027514
0.431867 0.160514 0.027909
0.460659 0.170960 0.028503
0.487842 0.182405 0.029296
0.515026 0.193851 0.030089
0.542209 0.205297 0.030882
0.569392 0.216742 0.031674
0.594481 0.228940 0.032542
0.615381 0.242642 0.033559
0.636281 0.256344 0.034576
0.657181 0.270047 0.035593
0.678081 0.283749 0.036610
0.697613 0.297725 0.037627
0.710305 0.313071 0.038647
0.722996 0.328416 0.039667
0.735687 0.343762 0.040687
0.748378 0.359108 0.041707
0.761070 0.374454 0.042727
0.033479 0.042097 0.033243
0.055135 0.050868 0.031977
0.076792 0.059640 0.030712
0.098448 0.068411 0.029446
0.120104 0.077183 0.028181
0.141761 0.085954 0.026915
0.171143 0.094162 0.026678
0.202071 0.102258 0.026646
0.232999 0.110354 0.026614
0.263927 0.118450 0.026582
0.294854 0.126546 0.026550
0.325614 0.135816 0.026766
0.356291 0.145673 0.027106
0.386967 0.155530 0.027446
0.417643 0.165387 0.027786
0.448319 0.175244 0.028126
0.476943 0.185973 0.028697
0.503513 0.197574 0.029499
0.530083 0.209175 0.030301
0.556654 0.220777 0.031103
0.583224 0.232378 0.031905
0.607550 0.244573 0.032812
0.627389 0.257954 0.033929
0.647228 0.271336 0.035047
0.667067 0.284718 0.036165
0.686906 0.298100 0.037282
0.705381 0.311663 0.038420
0.717039 0.326131 0.039660
0.728697 0.340598 0.040899
0.740354 0.355066 0.042139
0.752012 0.369533 0.043378
0.763669 0.384001 0.044618
0.037252 0.048139 0.037323
0.060705 0.057842 0.035649
0.084157 0.067545 0.033975
0.107609 0.077248 0.032301
0.131062 0.086951 0.030627
0.154514 0.096654 0.028953
0.183750 0.105720 0.028507
0.214143 0.114659 0.028308
0.244535 0.123598 0.028108
0.274928 0.132537 0.027908
0.305321 0.141477 0.027708
0.336177 0.151302 0.027817
0.367265 0.161571 0.028079
0.398353 0.171839 0.028341
0.429440 0.182108 0.028603
0.460528 0.192376 0.028866
0.489154 0.203404 0.029399
0.515317 0.215191 0.030202
0.541480 0.226979 0.031006
0.567644 0.238766 0.031809
0.593807 0.250553 0.032613
0.617602 0.262826 0.033559
0.636662 0.276071 0.034793
0.655722 0.289316 0.036026
0.674782 0.302560 0.037260
0.693842 0.315805 0.038493
0.711565 0.329164 0.039767
0.722608 0.343097 0.041241
0.733651 0.357029 0.042715
0.744695 0.370962 0.044190
0.755738 0.384894 0.045664
0.766781 0.398826 0.047139
0.041223 0.054331 0.041672
0.066614 0.064958 0.039577
0.092006 0.075584 0.037482
0.117398 0.086211 0.035387
0.142790 0.096838 0.033292
0.168181 0.107465 0.031197
0.196986 0.117448 0.030529
0.226473 0.127302 0.030146
0.255960 0.137156 0.029764
0.285447 0.147010 0.029381
0.314934 0.156863 0.028998
0.345781 0.167268 0.028991
0.377308 0.177949 0.029171
0.408835 0.188629 0.029351
0.440362 0.199309 0.029530
0.471889 0.209989 0.029710
0.500551 0.221319 0.030202
0.526348 0.233298 0.031006
0.552145 0.245278 0.031809
0.577943 0.257257 0.032613
0.603740 0.269236 0.033416
0.627051 0.281604 0.034403
0.645388 0.294748 0.035755
0.663725 0.307892 0.037107
0.682062 0.321036 0.038460
0.700399 0.334180 0.039812
0.717432 0.347378 0.041224
0.727945 0.360844 0.042937
0.738457 0.374310 0.044649
0.748970 0.387776 0.046361
0.759482 0.401241 0.048073
0.769995 0.414707 0.049785
0.045193 0.060522 0.046020
0.072524 0.072073 0.043504
0.099855 0.083624 0.040989
0.127186 0.095175 0.038473
0.154517 0.106726 0.035957
0.181848 0.118277 0.033441
0.210221 0.129176 0.032551
0.238803 0.139944 0.031985
0.267384 0.150713 0.031419
0.295965 0.161482 0.030854
0.324547 0.172250 0.030288
0.355385 0.183235 0.030165
0.387351 0.194326 0.030262
0.419317 0.205418 0.030360
0.451283 0.216510 0.030457
0.483249 0.227602 0.030555
0.511948 0.239234 0.031006
0.537379 0.251405 0.031809
0.562810 0.263577 0.032613
0.588242 0.275748 0.033416
0.613673 0.287919 0.034220
0.636499 0.300382 0.035246
0.654113 0.313425 0.036717
0.671728 0.326469 0.038188
0.689342 0.339512 0.039660
0.706957 0.352556 0.041131
0.723299 0.365592 0.042682
0.733281 0.378591 0.044632
0.743263 0.391590 0.046582
0.753245 0.404589 0.048532
0.763227 0.417589 0.050482
0.773209 0.430588 0.052432
0.049163 0.066714 0.050368
0.078434 0.079189 0.047432
0.107704 0.091664 0.044495
0.136974 0.104138 0.041559
0.166245 0.116613 0.038622
0.195515 0.129088 0.035686
0.223457 0.140903 0.034573
0.251133 0.152587 0.033824
0.278808 0.164270 0.033075
0.306484 0.175954 0.032327
0.334160 0.187637 0.031578
0.364988 0.199201 0.031339
0.397394 0.210704 0.031354
0.429799 0.222208 0.031369
0.462204 0.233712 0.031384
0.494609 0.245215 0.031400
0.523345 0.257149 0.031809
0.548410 0.269512 0.032613
0.573475 0.281876 0.033416
0.598541 0.294239 0.034220
0.623606 0.306603 0.035023
0.645947 0.319159 0.036089
0.662839 0.332102 0.037679
0.679731 0.345045 0.039269
0.696622 0.357988 0.040859
0.713514 0.370931 0.042450
0.729166 0.383805 0.044140
0.738617 0.396338 0.046327
0.748069 0.408871 0.048515
0.757520 0.421403 0.050703
0.766971 0.433936 0.052891
0.776423 0.446469 0.055079
0.053133 0.072906 0.054717
0.084343 0.086304 0.051359
0.115553 0.099703 0.048002
0.146763 0.113102 0.044645
0.177973 0.126501 0.041287
0.209183 0.139899 0.037930
0.236693 0.152631 0.036594
0.263463 0.165229 0.035663
0.290233 0.177828 0.034731
0.317003 0.190426 0.033799
0.343773 0.203024 0.032868
0.374592 0.215167 0.032513
0.407437 0.227082 0.032446
0.440281 0.238998 0.032379
0.473125 0.250913 0.032311
0.505969 0.262828 0.032244
0.534741 0.275063 0.032613
0.559441 0.287619 0.033416
0.584140 0.300175 0.034220
0.608840 0.312730 0.035023
0.633540 0.325286 0.035827
0.655396 0.337937 0.036932
0.671565 0.350779 0.038641
0.687734 0.363622 0.040350
0.703903 0.376464 0.042059
0.720072 0.389306 0.043769
0.735033 0.402019 0.045597
0.743954 0.414085 0.048023
0.752874 0.426151 0.050449
0.761795 0.438217 0.052874
0.770716 0.450284 0.055300
0.779637 0.462350 0.057726
0.058805 0.080610 0.059916
0.092003 0.095024 0.056095
0.125201 0.109438 0.052274
0.158399 0.123852 0.048453
0.191597 0.138266 0.044632
0.224795 0.152681 0.040812
0.252685 0.166191 0.039261
0.279513 0.179521 0.038165
0.306341 0.192852 0.037069
0.333169 0.206182 0.035973
0.359997 0.219512 0.034876
0.389884 0.232035 0.034403
0.421301 0.244155 0.034242
0.452719 0.256274 0.034080
0.484136 0.268394 0.033918
0.515553 0.280513 0.033757
0.543489 0.292910 0.034050
0.567945 0.305585 0.034799
0.592401 0.318259 0.035548
0.616856 0.330934 0.036296
0.641312 0.343608 0.037045
0.662803 0.356297 0.038129
0.678365 0.369014 0.039884
0.693927 0.381731 0.041639
0.709490 0.394449 0.043393
0.725052 0.407166 0.045148
0.739438 0.419707 0.047040
0.747944 0.431368 0.049619
0.756450 0.443028 0.052197
0.764956 0.454689 0.054775
0.773462 0.466350 0.057353
0.781969 0.478010 0.059931
0.065328 0.089070 0.065540
0.100538 0.104545 0.061235
0.135749 0.120021 0.056929
0.170959 0.135496 0.052623
0.206170 0.150971 0.048318
0.241380 0.166447 0.044012
0.270055 0.180668 0.042251
0.297423 0.194639 0.040999
0.324791 0.208609 0.039748
0.352158 0.222580 0.038496
0.379526 0.236550 0.037244
0.408020 0.249354 0.036652
0.437077 0.261574 0.036390
0.466134 0.273794 0.036128
0.495191 0.286014 0.035865
0.524248 0.298234 0.035603
0.550913 0.310723 0.035805
0.575186 0.323480 0.036471
0.599458 0.336237 0.037138
0.623731 0.348993 0.037804
0.648004 0.361750 0.038470
0.669190 0.374448 0.039503
0.684203 0.387028 0.041267
0.699216 0.399608 0.043031
0.714230 0.412188 0.044795
0.729243 0.424768 0.046559
0.743113 0.437132 0.048477
0.751262 0.448418 0.051165
0.759411 0.459704 0.053853
0.767561 0.470989 0.056541
0.775710 0.482275 0.059229
0.783859 0.493560 0.061917
0.071850 0.097530 0.071165
0.109073 0.114067 0.066374
0.146296 0.130603 0.061584
0.183519 0.147140 0.056793
0.220743 0.163676 0.052003
0.257966 0.180213 0.047212
0.287426 0.195145 0.045241
0.315333 0.209756 0.043834
0.343241 0.224366 0.042427
0.371148 0.238977 0.041019
0.399055 0.253588 0.039612
0.426156 0.266672 0.038901
0.452853 0.278993 0.038538
0.479550 0.291314 0.038175
0.506246 0.303635 0.037812
0.532943 0.315955 0.037450
0.558337 0.328535 0.037560
0.582426 0.341375 0.038144
0.606516 0.354214 0.038728
0.630606 0.367053 0.039312
0.654695 0.379892 0.039896
0.675577 0.392599 0.040876
0.690041 0.405042 0.042649
0.704506 0.417485 0.044423
0.718970 0.429928 0.046196
0.733434 0.442370 0.047969
0.746787 0.454558 0.049913
0.754580 0.465468 0.052711
0.762372 0.476379 0.055508
0.770165 0.487289 0.058306
0.777957 0.498200 0.061104
0.785750 0.509110 0.063902
0.078373 0.105991 0.076789
0.117608 0.123588 0.071514
0.156844 0.141186 0.066238
0.196080 0.158784 0.060963
0.235315 0.176381 0.055688
0.274551 0.193979 0.050412
0.304796 0.209621 0.048231
0.333243 0.224873 0.046668
0.361691 0.240124 0.045105
0.390138 0.255375 0.043543
0.418585 0.270626 0.041980
0.444292 0.283991 0.041150
0.468628 0.296412 0.040686
0.492965 0.308834 0.040223
0.517302 0.321255 0.039759
0.541638 0.333677 0.039296
0.565760 0.346348 0.039315
0.589667 0.359270 0.039817
0.613574 0.372191 0.040318
0.637480 0.385113 0.040820
0.661387 0.398034 0.041321
0.681963 0.410750 0.042250
0.695879 0.423056 0.044032
0.709795 0.435362 0.045815
0.723710 0.447667 0.047597
0.737626 0.459973 0.049379
0.750461 0.471983 0.051349
0.757897 0.482519 0.054257
0.765333 0.493054 0.057164
0.772769 0.503589 0.060072
0.780205 0.514125 0.062979
0.787640 0.524660 0.065887
0.084895 0.114451 0.082414
0.126143 0.133110 0.076653
0.167392 0.151769 0.070893
0.208640 0.170428 0.065133
0.249888 0.189086 0.059373
0.291136 0.207745 0.053613
0.322167 0.224098 0.051221
0.351154 0.239990 0.049503
0.380140 0.255881 0.047784
0.409127 0.271773 0.046066
0.438114 0.287664 0.044348
0.462428 0.301310 0.043399
0.484404 0.313832 0.042835
0.506381 0.326354 0.042271
0.528357 0.338876 0.041706
0.550334 0.351398 0.041142
0.573184 0.364161 0.041070
0.596907 0.377165 0.041489
0.620631 0.390168 0.041908
0.644355 0.403172 0.042328
0.668079 0.416176 0.042747
0.688350 0.428902 0.043624
0.701717 0.441070 0.045415
0.715084 0.453238 0.047207
0.728450 0.465407 0.048998
0.741817 0.477575 0.050790
0.754136 0.489409 0.052785
0.761215 0.499569 0.055803
0.768294 0.509729 0.058820
0.775373 0.519890 0.061837
0.782452 0.530050 0.064855
0.789531 0.540210 0.067872
0.094915 0.125298 0.087849
0.137723 0.144840 0.081682
0.180531 0.164382 0.075515
0.223339 0.183923 0.069347
0.266147 0.203465 0.063180
0.308955 0.223006 0.057013
0.340505 0.239914 0.054416
0.369803 0.256295 0.052533
0.399100 0.272676 0.050650
0.428398 0.289057 0.048767
0.457696 0.305438 0.046884
0.481162 0.319323 0.045847
0.501711 0.331959 0.045232
0.522261 0.344596 0.044618
0.542810 0.357232 0.044003
0.563360 0.369868 0.043389
0.584842 0.382494 0.043243
0.607258 0.395109 0.043566
0.629673 0.407724 0.043890
0.652089 0.420339 0.044213
0.674504 0.432954 0.044536
0.693739 0.445346 0.045329
0.706612 0.457290 0.047061
0.719485 0.469234 0.048793
0.732357 0.481178 0.050525
0.745230 0.493123 0.052257
0.757075 0.504703 0.054205
0.763784 0.514466 0.057231
0.770492 0.524228 0.060258
0.777201 0.533990 0.063284
0.783909 0.543753 0.066311
0.790618 0.553515 0.069337
0.108433 0.138532 0.093095
0.152348 0.158778 0.086599
0.196263 0.179024 0.080102
0.240177 0.199270 0.073606
0.284092 0.219516 0.067109
0.328007 0.239762 0.060612
0.359810 0.257070 0.057816
0.389190 0.273789 0.055759
0.418570 0.290509 0.053702
0.447951 0.307228 0.051645
0.477331 0.323948 0.049589
0.500495 0.338030 0.048493
0.520550 0.350795 0.047879
0.540605 0.363559 0.047265
0.560661 0.376324 0.046650
0.580716 0.389088 0.046036
0.600735 0.401348 0.045835
0.620717 0.413103 0.046049
0.640700 0.424858 0.046262
0.660682 0.436614 0.046476
0.680664 0.448369 0.046689
0.698130 0.460083 0.047366
0.710564 0.471716 0.048970
0.722997 0.483350 0.050574
0.735431 0.494983 0.052178
0.747865 0.506616 0.053782
0.759280 0.517867 0.055608
0.765604 0.527209 0.058542
0.771929 0.536550 0.061477
0.778253 0.545892 0.064412
0.784577 0.555234 0.067347
0.790902 0.564575 0.070282
0.121950 0.151767 0.098342
0.166972 0.172717 0.091516
0.211994 0.193667 0.084690
0.257016 0.214618 0.077864
0.302038 0.235568 0.071038
0.347059 0.256519 0.064212
0.379115 0.274225 0.061216
0.408578 0.291283 0.058985
0.438040 0.308341 0.056755
0.467503 0.325399 0.054524
0.496966 0.342457 0.052293
0.519827 0.356738 0.051140
0.539389 0.369630 0.050526
0.558950 0.382523 0.049911
0.578512 0.395416 0.049297
0.598073 0.408308 0.048683
0.616628 0.420202 0.048427
0.634177 0.431097 0.048531
0.651726 0.441993 0.048634
0.669275 0.452888 0.048738
0.686824 0.463783 0.048842
0.702521 0.474821 0.049403
0.714516 0.486143 0.050879
0.726510 0.497465 0.052355
0.738505 0.508787 0.053831
0.750499 0.520109 0.055306
0.761485 0.531031 0.057010
0.767425 0.539952 0.059854
0.773365 0.548873 0.062697
0.779305 0.557794 0.065541
0.785245 0.566714 0.068384
0.791185 0.575635 0.071228
0.135468 0.165001 0.103588
0.181597 0.186655 0.096433
0.227725 0.208310 0.089278
0.273854 0.229965 0.082122
0.319983 0.251620 0.074967
0.366112 0.273275 0.067812
0.398420 0.291381 0.064616
0.427965 0.308777 0.062211
0.457510 0.326174 0.059807
0.487055 0.343570 0.057403
0.516600 0.360966 0.054998
0.539160 0.375446 0.053787
0.558228 0.388466 0.053173
0.577295 0.401487 0.052558
0.596362 0.414507 0.051944
0.615430 0.427528 0.051329
0.632521 0.439056 0.051019
0.647637 0.449091 0.051013
0.662752 0.459127 0.051007
0.677868 0.469162 0.051001
0.692983 0.479197 0.050995
0.706912 0.489558 0.051440
0.718468 0.500569 0.052788
0.730023 0.511580 0.054135
0.741578 0.522591 0.055483
0.753134 0.533602 0.056831
0.763689 0.544195 0.058413
0.769245 0.552695 0.061165
0.774801 0.561195 0.063917
0.780357 0.569695 0.066669
0.785913 0.578195 0.069421
0.791469 0.586695 0.072173
0.148986 0.178235 0.108835
0.196221 0.200594 0.101350
0.243457 0.222953 0.093865
0.290693 0.245312 0.086381
0.337928 0.267671 0.078896
0.385164 0.290031 0.071412
0.417726 0.308536 0.068016
0.447353 0.326271 0.065438
0.476980 0.344006 0.062859
0.506608 0.361741 0.060281
0.536235 0.379476 0.057703
0.558493 0.394153 0.056434
0.577066 0.407302 0.055819
0.595640 0.420451 0.055205
0.614213 0.433599 0.054591
0.632787 0.446748 0.053976
0.648414 0.457910 0.053611
0.661097 0.467085 0.053495
0.673779 0.476261 0.053379
0.686461 0.485436 0.053263
0.699143 0.494612 0.053147
0.711303 0.504295 0.053477
0.722420 0.514995 0.054697
0.733536 0.525696 0.055916
0.744652 0.536396 0.057136
0.755769 0.547096 0.058356
0.765894 0.557359 0.059816
0.771066 0.565438 0.062476
0.776237 0.573517 0.065137
0.781409 0.581597 0.067797
0.786581 0.589676 0.070458
0.791752 0.597755 0.073118
0.168364 0.194257 0.112757
0.215862 0.216992 0.105124
0.263360 0.239726 0.097490
0.310858 0.262460 0.089856
0.358356 0.285194 0.082222
0.405853 0.307929 0.074588
0.438220 0.326619 0.071075
0.467561 0.344500 0.068387
0.496902 0.362381 0.065699
0.526242 0.380262 0.063011
0.555583 0.398144 0.060323
0.577322 0.412844 0.059012
0.595262 0.425953 0.058388
0.613201 0.439062 0.057764
0.631140 0.452171 0.057141
0.649079 0.465280 0.056517
0.663440 0.476080 0.056119
0.674222 0.484573 0.055945
0.685005 0.493065 0.055771
0.695787 0.501558 0.055597
0.706570 0.510050 0.055423
0.717201 0.519057 0.055666
0.727531 0.529092 0.056743
0.737860 0.539127 0.057819
0.748190 0.549163 0.058895
0.758520 0.559198 0.059972
0.767923 0.568831 0.061288
0.772695 0.576453 0.063802
0.777467 0.584075 0.066316
0.782239 0.591696 0.068830
0.787012 0.599318 0.071345
0.791784 0.606940 0.073859
0.199464 0.215857 0.114034
0.245535 0.238308 0.106610
0.291606 0.260759 0.099186
0.337677 0.283209 0.091763
0.383747 0.305660 0.084339
0.429818 0.328111 0.076916
0.461093 0.346555 0.073454
0.489409 0.364199 0.070784
0.517725 0.381842 0.068114
0.546041 0.399485 0.065445
0.574357 0.417129 0.062775
0.595146 0.431499 0.061451
0.612170 0.444233 0.060800
0.629195 0.456967 0.060149
0.646219 0.469701 0.059498
0.663243 0.482435 0.058847
0.676730 0.492884 0.058457
0.686680 0.501047 0.058329
0.696630 0.509210 0.058201
0.706580 0.517373 0.058073
0.716530 0.525536 0.057945
0.726113 0.533866 0.058161
0.734960 0.542529 0.059063
0.743808 0.551192 0.059966
0.752656 0.559855 0.060868
0.761503 0.568518 0.061771
0.769600 0.576919 0.062899
0.773942 0.584011 0.065158
0.778284 0.591102 0.067416
0.782627 0.598193 0.069674
0.786969 0.605284 0.071932
0.791311 0.612375 0.074190
0.230564 0.237457 0.115310
0.275208 0.259624 0.108097
0.319852 0.281791 0.100883
0.364495 0.303958 0.093670
0.409139 0.326125 0.086457
0.453783 0.348293 0.079244
0.483966 0.366492 0.075832
0.511258 0.383897 0.073181
0.538549 0.401303 0.070529
0.565841 0.418708 0.067878
0.593132 0.436114 0.065227
0.612969 0.450155 0.063891
0.629079 0.462514 0.063212
0.645188 0.474873 0.062534
0.661298 0.487232 0.061855
0.677407 0.499591 0.061177
0.690021 0.509687 0.060796
0.699138 0.517521 0.060714
0.708256 0.525355 0.060632
0.717373 0.533188 0.060549
0.726491 0.541022 0.060467
0.735024 0.548675 0.060655
0.742390 0.555966 0.061384
0.749756 0.563257 0.062112
0.757121 0.570548 0.062841
0.764487 0.577839 0.063570
0.771277 0.585008 0.064511
0.775189 0.591568 0.066513
0.779102 0.598129 0.068515
0.783014 0.604690 0.070517
0.786926 0.611250 0.072519
0.790839 0.617811 0.074520
0.261665 0.259057 0.116586
0.304881 0.280941 0.109583
0.348098 0.302824 0.102580
0.391314 0.324708 0.095578
0.434531 0.346591 0.088575
0.477747 0.368475 0.081572
0.506839 0.386428 0.078211
0.533106 0.403596 0.075578
0.559373 0.420764 0.072944
0.585640 0.437931 0.070311
0.611907 0.455099 0.067678
0.630792 0.468811 0.066330
0.645987 0.480795 0.065624
0.661182 0.492779 0.064918
0.676377 0.504762 0.064212
0.691572 0.516746 0.063506
0.703311 0.526490 0.063135
0.711596 0.533995 0.063098
0.719881 0.541499 0.063062
0.728167 0.549004 0.063025
0.736452 0.556508 0.062989
0.743936 0.563484 0.063149
0.749820 0.569403 0.063704
0.755703 0.575321 0.064259
0.761587 0.581240 0.064814
0.767471 0.587159 0.065369
0.772954 0.593096 0.066123
0.776437 0.599126 0.067868
0.779919 0.605156 0.069614
0.783401 0.611186 0.071360
0.786884 0.617216 0.073106
0.790366 0.623246 0.074851
0.292765 0.280657 0.117862
0.334554 0.302257 0.111070
0.376344 0.323857 0.104277
0.418133 0.345457 0.097485
0.459923 0.367057 0.090693
0.501712 0.388657 0.083900
0.529712 0.406365 0.080589
0.554955 0.423295 0.077974
0.580197 0.440224 0.075360
0.605439 0.457154 0.072745
0.630682 0.474084 0.070130
0.648616 0.487467 0.068769
0.662896 0.499075 0.068036
0.677176 0.510684 0.067303
0.691456 0.522293 0.066569
0.705736 0.533902 0.065836
0.716602 0.543294 0.065474
0.724054 0.550469 0.065483
0.731507 0.557644 0.065492
0.738960 0.564819 0.065501
0.746412 0.571994 0.065510
0.752848 0.578293 0.065644
0.757249 0.582839 0.066025
0.761651 0.587386 0.066406
0.766053 0.591932 0.066787
0.770455 0.596479 0.067168
0.774631 0.601184 0.067734
0.777684 0.606684 0.069224
0.780736 0.612183 0.070713
0.783789 0.617683 0.072203
0.786841 0.623182 0.073693
0.789893 0.628682 0.075182
0.329844 0.304281 0.117358
0.369432 0.325325 0.110968
0.409019 0.346368 0.104578
0.448607 0.367412 0.098188
0.488195 0.388455 0.091798
0.527783 0.409498 0.085409
0.554259 0.426785 0.082251
0.578112 0.443320 0.079740
0.601966 0.459855 0.077229
0.625819 0.476390 0.074718
0.649672 0.492925 0.072207
0.666443 0.505862 0.070885
0.679673 0.517002 0.070157
0.692902 0.528141 0.069430
0.706132 0.539280 0.068703
0.719361 0.550419 0.067976
0.729277 0.559372 0.067636
0.735879 0.566138 0.067683
0.742480 0.572905 0.067730
0.749082 0.579671 0.067777
0.755684 0.586438 0.067825
0.761112 0.592058 0.067935
0.764194 0.595385 0.068171
0.767275 0.598711 0.068408
0.770356 0.602038 0.068644
0.773438 0.605365 0.068880
0.776441 0.608955 0.069286
0.779054 0.613858 0.070538
0.781667 0.618761 0.071789
0.784281 0.623665 0.073041
0.786894 0.628568 0.074293
0.789507 0.633471 0.075545
0.396818 0.338028 0.107952
0.430331 0.357151 0.102925
0.463845 0.376273 0.097899
0.497358 0.395395 0.092872
0.530872 0.414518 0.087845
0.564386 0.433640 0.082818
0.587173 0.449623 0.080330
0.607816 0.464978 0.078349
0.628458 0.480332 0.076369
0.649101 0.495687 0.074388
0.669743 0.511042 0.072408
0.684291 0.522959 0.071379
0.695791 0.533155 0.070825
0.707292 0.543352 0.070272
0.718792 0.553549 0.069718
0.730293 0.563746 0.069165
0.738873 0.571825 0.068912
0.744532 0.577787 0.068959
0.750192 0.583748 0.069006
0.755852 0.589710 0.069054
